P3
400 225
255
174 197 0
174 197 0
173 197 0
175 198 0
174 197 0
174 198 0
173 197 0
175 198 0
174 197 0
172 195 0
174 198 0
174 197 0
174 198 0
174 197 0
172 196 0
174 198 0
174 197 0
175 198 0
175 197 0
173 196 0
175 198 0
172 196 0
174 196 0
173 196 0
175 198 0
174 197 0
174 198 0
174 198 0
171 195 0
174 197 0
173 197 0
174 197 0
174 197 0
174 197 0
174 197 0
174 198 0
175 198 0
171 195 0
173 196 0
174 198 0
175 198 0
172 196 0
172 197 0
175 198 0
174 197 0
173 197 0
172 196 0
175 198 0
174 197 0
174 197 0
174 198 0
173 196 0
174 198 0
174 197 0
174 197 0
174 196 0
172 195 0
171 196 0
174 197 0
173 197 0
173 197 0
173 197 0
174 197 0
174 197 0
174 197 0
174 198 0
174 197 0
172 196 0
173 197 0
174 197 0
175 198 0
175 198 0
174 197 0
174 198 0
173 196 0
173 197 0
174 197 0
172 196 0
172 196 0
174 197 0
172 196 0
174 197 0
175 198 0
174 198 0
174 197 0
174 197 0
173 197 0
174 197 0
173 197 0
172 196 0
173 197 0
173 196 0
174 197 0
175 198 0
170 194 0
173 197 0
172 196 0
175 198 0
175 198 0
176 199 0
174 197 0
175 198 0
172 195 0
173 196 0
172 196 0
173 196 0
173 196 0
174 198 0
173 196 0
170 194 0
173 196 0
173 196 0
174 197 0
172 195 0
173 196 0
172 196 0
173 196 0
173 197 0
173 197 0
172 195 0
173 196 0
175 198 0
174 197 0
173 196 0
173 196 0
173 196 0
172 195 0
174 197 0
174 196 0
174 197 0
172 195 0
169 193 0
173 197 0
172 196 0
172 196 0
175 197 0
173 197 0
173 196 0
175 198 0
175 197 0
173 196 0
172 196 0
174 197 0
172 196 0
173 196 0
175 198 0
174 196 0
172 196 0
173 196 0
176 198 0
171 194 0
174 197 0
174 197 0
171 195 0
174 198 0
173 196 0
174 197 0
174 197 0
172 195 0
174 197 0
173 197 0
174 197 0
174 197 0
174 197 0
174 197 0
170 194 0
174 197 0
172 195 0
172 196 0
172 195 0
170 194 0
175 198 0
172 196 0
174 197 0
173 195 0
173 197 0
174 197 0
173 196 0
172 196 0
174 197 0
172 196 0
173 196 0
173 196 0
171 195 0
172 196 0
174 197 0
175 197 0
173 197 0
174 197 0
173 196 0
175 197 0
171 193 0
172 195 0
172 195 0
172 196 0
172 195 0
171 195 0
173 197 0
172 196 0
174 197 0
174 196 0
173 196 0
171 194 0
171 195 0
170 193 0
173 196 0
175 197 0
173 196 0
170 194 0
172 196 0
171 195 0
175 198 0
172 196 0
172 196 0
173 196 0
171 194 0
174 197 0
173 196 0
171 195 0
173 196 0
173 196 0
174 197 0
175 198 0
171 195 0
173 196 0
175 197 0
173 195 0
174 197 0
172 195 0
173 197 0
173 196 0
172 195 0
174 197 0
174 197 0
173 196 0
174 196 0
171 194 0
172 195 0
173 196 0
173 194 11
173 196 11
170 190 25
165 185 25
168 184 45
162 179 39
166 184 34
171 185 53
160 172 56
153 163 53
151 159 57
152 159 63
152 157 69
151 154 69
156 157 74
144 142 74
151 151 77
159 155 87
135 131 79
149 144 89
146 141 84
142 136 83
144 140 87
153 147 91
152 147 90
153 148 94
152 147 93
159 154 98
153 148 92
159 155 100
162 157 102
158 153 97
153 149 95
160 155 99
153 149 94
157 153 99
155 151 97
153 148 97
160 155 101
164 159 104
156 151 100
158 155 101
153 150 99
159 155 101
161 157 103
160 157 103
156 153 101
162 158 105
164 160 105
166 164 110
157 154 101
161 157 103
162 159 104
162 159 106
166 162 108
164 162 108
162 159 107
163 160 107
164 161 107
164 162 108
166 162 108
166 163 109
166 163 108
163 160 107
167 165 110
159 157 105
169 166 110
165 162 108
160 158 106
163 161 108
167 164 109
163 161 108
160 157 104
167 165 110
165 162 108
155 153 102
159 158 106
160 157 105
160 157 105
164 162 108
158 156 104
164 162 108
166 164 110
168 166 110
162 160 108
158 155 103
162 160 107
168 165 110
158 155 103
161 159 106
159 157 104
158 156 104
170 166 110
162 160 107
166 162 108
167 165 110
166 162 108
165 161 107
165 162 108
167 164 109
164 161 108
163 160 106
158 156 103
165 161 106
160 156 104
158 154 102
160 156 102
163 160 105
162 158 104
158 154 101
161 157 103
161 157 103
160 156 102
165 161 105
160 156 104
164 160 105
157 152 99
151 148 93
160 155 101
154 150 97
154 149 97
158 153 99
162 158 102
163 158 103
156 152 97
152 147 93
152 147 94
153 148 94
155 149 91
147 142 88
154 148 91
151 146 90
137 133 78
158 151 90
141 139 78
145 141 81
146 147 74
144 146 67
148 157 54
148 155 62
150 162 48
160 172 47
167 180 52
166 184 36
166 184 34
167 189 11
171 190 28
171 194 11
172 196 11
174 196 11
174 197 0
174 197 0
173 196 0
175 198 0
175 197 0
174 197 0
174 197 0
173 197 0
174 197 0
174 196 0
175 197 0
174 197 0
173 197 0
173 196 0
173 196 0
175 198 0
172 196 0
175 198 0
174 197 0
171 195 0
174 197 0
174 198 0
173 197 0
175 198 0
174 197 0
172 196 0
173 197 0
174 197 0
174 197 0
173 197 0
172 196 0
172 196 0
174 197 0
172 195 0
173 197 0
175 198 0
174 197 0
174 197 0
173 196 0
174 197 0
173 196 0
172 196 0
173 197 0
175 198 0
174 198 0
173 197 0
171 195 0
174 197 0
171 195 0
174 197 0
172 195 0
176 198 0
174 197 0
173 196 0
174 198 0
172 196 0
174 198 0
174 197 0
174 197 0
174 197 0
172 196 0
173 196 0
173 197 0
172 196 0
174 197 0
175 198 0
174 197 0
172 196 0
174 197 0
174 197 0
174 197 0
172 196 0
174 197 0
174 197 0
174 198 0
174 196 0
173 196 0
173 197 0
174 197 0
173 197 0
172 195 0
174 198 0
173 196 0
173 197 0
172 196 0
174 197 0
173 197 0
172 196 0
173 197 0
175 198 0
174 198 0
175 198 0
173 196 0
173 197 0
173 197 0
173 197 0
175 197 0
173 197 0
173 197 0
174 198 0
173 197 0
175 198 0
173 195 0
172 195 0
175 198 0
173 196 0
173 197 0
171 194 0
173 197 0
172 195 0
173 196 0
173 196 0
173 197 0
173 197 0
173 196 0
175 198 0
173 196 0
173 196 0
175 197 0
173 197 0
175 198 0
175 198 0
175 198 0
174 197 0
174 197 0
174 197 0
173 197 0
174 197 0
175 197 0
173 196 0
173 196 0
173 197 0
172 195 0
172 195 0
172 196 0
173 197 0
174 198 0
173 196 0
172 195 0
174 196 0
173 196 0
171 195 0
174 198 0
173 196 0
173 196 0
174 197 0
172 196 0
173 197 0
172 195 0
173 196 0
173 197 0
172 196 0
172 196 0
173 196 0
175 198 0
171 195 0
175 198 0
172 195 0
171 195 0
172 196 0
175 198 0
174 196 0
172 194 0
172 195 0
174 197 0
172 197 0
172 195 0
172 195 0
176 199 0
171 195 0
174 197 0
174 198 0
172 195 0
174 197 0
173 196 0
174 196 0
175 198 0
171 194 0
174 197 0
173 195 0
173 197 0
170 194 0
171 194 0
172 195 0
175 198 0
174 197 0
173 196 0
174 197 0
172 195 0
172 196 0
173 196 0
172 194 0
172 195 0
172 196 0
172 195 0
173 197 0
172 195 0
173 196 0
171 195 0
175 198 0
175 198 0
171 195 0
172 196 0
172 195 0
174 196 0
169 193 0
168 191 0
174 196 0
172 196 0
173 196 0
174 197 0
173 197 0
172 194 0
173 196 0
175 198 0
173 197 0
173 196 0
173 196 0
175 197 0
173 196 0
171 195 0
174 197 0
173 196 0
174 197 0
173 196 0
173 196 0
174 196 0
173 196 0
174 197 0
174 196 0
171 194 0
172 196 0
175 197 0
174 197 0
174 197 0
172 196 0
172 196 0
172 196 0
174 198 0
175 198 0
171 195 0
174 197 0
172 195 0
169 192 0
174 197 0
172 195 0
173 195 0
174 198 0
172 196 0
173 196 0
166 187 19
169 190 19
174 193 37
168 185 39
162 181 28
163 180 34
159 174 47
158 170 55
164 175 58
157 166 60
152 159 56
158 165 63
147 150 73
154 159 67
151 149 79
147 147 77
144 142 75
152 148 84
147 141 84
157 151 95
151 146 87
147 142 89
150 146 91
153 147 93
149 145 90
155 150 95
150 146 92
150 145 91
148 144 92
157 153 98
154 150 97
163 157 100
153 150 98
161 156 101
160 156 102
162 159 103
161 156 100
162 158 104
167 163 108
155 151 100
153 149 98
153 150 98
158 156 104
159 156 103
165 161 105
161 158 105
158 155 103
161 157 104
160 158 104
160 157 104
160 157 105
160 157 104
162 159 106
169 166 110
166 164 109
167 163 108
168 165 110
167 164 109
164 161 107
161 158 105
168 165 110
165 162 108
166 163 109
167 165 110
164 161 108
161 159 106
168 165 110
165 162 108
162 160 107
169 166 111
160 158 105
163 161 108
168 166 111
164 162 108
171 167 111
164 161 108
167 163 109
166 164 110
167 164 110
169 167 111
164 162 108
161 160 107
164 162 109
156 155 104
162 159 106
164 162 109
161 159 106
162 159 106
165 163 109
167 165 110
162 160 107
168 166 110
162 159 106
161 159 105
159 157 104
163 161 108
168 165 109
160 158 104
164 161 107
164 161 107
159 156 103
163 160 106
155 152 101
160 157 104
151 148 98
157 154 102
163 159 106
159 155 101
161 158 103
165 160 106
165 162 106
159 155 102
151 147 95
159 155 103
160 157 101
164 160 104
153 149 95
157 154 100
159 154 97
151 148 96
158 152 97
158 153 97
156 152 99
156 152 97
145 140 89
155 150 95
152 147 93
153 148 93
155 150 93
149 144 90
152 147 93
148 143 88
151 146 90
148 142 87
135 131 77
141 138 78
159 158 86
156 156 79
147 150 68
156 165 61
160 168 65
155 164 54
162 174 56
160 173 47
158 175 32
167 186 30
167 185 34
173 195 22
173 196 0
173 195 16
173 197 0
174 197 0
174 197 0
173 197 0
173 196 0
173 196 0
173 197 0
176 198 0
175 198 0
172 195 0
173 196 0
175 198 0
173 196 0
173 197 0
176 199 0
175 197 0
176 199 0
175 198 0
172 195 0
174 198 0
174 197 0
173 197 0
172 196 0
173 196 0
174 197 0
175 198 0
173 196 0
173 197 0
173 196 0
173 197 0
174 198 0
174 198 0
173 196 0
174 197 0
174 197 0
173 196 0
174 197 0
175 198 0
175 198 0
174 198 0
174 198 0
172 196 0
173 197 0
176 198 0
175 198 0
173 197 0
175 198 0
175 198 0
173 197 0
175 198 0
174 197 0
174 196 0
174 197 0
173 197 0
171 195 0
173 196 0
173 197 0
174 197 0
173 197 0
171 194 0
174 197 0
174 198 0
172 196 0
172 196 0
174 197 0
173 196 0
175 198 0
174 197 0
173 197 0
174 197 0
172 196 0
172 196 0
173 196 0
176 199 0
173 197 0
175 198 0
174 197 0
174 197 0
173 197 0
173 196 0
174 198 0
171 194 0
175 197 0
174 197 0
175 197 0
174 197 0
173 197 0
173 197 0
173 195 0
172 196 0
173 196 0
174 197 0
174 197 0
172 195 0
174 198 0
175 198 0
171 195 0
172 196 0
173 196 0
174 198 0
173 197 0
172 196 0
173 197 0
175 198 0
174 198 0
173 196 0
174 198 0
173 196 0
173 197 0
174 197 0
175 198 0
174 197 0
174 197 0
173 196 0
174 198 0
174 197 0
174 197 0
175 198 0
174 198 0
173 196 0
172 196 0
175 198 0
172 196 0
173 197 0
173 196 0
172 196 0
174 197 0
172 196 0
172 196 0
173 196 0
174 197 0
172 195 0
172 196 0
172 195 0
172 196 0
173 197 0
175 198 0
174 197 0
175 198 0
172 196 0
171 194 0
174 198 0
174 197 0
173 195 0
172 196 0
174 197 0
174 197 0
172 196 0
172 196 0
174 197 0
174 197 0
174 197 0
173 195 0
174 196 0
173 196 0
174 197 0
173 196 0
171 195 0
172 195 0
173 196 0
173 197 0
172 196 0
174 197 0
173 196 0
175 198 0
171 196 0
174 197 0
174 198 0
170 193 0
174 197 0
174 196 0
172 196 0
174 197 0
172 196 0
172 195 0
173 196 0
172 196 0
173 196 0
172 195 0
174 197 0
173 196 0
171 194 0
172 195 0
174 197 0
174 197 0
173 196 0
170 194 0
173 196 0
173 197 0
175 198 0
171 195 0
174 198 0
173 197 0
171 194 0
171 194 0
174 197 0
173 196 0
172 194 0
172 196 0
171 195 0
172 195 0
171 194 0
170 193 0
173 194 0
174 197 0
173 196 0
172 196 0
174 198 0
173 197 0
171 195 0
172 195 0
174 196 0
172 196 0
173 195 0
174 198 0
175 198 0
173 196 0
173 196 0
173 196 0
173 196 0
173 197 0
171 194 0
173 197 0
173 196 0
174 197 0
174 196 0
174 196 0
174 197 0
172 196 0
173 197 0
173 196 0
174 197 0
171 194 0
171 193 0
174 197 0
173 196 0
172 195 0
173 196 0
171 195 0
173 196 0
173 196 0
173 195 0
170 193 0
175 197 0
173 195 0
173 195 0
172 196 0
174 197 0
171 192 0
171 194 11
170 191 19
171 192 19
167 186 30
163 181 34
162 179 39
163 178 42
156 170 42
160 172 56
160 169 62
162 171 61
153 157 63
151 157 64
150 153 65
149 152 69
154 154 75
145 144 74
143 139 82
138 135 78
156 149 90
151 146 89
147 142 88
155 150 91
146 141 87
154 149 95
153 149 94
147 143 91
154 149 94
157 151 97
160 156 99
157 152 96
156 152 97
152 148 96
150 147 95
152 149 97
159 154 102
155 152 98
157 154 100
164 159 104
162 158 103
159 155 100
159 155 101
148 145 97
162 158 105
160 157 104
159 156 103
162 159 106
163 161 108
161 157 104
159 156 103
167 164 109
159 155 103
155 153 102
165 162 108
168 165 109
166 163 108
168 164 109
167 164 110
159 158 106
171 167 111
165 161 107
163 160 108
165 162 108
160 158 106
169 167 111
161 159 106
167 165 110
165 163 109
165 163 109
164 162 109
160 158 106
164 162 109
163 161 108
160 159 107
168 165 110
164 161 108
163 161 108
164 162 108
162 160 108
165 163 109
162 159 106
167 164 109
168 165 110
165 163 109
165 162 108
166 164 110
169 166 110
166 163 109
166 164 109
167 164 110
165 162 108
171 167 111
162 160 107
163 161 107
165 163 109
156 152 101
167 163 108
164 161 108
163 161 107
162 159 106
156 153 101
163 160 106
168 164 108
165 162 108
165 161 106
163 159 105
158 155 102
163 160 106
158 155 101
162 157 104
166 161 106
166 160 105
163 159 103
165 161 106
163 158 103
158 155 100
154 151 98
155 151 99
157 153 99
155 152 97
155 149 97
165 160 104
157 152 97
153 148 95
152 147 93
165 158 100
155 149 95
152 147 93
159 153 97
145 141 87
155 149 93
146 141 87
154 148 92
151 145 88
150 144 87
155 149 88
152 147 87
149 147 82
146 149 73
154 155 71
146 152 62
159 168 61
157 168 48
160 170 54
154 169 39
167 181 56
165 181 44
169 189 34
171 191 28
169 190 19
172 195 11
171 194 0
172 196 0
174 197 0
174 196 0
175 198 0
174 198 0
174 198 0
174 197 0
173 197 0
173 196 0
176 198 0
176 198 0
174 198 0
174 198 0
174 198 0
170 194 0
173 197 0
174 197 0
174 197 0
174 197 0
175 198 0
173 197 0
174 197 0
172 196 0
173 197 0
175 198 0
174 198 0
174 197 0
174 197 0
176 199 0
174 197 0
173 197 0
175 198 0
174 197 0
175 197 0
171 195 0
175 198 0
174 197 0
173 197 0
174 197 0
172 196 0
173 197 0
173 196 0
176 198 0
172 196 0
175 198 0
173 197 0
174 197 0
173 196 0
174 197 0
173 197 0
174 197 0
174 198 0
173 196 0
174 198 0
173 196 0
174 198 0
174 197 0
174 197 0
174 197 0
174 198 0
174 198 0
172 196 0
172 196 0
175 197 0
174 197 0
172 196 0
175 198 0
173 196 0
174 197 0
174 198 0
172 196 0
174 197 0
174 197 0
174 198 0
174 197 0
172 197 0
174 197 0
175 198 0
173 197 0
172 195 0
174 198 0
172 195 0
174 197 0
173 196 0
171 195 0
174 197 0
174 198 0
173 196 0
174 197 0
173 196 0
173 197 0
173 196 0
170 195 0
175 198 0
175 198 0
175 198 0
171 195 0
172 196 0
172 196 0
175 198 0
173 197 0
174 197 0
174 197 0
172 196 0
173 197 0
175 198 0
172 195 0
175 198 0
173 196 0
173 196 0
173 197 0
172 195 0
174 197 0
172 195 0
175 198 0
174 197 0
173 196 0
170 193 0
174 197 0
174 197 0
173 197 0
174 198 0
171 195 0
175 198 0
173 196 0
174 197 0
173 196 0
174 196 0
174 197 0
171 195 0
174 197 0
174 197 0
173 196 0
172 196 0
173 196 0
173 196 0
172 195 0
173 196 0
173 197 0
172 195 0
173 196 0
173 197 0
174 197 0
175 197 0
174 197 0
174 197 0
173 197 0
173 197 0
174 196 0
172 196 0
171 195 0
171 195 0
171 195 0
173 196 0
173 197 0
174 197 0
175 198 0
170 194 0
174 197 0
174 197 0
172 195 0
173 197 0
175 198 0
172 196 0
175 198 0
172 195 0
172 195 0
172 195 0
173 196 0
172 195 0
173 197 0
174 197 0
174 197 0
172 195 0
173 197 0
174 197 0
173 196 0
172 196 0
172 195 0
172 195 0
172 195 0
174 198 0
174 197 0
173 196 0
174 198 0
173 195 0
173 197 0
174 197 0
172 194 0
173 197 0
176 198 0
174 197 0
172 195 0
175 198 0
171 194 0
174 196 0
173 196 0
174 197 0
173 196 0
173 196 0
173 196 0
173 195 0
170 194 0
173 196 0
172 196 0
172 196 0
173 196 0
173 197 0
174 198 0
173 195 0
171 195 0
173 197 0
172 196 0
175 198 0
174 197 0
174 196 0
172 195 0
173 195 0
173 196 0
174 197 0
175 198 0
173 195 0
173 196 0
173 196 0
174 197 0
173 196 0
172 196 0
172 196 0
175 198 0
173 196 0
172 195 0
173 196 0
173 196 0
173 196 0
172 195 0
171 194 0
174 197 0
172 194 0
173 196 0
173 197 0
172 195 0
173 197 0
174 196 0
173 197 0
171 195 0
172 196 0
172 194 0
172 195 16
170 193 22
165 185 19
163 184 11
162 181 28
166 181 44
162 179 37
162 174 51
160 173 44
160 170 56
153 162 53
158 166 59
152 158 62
146 152 59
151 154 67
155 153 79
146 144 75
143 141 82
150 146 87
155 149 93
144 139 84
157 152 90
154 149 95
145 140 86
160 154 96
155 150 93
150 145 92
156 151 98
153 149 95
152 148 95
157 152 96
153 149 96
155 151 97
165 159 103
148 145 93
159 155 101
160 156 101
162 158 103
150 147 94
160 157 105
155 151 101
159 155 103
158 154 103
161 157 103
157 155 103
160 157 105
162 159 106
168 163 108
160 157 103
158 155 103
165 162 107
162 160 107
162 158 104
169 166 109
166 163 108
159 157 104
159 156 104
165 162 108
163 161 108
167 164 109
164 162 108
165 162 108
160 158 105
167 163 109
164 161 108
167 164 109
163 160 107
166 164 109
163 161 108
164 162 108
164 161 108
169 165 110
166 164 109
161 158 105
170 167 112
166 164 109
168 165 110
166 163 109
168 166 110
164 161 108
168 166 111
164 162 108
167 164 109
166 164 109
168 166 111
169 166 111
163 160 107
168 166 111
165 163 109
169 167 111
163 161 108
161 158 106
167 164 109
163 161 108
164 161 108
164 161 108
168 165 109
167 163 109
163 160 106
167 164 109
166 164 109
161 158 105
167 165 110
167 163 108
170 166 110
161 158 105
160 156 103
160 158 105
169 165 108
167 163 108
166 162 106
164 161 107
162 157 101
160 156 103
168 163 106
157 153 100
162 159 105
166 162 104
156 152 101
159 154 99
164 158 103
152 148 95
148 143 92
155 151 97
153 148 96
155 151 94
155 151 96
158 152 97
155 150 94
154 149 95
146 141 87
150 144 89
150 145 91
149 143 88
144 139 83
150 143 89
143 138 83
145 140 84
154 151 81
147 144 79
157 155 80
148 149 71
158 165 65
147 155 52
155 163 61
163 178 48
161 175 44
167 184 41
168 187 32
168 188 28
173 193 28
171 191 22
172 196 0
175 197 0
173 196 0
173 196 0
176 198 0
173 197 0
174 197 0
173 197 0
174 196 0
173 196 0
174 197 0
173 197 0
174 197 0
175 198 0
175 197 0
172 196 0
174 198 0
173 196 0
172 195 0
174 197 0
171 194 0
174 197 0
174 198 0
175 198 0
174 198 0
173 196 0
175 198 0
173 197 0
175 198 0
173 197 0
173 196 0
171 196 0
173 197 0
173 197 0
173 197 0
173 196 0
173 197 0
173 197 0
173 197 0
174 197 0
173 197 0
173 197 0
176 199 0
173 197 0
173 197 0
173 197 0
173 196 0
173 197 0
172 196 0
173 197 0
175 198 0
175 198 0
174 197 0
174 197 0
174 198 0
171 195 0
173 197 0
172 196 0
174 197 0
171 195 0
176 198 0
172 195 0
175 198 0
175 198 0
176 198 0
176 198 0
174 197 0
175 198 0
173 197 0
173 196 0
175 198 0
173 196 0
172 196 0
170 194 0
175 198 0
175 198 0
173 196 0
173 196 0
174 198 0
174 198 0
175 198 0
174 198 0
175 198 0
175 198 0
173 197 0
173 197 0
171 195 0
174 197 0
174 197 0
175 198 0
173 197 0
174 197 0
173 196 0
173 197 0
174 198 0
173 196 0
174 197 0
174 197 0
173 197 0
175 198 0
173 197 0
176 199 0
171 194 0
174 197 0
175 198 0
173 197 0
174 197 0
172 195 0
173 197 0
171 194 0
174 197 0
173 196 0
175 198 0
174 197 0
173 197 0
174 198 0
171 195 0
172 194 0
174 197 0
173 197 0
173 197 0
174 197 0
171 194 0
172 196 0
175 196 0
174 197 0
171 195 0
173 196 0
174 198 0
174 196 0
175 198 0
173 195 0
174 197 0
172 196 0
170 194 0
173 197 0
174 197 0
174 196 0
173 196 0
172 195 0
172 195 0
174 198 0
172 196 0
172 196 0
173 197 0
172 195 0
174 197 0
176 198 0
173 195 0
173 196 0
169 193 0
173 196 0
174 197 0
173 197 0
171 195 0
172 195 0
173 196 0
171 195 0
172 194 0
172 196 0
173 197 0
174 198 0
173 196 0
174 197 0
171 195 0
173 196 0
173 196 0
171 195 0
175 198 0
173 197 0
171 195 0
172 196 0
174 197 0
173 197 0
174 196 0
173 197 0
172 196 0
174 197 0
174 198 0
175 197 0
174 197 0
173 197 0
172 196 0
173 196 0
170 194 0
173 196 0
173 196 0
172 195 0
175 197 0
174 198 0
172 196 0
173 196 0
174 197 0
172 195 0
170 195 0
175 197 0
171 195 0
174 197 0
172 195 0
172 195 0
175 197 0
174 197 0
171 194 0
173 196 0
169 193 0
170 193 0
175 198 0
172 196 0
172 194 0
171 193 0
173 197 0
174 196 0
171 195 0
174 197 0
174 196 0
174 197 0
173 197 0
171 194 0
173 196 0
174 197 0
173 196 0
172 195 0
172 195 0
172 195 0
173 197 0
170 192 0
174 197 0
171 194 0
171 194 0
171 195 0
173 196 0
174 197 0
172 195 0
171 195 0
172 195 0
173 197 0
173 196 0
173 197 0
170 193 0
172 195 0
172 195 0
174 197 0
170 192 0
174 197 0
172 195 0
170 193 0
172 195 0
175 198 11
171 193 11
168 188 11
167 186 28
167 186 25
165 181 37
167 183 39
161 174 47
156 170 44
156 169 49
151 162 51
152 159 61
154 160 62
146 150 64
152 155 70
147 144 75
157 153 81
139 135 80
152 149 83
140 136 81
146 140 85
158 152 93
149 143 85
148 143 88
150 145 88
152 146 90
153 148 94
150 145 89
150 147 94
155 149 96
152 148 94
156 151 95
153 149 96
160 155 101
147 143 94
152 149 97
152 149 96
152 148 95
162 157 104
152 149 99
159 156 102
158 153 101
165 161 106
163 159 104
160 156 102
153 149 99
162 160 106
161 158 104
157 154 103
160 157 105
161 158 105
159 156 105
166 162 107
168 164 108
160 157 104
164 161 108
162 158 105
167 164 109
164 161 108
164 161 108
165 162 108
167 164 110
168 165 110
162 160 107
165 162 108
169 166 110
167 164 109
168 165 110
163 160 107
167 164 109
169 166 110
170 167 111
165 163 109
166 164 110
166 163 108
168 165 110
164 162 108
169 166 111
165 163 109
166 163 109
164 162 108
162 160 107
167 164 109
165 163 109
167 165 110
164 162 108
168 166 110
164 162 108
169 166 110
166 163 108
165 162 108
160 158 106
159 156 104
165 163 109
164 161 107
161 159 106
168 164 109
162 159 106
163 161 107
162 158 104
166 163 108
167 163 108
166 163 108
160 156 103
166 163 108
166 162 106
169 165 109
169 166 109
162 159 104
164 160 105
162 159 103
160 157 103
158 155 103
167 163 106
156 152 99
165 160 103
164 160 105
165 162 106
161 156 101
168 163 106
159 154 100
163 158 101
160 155 101
161 156 101
161 157 101
162 157 101
160 155 100
163 158 101
151 146 90
160 155 99
160 155 97
152 147 90
153 148 91
155 150 94
159 152 93
154 149 90
155 149 93
142 137 82
146 141 82
153 150 84
150 146 84
156 155 81
153 154 70
146 152 61
158 167 61
150 161 47
168 178 61
161 175 45
158 173 42
162 177 42
166 185 32
168 188 19
169 190 22
174 197 11
173 196 0
173 197 0
173 196 0
173 197 0
172 195 0
174 198 0
175 198 0
175 198 0
175 198 0
173 197 0
175 198 0
173 197 0
174 197 0
175 197 0
173 196 0
175 198 0
175 197 0
175 198 0
173 196 0
174 197 0
174 197 0
172 196 0
173 197 0
173 196 0
173 197 0
173 197 0
175 198 0
174 198 0
175 198 0
174 197 0
174 197 0
174 196 0
174 198 0
174 198 0
173 196 0
173 196 0
173 196 0
172 196 0
173 197 0
176 198 0
174 197 0
175 198 0
175 198 0
175 198 0
174 197 0
174 197 0
174 197 0
175 198 0
175 198 0
174 197 0
174 198 0
176 199 0
175 198 0
173 196 0
175 197 0
173 197 0
172 195 0
173 196 0
175 197 0
175 198 0
171 195 0
173 197 0
174 198 0
174 197 0
171 195 0
174 198 0
173 197 0
173 196 0
175 198 0
174 197 0
174 198 0
172 195 0
173 197 0
175 198 0
173 196 0
173 197 0
175 198 0
172 196 0
174 197 0
175 197 0
173 196 0
172 196 0
174 197 0
174 197 0
174 198 0
174 197 0
172 196 0
174 198 0
173 197 0
171 195 0
173 196 0
173 197 0
173 196 0
173 196 0
174 197 0
174 197 0
173 197 0
173 197 0
174 198 0
174 197 0
172 195 0
173 196 0
174 197 0
174 197 0
173 197 0
173 196 0
173 197 0
173 195 0
172 195 0
172 195 0
171 194 0
174 197 0
173 196 0
173 197 0
174 197 0
173 197 0
174 197 0
174 197 0
172 195 0
173 197 0
174 198 0
173 197 0
174 197 0
173 196 0
172 196 0
172 195 0
171 194 0
175 198 0
176 198 0
174 197 0
173 197 0
173 197 0
173 196 0
173 197 0
172 195 0
174 197 0
174 197 0
173 196 0
172 195 0
170 193 0
173 196 0
174 197 0
174 197 0
173 196 0
172 197 0
173 197 0
174 198 0
175 198 0
173 195 0
175 197 0
172 195 0
171 194 0
172 196 0
174 197 0
174 196 0
173 197 0
170 193 0
173 196 0
172 196 0
172 196 0
173 197 0
174 197 0
173 196 0
173 196 0
173 196 0
173 197 0
171 195 0
172 196 0
172 195 0
172 195 0
173 197 0
173 196 0
174 198 0
174 197 0
172 196 0
174 198 0
175 198 0
173 196 0
173 196 0
173 197 0
171 193 0
175 197 0
172 196 0
172 196 18
175 197 0
174 197 0
174 197 0
173 196 0
172 195 0
172 195 0
173 196 0
172 195 0
173 196 0
175 197 0
172 195 0
172 196 0
173 197 0
174 197 0
171 195 0
173 196 0
171 195 0
173 197 0
172 196 0
173 195 0
172 196 0
174 197 0
172 195 0
174 197 0
172 195 0
174 197 0
171 193 0
172 196 0
174 197 0
172 196 0
172 196 0
174 197 0
174 197 0
172 195 0
170 193 0
174 197 0
174 197 0
173 196 0
173 196 0
171 195 0
173 196 0
172 196 0
175 197 0
170 193 0
173 197 0
171 194 0
170 193 0
173 196 0
172 196 0
174 197 0
174 197 0
174 198 0
173 196 0
173 196 0
172 195 0
172 195 0
172 195 0
172 195 0
172 196 0
173 196 0
171 194 0
167 189 0
174 196 11
173 193 22
173 195 11
173 193 28
164 184 25
167 186 32
165 182 34
159 175 42
158 172 44
158 170 53
161 172 59
151 158 58
151 154 68
149 150 69
150 151 68
143 142 72
146 145 75
137 135 74
144 139 81
147 141 85
142 136 86
153 148 89
144 141 84
145 140 87
149 144 89
143 138 87
155 151 97
154 150 95
157 152 95
149 145 94
157 152 99
159 154 99
155 150 94
161 156 101
156 153 100
160 156 99
159 154 100
155 152 99
161 157 102
161 158 104
164 160 105
159 155 101
157 153 101
161 157 104
162 158 105
156 154 103
154 152 102
164 161 107
156 153 101
160 158 105
158 155 103
159 156 104
159 157 105
166 163 108
161 159 106
166 164 109
159 156 105
161 157 103
161 159 107
168 166 111
159 157 105
156 154 103
167 164 110
167 164 109
163 160 106
167 164 109
170 167 110
166 162 108
170 167 112
167 165 111
162 160 107
162 158 105
164 161 108
166 164 109
168 165 110
165 162 108
165 163 109
168 166 111
168 165 110
169 166 111
168 165 110
159 157 106
170 166 110
168 165 110
170 166 110
166 164 110
167 165 110
169 166 111
165 162 108
166 164 109
170 166 110
168 165 110
166 163 109
162 160 107
165 163 109
170 167 111
165 162 108
165 162 108
168 165 109
164 161 107
162 159 106
166 164 109
166 163 109
166 164 109
164 160 106
163 160 106
163 160 106
164 160 105
160 156 103
162 159 104
160 156 102
164 161 106
162 158 103
161 157 103
159 155 101
160 156 103
160 156 101
159 155 101
166 162 103
164 160 105
162 158 103
163 158 103
159 155 101
161 156 101
161 155 101
162 157 100
158 152 95
158 151 97
157 151 97
160 156 93
153 148 92
149 144 93
154 148 94
152 147 92
158 152 93
153 147 90
163 157 97
152 145 85
148 143 85
143 138 84
151 146 85
152 148 84
144 144 72
154 157 72
157 162 66
159 168 60
154 162 56
162 173 53
163 176 48
164 182 36
167 184 37
168 187 28
167 188 22
169 192 0
172 194 11
175 197 0
174 198 0
175 198 0
175 197 0
173 196 0
173 197 0
175 198 0
174 198 0
176 198 0
173 197 0
173 196 0
175 198 0
174 197 0
175 198 0
173 197 0
174 197 0
175 198 0
174 197 0
174 197 0
174 197 0
174 197 0
174 197 0
173 196 0
174 197 0
172 196 0
172 196 0
174 198 0
173 196 0
174 198 0
172 196 0
174 197 0
171 195 0
175 198 0
175 198 0
174 196 0
174 197 0
175 198 0
173 196 0
173 197 0
175 198 0
173 196 0
173 197 0
171 195 0
174 196 0
174 198 0
172 195 0
171 194 0
174 198 0
173 196 0
173 196 0
174 197 0
173 197 0
171 195 0
174 197 0
175 198 0
174 197 0
174 197 0
174 198 0
171 195 0
173 196 0
174 197 0
175 198 0
172 196 0
173 197 0
174 198 0
173 197 0
176 199 0
175 198 0
172 196 0
171 194 0
173 196 0
175 198 0
174 197 0
172 196 0
173 196 0
175 198 0
175 197 0
173 196 0
175 197 0
173 196 0
173 196 0
174 198 0
173 196 0
173 197 0
173 196 0
173 197 0
173 196 0
176 198 0
173 197 0
172 195 0
173 196 0
174 197 0
174 198 0
173 196 0
173 196 0
173 196 0
173 197 0
173 197 0
171 195 0
175 198 0
175 197 0
175 198 0
175 198 0
174 196 0
175 198 0
172 196 0
174 197 0
172 195 0
171 195 0
173 196 0
175 197 0
173 197 0
172 195 0
173 197 0
172 195 0
174 195 0
172 196 0
174 197 0
175 198 0
173 197 0
174 197 0
173 197 0
174 197 0
171 194 0
173 196 0
174 197 0
171 195 0
172 196 0
172 196 0
175 198 0
172 196 0
172 195 0
174 196 0
172 195 0
170 194 0
175 198 0
170 195 0
172 195 0
175 198 0
175 198 0
173 197 0
171 195 0
174 198 0
175 198 0
173 196 0
172 195 0
173 196 0
175 197 0
174 197 0
172 195 0
172 195 0
174 197 0
175 197 0
174 197 0
173 196 0
172 196 0
172 194 0
173 197 0
175 198 0
173 195 0
172 196 0
174 198 0
171 196 0
173 196 0
172 196 0
174 198 0
170 194 0
173 196 0
169 192 0
174 197 0
172 195 18
175 198 0
173 197 0
166 188 47
167 191 47
165 188 51
170 194 31
160 184 65
165 189 60
162 186 70
168 191 51
158 182 76
164 188 60
165 188 57
161 186 67
167 190 54
168 191 51
160 184 63
164 189 57
166 190 51
167 190 57
170 194 31
171 194 18
169 192 18
172 194 0
171 196 18
173 197 18
173 196 18
174 197 0
173 196 0
174 197 0
174 197 0
170 194 0
169 192 0
174 196 0
172 195 0
172 196 0
173 197 0
173 196 0
173 197 0
173 196 0
173 196 0
172 195 0
173 196 0
173 196 0
172 194 0
174 197 0
172 196 0
171 195 0
174 197 0
175 197 0
175 198 0
172 196 0
172 194 0
173 196 0
173 197 0
171 195 0
173 196 0
173 195 0
174 196 0
172 194 0
172 195 0
174 197 0
172 195 0
173 197 0
173 197 0
171 194 0
171 194 0
171 195 0
171 195 0
172 196 0
170 193 0
172 196 0
173 197 0
172 195 22
171 194 0
169 190 19
168 190 19
163 182 19
164 180 39
163 177 42
163 179 37
156 169 42
157 167 49
152 163 52
154 161 57
151 154 65
148 154 61
146 150 68
153 152 78
147 147 73
146 143 75
149 144 87
143 138 82
150 144 88
152 146 88
153 147 86
138 134 82
147 142 88
153 148 92
152 147 92
156 152 97
155 150 96
159 153 97
152 148 95
156 151 98
155 151 97
160 156 101
157 153 99
156 151 96
156 152 99
155 151 99
158 155 102
157 153 100
159 154 102
159 155 102
165 160 105
166 162 107
159 156 104
158 155 102
163 159 105
162 159 105
163 159 106
164 160 106
156 154 103
165 162 108
159 157 105
156 154 102
162 159 106
165 162 108
164 162 108
166 163 109
165 162 109
167 164 109
160 156 105
165 162 108
167 164 109
168 165 110
170 166 111
167 164 110
158 156 104
166 163 108
166 163 109
168 164 109
168 165 110
162 160 107
164 161 108
165 163 109
171 167 110
166 163 109
171 168 112
168 165 110
167 165 110
164 161 108
169 166 110
162 159 106
161 159 107
166 164 110
162 160 107
171 167 111
169 166 110
164 161 107
166 164 109
170 167 111
165 162 108
164 162 108
168 165 109
166 163 109
165 162 108
167 163 109
167 165 109
166 164 109
163 160 107
165 162 108
172 169 112
166 163 108
164 161 107
166 163 109
168 164 109
167 164 109
159 156 104
167 164 107
160 157 104
168 164 108
164 160 105
164 160 105
162 158 104
164 160 105
162 159 105
164 160 104
163 160 104
168 163 105
163 158 104
159 154 99
158 154 99
157 152 98
162 156 101
159 154 99
157 153 99
158 154 98
155 150 98
160 155 100
157 152 98
165 159 102
153 148 93
158 153 97
158 152 95
152 148 94
156 150 93
147 143 89
149 143 86
155 149 90
142 137 84
141 135 80
137 131 79
146 141 84
150 146 81
144 140 75
154 155 75
159 160 73
158 163 64
145 156 51
161 175 53
154 166 45
161 176 39
159 176 25
167 185 39
166 186 25
173 194 19
175 198 0
174 197 16
172 196 0
174 198 0
174 197 0
174 197 0
175 198 0
173 197 0
176 199 0
175 198 0
176 198 0
174 197 0
172 196 0
173 197 0
174 197 0
172 195 0
174 198 0
172 196 0
173 197 0
174 198 0
173 196 0
173 196 0
173 196 0
175 198 0
172 196 0
171 195 0
173 196 0
174 198 0
173 197 0
172 197 0
172 196 0
173 197 0
173 197 0
174 197 0
173 196 0
173 196 0
174 197 0
173 197 0
173 197 0
173 197 0
175 198 0
175 198 0
175 198 0
173 195 0
171 195 0
174 198 0
173 197 0
173 197 0
173 197 0
174 197 0
176 198 0
173 197 0
175 198 0
172 196 0
173 196 0
174 197 0
173 196 0
172 195 0
175 197 0
174 197 0
173 196 0
173 195 0
172 196 0
174 197 0
173 196 0
174 198 0
174 197 0
174 198 0
172 196 0
173 196 0
174 197 0
175 198 0
174 197 0
173 196 0
175 198 0
174 197 0
173 197 0
174 198 0
172 197 0
173 197 0
175 198 0
172 196 0
173 196 0
174 197 0
173 197 0
174 197 0
173 196 0
173 197 0
171 195 0
172 195 0
172 195 0
172 195 0
174 196 0
175 198 0
174 197 0
170 194 0
174 197 0
174 197 0
175 198 0
175 198 0
174 198 0
173 196 0
173 197 0
174 197 0
173 196 0
172 196 0
172 194 0
174 197 0
174 197 0
175 198 0
174 197 0
172 196 0
172 195 0
174 197 0
172 196 0
175 198 0
174 197 0
173 196 0
173 197 0
171 195 0
174 196 0
173 197 0
173 196 0
173 197 0
172 195 0
175 197 0
174 197 0
171 195 0
171 194 0
173 196 0
173 196 0
171 195 0
175 198 0
172 195 0
174 196 0
170 194 0
173 197 0
172 195 0
173 197 0
170 194 0
175 198 0
174 197 0
172 196 0
172 195 0
173 196 0
171 194 0
172 195 0
172 195 0
173 196 0
173 196 0
172 196 0
173 196 0
170 195 0
171 195 0
171 194 0
173 196 0
171 195 0
175 198 0
173 195 0
175 198 0
171 194 0
171 195 0
173 196 0
172 195 0
173 196 0
173 195 0
169 193 31
170 194 25
168 191 47
168 191 51
169 191 40
165 188 60
162 186 65
156 179 88
158 180 82
148 173 95
149 173 100
142 167 111
141 166 107
134 159 122
132 157 125
136 162 118
140 165 113
137 161 118
132 158 121
139 164 114
138 163 117
136 161 118
144 169 105
138 163 111
136 162 117
137 162 118
143 167 111
151 175 89
156 180 80
161 184 74
157 181 78
159 183 74
168 191 36
162 186 67
167 190 36
173 196 25
172 195 18
170 194 25
171 195 0
174 197 0
174 197 0
174 196 0
173 195 0
172 195 0
171 195 0
172 196 0
174 197 0
173 196 0
171 193 0
173 196 0
172 195 0
171 195 0
171 195 0
171 194 0
171 195 0
172 195 0
174 196 0
170 194 0
174 197 0
172 196 0
173 197 0
172 195 0
173 196 0
174 197 0
171 194 0
170 193 0
173 197 0
171 194 0
173 196 0
172 194 0
172 195 0
170 193 0
174 197 0
173 197 0
172 195 0
173 196 0
172 195 0
173 197 0
174 197 11
167 190 16
175 196 19
169 189 22
166 184 34
161 181 25
160 178 37
161 173 45
161 176 40
164 175 57
160 169 56
148 155 60
151 155 65
153 156 68
150 152 66
142 144 66
150 148 76
146 146 77
145 143 79
143 138 81
144 138 82
136 132 83
140 135 79
158 152 96
144 139 87
147 142 90
141 136 83
146 142 86
150 145 91
149 144 90
157 152 98
149 144 94
157 152 97
158 152 98
153 148 98
159 155 102
159 155 101
164 160 104
157 153 100
147 143 94
161 157 103
150 148 100
161 157 104
154 152 100
157 155 103
163 159 105
157 154 101
165 161 106
159 157 105
166 162 107
162 158 105
168 165 109
158 155 103
168 163 108
162 159 106
162 160 108
171 167 111
163 160 107
160 157 105
160 158 106
164 160 107
166 164 109
168 165 110
167 163 108
165 162 108
169 164 109
162 160 107
164 162 108
164 161 108
164 162 108
165 163 109
168 165 110
166 163 109
169 166 111
170 167 111
167 164 109
165 163 109
165 162 108
167 166 111
172 168 112
168 166 111
168 166 110
169 166 110
167 164 110
166 164 110
162 160 107
170 167 111
164 161 107
167 165 110
172 170 113
169 165 110
172 169 113
167 164 109
166 163 109
169 166 111
165 162 108
164 161 108
164 162 108
169 165 109
170 166 109
168 165 109
171 167 110
172 168 112
165 161 106
163 160 107
164 161 106
167 163 108
164 161 106
161 158 104
166 164 109
163 159 104
166 163 106
168 164 109
171 167 109
166 162 106
163 159 103
160 156 102
152 149 98
159 154 101
160 156 101
170 165 107
166 162 106
162 158 103
161 157 103
160 155 101
167 163 104
151 148 96
163 158 102
154 149 93
164 159 103
152 149 92
163 158 97
157 151 94
158 151 97
163 158 99
152 148 93
158 152 95
151 146 90
148 142 87
148 142 84
140 135 85
150 144 86
144 139 80
146 141 79
140 140 67
151 151 73
145 146 68
150 154 65
147 152 58
159 172 54
154 165 53
159 173 44
159 173 45
159 178 28
167 187 19
168 190 16
169 192 0
175 197 16
175 198 0
174 197 0
175 197 0
175 198 0
172 195 0
174 197 0
175 198 0
175 198 0
173 197 0
175 198 0
173 197 0
175 198 0
173 197 0
175 198 0
173 196 0
172 195 0
173 196 0
175 198 0
172 196 0
174 197 0
174 197 0
173 197 0
175 198 0
172 196 0
175 198 0
175 198 0
173 196 0
174 197 0
172 195 0
170 194 0
175 198 0
172 196 0
172 196 0
173 197 0
176 199 0
172 196 0
173 197 0
172 196 0
174 197 0
173 196 0
176 199 0
172 196 0
175 198 0
174 197 0
174 198 0
174 197 0
173 197 0
174 198 0
173 196 0
173 197 0
175 198 0
174 197 0
173 197 0
175 198 0
173 196 0
174 198 0
173 196 0
173 196 0
172 196 0
175 198 0
173 196 0
172 195 0
173 197 0
173 196 0
171 196 0
174 197 0
173 196 0
172 195 0
174 198 0
172 195 0
173 197 0
174 197 0
174 197 0
173 197 0
174 197 0
175 198 0
174 197 0
173 197 0
174 198 0
172 196 0
176 199 0
174 197 0
174 197 0
173 196 0
172 196 0
173 196 0
174 197 0
172 196 0
173 196 0
175 198 0
171 195 0
173 196 0
175 198 0
174 197 0
173 196 0
172 195 0
175 198 0
173 197 0
171 194 0
173 196 0
173 196 0
171 195 0
172 195 0
173 197 0
174 198 0
172 195 0
172 195 0
172 196 0
172 196 0
175 197 0
171 195 0
174 197 0
174 197 0
172 196 0
175 198 0
173 197 0
174 197 0
174 197 0
174 197 0
172 195 0
172 196 0
175 198 0
173 197 0
172 195 0
173 196 0
174 197 0
175 198 0
172 195 0
175 198 0
173 196 0
170 194 0
173 196 0
172 196 0
172 197 0
175 198 0
175 198 0
173 197 0
173 197 0
173 197 0
174 197 0
172 196 0
173 197 0
173 197 0
172 195 0
173 197 0
171 195 0
173 196 0
175 198 0
172 196 0
173 197 0
172 195 0
170 194 0
172 196 0
172 195 0
171 195 0
173 196 0
171 194 0
170 195 0
172 196 0
170 194 18
172 195 0
170 193 36
166 189 47
156 181 76
157 181 72
152 176 92
145 170 102
140 165 114
145 169 108
135 160 118
121 148 139
121 147 139
122 148 137
108 135 151
106 134 152
104 132 153
87 118 165
92 122 160
101 130 157
86 118 166
84 115 168
75 108 173
81 114 170
80 112 169
96 126 160
87 118 165
88 119 166
91 121 164
94 123 162
107 134 153
113 140 147
114 141 145
120 147 137
125 151 133
124 150 133
133 158 121
137 161 118
148 172 92
151 175 97
148 173 98
164 188 60
164 188 60
166 190 54
170 193 31
171 195 0
173 195 0
175 197 0
171 193 0
170 194 0
173 196 0
171 194 0
173 196 0
173 196 0
174 197 0
171 194 0
171 194 0
174 196 0
173 196 0
172 195 0
175 198 0
173 196 0
172 195 0
170 193 0
173 197 0
172 195 0
174 197 0
172 194 0
174 196 0
170 194 0
171 195 0
174 197 0
175 197 0
172 196 0
175 198 0
173 197 0
172 195 0
174 197 0
170 193 0
173 196 0
172 194 0
174 197 0
173 195 11
170 193 11
170 193 0
170 191 25
166 186 24
165 184 30
161 178 36
161 175 44
159 177 37
157 167 56
158 168 56
152 163 51
153 158 65
157 162 66
143 147 60
134 136 70
146 147 72
152 150 79
139 136 74
147 141 80
143 138 80
153 147 91
150 145 90
150 145 87
147 143 87
151 146 95
149 144 91
152 146 93
150 146 95
155 150 95
150 146 93
151 147 96
155 151 96
150 146 94
152 149 99
152 148 96
156 152 100
150 146 95
163 158 104
159 155 102
152 149 98
161 157 104
157 155 103
161 157 104
154 152 100
157 154 103
158 155 102
158 154 103
155 152 103
157 154 102
159 156 102
161 158 106
154 152 103
169 165 108
164 161 108
161 158 105
159 155 103
166 163 108
161 158 106
166 163 109
164 160 106
167 164 109
171 168 111
168 165 110
164 161 108
171 168 112
167 165 110
164 161 108
167 164 110
166 163 109
169 165 110
167 165 110
170 167 111
169 166 110
168 165 110
166 163 108
166 164 110
170 167 111
164 161 108
164 161 108
168 166 111
168 166 110
168 166 111
168 165 109
166 163 109
171 168 112
169 167 111
166 164 109
164 161 108
171 168 112
167 165 110
167 164 109
163 162 108
170 166 110
166 164 109
169 166 111
165 162 108
164 161 108
166 163 108
169 167 112
165 162 108
168 164 108
169 166 109
161 160 107
166 163 109
169 166 110
169 166 110
169 166 109
161 159 106
165 161 105
165 162 108
167 164 108
168 163 108
166 163 108
167 162 106
169 165 108
170 166 108
166 161 105
164 160 104
168 162 104
167 162 106
164 160 104
163 159 103
163 157 103
167 163 106
167 161 104
155 150 97
159 154 99
165 159 101
163 159 99
157 152 97
157 153 98
160 154 98
156 151 95
160 154 98
161 155 97
155 150 91
156 150 94
156 150 92
148 143 90
156 150 89
156 150 93
155 150 92
138 133 78
149 143 85
151 146 80
156 154 78
161 159 83
155 157 74
152 158 61
156 163 58
158 169 51
158 170 48
164 180 37
165 183 34
168 184 36
172 193 28
173 194 22
174 195 16
174 197 0
175 198 0
173 196 0
174 197 0
174 198 0
174 197 0
174 197 0
174 198 0
174 197 0
175 198 0
174 197 0
174 198 0
173 197 0
174 197 0
175 198 0
173 197 0
174 197 0
173 196 0
175 198 0
174 198 0
174 197 0
173 197 0
172 196 0
174 197 0
173 197 0
173 197 0
173 197 0
174 197 0
174 197 0
174 197 0
172 195 0
174 197 0
174 197 0
175 198 0
177 199 0
173 197 0
174 197 0
175 198 0
173 196 0
173 197 0
174 197 0
173 197 0
175 198 0
174 197 0
173 197 0
174 197 0
174 197 0
173 197 0
172 195 0
172 196 0
173 197 0
174 197 0
174 197 0
172 195 0
174 198 0
173 197 0
174 198 0
173 197 0
171 195 0
177 199 0
173 197 0
174 197 0
172 196 0
172 195 0
173 196 0
174 198 0
173 196 0
173 197 0
174 196 0
174 197 0
174 198 0
174 197 0
174 197 0
174 196 0
176 198 0
175 198 0
174 197 0
174 197 0
176 198 0
174 197 0
174 198 0
174 197 0
175 198 0
170 194 0
172 195 0
173 197 0
175 198 0
174 198 0
174 197 0
172 195 0
174 197 0
173 196 0
172 196 0
171 195 0
173 196 0
171 195 0
173 196 0
173 196 0
172 196 0
173 197 0
172 195 0
175 197 0
171 195 0
172 196 0
173 196 0
174 197 0
173 196 0
173 197 0
174 197 0
174 197 0
173 197 0
174 196 0
174 197 0
173 196 0
173 196 0
170 194 0
173 196 0
174 198 0
172 196 0
172 195 0
173 195 0
173 197 0
175 198 0
174 197 0
173 196 0
171 194 0
174 197 0
171 194 0
172 196 0
176 198 0
172 195 0
171 195 0
171 194 0
173 196 0
173 196 0
175 198 0
172 195 0
175 197 0
172 195 0
172 195 0
170 194 0
172 195 0
175 198 0
175 198 0
173 197 0
172 196 0
172 196 0
172 196 0
173 197 0
171 195 0
173 196 0
175 198 0
173 196 0
173 196 0
173 197 0
172 195 0
172 195 18
169 193 40
165 188 54
155 178 86
154 178 88
145 170 105
138 163 115
133 158 126
125 151 135
124 150 136
91 122 164
97 126 160
85 116 167
81 113 171
72 107 176
65 101 178
64 100 180
62 99 180
62 99 181
61 98 180
62 99 181
61 98 181
61 98 181
62 99 181
62 99 181
62 99 180
62 99 181
62 99 181
61 99 181
61 98 180
62 99 181
61 99 181
66 101 178
61 98 180
62 99 179
68 103 177
73 108 175
72 106 175
81 113 169
89 119 166
94 124 162
97 126 158
108 135 149
119 147 135
129 155 127
139 164 117
151 176 95
151 175 94
161 185 70
164 187 57
165 188 60
172 195 25
172 196 25
176 198 0
172 195 0
173 195 0
172 196 0
173 196 0
173 196 0
172 194 0
173 196 0
175 197 0
172 195 0
172 195 0
174 196 0
173 196 0
172 196 0
171 195 0
171 194 0
173 195 0
173 196 0
173 195 0
170 194 0
171 194 0
172 195 0
172 196 0
173 196 0
174 196 0
172 195 0
174 197 0
172 196 0
174 196 0
173 197 0
172 195 0
173 196 0
171 194 0
171 193 16
171 192 22
168 189 16
163 181 34
164 183 34
164 180 37
157 170 44
164 179 39
152 165 44
154 163 54
159 167 59
153 160 60
149 153 64
155 158 72
151 151 77
147 146 72
147 144 80
144 140 80
148 142 82
150 146 89
137 133 79
155 149 91
156 150 89
149 144 86
147 143 89
157 153 98
150 146 92
155 151 96
155 150 97
151 146 92
153 149 96
155 151 95
159 154 102
143 141 92
151 148 97
155 151 97
152 149 98
155 150 97
157 153 101
161 157 104
153 149 98
153 150 100
157 153 102
160 158 104
162 159 104
162 159 106
167 163 107
157 154 103
164 161 106
164 161 106
155 153 103
166 162 108
162 160 108
158 156 104
162 160 108
162 159 106
166 164 110
163 160 107
165 161 107
167 164 109
162 160 108
169 166 111
164 161 108
169 166 111
160 159 107
168 165 110
166 163 109
160 158 106
167 166 111
169 167 112
167 165 110
168 166 111
167 164 110
167 164 108
170 167 112
167 165 110
164 162 108
168 166 111
170 168 112
170 168 112
171 167 111
168 165 110
170 168 112
165 163 109
167 165 109
169 167 111
167 164 109
170 166 110
165 163 109
166 163 108
166 164 110
169 166 110
167 164 109
170 166 110
171 168 111
169 166 110
167 165 110
165 162 108
167 163 108
166 164 109
168 164 108
172 168 111
167 164 109
170 167 110
167 163 108
163 160 106
165 162 108
165 161 106
172 168 111
164 159 102
159 155 101
164 160 104
169 164 106
165 162 106
164 160 106
173 168 110
161 157 104
159 155 100
168 165 108
162 158 101
153 150 97
167 162 106
162 158 103
162 156 101
159 154 101
163 159 103
160 156 99
161 155 97
159 155 97
155 151 96
161 156 99
161 156 97
155 150 93
157 152 93
156 151 95
156 151 91
154 148 94
156 151 95
149 144 84
156 151 92
158 152 93
162 155 95
144 138 82
144 139 82
143 139 76
151 148 81
145 145 71
145 149 65
146 150 67
157 165 63
156 166 53
167 178 51
152 167 44
161 176 45
160 177 32
169 189 16
170 190 30
171 192 25
175 197 11
174 196 0
171 195 0
175 198 0
174 197 0
175 198 0
174 197 0
174 197 0
172 196 0
173 197 0
173 197 0
174 198 0
174 197 0
174 197 0
174 198 0
176 198 0
173 197 0
175 198 0
174 197 0
173 197 0
174 197 0
174 197 0
174 197 0
175 198 0
171 194 0
173 197 0
173 197 0
173 197 0
174 197 0
173 197 0
173 196 0
174 197 0
172 195 0
175 198 0
175 198 0
174 197 0
174 198 0
173 197 0
172 196 0
174 197 0
172 195 0
172 195 0
174 198 0
173 197 0
172 196 0
174 197 0
173 197 0
173 197 0
172 196 0
173 197 0
175 198 0
175 197 0
173 197 0
174 196 0
174 197 0
172 196 0
174 197 0
173 197 0
174 197 0
172 196 0
172 196 0
173 197 0
174 197 0
173 196 0
173 197 0
172 196 0
175 198 0
172 195 0
174 197 0
170 193 0
173 197 0
174 197 0
175 198 0
172 196 0
173 197 0
172 196 0
171 195 0
175 197 0
171 194 0
172 195 0
174 198 0
172 197 0
173 197 0
171 194 0
173 196 0
173 197 0
172 196 0
174 197 0
169 192 0
172 196 0
173 196 0
173 197 0
172 196 0
173 196 0
174 197 0
174 198 0
172 195 0
173 196 0
172 196 0
175 198 0
170 193 0
175 198 0
174 197 0
173 196 0
173 197 0
172 196 0
172 196 0
175 197 0
173 196 0
172 196 0
172 196 0
172 196 0
171 195 0
174 197 0
173 196 0
171 195 0
174 197 0
171 196 0
170 193 0
172 196 0
174 197 0
170 194 0
175 198 0
172 197 0
174 196 0
172 195 0
174 197 0
173 196 0
172 196 0
173 196 0
173 197 0
174 197 0
171 195 0
174 197 0
172 195 0
175 197 0
170 193 0
172 196 0
173 197 0
171 195 0
174 198 0
172 195 0
175 198 0
172 195 0
172 196 0
174 197 0
173 196 0
173 196 0
173 196 0
174 197 0
170 193 0
174 197 0
171 195 0
174 198 0
169 192 40
166 190 51
152 176 94
154 178 86
141 166 107
140 165 111
120 147 139
112 140 147
97 127 160
88 119 166
71 105 177
62 99 181
63 100 180
62 99 181
61 98 181
61 98 181
61 98 181
62 99 181
62 99 181
62 99 181
62 99 181
61 99 181
61 98 181
61 99 181
62 99 181
62 99 180
61 99 181
62 99 181
61 98 181
62 99 180
62 99 181
61 99 181
62 99 181
61 99 181
62 99 181
62 99 181
62 99 181
62 99 181
62 99 181
62 99 181
61 99 180
62 99 180
62 99 180
61 98 179
74 107 173
66 101 178
84 116 168
93 122 162
108 136 150
108 136 149
121 147 136
135 160 118
140 166 110
155 178 87
160 183 76
163 186 62
166 190 41
172 195 25
174 196 0
172 194 0
173 197 0
172 196 0
174 197 0
175 198 0
172 196 0
175 198 0
173 197 0
174 197 0
173 197 0
172 196 0
173 196 0
171 195 0
173 195 0
173 196 0
173 197 0
172 195 0
172 196 0
173 195 0
171 194 0
173 195 0
173 196 0
173 196 0
172 195 0
172 196 0
172 194 0
171 193 0
174 196 11
172 194 0
169 190 19
167 188 16
165 184 32
160 178 28
163 179 36
161 178 34
152 166 37
153 165 48
156 169 45
146 152 56
157 162 71
145 149 64
152 157 66
142 145 63
141 141 70
147 145 77
144 141 77
139 134 79
146 141 85
139 135 84
141 137 80
145 141 86
148 143 87
145 143 93
154 149 93
155 150 95
154 149 92
148 143 92
150 146 93
154 150 97
148 143 91
148 144 92
158 152 96
159 154 101
147 144 95
159 154 101
153 150 99
155 151 98
158 154 100
158 154 100
146 143 96
161 158 104
157 154 103
158 155 102
159 156 103
159 156 103
164 160 106
159 155 102
160 158 106
161 157 105
159 156 105
161 158 104
161 158 106
164 160 107
163 160 106
159 157 104
166 162 108
156 154 103
164 161 107
163 161 108
168 165 110
161 159 107
165 162 108
166 163 109
166 163 109
168 165 110
165 163 109
166 164 110
164 162 108
162 159 106
163 161 108
166 164 109
166 163 109
169 165 110
168 165 110
168 166 111
171 168 112
165 163 109
169 166 110
166 164 110
167 165 111
166 164 110
167 165 111
167 164 110
173 169 113
166 164 109
169 166 110
170 166 110
171 167 110
168 166 111
169 166 111
170 167 112
172 169 112
163 161 108
167 164 110
168 165 110
170 167 111
168 164 109
166 163 108
170 167 111
166 163 108
168 165 110
168 164 109
167 164 109
165 161 106
167 164 109
166 163 107
168 165 109
170 166 109
165 161 103
166 162 108
169 165 109
167 164 108
167 163 108
166 162 106
165 161 105
164 160 105
163 159 104
163 159 103
165 160 103
165 162 106
162 158 102
163 160 103
160 156 101
156 152 99
153 149 95
162 157 102
161 155 99
153 149 94
155 150 93
157 151 97
156 150 95
160 154 97
162 157 100
159 153 93
152 147 92
164 158 99
162 156 95
151 146 87
144 140 84
155 149 90
156 151 94
150 146 88
153 147 88
135 130 80
148 143 83
140 139 69
153 153 75
140 141 58
146 148 71
155 160 63
162 174 48
165 182 42
166 177 56
163 178 39
166 183 37
169 190 22
169 189 19
169 192 0
174 196 0
174 197 0
173 197 0
174 198 0
172 196 0
173 197 0
173 197 0
174 197 0
172 195 0
175 198 0
174 198 0
174 197 0
173 197 0
175 198 0
175 198 0
174 197 0
174 198 0
174 197 0
174 197 0
173 197 0
173 197 0
174 198 0
175 198 0
173 196 0
173 197 0
174 197 0
174 197 0
174 198 0
175 198 0
173 196 0
174 198 0
173 197 0
175 198 0
173 196 0
173 197 0
172 196 0
175 198 0
173 196 0
172 196 0
172 196 0
175 197 0
171 194 0
173 197 0
174 197 0
173 196 0
172 195 0
173 197 0
174 197 0
173 197 0
173 197 0
174 198 0
172 195 0
173 197 0
174 197 0
172 196 0
174 197 0
175 198 0
175 198 0
175 198 0
175 197 0
171 195 0
172 196 0
173 197 0
173 197 0
172 195 0
174 197 0
174 197 0
175 198 0
171 195 0
172 196 0
173 197 0
173 197 0
174 197 0
174 198 0
173 196 0
174 197 0
172 195 0
171 195 0
171 195 0
169 193 0
174 197 0
175 198 0
172 196 0
174 197 0
173 196 0
173 197 0
173 196 0
175 198 0
174 197 0
172 196 0
173 197 0
172 195 0
174 197 0
174 197 0
169 193 0
172 196 0
172 196 0
173 196 0
174 197 0
174 197 0
173 197 0
172 196 0
174 197 0
174 198 0
173 196 0
172 195 0
174 197 0
174 197 0
173 195 0
172 196 0
174 196 0
172 195 0
173 196 0
173 196 0
171 195 0
174 198 0
174 197 0
171 195 0
172 195 0
171 194 0
173 197 0
173 196 0
170 194 0
173 196 0
172 196 0
174 197 0
176 198 0
172 195 0
171 194 0
172 195 0
172 196 0
173 197 0
173 196 0
175 198 0
172 196 0
172 196 0
173 197 0
172 195 0
175 198 0
173 197 0
174 197 0
171 194 0
170 194 0
174 197 0
172 195 0
173 196 0
172 195 0
171 195 0
174 197 0
174 197 18
167 191 51
163 186 62
161 184 72
147 171 100
137 162 120
126 151 135
108 136 150
98 127 158
77 111 171
67 102 177
64 101 180
61 99 180
61 99 181
61 99 181
62 99 181
62 99 181
62 99 181
61 99 181
61 99 181
61 99 181
61 98 181
62 99 181
61 99 181
62 99 181
61 99 181
61 99 181
62 99 181
61 99 181
61 99 181
62 99 181
61 99 181
61 99 181
61 99 181
61 99 181
62 99 181
61 98 181
62 99 181
61 99 181
62 99 181
61 99 181
61 98 180
62 99 181
61 98 180
62 99 181
61 98 179
61 99 180
62 99 181
61 99 181
61 99 181
61 98 180
61 98 179
61 98 176
68 103 178
76 109 171
93 122 163
114 141 143
121 147 133
126 152 130
147 171 99
152 176 90
155 179 70
162 185 60
170 194 37
171 194 31
172 195 0
173 196 0
173 196 0
172 196 0
169 192 0
174 198 0
173 197 0
174 196 0
171 194 0
174 196 0
171 195 0
169 193 0
172 195 0
172 194 0
172 196 0
173 195 0
172 196 0
172 195 0
177 198 0
171 195 0
174 198 0
169 192 0
174 197 0
173 197 0
174 196 0
172 196 0
170 192 16
171 193 0
165 185 11
165 185 22
165 183 32
161 174 42
159 176 37
159 171 51
157 169 47
155 166 56
147 156 53
145 151 61
148 153 60
146 149 69
136 134 69
145 144 75
139 135 81
146 141 80
144 140 84
146 141 86
142 138 86
154 149 94
153 148 90
144 140 83
134 130 81
149 145 90
150 145 90
151 146 92
152 147 94
157 151 93
153 148 96
150 145 94
158 154 99
151 147 97
158 153 99
152 149 96
155 151 99
150 148 100
149 146 97
151 148 100
158 155 102
144 142 96
159 156 104
157 153 102
158 155 103
158 155 102
161 157 103
162 158 105
155 152 100
163 160 106
161 158 106
168 164 108
161 157 104
158 156 105
159 156 104
165 162 107
161 159 107
160 157 105
164 162 108
166 162 108
167 164 110
166 163 108
166 163 109
166 164 110
161 158 106
167 165 110
170 167 111
165 163 109
169 166 110
164 162 108
169 167 112
166 163 108
168 164 110
166 164 110
160 158 106
165 163 109
168 166 111
167 164 109
169 166 111
169 167 111
166 163 109
167 164 110
166 164 110
171 167 111
166 164 109
167 164 110
166 163 109
167 164 109
171 167 111
168 164 109
171 166 109
168 164 109
169 166 110
165 163 108
167 164 109
170 167 111
167 163 108
170 167 111
165 162 108
162 160 106
169 165 109
171 167 110
168 165 109
166 164 109
167 163 108
162 159 105
168 164 108
163 160 107
161 158 103
170 166 110
167 164 109
169 166 109
168 164 106
168 163 106
163 159 103
165 161 106
163 159 101
161 156 99
167 163 106
166 163 106
166 162 105
166 162 105
165 161 104
162 157 102
165 160 102
161 157 101
167 161 104
168 163 103
156 151 97
162 157 101
160 154 97
159 155 97
159 154 97
151 147 91
157 151 92
161 154 97
159 154 93
162 156 95
160 155 95
157 152 92
157 151 92
152 145 89
148 143 87
147 142 84
147 141 83
149 143 86
152 147 84
147 142 80
149 146 81
149 150 72
154 159 63
153 157 65
150 160 47
156 169 44
160 174 39
157 172 30
164 183 19
168 188 25
171 191 16
173 195 19
173 195 0
173 195 0
174 197 0
173 196 0
174 198 0
172 195 0
175 198 0
173 197 0
176 199 0
174 197 0
175 198 0
174 197 0
173 197 0
174 198 0
173 196 0
172 195 0
174 197 0
174 198 0
174 197 0
172 195 0
174 197 0
172 196 0
175 198 0
173 197 0
173 197 0
173 196 0
173 197 0
172 196 0
175 198 0
173 197 0
172 196 0
173 196 0
172 196 0
172 196 0
176 198 0
174 197 0
173 196 0
174 198 0
173 197 0
172 195 0
174 197 0
174 198 0
173 197 0
174 197 0
173 197 0
172 195 0
174 197 0
171 194 0
173 196 0
173 196 0
174 197 0
174 198 0
172 196 0
172 197 0
175 198 0
173 197 0
173 197 0
174 197 0
172 195 0
174 197 0
175 197 0
174 197 0
174 197 0
172 196 0
173 196 0
171 195 0
175 198 0
174 197 0
173 197 0
174 198 0
173 197 0
175 197 0
175 198 0
172 196 0
173 196 0
172 196 0
174 195 0
173 196 0
173 196 0
171 194 0
172 195 0
174 197 0
172 196 0
171 195 0
173 196 0
174 196 0
173 196 0
174 198 0
173 197 0
172 196 0
173 196 0
173 196 0
175 198 0
175 198 0
173 196 0
173 196 0
173 197 0
172 196 0
173 197 0
174 197 0
171 195 0
173 196 0
173 196 0
173 197 0
173 196 0
172 196 0
172 195 0
172 195 0
173 197 0
173 196 0
173 196 0
172 195 0
173 196 0
175 198 0
175 198 0
173 196 0
174 197 0
172 195 0
173 197 0
171 196 0
174 197 0
173 195 0
173 196 0
170 194 0
173 197 0
175 197 0
170 194 0
172 195 0
173 197 0
172 196 0
174 197 0
173 197 0
173 196 0
173 196 0
173 196 0
171 195 0
172 195 0
174 197 0
172 194 0
174 197 0
173 196 0
173 196 0
172 195 0
174 197 0
174 197 0
172 196 0
172 195 18
170 193 25
162 185 67
162 186 70
144 169 107
136 160 121
122 148 139
106 134 152
86 118 167
68 103 177
69 104 177
62 99 181
61 99 181
61 98 179
62 99 181
62 99 181
62 99 181
61 99 181
62 99 181
61 98 181
61 98 181
61 99 181
62 99 181
61 99 181
61 98 181
61 99 181
62 99 180
62 99 181
62 99 181
61 99 181
62 99 181
62 99 181
61 99 181
61 99 181
61 99 181
61 99 181
62 99 181
62 99 181
61 98 181
61 98 180
61 98 181
62 99 181
62 99 181
62 99 181
62 99 181
62 99 181
62 99 181
61 98 180
61 98 180
61 99 180
62 99 181
62 99 181
61 98 181
61 98 179
61 99 180
62 99 181
62 99 181
61 98 178
61 98 179
63 99 175
74 108 172
90 120 162
99 128 156
109 136 146
131 157 126
132 157 123
157 181 75
160 184 74
160 184 72
170 193 40
173 196 18
173 197 0
171 195 0
174 197 0
172 195 0
170 193 0
174 197 0
174 196 0
172 195 0
172 196 0
170 194 0
172 196 0
175 198 0
172 196 0
170 194 0
173 196 0
172 195 0
174 197 0
174 196 0
172 195 0
172 195 0
173 197 0
173 196 0
170 192 0
167 189 16
169 190 16
166 186 25
166 186 28
164 183 25
153 168 36
159 175 41
163 174 57
154 167 46
146 153 55
154 162 57
144 151 58
156 158 69
143 144 72
147 148 72
145 141 84
141 137 77
149 144 83
139 134 79
145 140 84
149 144 90
143 138 85
136 132 80
154 147 91
149 145 86
146 141 90
152 148 95
153 149 95
157 153 98
140 137 87
156 152 93
148 144 94
156 151 100
149 146 96
159 155 102
148 145 95
150 148 98
161 156 99
160 157 104
156 152 99
156 152 101
153 149 98
154 151 99
145 143 97
161 158 106
163 160 106
161 158 106
157 154 103
158 155 103
157 155 104
165 162 108
159 156 103
167 164 109
162 159 106
153 151 102
167 164 110
163 161 107
163 160 108
163 161 108
164 161 108
166 163 109
164 162 109
162 160 108
162 160 108
162 159 105
164 161 108
172 168 111
165 163 109
170 167 112
163 161 108
170 167 112
167 165 110
165 162 109
173 169 112
168 165 110
166 164 110
166 164 108
169 165 110
165 163 109
166 163 108
169 166 111
168 165 110
170 167 112
168 165 110
168 165 110
168 165 110
170 167 111
172 169 112
169 165 110
173 169 112
164 162 108
168 165 109
172 168 111
167 165 110
168 166 110
169 166 110
171 167 111
171 167 110
165 163 109
165 162 107
171 168 111
171 167 110
165 162 106
171 167 110
165 163 108
168 164 109
166 162 108
165 162 107
172 168 110
163 160 106
165 161 105
165 160 105
165 161 106
164 161 106
167 162 106
168 164 107
158 154 99
160 156 101
167 162 104
160 155 99
167 163 104
162 158 100
163 158 103
163 159 103
161 156 99
166 161 103
161 156 99
168 163 105
156 152 98
152 148 95
159 155 97
157 152 94
163 157 99
164 159 102
159 154 96
158 153 94
161 156 98
152 148 90
159 152 93
155 148 89
146 140 84
153 147 90
149 145 89
152 146 87
153 147 88
154 147 87
147 142 83
149 143 85
140 140 67
148 150 67
149 154 65
157 162 64
160 165 69
153 165 48
156 169 37
165 180 41
162 180 36
163 180 34
172 190 32
174 195 19
175 198 0
172 195 0
172 195 0
177 199 0
173 197 0
174 198 0
175 198 0
173 197 0
173 197 0
174 197 0
172 196 0
174 197 0
173 197 0
173 196 0
173 197 0
173 196 0
173 196 0
173 196 0
174 197 0
174 198 0
173 196 0
175 198 0
174 198 0
174 197 0
172 196 0
174 198 0
173 196 0
172 196 0
174 198 0
172 195 0
175 198 0
172 195 0
176 199 0
174 197 0
174 197 0
174 197 0
174 197 0
173 196 0
174 198 0
171 195 0
172 196 0
172 195 0
171 194 0
173 197 0
172 195 0
175 198 0
173 197 0
174 198 0
174 198 0
174 197 0
173 197 0
174 197 0
173 197 0
172 195 0
172 195 0
173 197 0
174 198 0
174 197 0
174 197 0
173 196 0
173 196 0
173 197 0
172 195 0
174 197 0
173 196 0
176 198 0
174 197 0
173 196 0
172 195 0
171 195 0
174 197 0
174 196 0
174 197 0
171 194 0
172 196 0
173 196 0
173 196 0
173 196 0
174 198 0
171 195 0
172 195 0
173 196 0
174 198 0
172 196 0
172 196 0
173 197 0
174 197 0
175 198 0
172 196 0
174 197 0
172 196 0
174 197 0
175 198 0
172 195 0
171 194 0
173 195 0
171 195 0
173 196 0
171 195 0
174 198 0
173 197 0
173 197 0
175 198 0
173 196 0
174 197 0
175 198 0
173 197 0
175 198 0
172 196 0
173 196 0
174 198 0
172 195 0
173 197 0
174 198 0
173 195 0
173 197 0
174 197 0
173 197 0
174 197 0
173 196 0
173 196 0
172 195 0
173 197 0
172 196 0
170 193 0
173 197 0
173 196 0
171 195 0
174 197 0
170 193 0
172 196 0
173 196 0
174 197 0
174 197 0
173 195 0
172 195 0
172 195 0
175 198 0
171 195 0
171 195 0
174 197 0
171 195 0
174 197 0
174 198 0
172 195 18
170 193 40
161 185 72
149 174 97
137 162 117
124 149 134
113 140 143
85 117 167
72 106 174
61 99 181
61 98 181
61 99 181
61 98 181
61 99 181
61 99 181
62 99 181
61 99 181
62 99 180
61 98 181
61 99 181
62 99 181
61 99 181
62 99 181
61 99 181
62 99 181
61 99 181
61 99 181
61 98 181
61 98 181
61 99 181
61 99 181
62 99 181
61 98 181
61 98 180
61 99 181
62 99 181
61 99 181
62 99 181
62 99 181
61 98 181
62 99 181
61 99 181
62 99 181
62 99 181
61 99 181
61 98 181
62 99 181
61 98 180
61 99 181
62 99 181
61 99 181
62 99 181
61 99 181
61 98 180
62 99 181
61 98 181
62 99 179
62 99 181
62 99 181
62 99 181
62 99 180
62 99 179
61 98 179
61 98 180
62 99 181
74 108 175
81 113 166
107 134 148
118 145 137
134 158 118
149 173 91
149 173 88
161 185 70
167 189 41
173 196 18
173 197 0
171 194 0
172 195 0
170 193 0
171 194 0
172 196 0
174 197 0
171 194 0
172 195 0
173 195 0
174 196 0
171 195 0
172 196 0
172 195 0
172 195 0
173 196 0
174 196 0
172 196 0
175 198 0
174 196 11
172 194 0
169 191 0
168 188 22
168 187 25
162 179 32
167 181 44
156 167 51
157 169 50
161 174 47
152 162 49
153 160 58
161 167 63
151 154 63
150 153 63
148 148 73
143 140 78
134 133 69
131 128 73
145 140 83
144 138 80
150 143 87
133 128 77
149 143 85
141 137 88
135 131 81
156 151 96
152 148 91
149 144 92
144 139 87
152 149 96
149 146 94
156 151 96
153 149 97
153 149 96
155 151 100
151 148 97
151 148 97
145 143 95
160 155 103
150 146 97
153 150 101
154 151 101
150 147 99
157 153 101
158 156 103
155 152 101
151 149 100
161 157 104
164 161 107
159 155 102
163 161 109
159 156 104
155 152 102
164 161 107
158 155 103
159 156 104
162 158 105
161 159 107
160 158 107
165 163 109
165 163 109
161 158 107
164 162 108
159 157 105
169 165 110
162 160 107
165 162 108
166 163 109
165 163 109
172 168 111
164 161 107
166 164 110
171 168 112
167 165 110
164 161 108
169 166 111
171 168 112
167 164 110
171 167 112
167 165 111
167 164 110
171 168 111
172 168 111
164 162 108
171 168 112
171 169 112
167 165 110
170 167 110
171 167 110
169 167 112
170 167 112
170 166 110
169 166 110
170 167 111
173 170 113
168 164 109
170 167 110
168 165 109
172 168 110
169 166 110
170 166 110
167 164 108
169 164 109
165 162 106
170 167 109
170 167 110
164 161 107
169 166 108
170 166 109
172 168 111
163 160 106
168 162 105
168 164 109
164 161 106
169 166 109
164 160 104
163 159 103
166 160 104
162 158 104
160 156 100
162 157 101
163 158 102
165 161 104
165 161 104
167 163 103
165 160 103
160 156 99
161 156 99
160 155 99
163 158 103
164 158 99
164 160 103
166 160 99
162 158 99
156 151 93
154 150 95
162 157 97
155 149 91
151 147 92
158 152 93
154 150 93
150 144 90
157 150 90
153 147 87
149 143 86
148 142 87
148 143 86
159 152 91
153 147 85
137 134 72
142 141 70
151 152 68
158 165 63
152 160 61
157 165 59
153 164 51
155 168 45
167 184 28
167 185 36
170 190 28
171 191 28
171 194 11
172 195 0
172 196 0
174 197 0
173 196 0
173 197 0
172 196 0
174 198 0
173 197 0
174 198 0
173 197 0
174 197 0
175 198 0
172 196 0
173 196 0
174 197 0
175 198 0
173 197 0
174 198 0
173 197 0
174 197 0
174 198 0
173 196 0
175 198 0
174 197 0
172 196 0
173 197 0
173 196 0
174 197 0
174 198 0
173 197 0
173 197 0
175 198 0
176 199 0
173 196 0
174 197 0
175 198 0
175 198 0
173 196 0
175 198 0
173 196 0
174 197 0
174 197 0
175 198 0
174 197 0
176 199 0
175 198 0
173 197 0
172 196 0
174 197 0
172 196 0
173 197 0
176 198 0
172 196 0
175 198 0
172 196 0
173 197 0
173 196 0
173 197 0
173 197 0
174 197 0
174 198 0
174 197 0
174 197 0
174 197 0
172 196 0
174 198 0
173 197 0
173 196 0
173 196 0
170 194 0
173 197 0
174 197 0
173 197 0
173 196 0
172 196 0
172 196 0
175 198 0
174 198 0
172 195 0
172 196 0
173 196 0
172 196 0
173 196 0
168 192 0
174 198 0
173 196 0
172 195 0
175 198 0
173 197 0
172 196 0
173 196 0
171 195 0
173 196 0
170 194 0
173 196 0
171 194 0
173 197 0
174 197 0
173 196 0
173 197 0
169 193 0
174 196 0
174 197 0
174 197 0
173 197 0
171 195 0
172 196 0
174 198 0
175 198 0
173 197 0
170 194 0
172 196 0
172 196 0
173 196 0
173 195 0
171 194 0
173 197 0
174 197 0
173 196 0
171 195 0
174 197 0
174 196 0
174 197 0
170 193 0
171 195 0
175 198 0
172 196 0
174 197 0
173 195 0
171 194 0
174 198 0
173 196 0
174 197 0
170 194 0
176 199 0
173 196 0
172 196 0
175 198 0
173 196 0
173 196 0
173 197 0
172 195 25
164 188 57
160 182 70
151 175 90
141 165 111
111 139 148
91 121 164
77 110 173
61 98 180
62 99 181
62 99 181
61 98 181
61 99 181
61 98 180
62 99 180
61 99 181
62 99 181
61 99 181
61 99 181
61 99 181
61 99 181
62 99 181
61 98 181
61 99 181
61 99 181
62 99 181
62 99 181
62 99 181
61 98 181
61 99 181
61 99 181
60 98 181
61 99 181
62 99 181
61 98 181
61 98 181
62 99 181
62 99 181
61 98 181
61 98 181
61 99 181
62 99 181
61 98 181
61 99 181
62 99 181
61 99 181
62 99 181
61 98 181
61 99 181
61 99 181
62 99 181
61 99 181
61 98 180
62 99 180
61 99 180
62 99 180
61 99 181
61 98 180
62 99 180
62 99 181
62 99 180
61 98 180
61 99 180
62 99 180
61 98 179
62 99 180
62 99 180
61 98 179
61 98 177
64 100 177
74 108 174
97 126 154
112 138 146
127 152 128
141 165 107
157 180 80
161 184 72
168 191 40
170 194 18
172 195 18
173 197 0
170 193 0
175 197 0
172 195 0
173 196 0
174 197 0
174 196 0
173 196 0
170 193 0
173 196 0
172 196 0
172 195 0
172 194 0
171 195 0
172 196 0
170 193 0
171 193 11
169 192 11
168 189 22
169 188 22
166 184 34
163 182 29
163 178 44
163 178 42
160 170 57
150 161 48
159 167 55
145 153 48
141 148 54
142 147 56
145 143 74
145 142 72
141 138 78
132 129 72
146 141 81
142 138 83
137 133 82
143 137 84
151 147 91
145 140 88
139 135 85
142 138 85
142 137 88
151 147 94
151 146 91
146 142 89
143 139 89
149 146 94
136 134 87
151 148 95
150 146 96
148 144 97
153 149 98
155 152 99
150 147 98
148 146 96
147 145 96
150 146 97
148 146 97
154 151 100
150 147 99
157 154 104
158 154 102
155 151 101
153 150 101
160 157 104
161 158 105
159 156 104
154 152 103
161 158 106
167 164 109
162 159 106
160 157 105
165 161 107
163 160 106
161 158 106
163 160 108
159 157 106
168 165 110
158 156 105
164 161 107
159 157 105
166 163 109
165 163 110
168 166 110
167 164 110
166 164 109
168 166 110
167 165 110
166 163 109
169 165 110
167 164 109
167 164 110
173 168 112
169 166 110
170 167 111
169 165 110
168 165 110
165 162 108
172 168 112
168 164 109
166 163 109
169 166 110
168 166 110
169 166 110
165 162 108
170 167 110
168 164 108
174 171 113
171 168 112
166 164 109
173 169 112
169 166 110
170 167 110
171 168 112
164 162 108
164 161 107
167 164 109
168 165 109
170 167 110
171 168 110
167 163 106
172 168 111
167 163 108
170 166 110
160 157 103
168 165 108
169 165 110
163 160 106
166 163 107
165 162 107
172 168 109
167 163 108
164 160 105
164 160 104
167 163 106
172 167 108
167 163 106
163 159 103
166 161 103
165 160 103
168 164 107
159 154 97
170 165 104
166 161 100
163 158 101
158 154 96
163 158 99
160 155 99
167 162 102
164 159 101
153 150 92
160 154 98
146 141 83
156 152 94
150 144 88
157 151 93
154 150 94
160 154 95
152 147 90
154 149 88
148 143 86
150 145 85
151 145 87
151 145 87
145 139 75
153 148 84
154 153 75
140 142 61
143 143 66
152 160 58
149 157 54
163 173 58
161 173 45
163 178 34
164 182 30
169 187 39
172 193 25
171 194 19
172 194 0
174 197 0
174 197 0
175 198 0
175 198 0
174 197 0
174 198 0
175 198 0
174 197 0
173 196 0
174 197 0
173 197 0
175 198 0
175 198 0
173 196 0
175 198 0
173 196 0
172 196 0
172 196 0
174 197 0
172 194 0
173 197 0
175 198 0
172 195 0
175 198 0
173 197 0
173 197 0
174 198 0
174 197 0
174 197 0
173 197 0
174 198 0
173 197 0
174 198 0
172 195 0
172 195 0
173 197 0
172 196 0
174 197 0
170 194 0
173 196 0
173 197 0
172 196 0
173 197 0
173 197 0
174 197 0
173 197 0
172 196 0
173 196 0
174 197 0
174 197 0
174 197 0
174 196 0
174 197 0
173 197 0
173 196 0
172 196 0
173 197 0
173 197 0
173 197 0
174 197 0
173 197 0
170 194 0
171 195 0
174 197 0
172 196 0
173 196 0
173 196 0
174 197 0
170 195 0
171 195 0
174 197 0
174 197 0
169 192 0
172 196 0
173 197 0
171 195 0
174 197 0
172 196 0
173 196 0
173 196 0
175 198 0
172 195 0
172 196 0
175 198 0
174 197 0
174 196 0
171 195 0
173 196 0
172 196 0
170 194 0
172 195 0
173 197 0
173 196 0
174 197 0
173 196 0
174 197 0
176 199 0
172 195 0
175 197 0
170 193 0
172 196 0
169 193 0
172 195 0
172 196 0
172 196 0
172 195 0
173 196 0
170 193 0
172 194 0
172 195 0
174 197 0
170 194 0
175 198 0
174 198 0
172 196 0
174 197 0
172 195 0
172 196 0
173 196 0
173 196 0
172 195 0
173 196 0
174 197 0
174 197 0
172 196 0
175 198 0
173 196 0
172 196 0
174 197 0
173 196 0
174 197 0
173 197 0
173 196 0
173 196 0
173 197 0
175 198 0
173 196 0
171 194 0
167 191 31
160 184 72
161 184 76
147 171 103
129 155 129
105 134 150
86 117 168
70 105 177
62 99 181
62 99 181
62 99 181
62 99 181
61 99 181
62 99 181
61 98 181
62 99 181
62 99 181
61 99 181
62 99 181
62 99 181
61 99 181
61 98 181
61 99 181
62 99 181
61 99 181
61 99 181
62 99 181
62 99 181
62 99 181
62 99 181
61 98 181
61 98 181
61 98 181
62 99 181
61 98 181
61 99 181
61 98 181
62 99 181
61 98 181
61 98 181
62 99 181
61 99 181
62 99 181
61 99 181
61 99 181
61 99 181
61 98 181
62 99 180
61 99 181
61 99 181
62 99 181
61 99 181
61 99 181
61 99 181
61 98 180
61 98 181
61 98 180
61 99 181
61 98 181
61 98 181
62 99 180
62 99 179
61 99 180
62 99 181
62 99 180
62 99 181
62 99 180
62 99 179
63 100 181
61 98 178
62 99 180
61 97 175
62 99 179
61 98 177
67 103 176
87 118 164
102 131 151
124 150 135
135 160 112
152 175 89
155 179 81
170 193 44
171 194 31
172 195 0
173 196 0
171 194 0
172 195 0
173 196 0
171 193 0
171 194 0
173 196 0
172 196 0
172 195 0
175 197 0
171 195 0
172 195 0
170 193 0
172 194 11
170 193 0
171 192 22
167 188 22
168 188 25
162 180 31
164 183 28
160 174 39
159 172 45
154 165 50
160 170 55
151 160 55
148 157 55
142 145 59
133 135 59
149 149 69
142 140 74
138 136 74
143 137 82
142 136 80
147 142 83
149 143 88
144 139 86
138 135 82
152 147 93
144 140 86
144 141 87
158 152 97
151 147 94
146 142 88
142 139 89
146 144 93
148 144 92
154 150 96
152 149 99
154 150 97
156 153 99
147 145 98
147 144 96
146 144 97
154 151 97
155 152 102
143 141 93
148 146 98
156 153 102
159 157 105
161 157 104
153 151 101
158 154 100
154 151 101
156 154 104
160 157 105
162 158 105
165 162 108
156 153 103
158 156 105
158 156 104
162 159 107
164 161 106
158 156 106
159 158 107
160 158 106
162 159 106
166 163 108
163 160 108
160 158 105
164 161 108
166 163 108
162 159 108
170 167 111
164 162 108
168 166 111
169 166 111
165 162 110
167 163 109
168 165 110
169 166 110
166 163 109
168 165 110
167 164 110
173 170 113
170 167 111
164 162 108
167 163 109
169 167 111
166 163 108
172 169 112
173 169 112
169 166 110
168 165 110
166 164 109
169 166 110
168 166 111
170 167 112
170 167 110
170 166 110
168 166 110
173 170 113
171 167 111
167 162 107
171 167 109
171 168 111
170 166 109
172 169 111
173 169 112
172 168 112
174 170 112
168 165 109
167 164 109
173 170 112
165 162 106
170 166 109
167 163 106
168 163 108
170 166 109
170 166 109
169 164 106
158 155 101
168 164 106
171 167 109
161 157 102
165 159 103
168 163 105
165 160 103
162 158 103
163 158 101
168 163 106
163 158 101
162 158 101
160 156 99
156 151 98
156 152 97
165 160 101
158 153 93
161 156 95
164 158 99
163 157 101
161 156 99
158 153 97
161 156 93
158 151 93
158 152 95
160 154 92
155 150 94
157 151 91
155 149 90
153 148 90
159 153 93
151 145 85
150 145 82
149 144 84
145 140 76
144 141 73
137 140 60
157 159 72
158 163 70
149 154 58
152 160 54
158 172 48
157 170 42
163 181 34
166 184 30
169 190 16
171 192 11
171 193 16
173 196 0
174 197 0
174 198 0
175 197 0
172 195 0
174 197 0
173 197 0
175 198 0
174 197 0
175 198 0
173 197 0
172 196 0
173 197 0
174 197 0
172 196 0
174 197 0
173 196 0
174 197 0
175 198 0
174 197 0
174 197 0
173 197 0
174 198 0
174 197 0
173 196 0
173 196 0
172 195 0
173 197 0
175 198 0
172 196 0
174 198 0
174 197 0
175 198 0
173 196 0
174 197 0
171 195 0
172 195 0
174 198 0
175 198 0
172 196 0
172 196 0
173 196 0
169 193 0
174 197 0
172 196 0
173 196 0
172 196 0
173 196 0
173 196 0
173 196 0
172 196 0
174 197 0
175 198 0
174 197 0
174 197 0
175 198 0
170 194 0
175 198 0
173 197 0
174 196 0
172 195 0
171 195 0
175 197 0
172 196 0
175 197 0
173 197 0
175 198 0
173 197 0
172 195 0
172 196 0
173 196 0
172 196 0
171 194 0
173 196 0
171 195 0
173 196 0
172 196 0
174 197 0
173 197 0
172 196 0
173 197 0
175 198 0
173 196 0
175 198 0
174 198 0
173 195 0
171 194 0
171 195 0
172 195 0
173 196 0
172 196 0
170 194 0
174 197 0
173 196 0
173 197 0
175 198 0
172 196 0
176 198 0
172 195 0
170 193 0
171 194 0
171 194 0
173 196 0
168 193 0
172 196 0
175 198 0
171 194 0
173 196 0
173 197 0
172 195 0
173 196 0
175 198 0
175 198 0
172 196 0
174 197 0
174 196 0
173 196 0
172 195 0
173 196 0
175 197 0
174 197 0
173 196 0
173 196 0
172 196 0
173 196 0
173 196 0
173 197 0
172 196 0
173 195 0
171 195 0
172 195 0
175 198 0
172 195 0
172 195 0
172 195 0
174 198 0
173 197 18
165 188 51
157 181 82
130 156 125
127 153 130
113 140 145
80 113 171
65 101 179
61 98 180
62 99 181
61 99 181
62 99 181
61 98 181
62 99 181
61 99 181
61 99 181
60 98 181
61 98 181
61 99 181
62 99 181
62 99 181
62 99 181
62 99 181
61 99 181
61 98 181
62 99 181
62 99 181
61 98 181
61 99 181
61 99 181
61 99 181
61 98 181
61 98 181
61 99 181
62 99 181
61 99 181
61 98 181
61 99 181
62 99 181
61 99 181
62 99 181
62 99 181
61 98 181
61 99 181
61 98 181
62 99 181
61 99 181
61 98 181
61 99 181
61 99 181
61 98 180
61 98 181
61 98 181
61 99 181
61 99 181
62 99 181
61 99 181
62 99 181
61 99 181
61 99 181
61 99 181
61 99 181
62 99 181
61 98 181
62 99 181
61 99 180
61 98 180
61 98 179
62 99 181
61 98 178
61 98 180
61 98 179
62 99 179
61 99 180
62 99 180
62 98 179
61 98 176
62 99 176
66 101 177
85 116 165
92 121 156
116 142 139
135 158 114
147 171 102
159 182 71
165 189 48
167 191 18
172 196 0
171 195 0
169 191 0
170 194 0
172 194 0
172 194 0
173 196 0
173 195 0
171 194 0
174 197 0
174 197 0
171 194 0
172 194 0
171 192 11
167 189 11
167 187 30
166 185 28
161 176 37
165 183 34
159 173 46
158 171 45
159 170 54
145 153 56
154 158 66
147 151 62
148 154 62
153 154 69
133 133 69
148 144 82
145 140 79
141 136 81
138 133 74
140 136 85
139 134 83
142 138 84
146 140 85
143 139 85
143 140 88
147 144 88
148 143 91
140 137 87
142 138 88
144 140 90
149 144 92
145 142 92
146 143 94
157 154 101
150 146 96
147 145 95
152 148 96
146 143 95
151 147 97
159 156 104
159 156 105
144 143 93
158 155 103
153 151 100
164 160 106
149 147 99
155 153 104
151 149 99
153 150 102
152 149 100
158 156 105
161 158 105
161 158 105
158 156 105
160 157 106
163 160 107
163 160 106
164 161 108
164 161 108
163 159 106
161 158 106
167 164 110
167 164 109
161 158 106
164 162 109
163 161 109
166 164 110
170 167 110
165 163 109
168 165 110
166 164 109
166 163 109
169 166 110
174 170 112
172 168 111
166 163 109
168 164 109
171 168 110
167 164 109
167 164 110
166 163 109
170 167 111
164 161 107
171 168 112
172 169 112
170 167 111
170 167 110
172 168 112
171 168 111
173 169 112
168 165 110
174 170 113
174 169 112
167 165 110
168 164 108
173 169 112
170 166 109
167 163 108
173 169 112
172 168 110
172 168 110
169 166 110
167 163 106
169 165 109
168 164 108
167 163 108
169 164 109
165 161 106
172 168 110
168 164 107
169 165 107
171 167 110
169 164 107
168 164 108
164 160 104
170 166 105
171 167 109
162 158 104
167 163 108
170 166 106
173 168 108
169 165 106
163 158 101
161 157 99
165 161 104
166 161 103
168 164 105
164 158 99
162 157 101
163 159 101
157 153 97
152 146 91
162 157 100
158 153 95
162 157 100
148 145 87
163 158 98
160 155 95
158 153 95
161 156 99
155 150 95
157 151 92
156 151 88
153 147 88
158 152 90
156 150 87
150 143 88
150 143 84
147 142 81
137 132 74
135 130 71
143 139 73
139 137 68
147 147 67
154 155 70
158 163 66
159 167 58
153 165 45
157 169 45
159 176 30
168 186 32
168 187 30
166 188 28
172 193 28
174 196 11
174 197 0
175 197 0
173 197 0
174 197 0
174 198 0
173 197 0
172 196 0
175 198 0
175 198 0
172 196 0
172 196 0
173 197 0
174 198 0
174 198 0
174 197 0
174 198 0
172 196 0
174 197 0
173 196 0
173 197 0
176 198 0
175 198 0
172 196 0
173 197 0
173 196 0
173 197 0
173 197 0
174 198 0
175 198 0
172 196 0
174 197 0
174 197 0
176 198 0
174 198 0
172 196 0
174 198 0
173 196 0
173 197 0
172 195 0
176 198 0
173 197 0
173 196 0
174 197 0
173 196 0
173 197 0
175 198 0
173 196 0
174 198 0
173 197 0
171 195 0
172 196 0
171 195 0
175 198 0
174 198 0
174 197 0
173 196 0
171 195 0
173 196 0
173 196 0
173 197 0
171 196 0
173 197 0
175 198 0
173 195 0
172 196 0
171 194 0
173 196 0
174 197 0
172 195 0
173 195 0
173 197 0
173 197 0
173 196 0
173 197 0
171 194 0
171 195 0
175 198 0
172 195 0
173 196 0
173 196 0
175 198 0
173 197 0
175 197 0
172 196 0
173 196 0
173 197 0
174 197 0
175 198 0
173 197 0
172 196 0
174 197 0
173 197 0
173 196 0
173 196 0
173 197 0
174 197 0
174 197 0
171 195 0
172 196 0
173 197 0
170 195 0
173 196 0
174 196 0
172 196 0
171 194 0
172 196 0
172 196 0
175 198 0
173 196 0
171 195 0
174 197 0
174 196 0
171 195 0
172 195 0
173 196 0
173 196 0
175 198 0
171 195 0
174 198 0
173 197 0
174 197 0
174 196 0
172 195 0
171 195 0
172 195 0
174 197 0
174 198 0
171 195 0
173 196 0
172 196 0
172 196 0
173 197 0
173 196 0
172 195 0
170 193 40
162 186 65
152 175 95
129 154 130
105 133 155
78 111 170
63 100 180
61 99 181
62 99 181
62 99 181
61 99 180
61 98 181
61 99 181
62 99 181
61 98 181
62 99 181
61 99 181
61 99 181
61 99 181
61 99 181
61 99 181
61 99 181
62 99 181
62 99 181
61 99 181
61 98 181
62 99 181
61 98 181
61 99 181
61 99 181
61 99 181
61 98 181
62 99 181
61 99 181
61 99 181
61 99 181
62 99 181
61 99 181
62 99 181
61 98 181
61 99 181
61 99 181
61 98 181
61 99 181
61 99 181
61 99 181
61 98 181
62 99 181
62 99 181
61 99 181
61 99 181
61 99 181
62 99 181
62 99 181
61 99 181
61 99 181
61 99 181
62 99 181
61 99 181
62 99 181
61 99 181
62 99 181
62 99 181
61 99 181
61 99 180
61 99 181
62 99 180
61 98 180
61 98 180
62 99 180
61 98 180
61 99 180
62 99 180
62 99 180
62 99 180
62 98 178
62 99 180
62 99 180
61 98 177
62 99 179
62 99 178
63 99 177
77 109 171
89 119 163
122 147 134
136 161 115
146 169 99
157 180 74
168 191 47
172 194 25
171 194 0
172 195 0
171 193 0
172 195 0
173 195 0
173 196 0
171 194 0
172 195 0
173 196 0
172 195 0
171 195 0
168 189 19
170 190 19
166 184 30
162 180 30
162 178 34
163 178 34
168 183 45
155 167 42
151 161 47
155 162 58
140 148 50
147 151 61
150 152 68
142 142 67
127 128 64
147 144 81
142 137 81
138 134 76
140 136 80
140 136 82
153 148 91
140 136 83
147 142 90
140 135 83
141 138 86
147 143 87
137 134 86
141 139 88
150 147 97
150 146 94
152 148 96
142 138 90
152 149 95
150 146 95
152 147 94
157 153 98
138 136 93
151 149 100
142 140 93
151 147 97
161 157 103
150 147 97
158 154 103
151 149 100
151 149 101
160 157 104
158 155 103
164 160 106
154 152 102
158 155 104
158 155 105
157 155 105
153 151 102
164 161 107
167 164 110
160 157 106
161 158 107
161 159 107
159 156 105
162 159 106
162 159 107
164 162 109
157 156 105
166 164 109
165 163 109
167 165 110
166 163 110
169 166 111
167 164 109
165 162 108
167 164 109
163 161 107
170 167 110
167 163 108
165 162 107
169 165 110
172 168 112
172 168 112
169 166 110
171 168 111
173 169 113
167 164 110
172 169 112
170 167 110
173 170 113
168 165 109
168 166 109
167 165 108
171 168 111
169 166 111
166 162 108
171 168 112
165 162 108
174 170 113
172 169 111
168 166 110
169 166 110
173 169 112
174 169 111
168 166 108
168 165 109
174 170 112
170 167 110
163 160 106
169 166 110
166 161 106
168 164 108
173 169 112
174 169 111
169 165 108
168 165 108
167 163 106
170 166 109
170 166 109
170 165 106
171 166 108
170 166 108
165 162 106
170 166 109
164 161 106
165 161 104
170 165 107
169 165 108
165 161 105
166 162 105
164 158 101
167 163 106
162 158 100
166 162 103
167 162 104
165 161 101
163 158 97
164 159 101
154 150 95
160 155 95
160 155 100
167 160 101
157 153 97
156 150 91
157 152 90
160 154 93
155 149 90
154 150 95
151 145 90
154 148 87
157 152 94
150 145 87
156 149 87
158 151 87
156 150 88
145 140 81
150 144 82
149 147 75
142 141 62
151 152 66
156 162 60
151 158 60
152 160 52
157 172 36
158 174 37
162 180 25
170 190 28
167 185 28
173 193 22
174 197 0
173 196 0
173 197 0
173 197 0
172 195 0
172 195 0
175 198 0
174 198 0
174 198 0
172 195 0
173 197 0
171 196 0
174 197 0
173 197 0
173 197 0
174 197 0
175 198 0
174 197 0
172 196 0
174 197 0
174 197 0
173 197 0
172 196 0
174 197 0
174 197 0
170 194 0
176 198 0
171 195 0
173 197 0
174 198 0
173 197 0
176 198 0
176 198 0
174 196 0
172 196 0
173 196 0
172 195 0
175 198 0
176 198 0
172 196 0
174 197 0
175 198 0
175 198 0
173 196 0
174 197 0
174 198 0
173 196 0
174 197 0
171 195 0
172 195 0
174 197 0
173 197 0
173 196 0
173 196 0
172 196 0
172 196 0
174 197 0
173 197 0
174 198 0
174 196 0
173 197 0
172 196 0
172 195 0
173 196 0
172 196 0
174 196 0
172 195 0
173 196 0
174 197 0
174 197 0
174 197 0
172 196 0
171 194 0
172 196 0
172 196 0
173 196 0
173 197 0
171 195 0
172 196 0
172 195 0
174 197 0
173 197 0
175 198 0
171 195 0
174 197 0
173 195 0
175 198 0
174 198 0
172 196 0
174 197 0
175 198 0
172 195 0
172 195 0
173 196 0
175 197 0
171 195 0
172 196 0
173 196 0
173 195 0
173 196 0
174 197 0
173 197 0
172 195 0
171 195 0
173 196 0
172 196 0
172 194 0
172 196 0
172 196 0
174 196 0
174 197 0
171 195 0
171 195 0
173 196 0
173 196 0
173 196 0
170 194 0
173 196 0
174 196 0
176 198 0
172 196 0
174 196 0
172 196 0
174 196 0
173 196 0
173 195 0
173 196 0
170 193 0
173 196 0
171 195 0
172 196 0
174 197 0
171 195 0
170 194 36
156 180 82
143 167 105
132 157 125
84 115 166
72 106 175
66 102 179
61 99 180
62 99 181
62 99 181
62 99 181
61 98 181
62 99 181
62 99 181
62 99 181
61 99 181
62 99 181
62 99 181
62 99 181
61 99 180
61 99 181
61 98 181
62 99 181
62 99 181
61 99 181
61 98 181
62 99 181
62 99 181
62 99 181
62 99 181
61 99 181
61 98 181
61 99 181
61 99 181
62 99 181
61 98 181
61 99 181
61 99 181
62 99 181
61 99 181
62 99 181
61 99 181
61 98 181
61 98 181
61 98 181
61 98 181
61 98 181
61 98 181
61 98 181
61 99 181
62 99 181
61 99 181
61 99 181
61 98 181
61 98 181
62 99 181
61 99 181
62 99 181
62 99 181
61 99 181
62 99 181
62 99 181
61 99 181
62 99 181
61 99 181
62 99 180
62 99 180
61 99 181
62 99 179
61 99 180
61 98 179
62 99 181
62 99 180
62 99 181
61 99 181
62 99 180
62 99 180
62 98 179
61 99 180
61 98 178
61 97 177
61 98 178
62 99 181
61 98 177
62 99 179
61 98 175
68 102 171
95 124 157
120 147 140
143 167 102
155 179 76
165 188 60
168 191 37
171 194 0
173 196 0
173 197 0
170 193 0
173 196 0
173 197 0
176 198 0
172 195 0
173 196 0
170 194 0
169 191 19
165 184 28
166 185 32
164 182 32
156 172 28
165 179 39
160 175 42
155 167 44
150 158 53
148 159 51
144 150 61
148 150 72
142 142 69
130 132 69
145 144 73
136 134 69
141 137 78
143 138 83
143 138 82
143 139 80
138 133 78
137 133 81
150 144 90
146 142 90
149 143 90
147 143 90
146 143 90
144 141 89
144 140 92
145 142 94
149 146 96
144 141 94
143 139 92
145 142 92
148 145 96
139 137 93
150 147 97
152 149 97
150 147 97
150 148 97
151 149 99
153 151 102
153 151 103
152 150 100
145 143 99
157 154 101
155 152 101
158 155 104
153 151 102
156 153 103
160 157 105
153 152 103
162 159 106
163 160 107
159 156 103
163 160 107
159 156 105
157 153 102
163 160 107
166 163 109
162 159 107
165 162 107
168 164 108
166 162 108
160 158 107
165 162 108
172 168 112
165 164 110
163 160 107
168 165 110
167 163 108
167 164 110
170 167 112
165 162 109
172 169 113
169 166 111
168 166 111
171 168 112
168 165 110
172 168 111
169 166 110
165 163 109
170 167 111
167 165 111
171 168 112
168 165 110
172 168 111
169 166 110
174 170 112
172 168 109
169 167 112
173 169 112
172 169 112
172 168 110
171 168 110
168 165 108
172 168 110
169 166 110
170 166 109
173 169 110
171 167 110
169 166 109
163 159 104
168 164 108
171 168 109
172 168 108
168 164 106
172 168 110
167 164 108
168 165 108
172 168 109
168 164 107
167 163 107
170 166 108
172 167 110
169 165 107
169 165 105
172 167 109
168 163 105
168 163 106
167 162 105
164 159 103
169 165 106
165 160 101
172 168 110
166 161 102
171 166 103
163 158 97
163 157 96
163 159 103
156 152 98
166 161 103
155 151 95
160 155 97
162 156 95
167 161 100
159 154 97
158 153 95
154 149 87
155 150 90
153 148 93
159 153 96
154 148 90
154 149 93
159 154 93
157 152 93
159 152 91
151 145 88
156 149 90
155 149 87
150 143 87
146 140 83
149 146 69
147 145 74
153 156 66
149 153 62
158 164 66
156 167 48
157 166 52
157 169 41
163 179 34
166 184 28
167 185 22
172 193 22
168 189 19
174 197 0
173 197 0
173 197 0
173 197 0
174 197 0
174 198 0
172 196 0
173 197 0
173 197 0
172 196 0
175 198 0
175 198 0
174 198 0
174 197 0
172 196 0
175 198 0
174 197 0
173 196 0
174 198 0
175 198 0
171 195 0
173 197 0
173 196 0
174 197 0
172 196 0
173 197 0
173 196 0
173 196 0
173 197 0
170 194 0
174 197 0
174 197 0
174 197 0
174 197 0
176 199 0
172 195 0
172 196 0
172 196 0
172 195 0
175 198 0
174 196 0
174 197 0
173 197 0
173 197 0
174 197 0
174 197 0
175 197 0
171 196 0
174 196 0
173 196 0
175 198 0
174 197 0
173 197 0
173 197 0
173 196 0
174 197 0
171 195 0
173 196 0
171 195 0
172 196 0
175 197 0
172 196 0
173 197 0
174 197 0
173 196 0
173 197 0
173 196 0
176 198 0
173 196 0
173 195 0
172 196 0
173 196 0
173 197 0
171 195 0
174 198 0
171 195 0
172 196 0
173 197 0
174 197 0
173 195 0
173 197 0
174 197 0
174 197 0
173 197 0
173 197 0
170 194 0
172 195 0
173 197 0
173 196 0
173 196 0
170 194 0
175 197 0
173 196 0
173 196 0
171 195 0
173 196 0
169 193 0
174 197 0
173 196 0
172 195 0
170 193 0
173 196 0
169 193 0
171 194 0
173 196 0
171 194 0
174 197 0
176 198 0
171 195 0
170 194 0
173 196 0
168 191 0
171 195 0
172 195 0
172 196 0
173 196 0
172 195 0
173 196 0
171 195 0
169 193 0
174 197 0
174 197 0
174 198 0
174 197 0
173 197 0
173 196 0
173 195 0
171 195 0
173 196 0
172 196 0
166 190 40
164 189 60
148 173 95
138 163 118
111 138 149
81 113 169
62 99 179
61 99 181
61 99 181
62 99 181
61 99 181
62 99 181
61 99 180
61 99 180
62 99 180
61 98 181
62 99 181
62 99 181
61 99 181
62 99 181
62 99 181
61 99 181
62 99 181
62 99 181
61 98 181
61 99 181
61 99 181
62 99 181
62 99 181
61 99 181
61 99 181
62 99 181
61 98 181
61 99 181
61 98 181
61 98 181
62 99 181
62 99 181
62 99 181
61 98 181
61 98 181
62 99 181
61 99 181
61 98 181
61 99 181
61 99 181
61 98 181
62 99 181
62 99 181
62 99 181
61 99 181
62 99 181
61 99 181
62 99 181
61 99 181
61 99 181
61 98 181
62 99 181
62 99 181
61 99 181
61 98 180
61 99 181
61 99 181
61 98 181
62 99 181
62 99 181
61 98 180
62 99 181
62 99 181
61 99 181
61 98 181
62 99 181
62 99 181
61 99 180
62 99 181
61 99 180
62 99 178
61 98 179
62 99 180
61 98 177
61 98 179
62 99 180
63 99 180
62 99 180
61 98 177
61 98 176
61 98 175
62 99 181
61 98 176
62 98 175
70 104 172
101 130 153
120 146 137
136 159 115
149 172 89
167 190 47
172 195 0
171 194 18
171 194 0
172 196 0
172 195 0
173 196 0
173 197 0
169 191 11
170 191 19
168 188 25
158 177 22
165 183 30
161 177 36
160 175 43
156 171 32
156 169 41
153 165 45
156 164 62
142 151 39
142 146 57
144 146 64
136 139 57
142 139 72
145 141 74
139 135 74
135 130 72
135 130 75
145 141 84
147 141 84
149 144 88
138 133 80
150 145 93
140 138 85
151 147 92
145 141 88
136 134 89
154 150 95
148 145 91
141 139 92
145 142 90
151 147 94
148 146 96
151 147 97
143 140 90
139 137 90
150 147 96
149 146 97
155 152 102
157 153 100
154 152 102
151 148 98
149 147 100
154 151 101
149 148 100
150 147 98
149 147 99
154 151 101
161 158 105
154 152 102
157 154 104
156 155 105
158 155 104
157 155 104
166 163 108
164 161 109
162 159 107
161 158 106
158 156 105
162 160 108
160 157 105
160 158 105
164 162 108
166 163 109
166 163 108
171 167 112
164 161 109
163 161 108
168 166 111
168 164 109
168 165 110
169 166 111
170 167 111
170 166 110
170 167 111
165 162 108
166 164 110
170 167 112
167 163 106
172 168 112
171 168 112
171 168 111
170 167 111
170 166 110
170 166 110
171 167 110
177 172 113
170 167 110
169 166 111
174 170 112
174 170 113
171 167 110
172 168 110
176 171 113
172 167 108
169 166 108
172 168 111
177 171 111
170 166 109
170 166 109
170 167 110
172 169 111
171 166 108
169 166 109
175 170 111
175 171 113
168 164 106
172 167 108
166 162 106
169 166 107
171 167 109
164 161 104
166 162 106
169 165 108
166 162 102
172 168 109
165 161 104
168 163 105
169 165 106
165 161 103
166 161 104
169 164 104
171 166 106
166 162 104
164 159 101
161 157 101
162 157 99
155 150 97
166 161 99
161 156 99
165 161 103
164 158 99
160 155 99
153 149 90
155 150 92
160 155 100
159 154 93
156 152 96
160 155 95
164 158 98
154 148 87
153 147 87
157 152 92
152 146 87
154 148 89
162 157 92
150 145 84
152 146 85
149 143 82
154 148 85
146 140 82
148 142 83
150 145 81
141 139 68
160 161 70
156 159 70
152 157 59
158 167 59
157 167 42
159 171 47
162 177 39
162 181 25
166 184 34
172 193 22
172 194 0
174 197 0
175 198 0
173 196 0
174 197 0
174 197 0
174 197 0
174 197 0
173 197 0
173 197 0
172 196 0
172 196 0
173 197 0
173 197 0
174 198 0
173 197 0
172 196 0
171 195 0
171 195 0
172 197 0
172 195 0
173 197 0
175 198 0
174 198 0
174 197 0
173 196 0
174 197 0
174 197 0
175 198 0
173 196 0
174 197 0
174 197 0
174 197 0
173 197 0
172 196 0
174 197 0
175 198 0
174 196 0
175 198 0
172 196 0
173 197 0
173 196 0
173 197 0
173 196 0
173 196 0
172 196 0
174 197 0
173 197 0
171 194 0
174 197 0
174 197 0
172 196 0
171 194 0
173 197 0
174 197 0
174 198 0
174 197 0
175 198 0
170 194 0
172 196 0
173 196 0
173 197 0
175 198 0
174 197 0
175 198 0
172 195 0
175 198 0
173 197 0
172 195 0
174 197 0
171 195 0
173 197 0
173 197 0
176 198 0
172 195 0
173 197 0
171 195 0
171 194 0
173 196 0
174 198 0
173 197 0
175 197 0
174 197 0
170 193 0
173 196 0
173 196 0
173 196 0
173 196 0
173 197 0
174 197 0
173 196 0
174 198 0
174 197 0
172 194 0
171 194 0
170 193 0
176 199 0
173 196 0
176 197 0
174 197 0
172 195 0
172 196 0
173 197 0
172 196 0
171 195 0
172 195 0
174 198 0
172 196 0
171 196 0
172 195 0
173 196 0
174 196 0
173 197 0
170 194 0
172 195 0
171 194 0
172 195 0
174 196 0
173 196 0
173 196 0
175 198 0
172 196 0
172 196 0
174 197 0
173 196 0
171 192 0
173 196 0
172 196 0
174 197 0
172 195 25
163 187 57
156 180 78
130 156 125
108 135 151
75 109 173
61 99 180
62 99 180
61 99 181
62 99 181
61 99 181
62 99 181
61 99 181
61 99 181
61 98 181
62 99 181
62 99 181
62 99 181
61 98 181
61 99 181
61 99 181
62 99 181
61 98 181
62 99 181
61 99 181
62 99 181
62 99 181
61 99 181
62 99 181
62 99 181
62 99 181
61 98 181
62 99 181
62 99 181
61 99 181
62 99 181
62 99 181
62 99 181
62 99 181
61 99 181
61 98 181
61 98 181
62 99 181
61 99 181
61 99 181
61 99 181
62 99 181
61 99 181
61 99 181
61 99 181
62 99 181
61 98 181
61 99 181
61 99 181
62 99 181
61 98 181
62 99 181
61 99 181
61 98 181
61 99 181
62 99 181
61 99 181
61 99 181
61 99 181
62 99 180
61 98 181
61 99 181
61 99 181
62 99 181
61 98 181
61 99 181
61 99 181
62 99 181
62 99 181
62 99 181
61 98 179
62 99 181
62 99 179
62 99 180
61 99 180
61 98 179
61 98 180
61 99 180
62 99 179
61 98 179
62 98 179
61 98 177
62 99 180
61 98 176
62 99 180
61 98 178
61 97 174
61 98 177
67 102 172
78 110 165
112 139 139
123 149 134
143 167 103
156 180 71
167 190 36
171 194 18
171 193 0
172 194 0
173 196 0
174 197 0
172 195 0
170 191 19
169 191 11
161 180 22
161 178 24
158 174 25
156 171 44
160 171 53
164 176 52
152 159 51
154 160 63
146 151 61
148 152 61
145 148 67
148 150 72
140 139 76
133 130 69
130 127 73
139 135 82
147 142 86
143 139 81
146 141 83
133 129 78
139 135 85
145 141 89
134 131 83
139 135 84
147 143 91
135 133 86
140 137 89
150 147 98
140 139 92
143 140 91
151 148 97
148 145 97
145 142 95
143 141 94
149 146 97
149 146 98
141 140 96
143 141 95
149 146 97
148 147 99
157 154 102
150 147 98
150 148 98
147 145 98
150 148 100
148 146 100
160 156 103
152 149 100
160 157 105
159 157 106
149 147 100
166 163 107
156 154 103
158 156 105
157 156 106
157 156 105
157 154 105
164 161 107
157 155 104
161 159 106
160 158 106
166 162 108
164 161 108
160 158 106
165 162 109
171 168 112
165 161 107
164 162 109
164 161 107
169 165 110
161 159 106
170 166 111
170 167 112
172 168 112
168 165 108
164 163 108
172 169 112
168 165 110
170 166 110
168 165 109
170 168 112
171 167 109
175 170 112
175 170 111
170 167 110
176 171 113
168 165 109
174 170 111
170 167 110
172 168 110
173 169 110
174 170 112
173 170 112
169 166 108
172 169 112
170 167 111
174 170 112
171 167 110
171 168 111
169 166 110
173 168 110
169 165 108
171 168 110
171 166 108
169 166 109
167 164 108
168 164 108
172 168 109
169 166 108
168 163 107
169 165 106
165 160 104
167 162 106
171 167 108
167 163 106
167 163 105
172 166 106
168 163 105
168 162 102
169 165 106
165 161 104
169 163 104
164 159 101
164 160 101
166 162 102
158 154 95
164 159 100
162 158 99
169 164 103
167 162 101
166 161 101
157 153 94
161 155 95
166 159 101
165 160 98
161 156 95
160 154 95
154 150 94
157 152 94
154 148 90
155 150 92
159 154 91
154 148 88
155 150 91
147 142 89
145 140 84
154 149 85
145 140 80
147 142 83
141 135 78
151 146 84
146 140 79
139 138 62
143 143 67
142 144 64
149 153 58
157 160 65
161 173 47
164 177 52
164 180 42
157 174 32
166 185 34
170 190 22
167 189 16
171 193 0
174 197 0
172 195 0
174 198 0
174 197 0
174 197 0
172 196 0
173 197 0
174 197 0
174 197 0
174 197 0
173 197 0
170 194 0
173 197 0
174 197 0
174 197 0
173 197 0
173 197 0
174 197 0
172 196 0
173 196 0
174 198 0
174 197 0
173 196 0
174 197 0
172 195 0
173 197 0
173 197 0
175 198 0
171 195 0
174 197 0
172 196 0
171 195 0
172 195 0
173 197 0
174 197 0
172 196 0
174 197 0
176 198 0
175 198 0
172 195 0
173 196 0
170 194 0
174 198 0
174 197 0
172 196 0
173 197 0
173 197 0
173 197 0
174 197 0
174 197 0
174 197 0
173 197 0
174 198 0
171 196 0
173 196 0
174 197 0
173 197 0
174 197 0
172 196 0
173 197 0
174 197 0
172 196 0
174 197 0
173 197 0
174 197 0
173 197 0
174 198 0
173 196 0
173 197 0
172 196 0
174 197 0
172 196 0
172 196 0
174 198 0
173 195 0
172 196 0
174 197 0
172 195 0
171 194 0
173 195 0
171 194 0
172 196 0
173 197 0
173 195 0
174 198 0
173 197 0
171 195 0
173 197 0
173 196 0
172 195 0
174 197 0
174 197 0
171 195 0
170 194 0
173 196 0
176 198 0
173 196 0
171 194 0
170 193 0
172 196 0
171 194 0
174 198 0
173 197 0
175 198 0
172 195 0
173 197 0
173 197 0
171 194 0
172 196 0
170 194 0
173 197 0
174 197 0
173 196 0
174 196 0
174 197 0
174 197 0
172 196 0
172 195 0
172 195 0
174 197 0
172 195 0
175 198 0
173 197 0
170 194 0
170 193 0
172 196 0
169 192 25
158 182 78
146 170 105
120 146 135
93 124 162
66 102 178
61 99 181
61 98 180
62 99 181
61 99 179
62 99 181
61 99 181
61 99 181
62 99 181
62 99 181
62 99 181
62 99 181
61 98 181
62 99 181
61 99 181
61 99 181
62 99 181
61 99 181
61 98 181
62 99 181
62 99 181
61 98 181
62 99 181
61 99 181
61 99 181
62 99 181
61 99 181
62 99 181
61 98 181
61 99 181
61 98 181
61 99 181
61 98 181
61 99 181
62 99 181
62 99 181
61 98 181
61 98 181
61 99 181
61 98 181
62 99 181
61 99 181
61 99 181
62 99 181
61 99 181
62 99 181
62 99 181
61 99 181
61 99 181
62 99 181
62 99 181
61 99 181
61 99 181
61 98 181
61 99 181
61 98 181
61 99 181
62 99 181
62 99 181
62 99 180
61 98 180
61 99 181
61 98 181
61 99 181
61 99 181
62 99 181
62 99 181
62 99 181
61 99 180
62 99 181
62 99 181
62 99 180
62 99 180
61 98 179
61 99 180
61 99 180
61 99 180
61 99 181
61 98 177
61 98 180
62 98 178
62 99 180
62 99 180
62 99 179
61 98 176
61 98 178
62 98 178
62 99 178
62 99 176
61 97 175
61 97 175
60 96 172
88 118 157
114 141 137
135 158 109
161 184 70
164 187 57
168 192 36
170 193 0
172 196 0
171 194 11
168 190 0
167 184 32
166 186 32
164 184 25
161 178 34
161 179 26
162 174 48
156 167 51
159 169 53
154 161 55
151 158 56
149 153 60
145 149 58
136 138 55
140 140 70
147 143 83
139 135 77
149 144 87
140 136 78
136 133 76
138 133 82
143 138 83
140 136 83
130 128 79
132 129 79
134 131 84
147 143 89
150 145 92
143 140 93
139 137 86
139 137 91
137 135 88
144 141 91
137 136 89
145 143 96
159 155 101
142 139 91
144 143 95
149 146 97
150 149 99
139 138 92
151 149 101
148 145 98
155 152 100
158 154 103
152 150 102
152 149 97
150 148 99
154 152 102
150 147 99
156 154 104
160 157 105
161 157 103
157 156 105
155 153 102
158 156 104
160 157 105
167 163 109
158 156 105
159 157 106
164 161 107
164 161 106
167 164 109
165 162 108
158 156 105
163 161 109
167 163 108
169 164 109
162 160 106
165 162 108
164 161 108
165 162 108
170 167 110
169 165 108
162 160 106
169 165 110
169 165 109
169 166 111
168 166 110
170 166 111
171 168 112
174 170 110
170 166 109
170 167 111
166 162 108
173 168 110
172 168 111
171 168 110
170 167 110
170 168 111
174 171 112
170 167 111
170 167 111
173 170 112
172 168 110
173 168 110
174 170 112
172 167 110
174 169 112
173 168 110
171 168 110
176 171 111
175 171 112
169 166 109
174 170 110
170 165 106
171 168 110
171 167 107
171 166 108
170 166 106
169 164 106
167 163 106
169 165 108
167 162 105
169 165 104
173 168 108
167 163 106
170 166 110
166 161 104
163 158 103
165 161 101
166 162 103
168 163 106
168 163 104
166 161 103
168 163 102
166 161 103
166 161 101
165 160 104
165 160 103
167 161 102
166 160 99
167 161 101
156 151 95
163 156 96
161 156 99
159 153 95
160 154 96
159 154 92
166 160 98
160 156 97
163 157 97
152 147 90
158 152 95
161 155 93
147 143 85
156 150 87
153 147 86
149 143 89
151 144 86
158 152 92
156 150 90
153 146 84
149 143 77
149 143 83
149 144 78
145 143 75
160 161 71
159 164 61
150 157 52
152 162 45
162 174 49
157 173 34
163 177 42
162 182 28
174 193 32
168 188 16
171 193 19
175 197 0
172 196 0
173 196 0
175 198 0
174 197 0
174 197 0
175 198 0
173 197 0
174 198 0
175 198 0
175 198 0
174 198 0
173 196 0
175 198 0
174 197 0
173 197 0
173 197 0
175 198 0
174 198 0
172 196 0
175 197 0
173 196 0
174 197 0
176 199 0
172 197 0
173 196 0
172 195 0
172 196 0
175 198 0
174 198 0
174 197 0
172 196 0
173 197 0
174 197 0
174 197 0
171 195 0
174 196 0
174 197 0
174 197 0
172 195 0
173 197 0
174 197 0
173 197 0
173 196 0
172 196 0
172 196 0
175 198 0
172 195 0
175 198 0
174 197 0
174 197 0
173 197 0
173 195 0
172 196 0
171 195 0
172 195 0
172 195 0
173 195 0
173 196 0
175 198 0
173 196 0
172 196 0
171 195 0
174 197 0
174 197 0
172 196 0
173 197 0
172 196 0
174 197 0
170 194 0
173 195 0
172 195 0
173 196 0
173 196 0
174 197 0
175 198 0
173 196 0
173 196 0
171 194 0
174 198 0
174 197 0
173 197 0
173 196 0
174 197 0
172 195 0
174 197 0
170 194 0
174 197 0
172 196 0
172 196 0
172 196 0
173 196 0
174 197 0
173 196 0
171 196 0
174 197 0
172 195 0
171 195 0
174 197 0
172 196 0
173 197 0
174 197 0
172 196 0
172 196 0
174 197 0
172 196 0
173 197 0
175 198 0
169 193 0
171 195 0
172 196 0
173 197 0
174 198 0
173 196 0
173 196 0
171 194 0
171 194 0
173 197 0
173 196 0
172 195 0
172 195 0
171 193 0
173 197 0
171 194 0
171 195 18
169 192 44
146 170 107
130 156 125
99 128 159
84 115 168
62 99 180
61 99 180
62 99 181
61 99 180
62 99 181
62 99 181
62 99 180
62 99 181
62 99 181
61 98 181
62 99 181
62 99 181
61 99 181
62 99 181
62 99 181
62 99 181
61 99 181
62 99 181
62 99 181
62 99 181
61 98 181
61 99 181
62 99 181
61 98 181
61 98 181
62 99 181
61 99 181
61 98 181
62 99 181
62 99 181
61 99 181
62 99 181
62 99 181
61 98 181
62 99 181
61 98 181
62 99 181
62 99 181
62 99 181
61 99 181
61 98 181
61 99 181
61 99 181
61 98 181
61 98 181
62 99 181
61 99 181
62 99 181
61 99 181
62 99 181
61 99 181
61 98 181
62 99 181
62 99 181
61 98 181
61 99 181
62 99 181
61 99 181
61 99 181
61 98 181
61 99 181
62 99 181
62 99 181
62 99 181
62 99 181
61 98 181
62 99 181
61 99 180
62 99 181
61 99 180
61 99 181
61 99 181
61 99 180
61 98 178
62 99 178
61 98 180
62 99 180
61 98 179
62 99 180
62 99 181
62 99 180
61 98 180
61 98 181
61 98 174
62 99 180
62 99 180
62 99 179
61 98 178
62 99 179
62 99 179
61 98 177
61 98 176
61 98 176
61 98 175
72 105 171
98 126 154
123 148 126
131 154 120
159 183 70
166 189 48
166 189 31
169 192 0
173 194 22
172 193 16
162 181 25
166 185 22
162 178 28
164 178 43
161 174 46
162 174 47
159 171 47
150 159 44
157 163 65
138 142 66
153 154 73
128 127 63
132 132 66
142 140 73
140 135 79
148 143 85
139 135 83
137 134 79
146 142 87
139 134 81
122 120 71
139 136 83
137 133 83
136 133 81
130 128 82
150 147 98
146 142 91
143 140 92
126 126 84
137 135 87
148 145 96
150 147 93
137 136 94
146 143 96
146 143 94
133 133 90
141 138 92
156 153 101
142 141 95
154 151 100
143 142 96
144 143 98
147 144 97
154 151 101
146 145 98
152 149 100
152 149 100
149 147 99
159 156 104
156 153 103
153 150 102
151 149 102
159 157 106
156 154 104
155 152 103
159 156 105
167 165 109
159 157 106
165 162 108
167 164 109
160 157 105
160 157 106
162 160 106
163 160 107
163 160 105
168 164 109
165 162 107
163 161 108
176 172 113
166 162 108
161 159 108
168 165 110
168 165 110
167 164 108
167 165 110
169 166 111
171 167 111
171 168 112
172 168 110
169 166 110
167 165 110
172 168 112
170 167 111
170 167 111
174 169 111
173 169 111
174 170 113
171 168 110
170 166 110
172 168 111
174 170 110
171 168 111
172 168 108
176 172 113
171 167 110
173 168 109
174 171 112
174 170 110
172 169 110
173 168 109
167 163 105
174 170 110
173 169 112
174 170 112
174 170 110
173 169 112
172 167 108
174 169 109
172 168 109
167 164 109
170 165 107
167 163 106
171 166 108
167 163 105
168 164 106
170 165 107
171 166 106
172 167 106
172 168 108
169 165 107
166 161 101
168 164 104
164 160 104
173 168 106
168 163 105
156 152 99
164 159 99
162 157 101
164 158 99
166 161 104
172 167 106
165 159 102
160 155 99
160 155 96
162 156 97
163 157 97
159 154 97
165 159 99
163 158 95
160 155 93
165 160 98
155 150 90
156 151 88
152 146 88
144 140 81
150 146 87
154 149 92
150 143 87
152 146 84
153 146 84
142 137 75
138 133 74
151 145 77
141 136 73
150 145 76
147 148 63
155 158 61
157 161 66
158 167 57
160 168 57
154 169 34
161 179 32
168 188 25
169 190 19
172 193 16
171 193 22
174 197 0
172 196 0
172 195 0
175 198 0
173 196 0
172 196 0
174 197 0
176 198 0
173 196 0
171 195 0
174 198 0
173 197 0
172 196 0
174 198 0
174 198 0
172 196 0
174 197 0
173 196 0
172 196 0
176 198 0
172 196 0
173 196 0
173 196 0
173 197 0
172 196 0
173 196 0
173 197 0
172 195 0
173 197 0
174 197 0
171 196 0
173 196 0
174 198 0
172 195 0
174 197 0
173 197 0
173 196 0
174 197 0
174 197 0
172 195 0
174 197 0
174 198 0
173 196 0
174 198 0
174 197 0
173 196 0
174 197 0
174 196 0
174 198 0
173 196 0
173 196 0
174 197 0
172 196 0
174 198 0
172 195 0
173 196 0
174 197 0
175 198 0
172 195 0
172 195 0
175 197 0
175 198 0
172 195 0
173 197 0
171 194 0
173 195 0
172 195 0
173 196 0
173 196 0
174 197 0
173 196 0
172 196 0
174 197 0
172 196 0
171 195 0
173 196 0
172 195 0
173 197 0
171 194 0
173 196 0
172 195 0
173 196 0
174 196 0
172 195 0
171 193 0
171 195 0
173 197 0
173 196 0
173 196 0
171 196 0
173 197 0
174 196 0
173 197 0
171 195 0
174 197 0
175 197 0
173 197 0
174 198 0
174 198 0
174 197 0
172 195 0
172 195 0
172 196 0
171 195 0
171 195 0
174 197 0
169 193 0
170 193 0
170 194 0
173 196 0
172 194 0
174 197 0
173 197 0
171 195 0
172 195 0
171 195 0
172 195 0
172 195 0
173 197 0
172 195 0
174 197 0
172 195 0
174 197 0
171 194 18
154 179 86
139 164 110
125 150 136
79 112 171
64 100 179
61 99 180
62 99 181
62 99 181
62 99 181
61 99 180
61 99 181
62 99 181
61 98 181
62 99 181
61 98 181
62 99 180
62 99 181
61 99 181
62 99 181
62 99 181
61 99 181
62 99 181
61 98 181
61 99 181
61 99 181
61 99 181
62 99 181
62 99 181
61 99 181
62 99 181
61 98 181
62 99 181
61 98 181
62 99 181
61 98 181
61 98 181
61 98 181
61 99 181
61 99 181
62 99 181
61 99 181
61 98 180
62 99 181
62 99 180
61 99 181
62 99 181
61 98 181
62 99 181
62 99 181
61 99 181
61 98 181
61 99 181
61 99 181
62 99 181
61 99 181
61 99 181
62 99 181
61 99 181
61 99 181
62 99 181
61 98 181
62 99 181
61 99 181
61 99 181
60 98 181
62 99 181
62 99 181
61 99 181
62 99 181
61 99 181
62 99 180
62 99 181
62 99 181
62 99 181
61 98 181
61 98 181
62 99 181
62 99 181
61 98 178
62 99 181
62 99 181
62 99 178
61 99 181
62 99 180
61 98 177
62 99 179
62 99 181
61 99 180
62 98 175
62 99 179
62 99 179
62 99 179
62 98 178
62 99 176
62 98 178
61 98 176
61 98 176
62 99 178
61 97 175
61 97 175
61 97 175
66 101 174
87 117 156
109 135 144
133 157 116
153 176 83
159 182 66
170 192 30
164 185 16
170 191 22
166 186 16
159 177 32
159 175 36
155 171 32
157 171 41
158 172 37
149 159 50
148 157 49
138 144 53
143 149 57
137 139 56
144 143 72
139 138 69
135 131 70
143 138 77
120 118 70
140 136 80
147 142 85
143 138 83
141 137 85
146 142 88
142 138 85
132 129 78
148 143 92
138 136 86
141 138 88
143 141 91
144 141 92
135 133 86
130 129 86
135 133 86
144 141 95
136 135 92
138 137 92
148 145 96
141 139 94
144 141 93
148 145 98
145 142 94
149 146 98
147 145 97
145 143 96
147 145 100
148 147 102
149 147 100
149 146 98
155 152 101
149 148 101
150 148 101
158 155 105
158 155 104
160 157 106
163 160 108
165 162 109
160 159 108
157 155 104
164 161 108
163 160 107
158 155 104
157 155 104
168 164 108
164 161 107
163 160 106
166 163 108
163 160 107
169 164 109
165 162 109
168 165 109
167 164 107
167 165 110
171 168 113
172 168 111
165 162 108
168 165 109
168 166 109
170 167 109
173 170 113
169 166 109
171 168 111
172 168 111
168 165 110
173 169 112
175 170 112
172 168 111
171 167 109
168 164 108
171 168 110
172 168 112
171 168 110
172 169 111
172 168 110
173 170 111
168 165 106
173 169 110
176 172 113
168 165 107
175 171 112
167 163 106
170 167 110
175 170 109
174 169 109
175 171 112
169 166 109
170 166 108
170 165 108
173 169 111
166 163 106
171 166 109
172 168 108
172 168 108
171 166 108
170 166 106
176 169 109
172 167 108
166 161 104
170 165 106
168 164 103
174 169 109
166 161 101
169 164 104
169 164 106
171 165 104
170 165 105
166 161 103
163 158 100
165 159 101
166 162 104
170 165 106
163 159 100
163 158 101
166 161 103
167 161 101
162 157 95
159 154 97
156 150 90
161 156 95
161 155 93
164 157 99
168 162 99
159 155 94
157 150 87
160 154 96
160 154 96
152 146 87
153 148 86
156 150 88
149 144 82
147 143 82
160 153 94
151 145 83
148 143 80
147 141 80
145 137 81
141 136 74
145 141 74
130 130 60
147 149 61
144 150 56
153 162 59
156 166 54
157 166 51
159 175 37
169 187 30
164 182 28
170 190 28
173 195 11
173 195 11
173 196 0
173 197 0
172 196 0
173 196 0
173 196 0
174 198 0
174 198 0
173 197 0
175 198 0
174 197 0
174 197 0
174 197 0
175 198 0
173 196 0
172 196 0
174 198 0
172 196 0
174 197 0
172 195 0
174 198 0
174 196 0
172 196 0
173 197 0
174 198 0
172 196 0
173 197 0
175 198 0
175 198 0
174 197 0
171 195 0
174 198 0
172 195 0
171 195 0
174 198 0
174 197 0
171 195 0
174 197 0
171 195 0
173 197 0
172 195 0
174 197 0
172 195 0
172 196 0
169 193 0
174 197 0
172 195 0
173 196 0
174 197 0
173 196 0
170 195 0
170 194 0
174 197 0
173 196 0
173 197 0
175 198 0
170 194 0
170 194 0
172 195 0
170 194 0
175 198 0
175 198 0
172 195 0
175 198 0
172 195 0
172 196 0
171 195 0
175 198 0
175 198 0
174 197 0
172 195 0
173 197 0
174 198 0
173 196 0
174 197 0
172 196 0
171 194 0
174 198 0
169 193 0
171 194 0
173 196 0
174 198 0
175 197 0
173 197 0
171 195 0
172 196 0
173 196 0
175 198 0
173 197 0
173 197 0
175 198 0
171 195 0
173 196 0
174 197 0
173 196 0
170 193 0
173 197 0
170 194 0
173 196 0
174 197 0
173 196 0
173 196 0
172 196 0
174 198 0
170 194 0
175 198 0
168 192 0
171 195 0
170 194 0
171 194 0
171 195 0
173 197 0
172 196 0
174 197 0
170 193 0
173 196 0
172 195 0
172 196 0
172 196 0
171 195 0
173 197 0
172 196 0
163 187 57
152 177 86
135 161 115
101 130 154
77 110 172
62 99 181
62 99 181
62 99 181
62 99 180
62 99 181
61 99 181
62 99 181
62 99 181
61 99 181
62 99 181
62 99 181
61 99 181
61 99 180
62 99 181
61 99 181
62 99 181
62 99 181
61 98 181
61 99 181
62 99 181
62 99 181
61 99 181
61 99 181
62 99 181
61 99 181
62 99 181
62 99 181
61 98 181
61 99 181
61 99 181
61 99 181
61 99 181
61 98 181
61 98 181
61 99 181
61 99 181
62 99 181
62 99 181
61 99 181
62 99 181
61 99 181
62 99 181
61 99 181
61 99 181
61 98 181
61 98 181
61 99 181
61 99 181
61 99 181
61 99 181
61 99 181
62 99 181
62 99 181
61 99 181
62 99 181
61 99 181
62 99 181
62 99 181
62 99 181
61 99 181
61 99 181
62 99 181
62 99 181
61 99 181
61 99 181
62 99 181
61 99 180
62 99 181
61 98 181
62 99 180
62 99 181
62 99 181
62 99 181
62 99 180
62 99 180
62 99 180
61 98 180
62 99 180
62 99 181
62 99 180
62 99 179
62 99 181
61 98 180
62 99 181
61 98 178
61 98 178
61 99 180
62 99 180
61 98 175
61 98 177
61 98 176
61 98 178
62 99 179
62 99 178
61 98 177
61 98 175
61 98 175
62 98 174
62 98 176
63 99 173
76 108 162
108 135 142
118 144 131
144 166 96
158 181 69
158 179 47
167 185 28
167 187 11
167 183 39
160 176 36
160 174 42
156 168 45
158 168 53
152 162 51
149 156 58
135 138 60
138 140 65
141 141 63
143 141 71
142 139 75
144 139 78
141 138 77
141 136 76
128 125 74
134 129 79
144 140 88
145 141 87
141 137 81
126 123 76
141 138 87
135 132 82
141 138 89
139 137 86
143 139 86
139 137 89
145 142 94
138 136 92
135 133 87
144 142 95
134 133 87
149 146 95
143 141 93
149 146 93
141 139 92
142 140 94
143 141 95
149 147 100
146 144 96
147 144 97
154 152 103
151 149 100
150 148 100
152 149 99
149 147 97
149 148 102
145 143 97
151 148 101
158 155 104
152 151 103
159 156 104
149 148 101
159 157 106
156 154 104
152 149 100
156 154 103
163 161 108
162 159 107
162 159 106
164 161 107
158 156 105
161 159 105
167 163 108
165 163 108
166 163 109
166 163 108
160 157 106
169 165 110
164 161 107
162 160 108
164 162 107
172 167 110
168 165 109
169 167 112
167 164 108
166 163 108
169 166 108
170 166 108
168 165 110
170 166 109
171 167 110
170 167 111
172 168 109
171 168 111
172 168 111
173 169 110
173 170 112
172 168 109
175 170 112
173 169 110
169 167 110
175 171 112
173 169 111
176 171 111
171 167 108
173 169 110
171 166 108
170 166 107
175 170 111
171 166 108
175 171 110
170 165 107
170 166 108
175 170 110
173 168 109
169 165 104
171 166 106
172 168 108
175 170 111
167 162 103
168 164 105
168 164 107
172 168 109
170 167 109
169 165 103
170 164 103
166 161 101
169 164 106
163 158 100
169 164 104
172 167 107
166 161 101
163 159 99
169 164 105
171 166 99
167 163 102
161 156 98
156 151 94
163 159 96
165 160 98
164 159 98
162 157 98
160 155 99
162 157 98
166 159 99
159 154 93
169 163 100
165 159 100
163 157 95
164 158 95
154 147 86
161 156 93
159 152 95
161 155 90
159 154 91
145 140 81
143 138 78
159 153 91
142 136 80
142 137 76
153 146 83
150 144 85
147 143 75
142 144 60
139 140 56
144 149 59
157 166 52
151 162 45
168 181 51
162 176 42
160 177 32
166 184 34
170 190 25
171 192 0
173 196 11
175 198 0
173 196 0
175 198 0
172 195 0
172 195 0
173 196 0
173 197 0
173 197 0
174 197 0
174 198 0
171 194 0
175 197 0
173 196 0
172 196 0
174 198 0
175 198 0
171 195 0
175 198 0
173 197 0
173 197 0
173 196 0
175 198 0
174 198 0
174 197 0
172 196 0
173 197 0
173 197 0
172 196 0
174 197 0
173 197 0
171 195 0
173 197 0
174 197 0
172 195 0
172 196 0
174 197 0
170 194 0
173 197 0
170 194 0
174 197 0
174 197 0
174 197 0
174 197 0
173 197 0
168 192 0
175 198 0
174 198 0
174 197 0
174 198 0
171 196 0
176 198 0
172 195 0
172 196 0
174 197 0
173 196 0
174 197 0
172 195 0
174 197 0
173 197 0
172 195 0
174 197 0
174 197 0
171 194 0
172 195 0
171 196 0
172 196 0
174 197 0
173 197 0
172 195 0
175 197 0
174 198 0
174 197 0
173 196 0
174 197 0
170 194 0
173 196 0
171 194 0
175 197 0
173 197 0
173 196 0
174 197 0
172 195 0
174 197 0
174 197 0
173 197 0
173 197 0
173 196 0
172 194 0
171 195 0
174 196 0
173 197 0
173 196 0
173 196 0
173 195 0
172 195 0
171 194 0
172 196 0
173 197 0
172 195 0
173 196 0
171 195 0
172 195 0
175 197 0
174 197 0
170 194 0
172 196 0
172 195 0
174 196 0
172 195 0
173 195 0
172 196 0
174 196 0
171 194 0
173 196 0
170 194 0
174 197 0
173 196 0
169 193 0
170 194 0
173 196 0
161 184 65
156 180 74
129 154 130
89 120 164
62 99 181
62 99 181
62 99 180
62 99 180
62 99 181
62 99 181
62 99 181
62 99 181
62 99 181
62 99 180
61 99 181
62 99 180
62 99 181
62 99 181
62 99 181
61 99 181
62 99 181
61 98 181
62 99 181
61 99 181
61 99 181
61 99 181
62 99 181
61 99 181
61 99 181
62 99 181
61 99 181
62 99 181
62 99 181
62 99 181
61 99 181
62 99 181
62 99 181
61 99 181
61 99 181
61 99 181
61 99 181
61 98 181
61 98 181
62 99 181
61 99 181
61 99 181
62 99 181
62 99 181
62 99 181
61 98 181
61 98 181
61 99 181
62 99 181
61 99 181
62 99 181
62 99 181
62 99 181
61 99 181
61 99 181
61 99 181
61 99 181
61 99 181
62 99 181
62 99 181
61 99 181
62 99 181
62 99 181
61 99 181
61 99 181
61 99 181
62 99 181
62 99 181
61 99 181
62 99 180
62 99 181
62 99 181
62 99 180
62 99 181
61 99 180
62 99 179
62 99 181
61 99 181
62 99 181
62 99 181
61 99 179
62 99 181
62 99 180
62 99 180
62 99 181
62 99 181
61 98 179
62 99 179
61 98 177
62 98 178
61 98 179
61 98 178
61 98 177
61 98 178
62 99 179
62 99 180
61 98 175
61 97 176
61 97 176
61 98 178
61 97 173
61 97 174
61 97 174
63 99 175
91 120 157
119 144 134
138 159 105
143 166 97
163 181 47
164 181 39
160 178 28
155 170 31
156 167 49
161 173 48
143 152 50
150 158 53
143 150 60
143 146 62
154 156 74
148 148 67
137 133 71
138 135 71
144 140 81
147 141 83
132 128 76
146 140 85
132 129 78
131 128 81
140 137 83
142 138 83
134 131 82
134 130 83
139 136 85
131 129 86
140 138 91
136 134 88
131 130 86
142 140 94
132 130 89
141 139 93
145 142 94
139 138 94
141 139 94
140 137 93
143 141 95
150 146 97
142 141 95
143 140 95
151 148 100
147 145 96
151 149 99
150 147 98
147 145 99
147 145 98
153 151 101
144 143 97
147 145 100
144 143 96
157 154 103
156 153 104
151 149 101
149 147 101
162 159 107
161 159 105
164 161 108
159 157 105
159 157 104
169 165 108
161 158 106
163 160 105
156 154 105
162 161 109
166 163 109
161 158 106
166 163 108
165 162 108
167 163 109
166 163 109
165 161 106
163 161 108
166 163 108
170 166 110
169 166 110
169 165 108
166 163 108
167 165 109
171 168 110
167 164 109
170 167 111
173 170 111
173 170 112
171 168 110
171 167 110
174 169 111
167 164 107
173 170 113
173 169 110
172 168 110
172 168 112
173 168 110
175 169 110
174 169 110
170 166 109
175 170 112
171 167 109
171 167 109
175 170 111
173 169 109
172 167 107
172 168 109
172 168 109
172 167 110
174 170 112
173 168 109
174 170 110
173 168 108
172 167 108
170 164 106
167 163 104
173 169 109
171 166 106
168 164 106
167 162 105
169 164 106
173 168 108
171 166 105
172 168 109
165 162 103
169 166 104
170 165 106
167 163 105
166 162 102
161 156 100
169 165 102
168 163 100
167 162 101
169 163 103
171 165 104
170 165 100
163 158 99
168 162 100
160 154 95
166 161 99
160 155 93
162 156 97
161 156 93
157 152 94
159 154 95
161 155 96
159 153 93
160 155 90
161 155 97
154 148 90
157 151 90
152 146 87
156 150 85
145 140 81
156 150 84
150 145 82
154 148 89
145 139 79
146 140 78
144 139 78
150 145 73
146 142 75
146 145 68
147 149 67
144 149 58
154 163 56
155 164 53
157 169 41
161 175 44
163 180 30
168 186 36
171 192 19
172 194 11
170 193 0
170 194 0
173 197 0
174 198 0
174 197 0
175 198 0
173 197 0
172 197 0
174 197 0
172 196 0
172 195 0
173 197 0
174 197 0
172 196 0
172 195 0
175 197 0
173 196 0
173 197 0
174 197 0
172 196 0
174 197 0
174 197 0
173 196 0
175 198 0
171 195 0
173 196 0
173 196 0
173 196 0
171 196 0
175 198 0
173 197 0
173 196 0
174 198 0
175 198 0
174 198 0
173 195 0
171 195 0
172 196 0
172 196 0
175 198 0
173 197 0
172 195 0
172 196 0
173 197 0
172 196 0
174 197 0
170 193 0
173 197 0
172 196 0
174 197 0
172 196 0
174 197 0
173 197 0
172 196 0
170 194 0
172 196 0
173 197 0
174 198 0
173 196 0
174 198 0
172 195 0
173 196 0
173 196 0
172 196 0
173 197 0
173 197 0
171 195 0
172 196 0
174 197 0
173 196 0
173 195 0
173 197 0
173 195 0
172 195 0
173 196 0
171 194 0
174 197 0
173 196 0
174 197 0
173 197 0
173 196 0
175 197 0
173 196 0
173 197 0
172 195 0
173 197 0
172 195 0
173 196 0
172 195 0
171 194 0
173 196 0
172 195 0
173 197 0
172 196 0
171 195 0
171 194 0
172 195 0
172 195 0
176 198 0
171 195 0
173 197 0
172 195 0
174 196 0
174 197 0
173 197 0
171 194 0
168 193 0
173 196 0
172 196 0
176 198 0
173 196 0
172 195 0
169 193 0
174 198 0
171 194 0
170 194 0
171 194 0
170 194 0
171 194 40
161 184 70
142 168 110
115 142 144
83 114 168
64 100 180
62 99 179
61 98 180
61 99 181
62 99 181
61 99 179
61 99 181
62 99 181
62 99 181
62 99 181
62 99 181
62 99 181
61 98 181
62 99 181
61 99 181
62 99 181
62 99 181
62 99 181
61 99 181
62 99 181
62 99 181
61 99 181
61 99 181
61 98 181
62 99 181
62 99 181
62 99 181
62 99 181
62 99 181
62 99 181
61 99 181
62 99 181
61 99 181
61 99 181
62 99 181
61 99 181
62 99 181
61 98 181
62 99 181
61 98 181
62 99 181
61 98 181
61 98 181
61 98 181
62 99 181
62 99 181
61 99 181
62 99 181
62 99 181
62 99 181
61 99 181
61 99 181
62 99 181
61 98 180
62 99 181
61 99 181
62 99 181
61 98 181
61 98 181
62 99 181
62 99 181
61 99 181
62 99 181
61 98 181
62 99 181
62 99 180
61 99 181
62 99 181
62 99 181
61 99 181
61 99 181
61 98 180
62 99 181
62 99 180
61 99 181
61 99 181
61 98 180
62 99 181
62 99 181
62 99 180
61 99 180
62 99 181
62 99 181
62 99 181
62 99 180
61 99 181
62 98 178
61 98 179
62 99 179
62 99 180
61 99 180
62 99 177
62 98 177
62 99 180
61 98 178
62 99 177
61 97 174
62 99 179
62 98 177
62 99 177
62 98 175
62 98 177
61 98 176
61 97 173
61 97 175
63 98 170
76 108 167
100 127 147
109 130 128
138 158 100
155 173 57
157 175 39
156 170 35
161 174 42
154 169 43
153 161 51
153 158 63
143 149 55
145 150 59
149 148 70
141 143 64
141 142 70
132 130 65
140 135 79
140 135 82
138 133 79
128 125 75
138 134 83
139 135 84
131 127 79
130 126 76
137 133 84
129 127 82
130 127 82
123 123 81
136 134 86
136 134 87
127 125 84
145 142 92
134 132 86
145 143 94
141 139 93
147 144 95
137 135 89
133 133 92
146 143 95
135 133 91
155 151 102
136 135 90
145 142 96
140 138 93
149 147 98
140 138 93
148 147 101
158 154 103
158 155 104
147 145 100
150 148 100
152 149 101
155 152 103
149 147 100
154 152 103
154 152 103
152 150 102
152 150 101
157 155 103
154 151 101
158 155 105
158 155 103
159 155 104
160 157 107
158 155 104
163 161 109
164 161 107
161 158 107
164 161 107
165 162 108
165 162 107
167 164 109
160 158 106
169 165 108
164 161 108
172 168 110
170 167 110
167 164 108
171 168 110
171 167 111
168 165 110
170 168 111
171 168 111
169 166 110
170 167 110
169 166 110
174 169 111
174 170 110
172 168 110
173 168 111
173 170 110
177 171 112
176 171 111
168 164 107
174 170 111
169 165 108
174 170 111
175 170 111
173 168 109
171 168 108
173 169 110
176 171 113
175 170 108
174 169 108
172 166 108
172 169 110
168 164 107
167 164 105
174 169 109
170 166 106
174 168 109
168 163 105
168 164 106
175 170 109
176 170 110
167 163 103
171 166 106
171 166 109
171 165 105
168 163 102
171 166 106
171 166 106
170 166 104
170 164 104
168 163 106
166 161 100
161 157 98
172 166 105
166 160 102
166 161 99
168 163 103
164 158 97
171 165 104
168 162 102
166 161 97
157 153 97
170 165 101
170 164 101
163 158 95
160 155 93
153 147 89
162 156 95
166 160 95
156 151 86
155 149 92
162 156 95
159 153 92
159 152 89
154 148 87
150 144 84
153 148 85
158 150 88
159 153 85
136 132 74
156 149 87
145 140 75
141 135 76
142 138 73
142 137 71
146 145 66
149 150 68
149 156 54
160 165 62
153 163 49
156 167 45
162 177 39
162 182 30
171 190 30
170 190 28
170 192 16
172 195 0
173 197 0
175 198 0
173 197 0
173 197 0
175 198 0
174 197 0
174 198 0
173 196 0
174 197 0
173 197 0
174 197 0
172 195 0
173 197 0
172 195 0
172 196 0
172 196 0
173 197 0
172 195 0
175 198 0
174 197 0
173 197 0
173 197 0
175 198 0
173 197 0
172 196 0
172 196 0
173 197 0
172 195 0
172 196 0
174 197 0
173 196 0
173 197 0
172 195 0
172 196 0
174 197 0
173 196 0
171 195 0
173 197 0
175 198 0
175 198 0
172 196 0
173 197 0
172 196 0
175 198 0
173 196 0
172 196 0
174 197 0
171 194 0
175 197 0
174 197 0
173 197 0
173 196 0
174 197 0
172 196 0
174 197 0
171 195 0
173 197 0
174 197 0
172 195 0
174 197 0
173 196 0
174 197 0
173 195 0
172 196 0
171 195 0
173 197 0
172 196 0
174 197 0
173 196 0
174 197 0
172 195 0
173 196 0
173 197 0
172 195 0
172 196 0
170 193 0
171 195 0
173 196 0
172 195 0
173 196 0
172 195 0
174 197 0
173 196 0
172 196 0
173 196 0
171 195 0
173 196 0
172 196 0
173 197 0
172 196 0
174 197 0
173 196 0
173 196 0
170 194 0
172 196 0
175 198 0
171 195 0
172 196 0
170 195 0
174 197 0
171 195 0
174 197 0
172 196 0
171 193 0
173 196 0
172 196 0
173 196 0
173 195 0
173 197 0
169 192 0
173 195 0
167 190 0
173 196 0
172 196 0
171 194 0
171 194 0
167 191 40
155 178 80
137 162 117
105 133 153
69 104 176
62 99 180
62 99 181
62 99 181
62 99 180
62 99 181
62 99 181
62 99 180
61 99 180
62 99 180
62 99 181
61 99 181
61 98 181
62 99 181
61 99 181
62 99 181
61 99 181
61 99 181
61 99 181
61 99 181
62 99 181
62 99 181
62 99 181
61 98 181
61 99 181
61 99 181
61 98 181
62 99 181
62 99 181
61 99 181
62 99 181
61 99 181
61 99 181
62 99 180
61 99 181
62 99 181
61 99 181
61 99 181
62 99 181
61 99 181
61 99 181
62 99 181
62 99 181
61 98 181
61 98 181
62 99 181
62 99 181
61 99 181
61 98 181
61 99 181
61 98 181
61 99 181
61 99 181
61 99 181
62 99 181
62 99 181
61 99 181
62 99 181
61 98 181
61 99 181
61 98 181
61 98 181
62 99 181
61 99 181
61 99 181
61 99 181
61 99 181
61 98 181
62 99 181
61 99 181
62 99 180
61 99 181
62 99 181
61 99 181
61 99 180
61 98 181
62 99 180
62 99 179
61 98 181
61 99 179
62 99 181
62 99 179
62 99 181
62 99 181
61 99 181
61 99 181
61 98 179
61 99 180
62 99 179
62 99 177
62 99 180
61 98 180
61 98 176
62 99 178
62 99 179
62 98 179
62 99 178
62 99 178
61 98 176
61 98 176
61 98 177
61 98 176
61 98 178
61 97 173
62 99 177
61 98 177
60 97 175
61 97 174
63 98 171
65 100 171
98 125 148
119 140 124
127 145 118
146 163 71
149 164 47
157 172 37
153 161 55
146 156 45
146 153 54
145 149 62
139 139 63
144 145 68
135 136 63
131 129 65
140 136 72
136 131 73
132 128 73
148 142 87
128 124 77
144 140 85
138 134 85
129 127 83
139 137 86
145 140 90
136 133 85
136 134 85
134 132 86
129 127 84
134 132 85
134 133 89
131 129 88
140 139 92
147 144 94
149 146 95
147 144 97
145 142 96
148 146 99
151 148 97
147 144 98
137 136 92
146 144 98
138 137 95
142 140 94
147 146 100
141 140 96
150 148 100
149 147 100
146 144 97
145 144 99
146 144 97
157 154 103
147 146 98
153 150 101
152 151 101
153 151 102
151 149 101
162 158 106
157 154 103
155 153 104
160 157 106
159 156 104
165 162 108
160 158 105
163 160 105
159 156 104
163 160 105
166 163 108
165 162 109
167 165 111
164 161 106
163 160 106
163 160 108
162 160 108
166 162 109
165 162 106
168 164 109
167 164 106
169 165 108
174 169 112
169 165 109
167 164 109
169 167 111
170 166 110
171 167 108
175 170 112
170 167 110
171 167 110
175 171 111
173 168 110
170 167 109
171 167 109
175 171 111
173 168 109
174 169 110
172 168 107
174 170 110
169 165 108
173 169 108
174 169 110
172 168 108
174 169 110
179 173 112
174 169 110
173 169 107
172 168 108
177 171 111
174 169 109
173 168 110
174 168 108
174 169 106
174 169 109
170 166 107
174 169 106
173 169 105
172 166 107
169 164 105
169 165 105
169 164 106
171 167 108
167 162 101
162 158 96
162 158 101
163 158 99
167 163 102
167 162 104
169 164 102
173 167 106
172 166 103
166 161 100
174 168 107
170 165 103
164 160 98
170 164 104
163 158 97
162 156 97
159 154 98
160 156 99
166 160 97
160 154 96
163 157 94
162 156 95
162 156 92
159 152 92
160 154 93
159 153 90
156 149 93
154 149 90
161 155 91
161 154 91
149 142 84
157 151 89
148 143 80
152 146 84
142 137 75
144 138 77
139 134 76
153 146 79
144 140 75
148 146 75
147 149 57
142 147 58
161 170 53
159 167 60
152 165 41
156 172 32
159 173 36
165 184 22
174 195 19
173 194 16
173 195 0
174 197 0
173 197 0
175 197 0
172 196 0
171 195 0
171 194 0
175 198 0
173 197 0
175 198 0
173 197 0
174 197 0
172 196 0
174 197 0
173 196 0
174 197 0
174 197 0
173 197 0
174 197 0
173 196 0
173 196 0
172 196 0
173 196 0
172 195 0
170 192 0
174 196 0
173 197 0
174 198 0
174 197 0
172 195 0
170 193 0
173 197 0
173 196 0
173 197 0
172 195 0
174 197 0
172 195 0
173 197 0
174 197 0
173 196 0
173 197 0
173 197 0
174 197 0
175 198 0
172 195 0
172 196 0
174 197 0
176 198 0
173 197 0
174 197 0
173 197 0
173 196 0
174 196 0
173 196 0
173 197 0
171 195 0
172 196 0
171 195 0
175 198 0
170 193 0
176 198 0
174 197 0
174 197 0
171 196 0
171 194 0
173 196 0
172 195 0
173 196 0
175 198 0
172 196 0
174 197 0
172 196 0
174 197 0
172 195 0
170 194 0
174 197 0
172 195 0
172 196 0
171 196 0
173 196 0
171 195 0
173 196 0
172 195 0
173 196 0
174 197 0
174 198 0
173 196 0
173 196 0
174 197 0
172 195 0
173 197 0
172 195 0
172 195 0
174 196 0
172 196 0
174 197 0
172 195 0
173 196 0
173 196 0
173 196 0
169 192 0
173 196 0
173 196 0
173 196 0
172 195 0
172 195 0
173 197 0
173 196 0
171 195 0
172 196 0
171 194 0
171 194 0
172 196 0
170 193 0
170 194 0
175 198 0
165 190 47
152 176 88
135 160 122
97 126 159
61 99 180
62 99 181
62 99 181
62 99 181
61 99 181
62 99 181
62 99 181
62 99 181
62 99 181
62 99 181
62 99 181
62 99 179
61 99 181
62 99 181
62 99 181
61 98 181
61 99 181
62 99 181
61 99 181
61 99 181
62 99 181
62 99 181
61 99 181
61 98 181
61 99 180
62 99 181
61 99 181
62 99 181
62 99 181
61 99 181
61 99 181
61 99 181
61 98 181
62 99 181
62 99 181
61 98 181
62 99 181
61 99 181
62 99 180
61 98 181
62 99 181
62 99 181
61 99 181
61 99 181
62 99 181
61 99 181
61 99 181
61 99 181
62 99 181
62 99 181
61 99 181
62 100 181
61 99 181
61 99 181
61 99 181
61 99 181
61 99 181
62 99 181
61 99 181
61 98 181
62 99 181
62 99 181
62 99 180
62 99 180
61 99 181
61 98 180
62 99 181
61 98 181
61 99 181
61 99 181
62 99 181
62 99 181
62 99 181
62 99 181
62 99 181
61 99 180
61 99 180
62 99 181
61 99 180
62 99 179
62 99 181
61 99 181
61 98 178
61 99 180
62 99 180
62 99 180
62 99 181
62 99 180
61 99 180
61 99 181
62 99 180
62 98 177
61 98 179
61 98 180
62 99 180
61 99 179
61 97 176
62 98 177
62 99 181
61 97 175
62 99 177
62 99 179
62 99 176
61 97 174
61 97 175
62 98 177
61 97 176
62 98 174
62 98 173
62 97 171
61 97 170
64 99 174
91 117 153
108 131 134
131 150 107
141 155 84
149 164 51
147 157 49
143 150 56
138 143 62
140 147 46
145 147 67
137 137 67
144 141 66
138 134 75
131 127 70
132 127 73
117 115 68
142 137 82
122 120 73
126 124 76
131 128 77
127 124 77
137 133 83
137 133 83
140 136 85
135 132 80
137 134 88
134 133 88
145 141 91
138 136 90
139 137 89
130 129 85
142 139 89
139 137 91
141 139 91
144 143 96
138 137 94
135 134 91
136 134 89
137 137 94
144 143 95
152 149 100
139 139 95
152 150 101
145 143 96
145 143 95
144 144 100
147 145 96
141 140 96
145 144 99
146 145 97
160 157 106
149 148 101
160 157 104
156 154 104
160 157 106
154 152 103
160 157 105
157 156 103
152 150 102
160 158 106
159 157 105
157 154 104
159 157 104
166 163 107
167 163 109
164 162 109
161 159 106
163 161 108
164 162 108
164 161 108
165 163 108
163 160 108
168 164 109
162 160 107
169 165 108
170 165 107
165 162 108
173 169 109
172 168 110
172 168 110
175 170 111
177 172 113
174 170 110
174 169 109
170 167 110
172 167 109
172 168 109
171 167 110
175 170 107
177 172 112
176 171 110
172 168 109
172 168 110
172 168 108
174 169 108
175 170 108
172 168 109
173 169 110
175 171 112
175 170 108
171 167 109
172 168 108
171 167 108
172 168 108
172 167 108
168 165 106
176 170 110
172 168 109
172 167 107
170 166 104
168 165 107
172 166 106
175 170 110
167 163 106
171 166 107
175 170 109
172 167 107
168 164 101
169 164 103
172 167 109
172 167 108
170 165 106
173 167 107
169 164 103
167 162 103
169 164 104
172 166 108
165 160 99
164 159 102
163 158 97
170 164 102
167 160 99
163 158 98
163 159 94
163 156 98
163 157 95
162 156 95
159 154 93
167 161 99
159 156 95
158 153 90
162 155 94
155 149 88
160 153 94
150 145 84
159 154 90
156 150 89
149 145 81
157 151 88
157 151 86
147 141 79
152 146 79
146 140 76
160 153 90
145 139 77
148 142 80
147 144 78
147 145 65
159 159 72
158 160 69
146 154 48
162 171 57
162 172 52
162 175 44
164 183 32
163 182 25
168 189 16
170 192 19
168 190 0
172 195 0
173 196 0
174 197 0
174 197 0
174 197 0
173 197 0
174 197 0
172 195 0
173 196 0
173 197 0
173 196 0
171 194 0
175 198 0
173 197 0
174 197 0
173 197 0
173 197 0
172 195 0
174 198 0
174 197 0
173 196 0
172 196 0
171 195 0
173 197 0
175 198 0
173 197 0
173 196 0
174 197 0
174 197 0
173 196 0
174 197 0
174 197 0
174 197 0
174 197 0
172 196 0
172 196 0
172 196 0
173 196 0
174 197 0
174 197 0
172 195 0
174 197 0
172 196 0
174 198 0
174 197 0
171 195 0
174 197 0
173 197 0
171 195 0
172 196 0
174 196 0
173 196 0
172 196 0
174 197 0
172 196 0
173 197 0
171 194 0
175 198 0
174 198 0
172 195 0
173 197 0
173 195 0
172 196 0
173 197 0
174 197 0
174 197 0
173 197 0
173 197 0
172 196 0
173 196 0
173 196 0
174 198 0
170 194 0
172 195 0
173 196 0
174 196 0
171 194 0
172 195 0
173 197 0
173 197 0
171 195 0
172 196 0
173 197 0
173 196 0
170 195 0
173 197 0
171 195 0
169 192 0
173 196 0
171 194 0
174 197 0
173 196 0
174 197 0
171 195 0
171 194 0
172 195 0
174 196 0
173 197 0
170 194 0
172 196 0
167 191 0
171 195 0
169 192 0
172 195 0
172 196 0
173 195 0
171 194 0
172 196 0
170 193 0
169 192 0
170 193 0
174 197 0
175 198 0
172 197 0
172 195 31
153 177 88
129 154 127
95 124 161
65 101 180
62 99 180
61 99 181
61 98 181
62 99 180
62 99 181
61 99 181
61 99 180
62 99 181
61 99 181
62 99 181
62 99 181
62 99 181
62 99 181
61 98 181
61 99 181
61 99 181
61 98 181
61 99 181
62 99 180
61 98 181
61 98 181
61 98 181
62 99 181
62 99 181
62 99 181
62 99 181
61 99 181
61 99 181
61 98 181
61 99 181
61 99 181
62 99 181
61 98 181
62 99 181
61 99 181
62 99 181
61 99 180
62 99 181
61 99 181
61 99 181
61 99 181
61 99 181
61 98 181
61 98 181
62 99 181
62 99 181
62 99 181
61 99 181
62 99 181
61 99 181
62 99 180
62 99 181
61 99 181
62 99 181
62 99 181
61 98 181
61 98 181
62 99 181
61 99 181
62 99 181
61 98 181
61 98 180
62 99 181
62 99 181
61 99 181
61 99 181
62 99 180
61 99 181
62 99 181
62 99 180
61 99 181
61 99 181
62 99 181
61 98 181
62 99 181
62 99 181
62 99 181
62 99 181
62 99 181
62 99 180
61 99 180
61 99 181
61 98 180
62 99 180
62 99 179
62 99 180
61 99 179
62 99 181
62 99 180
62 99 178
61 98 179
61 98 177
61 98 177
62 99 179
62 99 179
62 99 178
62 99 180
62 98 177
61 98 178
62 99 179
62 98 176
61 98 178
61 98 178
61 98 173
62 98 175
62 98 172
62 98 176
62 98 174
61 98 174
62 98 176
62 99 177
61 97 172
61 97 170
87 115 154
109 128 134
114 132 115
131 142 81
150 162 53
154 159 64
142 150 54
141 147 56
131 135 51
130 132 65
134 133 70
141 138 77
129 126 63
126 124 68
131 126 72
125 122 71
119 116 71
133 131 78
122 119 72
133 131 86
135 132 81
130 128 82
141 139 89
136 133 87
126 125 81
125 122 80
131 129 85
134 133 90
137 134 89
140 138 90
138 135 88
129 128 88
134 133 89
142 140 93
137 136 91
133 133 90
151 148 101
137 135 92
133 132 90
144 142 95
142 141 96
138 136 92
147 145 99
133 133 91
148 146 98
139 138 93
149 148 99
150 148 100
152 150 100
147 146 100
155 153 103
155 153 102
153 151 101
150 148 102
154 152 99
152 151 103
159 155 103
162 160 108
162 159 106
162 159 106
151 149 100
160 158 106
164 160 106
162 160 107
165 162 109
161 158 104
167 164 108
164 161 106
162 161 107
170 167 111
172 168 110
167 163 108
165 163 108
164 161 105
169 166 109
170 166 110
166 162 106
168 164 108
169 165 108
167 164 106
171 166 109
171 167 109
174 169 112
172 168 110
174 170 111
175 171 113
171 168 110
175 170 108
172 167 110
171 166 108
174 169 110
172 167 107
170 166 107
174 170 111
174 170 111
175 169 110
171 167 108
178 172 112
174 169 107
176 170 109
174 169 110
170 166 108
169 165 106
173 168 106
172 168 109
172 167 106
172 167 108
176 170 109
167 162 102
167 163 104
175 170 108
171 165 104
168 163 106
177 171 110
168 164 104
175 169 109
172 167 107
173 169 109
169 165 105
173 167 108
170 165 106
164 160 101
167 162 103
169 163 103
169 164 103
169 164 104
168 163 101
165 160 96
168 162 99
165 159 98
168 162 102
166 160 100
162 157 94
169 162 100
160 154 90
157 152 90
165 159 95
158 152 93
164 159 97
162 155 94
149 144 84
157 150 94
162 155 90
158 152 91
155 149 86
149 144 79
164 157 94
159 152 91
157 152 81
158 152 84
157 151 88
157 151 85
140 135 77
148 142 77
143 138 76
144 139 78
153 151 70
141 141 65
146 150 62
156 164 57
152 159 54
165 176 53
158 170 44
162 180 28
162 179 34
165 184 25
171 191 22
174 195 11
174 197 0
172 196 0
172 196 0
173 196 0
173 196 0
170 194 0
173 196 0
176 198 0
173 196 0
174 198 0
173 196 0
174 197 0
171 195 0
173 196 0
175 198 0
173 196 0
173 197 0
173 196 0
173 197 0
174 197 0
175 198 0
173 196 0
172 196 0
174 197 0
172 196 0
172 196 0
173 197 0
173 196 0
173 197 0
173 197 0
173 197 0
172 195 0
172 194 0
172 195 0
172 196 0
174 197 0
169 193 0
170 194 0
175 198 0
172 195 0
169 192 0
174 197 0
171 194 0
174 197 0
173 196 0
172 196 0
172 196 0
173 197 0
175 197 0
173 196 0
174 196 0
171 195 0
172 195 0
171 196 0
171 195 0
172 195 0
174 197 0
173 196 0
173 196 0
173 196 0
173 196 0
173 197 0
173 197 0
172 195 0
169 194 0
172 196 0
173 196 0
172 196 0
171 194 0
169 192 0
171 194 0
169 193 0
172 196 0
171 195 0
172 196 0
176 198 0
172 195 0
173 196 0
175 197 0
171 194 0
171 195 0
174 196 0
171 194 0
170 195 0
172 196 0
173 196 0
173 196 0
174 197 0
170 194 0
171 195 0
173 196 0
174 196 0
171 196 0
174 197 0
173 196 0
170 193 0
175 198 0
173 196 0
172 195 0
172 196 0
171 194 0
170 195 0
172 194 0
173 196 0
172 195 0
169 193 0
173 196 0
171 195 0
171 195 0
171 195 0
171 196 0
173 196 0
172 195 18
159 183 60
148 172 99
124 149 135
83 115 169
64 101 178
62 99 181
62 99 181
62 99 181
62 99 180
62 99 181
61 99 180
61 99 181
62 99 181
62 99 181
62 99 181
62 99 181
61 99 181
61 99 181
62 99 181
62 99 181
62 99 181
62 99 181
62 99 181
62 99 181
62 99 181
61 98 181
61 99 180
62 99 181
61 99 181
62 99 181
61 99 181
62 99 181
62 99 181
62 99 180
61 99 181
61 99 181
61 99 181
61 99 181
61 99 181
62 99 181
62 99 181
62 99 181
63 100 181
61 98 181
62 99 181
61 99 181
62 99 181
62 99 180
62 99 181
61 99 181
62 99 181
62 99 181
62 99 181
61 99 180
62 99 181
61 99 180
62 99 181
62 99 180
61 98 180
61 99 181
62 99 181
62 99 180
61 98 180
61 99 181
62 99 181
61 99 181
61 98 181
61 99 181
62 99 181
62 99 181
61 99 181
62 99 181
62 99 181
61 98 181
62 99 181
62 99 181
62 99 180
62 99 181
61 99 180
62 99 179
61 98 180
62 99 179
61 99 181
62 99 181
61 98 179
62 99 181
62 99 181
62 99 180
62 99 181
62 99 181
62 99 181
62 99 181
62 99 181
61 98 180
62 99 180
62 99 181
62 99 181
61 98 177
62 99 181
62 99 178
62 99 178
62 99 178
62 99 180
62 99 180
62 99 181
61 98 176
62 99 178
61 98 179
62 99 179
62 99 177
62 99 178
62 98 174
62 99 179
62 99 174
61 98 173
61 97 172
61 98 176
61 97 173
61 96 169
60 96 172
68 100 165
101 119 139
122 136 117
140 148 94
136 145 65
133 139 39
144 147 58
129 131 54
134 133 58
127 126 62
129 125 72
139 134 76
124 122 68
127 126 75
127 124 74
140 136 81
133 129 76
141 136 81
131 128 77
129 127 82
129 127 81
125 122 80
129 128 84
123 121 80
137 135 90
132 131 86
132 130 85
132 130 85
138 136 94
138 137 93
125 126 89
136 136 92
129 129 88
131 131 91
128 127 87
137 136 93
144 142 94
139 137 93
139 138 94
141 139 94
148 146 98
137 138 96
138 138 96
142 141 95
137 137 96
151 149 102
152 150 101
153 151 101
154 152 104
145 143 96
145 144 98
155 152 102
143 142 97
153 151 102
157 155 103
160 157 105
161 158 105
163 159 105
165 161 106
157 155 103
158 156 105
158 155 103
160 157 105
164 161 108
165 160 105
166 163 108
168 164 107
161 159 104
169 165 110
168 165 109
163 160 105
166 162 108
169 165 108
167 165 110
167 163 107
172 167 110
171 167 109
172 167 108
169 165 106
173 169 110
174 169 110
167 163 105
174 169 110
174 170 111
176 170 110
175 171 111
172 168 109
176 171 111
173 169 109
172 168 108
176 170 111
174 170 110
174 169 108
174 169 106
172 168 109
176 171 108
174 169 109
171 167 108
173 169 108
174 170 108
174 168 107
175 169 108
173 168 107
172 167 108
174 169 105
178 172 110
174 169 109
172 167 107
172 167 107
176 171 108
173 169 108
170 164 104
171 166 107
174 169 108
170 165 103
167 163 102
170 165 104
172 167 108
173 167 104
174 168 106
164 160 99
169 164 101
171 166 104
166 162 102
166 160 101
172 166 103
168 162 100
173 167 103
166 159 98
166 161 98
165 159 99
167 161 101
161 156 93
163 158 95
161 156 93
159 154 91
162 156 94
171 164 99
162 156 93
158 152 93
162 156 90
154 148 91
158 151 90
156 150 86
151 147 87
156 152 87
164 157 97
146 141 80
167 160 95
149 143 81
158 152 84
161 154 87
151 144 81
141 136 66
133 130 66
146 145 71
142 142 64
141 145 54
154 156 58
146 153 51
152 163 47
160 171 45
163 178 42
167 182 47
165 184 19
166 186 16
167 189 11
176 197 0
174 197 0
173 197 0
172 196 0
174 197 0
172 195 0
171 195 0
175 197 0
175 198 0
172 195 0
174 198 0
174 197 0
174 198 0
173 197 0
174 197 0
174 198 0
173 197 0
173 196 0
175 197 0
174 197 0
173 197 0
176 198 0
171 195 0
172 195 0
174 197 0
174 197 0
174 198 0
173 197 0
170 194 0
171 195 0
174 197 0
172 196 0
174 197 0
173 196 0
171 195 0
174 197 0
172 196 0
172 196 0
170 194 0
170 194 0
175 198 0
174 197 0
174 198 0
172 196 0
173 197 0
173 197 0
173 196 0
172 195 0
173 196 0
173 196 0
174 197 0
172 196 0
173 197 0
172 196 0
174 197 0
171 195 0
172 195 0
175 198 0
172 195 0
174 197 0
173 196 0
172 195 0
175 198 0
170 193 0
169 193 0
174 197 0
175 198 0
174 197 0
175 197 0
175 198 0
175 198 0
175 198 0
171 195 0
173 196 0
170 193 0
175 198 0
175 198 0
174 197 0
173 197 0
172 195 0
172 195 0
170 194 0
171 195 0
171 194 0
172 195 0
173 196 0
169 193 0
171 195 0
172 195 0
171 194 0
171 195 0
171 195 0
174 197 0
172 195 0
171 195 0
173 197 0
172 195 0
172 195 0
171 195 0
170 193 0
171 195 0
172 195 0
173 196 0
171 195 0
175 198 0
170 193 0
173 196 0
171 194 0
173 196 0
170 193 0
174 197 0
171 194 25
166 189 47
148 172 102
124 150 135
83 115 168
62 99 178
61 98 178
63 100 181
62 99 181
62 100 181
62 99 181
62 99 181
61 99 180
62 99 181
62 99 181
62 99 181
62 99 180
62 99 181
62 100 181
61 99 181
62 99 181
61 99 181
62 99 181
61 98 181
61 98 181
62 99 181
62 99 181
62 99 181
62 99 181
62 99 181
62 99 181
61 99 181
61 99 181
61 98 181
62 99 181
61 99 180
61 99 181
62 99 181
62 99 181
61 99 181
61 98 181
62 99 181
61 99 181
61 98 181
61 99 181
62 99 180
62 99 181
61 99 181
62 99 181
62 99 180
61 99 181
61 99 181
62 99 181
61 99 181
62 99 181
62 99 181
62 99 180
62 99 180
61 99 181
62 99 181
62 99 181
62 99 181
61 99 181
62 99 181
61 98 181
61 99 181
61 99 181
61 99 180
61 98 181
62 99 181
61 99 181
62 99 180
61 99 181
62 99 180
61 99 181
62 99 180
61 99 181
61 98 181
61 98 179
62 99 181
62 99 180
61 99 181
62 99 179
61 99 181
62 99 180
62 99 181
62 99 181
62 99 180
61 99 180
61 99 181
62 99 181
62 99 180
62 99 180
62 99 180
62 99 177
62 99 181
61 98 180
62 99 180
62 99 179
62 99 180
62 99 181
62 99 179
61 98 179
61 98 179
62 99 177
61 98 176
62 99 179
62 99 176
62 99 180
62 99 179
62 99 178
62 99 177
62 98 177
62 98 176
62 98 175
62 98 174
62 98 175
61 98 175
61 97 175
62 99 177
61 98 174
60 95 170
60 96 171
68 99 161
97 116 144
105 119 124
124 135 102
137 145 67
139 139 62
141 144 64
133 134 67
133 131 69
130 127 72
130 126 72
143 137 80
130 125 75
137 134 77
139 137 85
121 119 74
131 128 79
123 121 76
131 129 80
131 129 83
136 133 84
123 123 81
126 125 83
127 127 84
131 130 87
124 123 80
133 132 87
127 127 86
125 125 87
134 133 90
135 134 91
150 146 98
139 137 93
124 125 89
127 128 88
138 137 95
139 139 95
135 134 91
137 137 95
140 139 95
144 143 97
147 145 98
133 134 91
151 150 103
144 144 100
143 142 97
144 142 97
150 148 100
147 146 100
150 148 100
149 147 100
152 150 102
158 156 106
153 151 101
157 155 104
161 158 105
157 154 104
154 153 104
154 151 100
166 162 106
161 158 105
160 158 106
164 160 106
166 162 106
164 162 108
170 165 107
165 161 106
169 165 109
168 164 108
164 161 105
166 163 106
164 161 106
171 167 109
171 166 108
171 167 109
170 167 109
167 164 106
169 166 108
168 164 108
171 167 109
171 167 109
171 167 108
170 166 107
176 171 111
172 168 108
174 170 111
171 167 108
176 171 110
171 168 109
174 169 110
170 166 106
173 169 108
170 167 108
174 170 110
174 169 110
170 166 107
176 171 112
178 172 109
174 170 108
174 169 110
173 168 106
172 168 106
177 172 109
172 167 104
175 170 111
172 168 108
173 168 105
174 168 105
177 171 109
173 169 108
174 168 107
172 167 105
170 166 106
172 166 103
170 165 108
171 166 104
169 164 106
167 162 102
174 167 105
170 164 103
170 165 103
171 167 107
169 163 100
170 164 103
172 167 104
164 160 99
171 165 103
157 154 91
166 161 101
163 158 98
163 158 94
163 157 97
164 158 95
157 151 92
163 157 95
164 158 93
164 159 100
158 153 90
162 158 95
160 156 93
159 152 93
156 151 89
159 154 92
154 149 86
149 144 85
161 155 93
159 153 87
154 149 86
155 148 86
145 140 72
142 137 78
146 140 71
148 143 79
150 146 78
147 146 70
146 143 68
152 155 62
151 155 58
154 161 59
160 170 52
163 173 53
161 176 41
171 189 36
159 176 25
169 189 28
173 195 19
176 197 16
173 196 0
173 196 0
172 196 0
174 197 0
174 197 0
172 196 0
173 196 0
171 194 0
171 195 0
174 197 0
171 195 0
172 196 0
172 196 0
173 197 0
173 196 0
173 196 0
172 195 0
173 196 0
175 198 0
173 196 0
173 196 0
174 197 0
173 197 0
174 197 0
173 196 0
173 196 0
170 194 0
174 197 0
173 196 0
174 197 0
173 196 0
172 195 0
173 196 0
173 196 0
175 197 0
172 196 0
173 196 0
172 195 0
172 195 0
174 197 0
170 194 0
174 198 0
174 197 0
173 197 0
172 194 0
172 196 0
171 195 0
172 196 0
174 197 0
173 196 0
175 198 0
173 197 0
173 197 0
174 197 0
172 196 0
174 198 0
174 197 0
175 198 0
173 196 0
171 195 0
171 194 0
171 194 0
173 196 0
174 197 0
170 194 0
172 196 0
174 197 0
171 195 0
174 197 0
175 198 0
171 195 0
173 196 0
171 194 0
172 195 0
174 197 0
174 197 0
169 193 0
170 194 0
172 196 0
171 194 0
170 194 0
172 195 0
174 196 0
171 194 0
173 197 0
172 196 0
174 197 0
172 195 0
174 197 0
170 193 0
176 199 0
172 196 0
173 197 0
174 197 0
169 192 0
171 195 0
173 197 0
173 197 0
173 195 0
172 195 0
170 194 0
170 194 0
171 194 0
170 193 0
173 196 0
171 195 0
174 198 0
172 196 0
172 194 0
173 196 18
170 193 44
150 175 92
106 133 152
84 116 167
62 99 179
62 99 180
62 99 178
62 99 181
62 99 181
62 99 180
62 99 180
62 99 181
62 99 181
62 99 181
62 99 181
62 99 181
61 98 181
61 99 181
62 99 179
62 99 181
62 99 181
62 99 181
62 99 181
62 99 181
61 99 181
62 99 181
62 99 181
62 99 181
62 99 181
61 99 181
61 99 181
62 99 181
61 98 180
62 99 181
61 98 181
62 99 181
61 99 181
62 99 181
61 99 181
62 99 181
61 99 181
62 99 181
61 99 181
62 99 181
61 99 181
61 98 181
62 99 181
61 99 181
62 99 181
61 99 180
61 99 181
62 99 181
62 99 181
62 99 181
62 99 181
62 99 181
62 99 180
63 100 181
62 99 181
61 99 181
62 99 181
61 99 181
62 99 180
62 99 181
62 99 181
62 99 181
62 99 181
61 99 181
62 99 181
61 99 181
62 99 181
61 98 181
61 99 180
62 99 180
62 99 181
62 99 181
61 99 181
62 99 181
61 99 180
62 99 181
61 99 180
62 99 180
62 99 181
62 99 180
61 99 181
62 99 181
61 98 180
62 99 181
62 99 180
62 99 181
62 99 181
62 99 180
62 99 180
62 99 180
61 98 179
62 99 180
62 99 181
62 99 178
62 99 180
62 99 179
62 99 181
61 98 179
62 99 178
62 99 180
61 99 179
62 98 177
62 99 177
62 99 177
62 98 175
62 99 179
61 98 176
61 98 176
62 99 178
61 98 177
62 98 176
62 99 176
62 99 174
61 97 170
61 98 176
61 96 172
62 99 176
62 98 172
61 97 172
61 98 176
72 101 163
84 104 144
117 129 125
131 138 96
127 131 72
137 136 69
133 133 66
133 130 70
132 128 72
137 132 73
132 128 76
136 132 81
119 117 71
125 122 73
128 125 78
120 117 72
126 123 78
118 117 76
127 124 79
123 123 84
126 124 80
129 126 78
127 127 81
125 124 82
127 126 84
128 127 85
123 123 83
132 130 86
137 135 91
136 134 89
135 133 90
132 131 90
127 127 87
128 127 88
139 137 93
138 137 91
138 138 95
146 144 98
136 135 91
137 136 93
144 143 97
134 134 93
143 141 96
152 151 103
146 145 99
144 142 97
147 145 99
149 148 100
151 148 100
155 153 103
145 144 96
151 149 101
151 151 103
156 154 102
144 143 97
157 154 104
159 156 104
165 161 104
163 160 104
157 155 104
159 157 104
162 159 107
168 165 109
165 161 106
157 155 101
166 164 108
168 165 110
162 159 105
163 159 103
167 164 107
167 163 106
166 163 108
171 168 110
164 162 107
171 167 108
165 162 107
174 169 110
173 168 107
166 163 105
171 167 108
172 168 108
171 167 108
172 168 109
172 168 109
173 169 110
175 170 109
172 168 108
174 169 109
172 168 108
175 171 109
169 165 106
171 167 106
177 172 110
175 171 109
169 164 104
172 167 107
172 168 108
173 170 111
165 161 103
170 166 105
174 169 108
175 169 109
176 171 109
174 168 106
172 166 104
172 167 105
173 168 108
174 169 106
170 164 105
170 165 103
170 166 106
171 166 106
175 169 104
171 165 103
173 168 108
169 164 103
171 166 104
164 159 98
165 160 102
165 159 97
171 164 103
168 163 101
163 159 99
166 160 97
169 164 99
167 162 101
164 159 95
163 158 98
168 163 100
166 160 98
169 163 100
164 158 93
163 156 93
164 158 96
171 164 97
164 157 97
162 157 95
163 157 97
152 147 87
148 143 86
151 144 84
152 146 84
155 149 90
161 155 91
156 150 84
154 149 86
149 143 83
152 146 81
156 149 81
152 147 80
158 152 85
141 136 74
147 141 73
144 141 74
138 138 60
133 133 59
147 150 58
157 166 49
150 160 41
158 169 51
159 176 28
159 174 34
165 183 32
165 186 11
169 190 22
175 197 0
175 198 0
173 196 0
171 195 0
173 196 0
173 196 0
173 197 0
175 198 0
174 197 0
174 197 0
172 196 0
175 198 0
171 195 0
173 197 0
173 196 0
174 197 0
170 194 0
171 195 0
173 196 0
175 198 0
171 195 0
174 197 0
174 198 0
174 198 0
171 195 0
171 195 0
173 196 0
175 197 0
173 196 0
173 196 0
171 195 0
170 194 0
172 196 0
173 196 0
172 195 0
172 195 0
175 198 0
172 196 0
173 196 0
172 196 0
169 194 0
173 196 0
172 196 0
174 197 0
172 196 0
171 194 0
172 196 0
171 195 0
174 197 0
172 195 0
173 196 0
171 195 0
175 197 0
173 197 0
172 195 0
172 196 0
171 194 0
173 196 0
175 198 0
173 196 0
174 197 0
172 196 0
174 198 0
172 195 0
173 196 0
173 197 0
173 197 0
171 195 0
173 196 0
174 197 0
172 196 0
170 192 0
172 195 0
172 195 0
172 196 0
171 195 0
175 197 0
170 194 0
173 196 0
171 195 0
171 195 0
172 195 0
173 196 0
172 196 0
172 195 0
172 196 0
173 196 0
176 198 0
172 195 0
172 196 0
175 198 0
174 197 0
173 197 0
171 194 0
169 193 0
171 194 0
176 198 0
170 193 0
172 195 0
171 195 0
172 195 0
172 195 0
169 192 0
174 197 0
172 195 0
173 196 0
172 195 0
173 196 0
171 194 0
171 195 0
158 182 72
147 172 100
111 139 147
71 106 176
62 99 179
62 99 178
62 99 181
62 99 180
62 99 181
62 99 181
62 99 180
61 98 180
62 99 181
62 99 181
62 99 180
62 99 180
62 99 181
62 99 181
62 99 181
62 99 180
62 99 181
61 99 181
61 99 181
62 99 181
62 99 181
62 100 181
62 99 181
62 99 180
62 99 181
62 99 180
61 98 180
62 99 181
61 99 181
61 98 180
61 98 181
62 99 180
62 99 180
62 99 181
62 99 181
62 99 181
62 99 181
62 99 181
61 99 181
61 99 181
61 99 181
62 99 181
61 99 181
62 99 180
61 98 180
62 99 181
62 99 181
62 99 181
62 99 181
62 99 180
62 99 180
61 99 180
62 99 181
62 99 181
61 99 180
61 99 180
61 98 181
61 98 180
62 99 181
61 98 181
62 99 179
61 99 181
62 99 181
61 99 181
62 99 181
61 99 181
62 99 181
62 99 180
62 99 181
62 99 180
63 100 180
62 99 181
62 99 180
62 99 181
62 99 181
62 99 181
62 99 181
61 99 181
61 99 181
61 99 180
61 98 175
62 99 180
62 99 181
62 99 180
62 99 181
62 99 181
61 98 178
62 99 181
62 99 181
61 98 178
61 98 179
61 98 177
62 99 178
62 99 180
62 99 179
62 99 178
62 99 179
62 99 178
62 99 177
62 99 180
61 98 177
62 99 181
62 98 177
62 99 179
62 98 178
61 98 179
60 97 172
62 99 179
62 98 176
62 98 176
61 98 176
63 99 176
62 99 177
62 98 173
62 98 175
61 97 172
61 97 171
61 97 174
62 97 170
61 97 174
61 96 168
61 96 168
71 101 166
90 110 142
99 114 127
131 137 105
138 139 87
137 135 70
137 135 75
139 135 76
132 127 75
125 123 71
124 122 74
112 111 66
127 123 74
122 121 74
127 124 74
120 119 76
118 117 78
128 127 80
138 135 87
120 119 79
133 130 86
118 117 78
131 131 89
131 129 84
120 120 83
126 125 84
127 127 85
129 130 88
128 129 90
137 136 93
142 141 95
140 139 96
133 132 90
138 136 93
141 140 96
142 140 94
136 135 93
134 134 93
133 133 92
153 151 102
138 138 95
151 149 100
144 143 96
141 141 97
136 136 94
139 138 95
139 138 95
150 148 101
147 146 98
151 149 100
153 151 101
146 144 97
153 151 102
152 151 103
151 150 102
156 154 104
163 159 104
156 154 102
163 160 106
162 159 104
156 153 101
163 160 102
163 160 106
165 162 105
163 160 105
162 160 106
167 164 108
171 166 109
166 163 106
166 163 108
165 162 104
165 162 106
168 164 106
168 165 107
170 166 108
166 163 105
170 166 108
167 164 103
169 166 105
169 165 108
171 167 108
173 170 110
173 169 107
174 169 108
176 171 110
175 171 111
177 171 110
174 169 108
172 168 108
175 170 108
172 167 108
177 171 110
173 169 108
175 170 110
172 167 107
175 170 109
172 168 106
171 167 107
173 169 108
174 169 107
174 169 107
171 166 106
175 170 109
172 167 107
174 170 109
176 170 107
172 166 104
166 163 103
170 164 104
169 164 103
173 166 104
174 168 106
169 164 102
172 168 106
176 169 108
172 166 101
172 166 103
171 165 103
172 166 103
168 163 100
167 161 97
171 164 103
168 162 101
167 161 99
167 162 98
165 160 100
168 161 98
165 159 94
166 160 99
167 160 95
163 157 93
165 159 97
171 164 100
170 164 97
164 159 93
163 157 94
154 149 85
160 154 90
159 154 96
158 152 89
152 147 89
148 143 84
153 147 84
148 142 82
152 146 82
164 157 90
156 150 87
145 140 74
153 147 78
152 146 88
141 136 73
150 144 79
147 144 74
141 137 65
144 145 62
154 158 66
153 162 49
149 160 45
159 171 45
163 177 47
163 179 36
167 187 25
170 190 22
173 193 19
169 191 0
172 195 0
175 198 0
175 198 0
174 197 0
174 197 0
174 198 0
172 196 0
175 198 0
170 194 0
175 198 0
173 197 0
174 197 0
176 199 0
174 197 0
174 197 0
174 197 0
172 196 0
174 197 0
173 196 0
173 196 0
174 198 0
173 196 0
173 197 0
173 197 0
171 195 0
172 195 0
173 196 0
173 196 0
172 195 0
173 196 0
173 197 0
175 198 0
170 193 0
174 197 0
175 198 0
172 195 0
172 196 0
173 196 0
172 195 0
174 197 0
173 196 0
172 195 0
173 196 0
172 196 0
175 197 0
172 195 0
173 196 0
172 195 0
173 197 0
171 195 0
174 197 0
173 197 0
173 197 0
173 197 0
174 197 0
174 197 0
174 198 0
175 198 0
173 197 0
173 197 0
172 196 0
171 195 0
172 196 0
170 194 0
171 195 0
172 196 0
174 197 0
173 196 0
171 194 0
173 196 0
172 195 0
172 196 0
174 197 0
171 195 0
173 196 0
172 196 0
170 194 0
174 197 0
172 195 0
175 197 0
171 194 0
172 196 0
174 197 0
174 197 0
173 196 0
171 195 0
173 196 0
171 194 0
172 195 0
171 194 0
171 193 0
172 195 0
172 196 0
172 195 0
173 196 0
174 198 0
173 196 0
172 195 0
173 196 0
174 196 0
173 196 0
173 196 0
172 196 0
174 196 0
170 194 0
170 194 0
174 197 0
173 196 18
166 190 51
142 166 103
114 142 143
70 105 176
62 99 180
62 99 181
62 99 181
62 99 180
62 99 180
61 98 179
62 99 181
62 99 180
62 99 181
62 99 180
62 99 181
62 99 179
61 99 181
61 99 181
61 99 181
62 99 181
61 99 181
62 99 181
62 99 181
62 99 181
62 99 181
61 98 181
61 99 181
62 99 181
62 99 181
62 99 181
62 99 181
61 99 181
62 99 181
62 99 181
61 99 181
61 99 181
61 99 181
62 99 180
62 99 181
62 99 180
61 99 181
62 99 181
61 98 181
62 99 181
62 99 181
61 99 181
61 98 181
61 98 181
61 99 181
61 99 181
62 99 181
61 98 179
62 99 180
62 99 180
62 99 181
61 99 181
62 99 180
61 98 180
61 98 180
61 98 181
62 99 180
62 99 181
62 99 181
61 99 180
61 99 181
61 99 181
62 99 181
62 99 181
62 99 180
61 99 181
62 99 181
61 99 180
62 99 181
62 99 181
62 99 180
62 99 181
62 99 181
61 99 180
62 99 181
62 99 181
62 99 181
62 100 181
62 99 181
62 99 181
62 99 181
62 99 181
62 99 181
61 99 179
62 99 179
61 99 180
62 99 181
61 99 180
61 99 180
62 99 180
62 99 180
62 99 181
62 99 179
62 99 180
62 99 178
62 99 180
62 99 180
62 99 180
62 99 179
61 98 176
62 99 180
62 99 180
63 99 178
62 99 179
62 99 180
62 99 178
63 100 179
62 99 179
62 99 176
62 99 175
62 99 179
61 98 173
61 98 175
62 98 175
61 98 175
61 98 171
61 98 174
62 98 176
61 98 173
61 97 172
61 98 174
62 98 176
62 98 174
61 98 175
62 96 166
88 109 154
98 112 124
111 117 105
120 119 87
133 132 71
128 125 71
124 121 62
136 132 75
125 122 70
130 128 73
130 128 79
118 116 72
134 131 77
119 116 72
121 120 79
117 117 78
121 120 80
121 120 79
122 122 81
123 122 82
120 119 80
119 120 83
135 135 92
127 126 85
129 129 89
129 129 86
127 127 87
125 125 86
124 124 87
134 133 91
136 134 91
132 132 91
137 136 92
136 135 91
126 127 90
133 132 92
141 141 99
134 133 93
146 144 98
136 135 93
142 142 97
152 150 101
145 143 96
144 143 97
146 145 98
153 151 100
143 142 96
152 149 99
148 146 97
153 151 101
149 148 101
157 155 102
152 150 101
154 153 102
159 156 104
158 156 105
153 152 100
160 157 103
156 155 102
161 158 105
154 151 99
165 162 107
162 159 104
161 158 106
161 157 102
164 161 105
166 163 108
168 164 107
171 166 108
174 170 111
174 170 109
171 166 107
170 166 108
170 166 109
172 168 108
170 166 106
172 168 109
173 168 108
172 168 105
169 166 107
171 167 109
171 167 106
174 169 108
178 172 111
172 167 106
173 169 107
170 167 106
174 170 109
177 171 110
175 170 108
174 169 109
172 167 107
174 170 110
171 167 106
174 168 104
174 170 107
177 172 110
175 170 108
169 166 104
175 169 107
173 168 103
171 166 104
174 169 106
170 165 104
171 165 103
172 167 104
174 168 103
167 163 101
172 167 103
171 165 101
168 162 100
172 167 106
170 166 104
173 167 104
170 164 103
163 158 96
165 160 99
167 162 99
168 163 100
176 169 106
166 161 98
170 163 101
167 162 99
164 159 93
164 159 94
169 163 97
167 160 99
163 156 93
165 160 97
169 163 99
165 159 94
170 163 101
162 155 89
153 147 87
168 161 98
157 152 89
157 152 90
158 153 91
156 149 90
164 158 95
152 146 82
153 147 80
151 145 75
146 141 77
146 140 77
152 146 82
156 150 86
148 141 77
146 141 75
134 128 71
144 139 70
139 138 62
148 149 64
148 152 59
145 152 49
156 166 49
158 171 44
148 159 39
158 172 30
164 183 28
169 189 25
171 193 16
174 196 16
174 197 0
174 197 0
174 197 0
174 197 0
173 196 0
174 197 0
174 198 0
174 198 0
172 195 0
173 197 0
174 198 0
172 195 0
170 194 0
173 196 0
173 195 0
172 196 0
173 197 0
173 196 0
173 196 0
172 196 0
173 197 0
173 197 0
170 193 0
172 196 0
172 195 0
174 197 0
174 197 0
174 197 0
172 195 0
172 196 0
174 196 0
173 196 0
174 197 0
171 195 0
171 194 0
174 197 0
172 195 0
172 196 0
172 195 0
173 197 0
174 197 0
174 197 0
171 194 0
175 197 0
173 196 0
173 196 0
173 197 0
173 196 0
173 197 0
171 195 0
173 196 0
175 198 0
172 195 0
174 197 0
174 197 0
173 196 0
171 194 0
173 196 0
174 197 0
172 195 0
173 196 0
173 196 0
174 197 0
173 196 0
173 196 0
175 198 0
170 194 0
176 198 0
171 194 0
171 195 0
172 195 0
173 197 0
171 195 0
170 194 0
174 197 0
173 197 0
171 194 0
172 196 0
173 196 0
171 194 0
171 195 0
170 194 0
171 195 0
173 197 0
172 196 0
171 195 0
170 194 0
168 192 0
173 197 0
174 196 0
169 193 0
173 195 0
171 195 0
172 195 0
172 195 0
171 195 0
174 196 0
171 193 0
175 197 0
168 193 0
175 198 0
172 196 0
170 194 0
171 194 0
171 194 0
172 196 0
172 195 0
166 189 57
153 177 94
115 142 143
76 109 173
62 99 181
63 100 181
62 99 181
61 99 181
62 99 180
62 99 181
62 99 181
62 99 181
61 99 180
62 99 180
62 99 181
62 99 181
62 99 181
62 99 181
62 99 181
62 99 181
62 99 181
62 99 181
61 98 181
61 98 181
62 99 181
62 99 181
62 99 181
62 99 181
62 99 181
61 99 181
61 98 180
62 99 181
61 98 181
61 99 180
61 99 181
62 99 181
61 98 181
62 99 181
62 99 181
62 99 181
62 99 181
62 99 181
61 98 179
61 99 181
62 99 181
62 99 181
62 99 181
62 99 181
61 99 180
62 99 181
61 99 181
61 99 181
61 99 181
62 99 181
62 99 180
62 99 179
62 99 181
62 99 181
62 99 181
62 99 180
62 99 181
62 99 181
62 99 181
61 99 181
61 99 181
62 99 181
62 99 181
61 98 181
60 98 178
61 99 180
62 99 181
62 99 181
62 99 180
61 99 181
62 99 181
61 98 179
62 99 181
62 99 181
62 99 179
62 99 181
62 99 180
62 99 180
62 99 181
62 99 181
62 99 181
62 99 181
62 99 180
61 99 181
62 99 179
62 99 180
62 99 181
62 99 179
62 99 181
62 99 181
61 99 180
62 99 179
62 99 178
62 99 180
61 98 179
61 99 180
61 99 180
62 99 177
62 99 178
61 99 180
62 99 179
62 99 180
62 99 180
62 99 178
62 99 176
61 98 178
62 99 177
62 99 181
62 98 174
62 99 180
62 99 177
62 99 178
61 98 175
62 99 178
61 97 171
62 98 173
61 98 174
61 97 170
62 98 174
61 97 172
61 98 173
62 98 176
61 97 172
61 98 172
61 97 171
60 94 160
66 98 163
83 102 144
103 114 126
109 113 97
120 121 74
145 141 82
123 118 68
116 115 66
124 123 74
119 117 69
123 120 75
122 121 77
116 115 75
125 122 75
111 111 73
132 129 82
129 127 82
111 112 73
121 119 77
123 124 83
119 119 78
133 131 89
131 130 87
116 116 80
131 129 85
126 125 85
118 119 84
129 127 85
125 125 85
132 132 90
133 132 92
123 124 88
133 133 93
133 133 91
134 132 91
141 140 94
134 133 91
135 135 93
146 143 97
138 137 92
144 143 97
145 143 98
144 142 94
138 137 94
144 143 97
145 145 99
145 144 97
155 152 101
152 150 101
154 152 103
158 155 104
155 153 103
154 152 103
154 151 99
165 161 108
157 155 101
154 152 100
155 153 102
158 155 102
157 155 103
166 163 106
163 160 105
159 156 101
172 167 109
167 163 105
168 165 106
166 164 108
164 161 105
162 159 103
172 167 109
170 166 107
170 165 108
175 169 108
174 168 107
173 169 109
170 166 107
172 168 111
170 165 104
172 167 108
169 165 105
176 171 110
170 167 108
171 166 105
174 169 107
170 166 106
175 170 109
176 171 111
174 169 105
175 170 106
175 169 109
173 169 107
175 170 108
173 168 106
174 168 104
174 169 109
175 170 109
173 168 108
172 166 102
175 169 108
173 169 108
171 166 104
173 169 105
176 170 106
173 169 107
171 166 105
175 170 107
171 166 104
170 165 102
171 166 104
170 166 102
173 167 105
174 168 104
173 167 104
169 164 103
169 163 99
171 164 101
167 163 100
170 163 101
168 161 97
169 162 97
172 166 104
171 165 103
168 161 100
170 163 99
164 158 95
163 157 95
161 155 93
164 158 94
163 157 95
156 152 95
165 159 96
169 163 98
165 159 93
165 158 97
168 161 94
162 156 91
157 151 89
161 156 88
159 153 87
149 143 81
162 156 92
159 152 89
153 146 83
153 147 85
151 146 84
142 136 80
148 142 77
147 141 84
137 131 75
137 132 67
146 143 72
146 142 71
152 151 69
149 152 64
152 158 56
149 156 45
154 168 37
160 172 47
160 178 28
165 183 30
170 187 34
169 189 19
172 194 0
172 196 0
174 197 0
171 195 0
175 198 0
170 194 0
173 197 0
171 195 0
173 197 0
173 196 0
173 197 0
175 198 0
174 198 0
173 196 0
174 197 0
172 195 0
172 195 0
175 197 0
173 197 0
174 197 0
175 198 0
174 197 0
172 196 0
171 195 0
173 196 0
174 197 0
171 195 0
173 196 0
171 195 0
171 195 0
174 197 0
174 197 0
171 195 0
174 197 0
174 198 0
171 196 0
173 197 0
172 195 0
172 196 0
171 195 0
173 195 0
174 197 0
173 197 0
173 196 0
173 196 0
171 195 0
174 197 0
173 196 0
173 196 0
175 197 0
172 196 0
170 194 0
173 197 0
172 195 0
174 197 0
174 196 0
174 197 0
172 196 0
174 198 0
172 196 0
170 194 0
172 196 0
172 195 0
174 197 0
173 196 0
173 196 0
173 197 0
176 198 0
172 195 0
171 195 0
173 196 0
171 195 0
174 198 0
174 197 0
171 194 0
173 196 0
170 193 0
174 197 0
174 197 0
173 196 0
170 193 0
172 195 0
174 197 0
171 195 0
171 193 0
169 193 0
172 196 0
170 194 0
171 194 0
170 193 0
173 196 0
175 197 0
172 196 0
172 195 0
172 196 0
172 196 0
171 195 0
171 194 0
172 195 0
171 195 0
172 195 0
172 195 0
171 195 0
175 198 0
172 196 0
171 195 0
171 195 18
166 190 54
153 177 90
122 148 134
74 108 173
62 99 181
61 99 180
62 99 179
62 99 180
62 99 181
62 99 181
62 99 181
62 99 181
62 99 180
62 99 181
62 99 181
62 99 181
62 99 181
62 99 181
62 99 180
61 98 181
62 99 181
62 99 181
62 99 181
62 99 180
62 99 181
62 99 181
61 99 181
62 99 181
62 99 181
61 99 181
62 99 181
62 99 181
62 99 181
62 99 181
62 99 181
62 99 179
62 99 181
61 99 181
62 99 181
61 98 180
62 99 181
61 99 181
62 99 181
62 99 180
62 99 181
62 99 181
61 98 180
61 99 181
62 99 180
62 99 181
62 99 181
62 99 180
62 99 181
62 99 181
61 99 179
62 99 181
62 99 181
62 99 179
62 99 180
61 99 181
61 99 181
62 99 180
62 99 179
61 99 181
62 99 181
61 99 181
62 99 181
62 99 181
62 99 180
62 99 180
61 99 179
62 99 180
62 99 181
61 99 179
63 100 180
62 99 180
61 99 180
62 99 181
62 99 180
62 99 181
62 99 181
62 99 178
61 99 181
61 98 180
61 99 181
62 99 181
62 99 180
62 99 181
63 100 180
61 99 179
61 98 178
62 99 181
62 99 181
62 99 181
62 99 181
62 99 180
62 99 178
61 99 177
62 99 180
62 99 180
61 98 180
63 100 179
63 100 180
62 99 177
62 99 177
61 98 179
62 99 179
62 98 177
62 99 178
62 99 180
62 99 178
62 99 179
61 98 175
62 99 180
61 98 173
62 99 179
61 98 174
61 98 178
61 98 174
61 98 177
61 98 174
61 98 174
61 97 172
60 96 173
62 99 177
61 97 173
62 98 173
61 97 172
62 98 175
61 97 166
61 97 167
62 97 169
65 97 163
83 106 155
104 114 125
103 109 109
125 123 86
134 131 74
117 115 67
118 116 73
130 128 73
120 118 71
121 118 74
122 119 73
114 114 77
115 115 77
128 127 83
120 118 78
108 108 75
131 129 86
119 118 78
125 124 81
123 123 83
106 107 75
117 117 80
119 119 81
117 118 82
123 123 83
131 130 88
133 130 89
119 120 84
137 137 96
128 128 88
126 127 89
130 130 92
135 134 91
140 139 94
134 133 92
134 134 92
146 144 97
142 140 96
131 131 89
139 139 94
143 142 96
153 151 100
147 144 96
140 141 97
150 149 98
151 149 100
159 155 102
151 148 99
154 151 101
154 152 100
152 149 100
154 152 102
155 153 101
159 157 102
159 156 103
159 157 105
162 158 102
158 156 103
157 154 101
167 163 105
164 162 107
163 160 106
170 166 110
162 159 104
164 161 105
167 163 106
170 166 111
169 165 106
170 166 107
169 165 106
167 164 103
173 168 108
172 168 107
170 166 108
169 165 106
176 171 111
171 167 110
173 169 107
170 166 109
174 170 108
172 167 108
171 166 103
172 168 103
172 167 106
173 169 108
174 169 109
170 166 104
169 166 105
174 169 104
175 169 104
172 168 107
174 169 106
174 169 108
174 169 107
168 163 101
173 169 106
172 167 105
177 170 108
178 172 110
173 168 105
174 169 108
177 171 107
175 169 106
172 167 108
171 165 103
173 168 106
171 166 104
173 167 103
169 165 102
167 162 97
170 164 98
167 163 102
170 164 99
172 165 101
168 163 98
170 165 98
170 164 99
164 159 99
169 164 100
167 161 99
169 163 97
161 155 96
164 158 95
169 163 96
162 157 94
153 148 86
162 156 92
163 158 91
159 153 87
160 155 91
155 149 87
158 153 88
162 156 90
162 156 90
162 157 90
159 154 89
156 150 88
155 149 87
154 148 82
153 147 83
148 143 78
160 153 87
153 146 75
153 147 79
149 143 75
150 144 80
148 143 79
146 140 79
141 136 64
142 140 68
145 145 62
151 156 60
153 157 60
148 153 57
149 162 34
162 175 44
165 180 39
161 177 34
168 189 28
168 189 19
173 196 0
175 198 0
174 197 0
175 198 0
172 196 0
173 196 0
171 195 0
174 197 0
174 197 0
174 196 0
173 197 0
170 194 0
172 196 0
173 196 0
173 196 0
173 197 0
174 196 0
170 194 0
174 198 0
174 197 0
173 196 0
172 196 0
173 197 0
173 196 0
174 197 0
173 197 0
174 197 0
171 195 0
174 197 0
173 196 0
174 197 0
173 197 0
171 195 0
173 196 0
174 197 0
176 199 0
175 198 0
175 198 0
172 195 0
173 196 0
173 197 0
171 194 0
175 198 0
173 197 0
172 196 0
173 196 0
174 197 0
173 195 0
171 195 0
174 197 0
171 195 0
172 196 0
171 196 0
172 195 0
173 196 0
174 197 0
174 198 0
174 196 0
171 195 0
172 196 0
175 198 0
171 194 0
174 197 0
172 196 0
173 196 0
174 196 0
173 196 0
170 194 0
174 197 0
171 194 0
173 196 0
172 195 0
172 195 0
170 193 0
173 196 0
173 197 0
172 195 0
172 196 0
171 196 0
172 195 0
174 197 0
172 193 0
171 194 0
172 195 0
170 193 0
172 196 0
173 197 0
174 198 0
172 195 0
171 195 0
171 195 0
174 197 0
169 192 0
171 194 0
171 194 0
173 196 0
171 194 0
172 196 0
173 195 0
170 194 0
173 196 0
170 193 0
173 197 0
172 195 0
171 195 0
167 190 0
167 190 51
148 173 100
122 149 135
78 110 171
62 99 180
62 99 181
62 99 179
62 99 181
61 98 179
62 99 181
61 99 178
62 99 181
62 99 181
62 99 181
62 99 181
62 99 180
62 99 181
61 99 181
62 99 181
62 99 180
62 99 181
62 99 181
62 99 181
62 99 180
62 99 181
62 99 181
61 98 181
62 99 181
61 98 181
61 99 181
62 99 181
61 98 180
61 98 180
61 99 180
61 98 181
62 99 181
61 99 181
61 98 180
62 99 181
62 99 181
61 99 181
62 99 181
62 99 180
62 99 179
61 98 181
62 99 181
62 99 180
62 99 181
62 99 180
62 99 181
61 99 181
61 99 181
62 99 181
61 99 181
62 99 181
61 99 181
62 99 180
61 99 181
61 99 181
62 99 181
62 99 181
61 98 181
62 99 180
61 99 180
62 99 181
62 99 179
62 99 181
61 99 180
61 98 179
62 99 181
61 98 180
62 99 180
62 99 180
62 99 181
61 99 180
61 99 179
62 99 181
62 99 179
61 99 180
62 99 181
62 99 181
62 99 181
62 99 181
62 99 181
62 99 180
62 99 181
61 99 180
61 99 180
62 99 181
61 98 179
62 99 181
62 99 181
63 99 180
62 99 179
62 99 180
62 99 177
62 99 180
62 99 179
62 99 180
62 99 178
62 99 180
61 98 179
62 99 180
62 99 180
62 99 180
62 99 178
62 99 179
62 99 180
62 99 178
62 99 179
61 99 179
62 99 177
61 98 177
62 99 178
62 99 179
62 99 175
62 99 177
61 98 176
62 99 179
61 98 177
62 99 175
61 98 174
62 99 175
61 97 172
61 98 172
62 99 176
61 97 171
61 97 173
61 97 171
61 97 171
61 96 168
62 98 170
60 96 166
61 96 167
63 94 159
76 98 148
101 110 118
104 109 105
128 125 78
124 122 68
132 129 78
124 122 78
126 125 78
123 120 77
109 108 72
119 118 73
114 114 71
122 120 76
127 124 79
113 112 74
120 119 79
119 118 81
107 108 70
117 117 81
113 113 76
122 122 84
112 114 78
124 124 86
128 127 87
123 123 86
125 125 86
129 128 88
141 141 97
127 127 89
137 136 92
129 129 90
138 137 94
132 132 91
131 132 93
126 127 90
126 128 90
135 134 92
150 148 100
140 139 94
140 140 96
138 137 94
153 152 100
142 141 95
149 148 101
150 148 100
152 150 100
150 149 100
154 151 102
148 145 95
151 149 100
153 152 103
157 155 104
154 152 101
156 153 100
158 155 102
160 157 105
166 162 107
156 154 101
160 158 101
162 158 103
165 161 108
168 164 107
170 166 110
172 167 107
162 159 102
168 164 107
165 162 102
168 164 109
171 166 107
168 164 106
168 165 106
168 163 103
172 167 107
165 162 105
176 171 107
169 165 107
174 169 108
173 168 107
170 166 105
174 169 107
174 170 108
173 168 108
175 170 104
172 168 106
174 169 109
175 171 109
172 168 104
174 169 106
174 169 109
171 167 106
177 172 110
174 169 106
173 169 108
178 171 108
175 170 107
172 167 101
177 171 108
175 169 104
171 166 101
176 170 106
173 167 103
175 169 106
169 165 103
172 166 103
170 165 104
173 167 102
172 167 104
170 165 103
173 167 104
168 163 99
171 166 103
168 164 102
170 165 103
170 165 104
170 164 101
169 164 98
170 164 99
169 163 98
162 156 95
166 161 97
163 157 98
171 165 101
167 162 92
165 159 96
166 159 96
165 159 90
160 155 90
166 161 93
168 162 99
168 161 98
160 154 87
161 154 89
162 156 91
160 153 93
153 147 82
166 159 92
164 156 90
159 152 85
153 148 87
158 151 84
158 152 90
156 150 81
147 142 77
148 142 75
150 143 79
149 144 77
139 135 71
143 138 69
144 141 67
149 151 56
151 154 64
153 157 60
143 151 47
157 168 48
159 173 39
162 176 42
168 187 19
166 184 30
165 185 19
171 193 11
174 197 0
174 197 0
172 195 0
171 194 0
173 196 0
174 198 0
172 196 0
172 196 0
173 196 0
174 198 0
173 196 0
173 196 0
173 195 0
174 197 0
170 194 0
173 196 0
170 195 0
171 194 0
174 197 0
172 196 0
174 197 0
172 196 0
171 194 0
175 197 0
170 194 0
172 196 0
172 196 0
172 195 0
173 197 0
172 196 0
172 195 0
175 197 0
173 196 0
174 197 0
171 195 0
175 197 0
172 195 0
175 198 0
172 195 0
174 198 0
171 194 0
171 195 0
171 194 0
169 192 0
172 195 0
171 194 0
173 196 0
172 196 0
174 197 0
174 197 0
170 194 0
170 194 0
173 196 0
171 195 0
172 195 0
173 197 0
174 197 0
171 194 0
172 195 0
171 195 0
172 195 0
171 195 0
175 198 0
172 196 0
175 198 0
174 198 0
173 196 0
172 196 0
173 197 0
172 196 0
171 194 0
172 195 0
169 193 0
173 196 0
173 196 0
172 195 0
171 195 0
170 193 0
171 196 0
170 193 0
173 195 0
170 193 0
168 193 0
170 194 0
171 194 0
174 197 0
174 196 0
171 195 0
175 198 0
173 197 0
170 194 0
171 194 0
172 196 0
172 196 0
173 196 0
172 195 0
172 194 0
174 197 0
171 194 0
174 198 0
174 197 0
171 194 0
173 196 0
171 196 0
161 184 60
156 179 84
117 143 144
89 120 165
62 99 179
62 99 180
62 99 180
61 99 181
62 99 180
62 99 181
62 99 180
62 99 181
62 99 180
62 99 181
61 99 181
62 99 181
62 99 181
62 99 181
61 98 181
61 99 181
63 100 180
61 99 178
62 99 181
62 99 181
62 99 181
62 99 181
61 98 179
62 99 181
62 99 181
62 99 180
62 99 180
62 99 181
61 98 179
61 99 180
62 99 181
62 99 181
62 99 180
61 99 181
62 99 181
62 99 181
62 99 180
62 99 181
62 99 181
62 99 180
62 99 179
62 99 181
61 99 181
61 98 180
62 99 181
62 99 179
61 99 181
63 100 181
62 99 181
61 99 181
62 99 181
61 98 181
62 99 181
62 99 181
62 99 180
62 99 181
61 99 180
61 99 180
62 99 180
62 99 181
61 99 181
62 99 180
61 99 181
62 99 180
62 99 181
61 98 180
62 99 181
62 99 181
62 99 180
61 99 181
61 98 178
62 99 179
62 99 181
62 99 181
62 99 181
62 99 180
62 99 181
62 99 180
62 99 179
62 99 178
61 99 180
62 99 178
62 99 181
62 99 180
62 99 181
61 98 180
61 99 180
62 99 179
61 98 177
61 99 180
62 99 180
62 99 174
62 99 181
61 98 178
62 99 179
61 99 179
61 99 180
62 99 179
62 99 177
62 99 181
62 99 179
62 99 179
61 98 177
62 99 174
62 99 178
61 98 176
62 98 174
62 99 178
62 99 178
62 99 178
62 98 174
62 99 178
61 98 178
61 98 176
61 98 175
62 98 175
62 99 176
62 99 176
62 98 173
62 98 174
61 98 173
62 99 174
60 97 170
61 97 173
62 99 176
61 97 171
62 98 174
62 97 172
61 97 168
61 96 167
60 95 165
62 98 171
61 93 157
86 103 138
107 113 108
112 113 92
111 110 71
112 109 67
117 114 70
122 120 72
116 115 73
116 116 73
120 118 71
123 121 75
110 110 73
122 121 77
110 109 69
112 112 77
108 110 78
112 114 80
111 113 79
119 119 81
112 113 79
119 120 83
123 123 84
130 129 87
115 115 81
120 121 86
132 132 91
113 115 82
128 127 88
125 126 86
125 126 89
124 125 86
135 135 95
138 137 93
129 130 91
130 131 93
141 140 94
135 136 95
138 137 94
148 147 101
139 139 95
149 147 96
143 142 98
137 137 94
158 156 106
144 142 98
154 152 101
150 148 98
156 153 101
154 151 99
154 153 102
153 152 101
162 159 104
157 155 104
153 151 101
156 153 99
156 154 103
165 161 104
161 158 101
162 159 102
159 156 102
159 157 100
163 160 102
161 158 101
168 165 108
167 163 106
165 162 107
168 163 105
170 165 107
171 165 104
169 164 104
169 165 106
170 166 105
166 163 99
172 167 108
170 166 106
173 169 108
173 169 107
176 170 109
174 169 107
175 169 106
175 169 106
175 170 107
173 169 106
172 168 106
174 169 109
173 168 106
172 166 101
175 170 106
172 168 105
173 168 102
174 169 105
175 170 104
173 168 104
170 165 103
176 171 108
175 169 106
173 167 101
175 169 104
174 168 102
173 168 107
174 168 104
167 162 101
171 166 102
172 167 103
171 166 104
172 167 106
174 168 105
171 166 104
170 165 98
174 169 105
171 165 101
168 162 97
171 165 99
172 166 99
171 165 99
167 162 101
168 163 98
169 164 97
169 163 98
168 162 97
168 162 97
167 161 95
171 165 101
167 161 99
161 156 93
167 162 96
162 155 93
164 158 93
167 162 97
164 158 93
155 150 87
158 151 88
159 153 88
161 155 85
155 149 85
155 150 85
162 155 86
161 154 90
158 152 86
147 142 82
153 147 81
150 144 83
154 148 79
145 139 75
159 152 87
135 129 68
141 137 67
151 148 73
142 141 54
150 152 61
152 158 52
151 161 45
160 168 48
167 181 42
167 181 41
166 184 28
165 184 22
170 191 16
169 192 0
173 196 0
174 197 0
173 197 0
175 198 0
173 197 0
174 197 0
174 197 0
173 196 0
170 193 0
175 198 0
174 197 0
174 198 0
173 197 0
173 196 0
173 196 0
173 196 0
173 197 0
173 197 0
173 196 0
171 195 0
174 198 0
171 194 0
173 197 0
172 195 0
173 197 0
172 196 0
170 194 0
169 194 0
172 196 0
176 198 0
174 197 0
170 194 0
174 197 0
171 195 0
174 197 0
169 193 0
171 194 0
175 198 0
173 196 0
172 195 0
173 196 0
173 196 0
174 197 0
172 195 0
172 195 0
173 197 0
171 194 0
172 196 0
173 197 0
173 196 0
173 195 0
175 198 0
170 194 0
172 197 0
172 195 0
173 196 0
174 197 0
173 196 0
174 197 0
170 194 0
173 196 0
172 195 0
172 194 0
173 196 0
173 197 0
174 197 0
174 197 0
174 197 0
171 195 0
173 197 0
173 197 0
173 197 0
172 196 0
172 196 0
172 195 0
172 196 0
171 194 0
170 194 0
171 195 0
173 196 0
175 198 0
174 197 0
169 192 0
171 194 0
174 197 0
171 194 0
171 194 0
173 196 0
173 196 0
172 195 0
168 192 0
173 196 0
171 194 0
173 197 0
174 196 0
175 197 0
171 194 0
169 192 0
169 192 0
171 195 0
171 195 0
173 196 0
172 196 0
171 194 40
156 180 78
136 162 113
87 117 166
62 99 180
62 99 180
62 99 181
62 99 180
62 99 181
62 99 180
62 99 180
62 99 180
62 99 181
62 99 181
62 99 180
62 99 181
62 99 181
62 99 181
62 99 180
62 99 181
62 99 181
62 99 179
62 99 179
62 99 180
62 99 181
62 99 181
61 99 181
62 99 181
62 99 181
62 99 181
62 99 181
61 99 180
62 99 181
62 99 179
62 99 181
62 100 181
61 99 179
62 99 181
62 99 180
62 99 181
63 100 180
62 99 180
62 99 181
62 99 179
61 98 179
62 99 180
62 99 181
62 99 181
62 99 181
62 99 181
62 99 181
61 99 180
62 99 178
62 100 181
62 99 181
62 99 180
62 99 179
61 98 180
62 99 181
62 99 181
62 99 181
62 99 181
62 100 181
62 99 181
61 98 181
62 99 181
62 99 180
61 98 179
62 99 181
61 99 181
62 99 181
62 99 181
61 99 181
62 99 180
61 99 181
62 99 180
62 99 180
62 99 181
62 99 180
62 99 180
62 99 180
62 99 179
62 99 181
61 99 180
62 99 180
62 99 180
62 99 179
62 99 181
62 99 180
61 98 178
61 99 181
61 98 179
62 99 180
62 99 179
61 99 178
61 99 180
62 99 180
62 99 176
61 99 180
62 99 180
62 99 179
62 99 178
62 99 180
62 99 178
61 98 179
62 99 177
62 99 180
61 98 176
61 98 178
62 99 180
62 99 176
62 99 180
62 99 176
62 99 178
62 99 177
61 98 176
62 99 177
61 98 176
62 99 178
62 99 177
62 99 179
62 99 179
62 98 173
61 98 175
62 99 177
62 99 177
61 98 173
61 98 177
61 97 169
61 96 165
62 98 174
60 96 168
63 98 171
60 96 166
61 97 172
62 98 173
61 97 169
60 96 166
83 106 159
93 108 140
104 111 115
115 116 86
117 116 79
113 112 65
118 116 72
117 115 72
130 128 79
117 116 72
113 113 70
109 110 74
106 106 72
115 114 76
111 111 76
112 113 77
121 120 82
112 113 76
125 124 82
110 111 75
119 119 83
115 116 80
126 126 86
121 122 85
129 129 89
123 123 85
125 125 87
135 134 91
133 133 91
125 124 84
128 128 89
133 131 90
132 132 93
128 130 92
137 137 91
127 128 88
145 143 98
142 140 93
145 145 100
146 144 98
139 140 98
148 146 98
139 138 94
142 142 97
149 147 100
160 157 104
143 143 98
154 152 101
146 145 97
144 143 96
156 154 102
153 151 101
161 157 103
158 156 101
156 153 101
157 154 99
160 157 103
156 153 100
165 161 104
162 158 103
159 156 102
166 162 101
164 160 100
168 163 106
163 160 101
171 166 106
171 166 104
167 162 106
167 164 106
171 165 104
168 164 104
175 170 109
172 167 106
171 166 105
173 168 106
174 169 105
171 167 104
168 164 100
175 170 109
175 169 106
173 168 108
174 169 105
175 170 108
174 169 107
173 168 107
174 169 105
171 167 102
175 169 105
176 170 108
176 171 105
176 171 109
174 168 101
173 168 104
175 170 104
174 169 105
176 170 106
173 167 106
171 167 103
175 169 105
172 167 104
169 164 103
175 169 103
173 166 101
174 168 103
170 165 103
169 164 101
171 166 99
176 169 104
170 164 101
167 162 100
174 169 104
172 165 99
164 159 93
169 163 100
166 160 97
166 161 99
166 161 97
170 164 100
163 159 91
167 161 99
169 163 97
169 164 99
169 162 93
160 153 90
164 157 91
163 158 93
166 159 95
164 158 92
167 161 93
165 158 93
156 150 91
162 156 90
157 151 89
159 153 87
161 155 90
160 154 90
159 154 84
152 147 84
158 152 84
156 150 81
161 154 84
152 147 80
149 143 78
135 130 67
149 143 77
149 143 78
138 132 61
146 140 75
140 139 65
143 144 57
137 140 47
157 163 58
155 164 51
158 170 42
155 167 37
164 183 28
167 187 25
170 191 11
168 189 11
171 195 0
172 196 0
173 197 0
175 198 0
172 195 0
174 198 0
174 198 0
172 196 0
174 197 0
173 196 0
174 197 0
170 194 0
171 195 0
174 196 0
173 197 0
173 196 0
173 197 0
173 197 0
174 198 0
172 195 0
173 196 0
172 195 0
171 195 0
173 197 0
171 195 0
172 195 0
175 197 0
171 195 0
172 196 0
173 197 0
173 197 0
174 196 0
170 194 0
173 196 0
173 196 0
171 195 0
172 195 0
173 197 0
171 194 0
174 197 0
172 196 0
174 197 0
172 196 0
174 197 0
173 197 0
175 198 0
171 195 0
174 198 0
174 197 0
173 197 0
172 196 0
174 197 0
174 197 0
174 197 0
169 193 0
174 198 0
171 195 0
172 196 0
173 197 0
176 198 0
172 195 0
171 194 0
173 196 0
175 198 0
169 192 0
171 195 0
173 196 0
173 197 0
173 196 0
169 193 0
172 196 0
170 194 0
174 197 0
174 197 0
171 195 0
173 196 0
172 195 0
171 193 0
174 197 0
170 194 0
170 194 0
169 192 0
174 198 0
171 195 0
173 196 0
169 193 0
171 195 0
173 196 0
174 198 0
173 196 0
174 197 0
172 195 0
169 193 0
172 195 0
173 196 0
173 197 0
170 194 0
172 196 0
171 194 0
172 195 0
173 197 0
172 195 0
169 193 31
152 176 80
132 158 120
88 119 165
67 103 179
62 99 180
62 99 181
63 100 181
62 99 181
62 99 180
62 99 181
62 99 180
62 99 180
62 99 181
62 99 181
61 99 181
62 99 181
62 99 181
62 99 181
62 99 180
62 99 181
62 99 179
62 99 181
62 99 181
62 99 181
62 99 181
62 99 181
61 99 181
62 99 178
61 99 180
62 99 181
62 99 181
62 99 181
62 99 181
62 99 181
62 99 181
62 99 181
61 99 181
62 99 181
62 99 180
61 99 181
62 99 180
61 99 179
62 99 180
62 99 180
62 99 181
62 99 181
61 98 181
61 99 181
61 99 181
62 99 180
61 99 178
62 99 181
62 99 181
62 99 181
62 99 179
62 99 180
62 99 181
62 99 181
62 99 179
62 99 180
62 99 181
62 99 181
61 99 181
62 99 181
62 99 181
62 99 181
62 99 180
62 99 181
62 99 180
61 99 180
62 99 181
61 99 181
62 99 179
62 99 180
62 99 180
62 99 180
62 99 180
61 99 180
62 99 180
62 99 180
62 99 181
62 99 181
62 99 180
62 99 181
62 99 179
62 99 180
62 99 180
62 99 179
62 99 181
62 99 179
62 99 180
62 99 180
62 99 180
62 99 180
62 99 181
62 99 179
62 99 181
61 98 178
62 99 177
61 98 176
62 99 181
62 99 179
62 99 180
62 99 179
61 99 179
61 98 176
62 99 180
61 98 177
61 98 177
62 99 175
62 99 179
62 99 178
62 99 178
61 98 177
61 98 177
62 99 176
62 99 177
61 98 176
61 98 174
61 98 174
61 98 175
62 99 174
63 99 178
62 99 175
61 98 178
62 98 175
61 98 173
61 97 172
61 97 173
61 97 171
62 98 170
61 97 173
61 97 169
61 98 174
61 98 171
62 99 175
62 98 169
61 96 167
60 95 167
75 101 158
102 112 125
98 106 108
104 107 85
122 121 76
113 112 72
108 107 69
110 110 69
112 112 78
124 123 78
107 107 69
114 114 74
113 113 75
109 110 75
111 112 79
120 120 80
110 110 73
125 125 82
124 124 85
112 113 77
104 106 75
125 125 87
123 123 84
122 123 85
127 127 88
133 132 92
121 122 85
128 127 86
115 116 80
128 128 88
133 133 90
130 130 88
136 136 92
131 130 90
135 134 92
145 144 98
137 137 93
135 136 93
142 141 99
142 139 93
142 142 97
142 142 97
141 140 94
143 141 96
149 147 99
153 151 100
156 154 103
154 151 98
159 156 102
153 151 97
159 156 101
154 151 99
158 156 103
157 155 102
154 153 103
163 160 104
158 156 101
161 159 103
160 157 103
161 157 100
166 161 102
163 159 103
170 165 106
165 162 102
166 162 104
169 165 104
172 168 109
165 162 98
166 162 101
170 166 107
170 166 105
170 166 104
170 165 104
172 168 104
172 168 107
177 171 110
170 166 104
177 171 110
175 169 106
173 168 107
177 171 108
176 170 107
172 166 102
173 168 102
175 169 106
173 168 103
175 170 108
171 166 106
175 169 104
175 170 106
175 170 106
174 169 103
176 169 103
175 168 104
173 167 103
173 168 104
175 169 101
175 170 104
173 167 101
174 168 105
176 170 101
174 168 106
174 168 101
167 162 97
174 168 103
170 164 100
175 169 106
172 167 104
168 162 97
167 161 91
172 165 102
170 164 103
172 165 98
169 163 97
173 167 102
167 162 98
171 166 100
172 166 102
169 163 97
163 156 91
168 161 98
167 161 95
161 155 89
162 156 93
162 156 90
168 161 97
161 156 84
163 158 94
160 154 89
162 157 88
160 154 85
148 142 80
162 156 84
160 154 87
157 151 82
155 149 86
165 158 91
155 149 77
145 140 77
151 145 79
155 149 80
161 153 84
146 140 76
139 134 67
136 131 70
139 133 66
136 135 60
141 139 66
148 149 58
150 155 57
146 151 54
157 168 41
154 166 45
160 175 39
157 174 34
169 186 30
162 184 0
170 190 19
174 197 0
172 195 0
173 196 0
174 198 0
174 197 0
174 197 0
171 195 0
174 197 0
174 197 0
174 197 0
173 196 0
175 198 0
172 196 0
175 198 0
172 196 0
172 195 0
172 195 0
175 198 0
171 195 0
173 197 0
172 196 0
174 197 0
171 195 0
174 197 0
174 197 0
173 196 0
173 196 0
173 196 0
173 196 0
173 196 0
171 194 0
173 196 0
173 196 0
172 196 0
173 196 0
172 196 0
170 195 0
170 194 0
173 196 0
174 197 0
173 196 0
173 197 0
172 195 0
174 197 0
174 197 0
174 197 0
172 196 0
172 195 0
174 196 0
174 198 0
174 196 0
172 194 0
172 196 0
172 196 0
171 195 0
174 197 0
173 197 0
171 194 0
170 193 0
170 194 0
169 194 0
172 196 0
171 194 0
172 195 0
172 196 0
171 194 0
173 196 0
173 196 0
172 194 0
172 195 0
171 194 0
173 196 0
171 194 0
173 196 0
172 196 0
175 198 0
171 195 0
172 195 0
174 197 0
171 195 0
173 196 0
173 196 0
167 190 0
171 194 0
172 195 0
170 193 0
174 197 0
172 195 0
171 195 0
172 195 0
172 196 0
172 194 0
171 194 0
174 196 0
172 195 0
173 196 0
171 195 0
172 195 0
170 194 0
172 195 0
173 196 0
170 193 25
161 185 67
143 168 103
111 139 148
70 105 176
62 99 181
62 99 178
62 99 180
62 100 181
62 99 181
62 99 181
62 99 180
62 99 180
62 99 181
62 99 180
63 100 181
61 99 181
62 99 181
61 99 181
62 99 181
62 99 181
62 99 181
62 99 181
62 99 181
62 99 181
61 99 181
62 99 181
62 99 181
61 99 179
62 99 180
62 99 181
62 99 180
61 98 180
61 99 180
62 99 181
62 99 180
62 99 180
62 99 179
62 99 181
62 99 181
61 99 181
61 98 179
62 99 180
62 99 181
62 99 181
62 99 181
61 99 180
62 99 181
61 99 181
61 99 181
62 99 181
62 99 179
62 99 180
62 99 180
61 99 180
62 99 180
62 99 180
61 98 181
62 99 179
61 98 179
61 98 179
62 99 181
62 99 179
62 99 181
62 99 178
61 98 178
62 99 180
62 99 181
62 99 180
61 99 180
62 99 179
61 99 180
61 99 180
62 99 180
62 99 181
61 99 179
61 98 180
62 99 179
62 99 181
62 99 180
62 99 179
62 99 180
62 99 179
62 99 179
62 99 179
62 99 180
61 98 178
62 99 180
62 99 180
62 99 181
61 99 180
62 99 180
62 99 178
62 99 179
62 99 181
62 99 178
62 99 180
62 99 180
62 99 179
62 99 178
62 99 181
62 99 178
63 100 180
62 99 179
61 98 175
62 99 179
62 99 177
62 99 180
62 99 179
61 98 174
62 99 178
62 99 178
62 99 180
62 99 176
62 99 179
62 99 177
62 99 174
62 99 178
61 98 176
61 98 177
61 98 174
62 99 176
62 98 176
61 98 172
62 99 175
62 99 175
62 99 176
62 98 175
62 98 170
62 99 172
62 99 177
62 99 178
62 98 171
61 97 172
61 96 166
60 96 165
60 96 169
62 98 173
61 98 176
61 96 169
62 97 169
61 94 159
74 99 150
85 99 127
101 106 105
106 106 77
112 112 75
115 114 70
117 114 72
115 114 72
115 114 74
108 109 74
125 124 80
104 105 73
112 111 75
123 122 84
123 122 81
99 102 72
101 103 73
120 120 82
108 110 76
117 118 80
106 108 76
115 116 81
119 120 84
122 122 84
115 117 83
117 118 84
123 124 89
132 132 92
129 129 91
131 131 91
136 135 93
135 135 93
134 133 92
140 139 95
136 135 90
130 130 91
145 144 98
143 142 97
143 142 96
143 142 97
148 146 97
136 135 90
145 144 96
143 142 92
154 152 100
141 141 94
152 149 99
156 153 101
148 147 97
159 156 103
151 149 99
153 150 98
157 155 100
158 155 101
157 155 101
158 157 102
161 158 105
163 160 101
152 150 100
164 160 102
166 161 105
165 161 99
166 163 108
164 161 103
167 163 103
166 162 100
166 163 105
172 166 102
167 162 102
168 164 101
168 164 107
170 165 103
173 167 103
167 163 103
176 169 105
172 167 108
171 166 107
172 168 105
177 172 108
172 167 105
171 167 105
173 168 105
175 169 106
173 169 106
174 169 106
173 168 105
174 169 105
174 169 103
175 168 101
175 169 105
174 169 107
176 170 104
174 169 106
170 165 101
176 169 101
174 169 108
174 168 105
171 166 107
171 165 103
172 166 103
175 169 103
170 164 101
171 165 102
172 167 102
167 162 99
173 167 99
169 163 97
175 169 105
170 165 98
170 165 95
165 160 95
170 164 97
169 164 98
167 162 100
170 164 101
163 158 92
163 158 94
170 164 97
169 163 98
164 158 93
168 163 94
160 154 86
165 159 93
158 153 90
171 164 97
158 152 87
167 161 98
163 156 92
160 154 87
161 155 90
160 154 90
159 153 88
154 148 82
152 146 82
152 146 84
159 153 86
154 148 81
150 144 76
146 140 76
158 152 84
155 148 79
143 138 74
139 134 72
140 134 64
146 141 75
139 136 69
149 151 64
155 157 60
146 154 51
151 158 51
158 170 47
159 173 41
157 173 37
165 180 34
166 183 32
171 190 28
170 192 11
175 198 0
171 195 0
173 196 0
171 195 0
175 198 0
172 196 0
173 197 0
172 195 0
173 197 0
172 196 0
174 197 0
172 195 0
170 194 0
173 196 0
173 197 0
174 198 0
172 195 0
174 198 0
171 195 0
171 194 0
173 196 0
171 196 0
174 197 0
172 196 0
173 197 0
171 195 0
172 196 0
172 195 0
174 197 0
174 197 0
172 195 0
172 196 0
170 194 0
172 195 0
172 195 0
171 195 0
169 192 0
174 197 0
170 194 0
174 197 0
172 195 0
169 193 0
169 192 0
171 195 0
170 194 0
173 196 0
174 197 0
172 195 0
175 198 0
172 196 0
171 194 0
173 197 0
170 194 0
174 197 0
173 197 0
171 194 0
171 194 0
171 195 0
173 196 0
173 196 0
174 196 0
173 197 0
172 195 0
172 195 0
172 196 0
172 196 0
171 195 0
171 195 0
172 196 0
172 195 0
167 191 0
172 194 0
173 195 0
174 197 0
171 194 0
172 195 0
170 193 0
170 194 0
169 193 0
172 196 0
173 196 0
172 196 0
171 195 0
173 196 0
173 196 0
172 195 0
171 194 0
171 194 0
173 195 0
172 195 0
171 195 0
172 196 0
173 196 0
171 194 0
170 194 0
172 195 0
170 193 0
172 195 0
169 193 0
172 195 0
172 194 0
164 188 54
147 172 99
114 141 143
68 103 176
62 99 180
62 99 175
62 99 180
62 99 181
62 99 179
62 99 181
62 99 180
62 99 180
61 99 181
62 99 180
62 99 180
62 99 181
62 99 181
62 99 181
62 99 180
61 98 181
61 98 180
62 99 181
62 100 181
62 99 180
61 98 180
62 99 180
62 99 180
62 99 181
62 99 181
62 99 181
62 99 181
61 98 179
61 99 181
62 99 181
62 99 181
62 99 181
62 99 181
61 99 181
62 99 181
62 99 180
61 98 181
62 99 181
62 99 181
61 99 180
61 99 180
62 99 180
61 99 181
62 99 179
62 99 181
62 99 179
62 99 180
61 99 181
61 98 180
61 98 181
62 99 180
62 99 181
61 99 180
62 99 180
62 99 181
61 99 181
62 99 181
62 99 181
62 99 181
62 99 181
62 99 181
62 99 181
62 99 181
62 99 180
62 99 181
62 99 179
62 99 181
62 99 179
61 99 181
61 99 181
62 99 180
61 98 178
61 99 178
62 99 180
62 99 180
62 99 180
61 98 178
62 99 181
63 99 180
62 99 178
61 99 180
62 99 180
62 99 181
62 99 178
61 99 179
61 99 179
62 99 180
62 99 178
62 99 179
62 99 181
61 98 177
62 99 181
62 99 181
62 99 177
62 99 180
62 99 180
62 99 177
62 99 178
61 99 180
62 99 178
62 99 180
62 99 180
62 99 178
62 98 178
62 99 176
62 99 177
61 98 177
62 99 177
62 99 180
62 99 176
62 99 177
61 98 173
62 99 178
62 99 178
62 99 178
62 99 177
61 98 174
63 99 176
62 99 177
62 99 178
62 99 174
62 98 174
62 98 174
61 98 170
62 99 175
61 98 175
61 97 173
61 98 172
62 98 174
63 99 174
61 98 175
61 96 168
62 98 170
62 98 174
62 98 168
61 96 169
61 97 166
60 96 167
67 98 162
75 97 145
92 105 132
105 110 104
109 109 74
108 107 65
115 114 71
112 112 70
104 105 71
97 98 66
117 116 76
108 109 72
107 106 70
107 108 75
97 100 71
112 114 80
116 116 79
111 112 75
110 111 77
111 112 79
114 115 80
115 115 80
112 114 83
123 123 88
124 125 88
119 120 86
126 125 85
116 118 84
118 118 79
133 133 94
127 127 88
129 129 90
131 130 91
140 139 94
130 131 91
126 126 86
138 138 94
134 134 91
133 133 89
140 140 97
150 148 97
143 141 94
152 149 97
143 141 95
150 148 100
139 138 91
145 143 97
153 150 96
153 150 98
155 153 101
149 148 99
154 152 98
159 156 103
163 159 104
157 154 101
158 155 100
159 156 100
167 162 105
166 163 104
162 159 101
164 160 102
168 164 104
165 162 105
163 160 102
165 162 106
168 165 104
167 163 100
163 159 97
169 164 104
170 165 102
171 166 102
174 169 104
169 164 106
169 165 98
170 166 106
174 169 107
170 165 102
173 167 103
173 168 107
175 169 103
175 169 108
174 169 104
176 171 108
176 171 106
167 163 96
172 167 103
170 165 99
176 170 105
174 169 104
174 168 103
174 168 103
172 167 106
173 167 105
174 168 98
171 166 104
172 166 103
172 167 103
173 167 103
169 164 99
172 166 99
172 165 99
175 169 105
170 164 99
172 166 101
171 165 97
172 166 101
172 166 103
166 161 98
171 165 97
170 164 100
168 161 95
169 162 95
168 162 95
168 162 95
168 162 100
171 165 97
167 161 95
167 160 94
163 157 94
161 155 90
162 156 87
164 159 89
169 162 96
168 161 97
162 156 89
157 151 88
168 161 93
156 150 85
160 155 88
157 151 87
158 152 87
166 160 83
163 156 89
160 154 86
162 156 89
163 155 89
165 158 87
156 148 84
147 141 74
156 150 82
150 144 77
157 150 86
149 143 77
147 141 73
143 139 74
144 141 69
142 141 56
148 150 63
146 151 56
160 167 54
147 157 34
154 167 37
157 171 37
163 180 30
166 184 25
170 191 11
169 191 0
174 197 0
173 196 0
174 197 0
174 197 0
171 195 0
174 197 0
173 196 0
175 198 0
173 196 0
173 196 0
173 197 0
174 197 0
171 194 0
174 198 0
171 196 0
171 195 0
173 196 0
169 193 0
175 198 0
173 196 0
170 194 0
171 195 0
173 196 0
172 196 0
175 198 0
174 197 0
172 195 0
170 195 0
174 197 0
173 197 0
172 195 0
171 194 0
173 197 0
173 196 0
170 194 0
172 195 0
174 197 0
170 194 0
170 193 0
174 197 0
172 196 0
171 195 0
173 196 0
170 193 0
173 196 0
172 195 0
172 196 0
174 197 0
171 194 0
172 194 0
170 193 0
172 195 0
170 194 0
168 192 0
171 194 0
173 196 0
173 196 0
172 196 0
172 195 0
174 197 0
173 197 0
170 195 0
173 196 0
173 197 0
173 197 0
171 194 0
171 194 0
171 195 0
171 193 0
172 195 0
171 195 0
173 196 0
174 197 0
172 195 0
172 195 0
174 198 0
170 194 0
173 196 0
173 196 0
172 196 0
171 194 0
170 194 0
172 196 0
171 195 0
167 190 0
173 196 0
169 193 0
171 195 0
175 198 0
172 196 0
171 195 0
174 196 0
174 197 0
168 190 0
173 196 0
171 195 0
170 194 0
175 198 0
172 195 0
173 195 0
165 189 54
150 174 94
117 143 139
73 107 173
62 99 179
62 99 180
62 99 181
62 99 180
62 99 181
62 99 181
62 99 179
62 99 180
62 99 181
63 100 181
62 99 180
63 100 180
63 100 181
62 99 180
62 99 181
62 99 180
62 99 181
62 99 180
62 99 181
62 99 180
62 99 180
62 99 179
62 99 181
62 99 180
62 99 180
61 99 181
62 99 181
61 99 179
62 99 181
62 99 180
62 99 181
62 99 181
61 99 181
62 99 181
62 99 180
62 99 181
61 99 181
62 99 181
61 98 180
62 99 181
61 98 181
61 99 179
62 99 180
61 99 181
61 99 180
62 99 180
62 99 180
62 99 180
63 100 181
62 99 179
62 99 181
62 99 180
62 99 178
61 99 181
61 99 181
62 99 181
62 99 181
62 99 181
62 99 179
62 99 181
62 99 180
62 99 180
62 99 179
62 99 180
62 99 181
62 99 181
62 99 179
63 100 180
62 99 181
61 99 180
62 99 180
62 99 178
63 99 180
62 99 179
62 99 178
62 99 181
61 98 177
63 100 179
62 99 178
62 99 179
61 99 180
62 99 179
62 99 179
62 99 181
62 100 181
62 99 178
62 99 180
62 99 177
62 99 180
61 98 180
62 99 180
63 99 180
62 99 180
62 99 178
62 99 180
62 99 181
62 99 179
62 99 179
62 99 178
62 99 179
62 99 179
62 99 180
62 99 180
62 99 178
62 99 175
62 99 180
62 99 180
63 100 180
62 99 177
62 99 174
61 98 178
61 98 174
62 99 176
61 98 175
62 99 179
61 98 174
62 99 177
61 98 174
62 99 180
62 99 177
62 99 178
62 99 178
62 99 177
62 99 176
61 98 177
62 98 174
62 98 175
62 99 176
61 97 172
62 98 176
61 97 171
61 98 173
61 97 168
61 97 169
61 97 171
60 95 168
61 97 171
61 97 167
61 96 162
60 94 159
62 96 165
70 95 145
99 109 121
104 108 95
119 118 85
105 105 71
104 103 65
105 106 68
104 105 70
113 113 75
92 95 65
93 95 64
101 101 69
106 107 75
106 107 77
107 109 76
110 111 78
107 108 76
108 108 76
108 109 78
118 118 82
107 110 78
108 110 79
113 113 79
121 123 85
124 124 87
118 120 85
126 126 86
120 121 84
120 120 83
122 123 86
120 122 86
128 129 88
136 135 89
139 138 92
130 131 92
122 122 84
138 137 91
148 146 96
145 143 97
145 144 95
139 138 93
151 149 98
151 149 99
151 150 97
151 149 99
149 147 96
155 152 98
156 153 99
154 152 99
165 160 104
155 151 99
157 155 101
154 151 96
159 156 99
162 158 102
159 155 99
163 159 103
157 155 99
159 156 100
166 162 105
167 163 105
166 161 103
164 160 102
170 165 105
168 164 104
166 163 100
170 165 103
170 165 99
167 162 102
172 167 104
170 165 103
175 170 108
175 169 105
171 167 103
164 161 99
174 169 105
173 168 107
173 168 106
171 166 105
175 169 106
171 167 101
175 169 99
178 171 108
172 168 103
175 170 103
176 171 106
170 165 101
173 168 101
175 170 103
177 171 105
174 168 105
177 170 102
173 168 101
172 166 100
174 169 104
171 166 100
172 167 103
172 166 97
174 168 105
174 167 104
171 167 97
176 170 106
172 166 101
174 167 100
171 165 102
171 165 97
175 169 105
173 168 101
171 165 99
168 163 95
173 167 103
168 162 96
166 160 95
168 162 95
166 161 93
168 162 97
164 159 93
163 157 90
165 160 87
165 159 90
171 165 97
168 161 95
171 163 93
161 154 90
164 157 87
166 160 90
160 155 91
161 155 89
165 159 93
156 151 84
148 143 78
155 149 89
150 144 82
156 151 82
159 152 84
147 142 83
152 146 79
150 143 80
153 148 81
145 139 74
134 129 66
149 142 72
136 130 68
147 142 75
150 148 69
145 147 58
145 148 52
149 157 45
158 167 44
156 166 48
159 174 37
164 181 34
164 182 22
172 194 19
171 191 25
173 197 0
171 194 0
173 197 0
174 197 0
172 195 0
173 197 0
173 196 0
174 198 0
173 197 0
174 197 0
175 197 0
173 197 0
174 198 0
171 194 0
172 197 0
172 196 0
172 194 0
174 197 0
172 195 0
171 196 0
171 194 0
172 195 0
174 197 0
172 196 0
172 195 0
173 197 0
173 196 0
174 197 0
173 196 0
172 196 0
173 196 0
173 195 0
175 198 0
174 197 0
174 197 0
172 195 0
173 196 0
175 197 0
171 195 0
174 197 0
171 195 0
174 197 0
172 195 0
171 195 0
172 196 0
172 196 0
170 195 0
174 197 0
172 195 0
173 196 0
171 194 0
173 197 0
174 197 0
173 196 0
174 196 0
172 196 0
171 195 0
173 197 0
173 196 0
170 194 0
170 194 0
170 193 0
170 193 0
172 197 0
171 195 0
171 195 0
169 193 0
170 194 0
172 195 0
173 196 0
170 193 0
172 195 0
173 196 0
171 195 0
171 195 0
172 196 0
169 192 0
171 195 0
172 196 0
173 196 0
174 197 0
169 192 0
172 195 0
172 196 0
173 196 0
173 197 0
169 192 0
171 193 0
172 195 0
173 196 0
170 194 0
172 196 0
171 195 0
170 193 0
170 193 0
173 196 0
172 194 0
173 196 0
171 195 0
166 190 18
156 180 82
140 166 111
87 119 163
63 100 180
62 99 179
62 99 181
63 100 180
62 99 179
62 99 180
63 99 180
62 99 180
62 99 180
62 99 181
62 99 179
62 99 179
62 99 180
62 99 179
62 99 180
62 99 181
62 99 179
62 99 181
63 100 181
62 99 181
61 99 181
62 99 181
62 99 181
61 98 180
62 99 181
62 99 180
62 99 181
61 98 179
62 99 180
62 99 179
62 99 181
62 99 179
62 99 179
62 99 180
61 99 181
62 99 180
61 99 180
61 99 179
62 99 180
62 99 181
63 100 180
62 99 181
62 99 181
62 99 181
62 99 177
62 99 180
62 99 180
62 99 179
62 99 180
62 99 180
62 99 181
61 98 181
62 99 180
63 99 180
62 99 180
61 99 181
61 99 180
61 99 181
61 99 179
62 99 179
62 99 180
62 99 179
62 99 180
62 99 178
62 99 179
62 99 181
62 99 181
62 99 179
62 99 178
62 99 181
62 99 181
61 99 181
61 98 181
61 99 181
62 99 179
62 99 179
62 99 180
62 99 180
63 99 179
62 99 178
61 99 180
62 99 178
61 98 179
63 100 181
62 99 180
62 99 180
62 99 180
62 99 180
62 99 178
62 99 179
62 99 180
62 99 178
62 99 178
61 99 179
62 99 180
61 98 178
63 100 180
62 99 180
62 99 180
61 99 180
61 98 177
62 99 175
62 99 176
62 99 178
62 99 179
61 99 178
61 99 177
61 98 176
61 98 175
62 99 179
62 99 176
61 99 178
62 99 177
63 100 181
61 98 176
62 99 178
62 99 177
62 99 177
61 98 177
62 99 176
62 99 179
62 99 174
62 98 175
62 98 174
62 99 174
62 99 175
61 97 168
61 97 171
62 98 174
62 98 172
61 98 175
62 98 174
63 99 177
62 99 172
63 99 171
61 97 170
62 98 169
62 98 170
61 97 167
62 98 173
60 95 162
60 95 165
66 97 158
76 96 139
98 104 104
101 104 84
112 111 72
102 102 66
116 114 75
108 108 72
113 112 73
103 104 70
101 104 74
105 106 75
107 107 75
107 108 73
107 108 74
101 104 76
122 121 83
102 105 76
101 103 69
106 108 76
111 112 81
117 118 84
114 115 79
108 111 81
122 123 86
107 109 78
119 120 83
119 120 83
129 128 87
127 127 88
135 135 92
114 117 85
132 132 90
139 138 94
140 139 95
150 147 96
136 136 91
148 146 98
143 142 97
139 139 94
132 132 89
149 148 99
142 141 95
140 140 93
155 152 99
154 151 101
148 147 99
147 146 94
154 152 98
148 147 95
159 155 102
156 153 101
160 156 100
156 153 98
158 155 100
152 150 96
156 155 102
161 158 99
157 155 100
156 153 100
169 165 105
168 163 103
166 162 102
173 167 107
168 164 103
166 163 102
170 165 105
168 164 103
167 162 100
173 167 106
173 167 106
168 163 100
169 165 104
175 169 107
175 169 104
173 168 105
170 165 103
169 165 102
169 164 100
174 169 104
175 169 105
173 168 103
171 166 103
174 168 102
174 168 100
174 168 101
174 167 99
177 170 104
174 168 101
173 168 103
175 169 104
175 169 105
169 164 95
173 167 99
175 168 101
176 170 105
165 161 95
175 169 103
173 168 103
169 164 99
173 168 103
171 166 101
172 167 105
166 162 93
176 169 99
167 161 97
170 164 102
169 163 99
172 166 99
167 162 95
168 163 95
175 169 102
164 158 93
171 164 93
161 156 87
170 164 97
168 162 93
166 160 88
167 161 91
167 160 93
160 154 87
163 157 90
159 154 84
165 160 91
165 158 93
170 163 98
156 150 85
162 156 84
162 155 92
158 152 87
158 152 84
153 147 79
156 150 82
157 150 84
156 150 79
149 143 80
151 144 73
152 144 73
148 143 74
149 143 79
150 144 78
148 142 75
140 135 68
141 137 62
148 146 63
139 138 60
141 143 49
147 156 41
149 156 54
167 180 47
162 175 39
166 181 37
166 183 30
171 189 30
167 187 16
175 198 0
171 194 0
174 197 0
175 198 0
173 196 0
172 196 0
175 198 0
174 197 0
172 196 0
173 197 0
172 195 0
173 197 0
172 196 0
172 195 0
175 197 0
172 195 0
171 195 0
171 195 0
174 197 0
174 196 0
173 197 0
172 196 0
174 197 0
171 194 0
171 195 0
173 197 0
174 197 0
174 197 0
175 197 0
172 196 0
175 198 0
172 195 0
172 196 0
171 194 0
173 197 0
174 197 0
172 195 0
173 196 0
173 196 0
171 194 0
172 195 0
174 197 0
174 198 0
171 194 0
173 197 0
172 196 0
172 196 0
171 195 0
174 196 0
173 196 0
174 197 0
174 197 0
171 194 0
172 196 0
175 198 0
173 196 0
172 195 0
171 194 0
172 195 0
170 193 0
174 197 0
174 197 0
172 195 0
170 194 0
171 195 0
173 195 0
169 193 0
174 197 0
173 196 0
173 196 0
169 193 0
170 193 0
173 196 0
173 197 0
172 196 0
174 197 0
172 195 0
174 197 0
172 196 0
171 195 0
173 196 0
169 193 0
172 195 0
172 196 0
168 191 0
171 194 0
170 193 0
169 193 0
170 193 0
172 196 0
170 193 0
172 195 0
170 194 0
170 194 0
168 192 0
168 191 0
170 194 0
170 194 0
169 193 0
165 189 54
135 159 113
94 124 157
62 99 179
63 99 180
62 99 178
63 99 180
62 99 181
62 99 181
62 99 179
62 99 180
62 99 179
62 99 180
62 99 179
61 99 180
63 100 181
62 99 180
62 99 181
62 99 181
62 99 181
62 99 181
62 99 181
61 99 181
62 99 181
62 99 178
62 99 181
62 99 180
62 99 181
61 99 181
62 99 180
62 99 180
61 99 181
62 99 181
62 99 181
62 99 179
62 99 180
62 99 181
61 99 180
61 99 180
62 99 180
62 99 179
62 99 180
62 99 179
62 99 180
62 99 179
62 99 180
62 99 180
62 99 180
62 99 179
62 99 181
62 99 181
62 99 180
62 99 179
62 99 179
61 99 181
62 99 180
62 99 180
62 99 181
62 99 180
62 99 178
62 99 179
62 99 181
61 99 179
62 99 181
61 99 181
62 99 179
61 99 180
61 98 179
62 99 180
61 99 179
62 99 180
62 99 180
62 99 179
62 99 179
62 99 180
62 99 180
62 99 181
62 99 180
61 99 179
62 99 181
61 99 180
61 99 179
62 99 181
62 99 180
62 99 176
62 99 179
63 100 180
62 99 179
62 99 178
62 99 179
62 99 180
62 99 181
61 98 176
62 99 177
62 99 180
62 99 178
63 100 179
62 99 180
62 99 179
62 99 178
62 99 178
61 99 179
62 99 178
61 98 177
62 99 180
63 99 180
62 99 176
61 98 177
62 99 173
62 99 178
62 99 175
62 99 176
62 99 177
61 98 176
62 99 177
62 98 177
62 99 177
62 99 180
62 99 176
62 99 176
62 99 172
63 99 177
62 99 173
62 99 178
62 99 177
62 99 175
61 98 171
62 99 177
62 99 177
62 98 171
62 99 177
62 99 175
62 98 173
61 98 174
62 98 174
61 97 169
61 97 173
62 98 174
62 98 172
60 97 171
61 97 168
60 95 163
62 98 171
60 95 166
61 96 165
60 94 162
60 94 159
65 92 146
97 107 120
87 95 86
110 109 75
93 95 60
105 106 72
109 108 68
96 97 64
116 115 79
101 103 69
101 103 72
112 113 79
101 102 72
104 106 75
97 101 73
101 104 72
116 117 79
105 106 75
112 112 76
102 103 73
106 109 76
117 118 81
113 114 81
121 122 86
116 117 81
118 120 83
127 127 89
135 134 91
128 129 91
124 125 87
125 126 87
124 125 86
128 128 86
133 133 91
128 128 86
146 144 98
142 140 93
140 139 93
152 149 98
151 149 99
146 144 93
145 143 94
152 149 99
144 143 95
147 145 94
150 148 96
142 140 92
155 152 96
153 150 98
152 150 101
159 156 101
162 159 102
154 151 98
158 155 98
160 157 99
165 161 101
157 154 98
166 161 101
165 161 101
168 164 103
165 161 101
162 159 101
168 163 101
163 160 104
166 162 102
161 157 98
171 165 102
169 165 104
171 166 101
171 166 101
173 167 105
169 165 103
173 167 101
176 170 106
175 169 105
172 166 103
169 165 99
175 168 103
173 168 102
173 168 101
177 171 105
172 167 103
176 171 108
171 167 100
176 170 107
175 170 105
177 170 103
172 167 102
175 170 104
173 167 100
175 169 104
172 166 100
172 166 98
173 167 99
172 167 101
175 169 105
173 167 102
172 165 96
171 165 97
172 167 99
172 166 97
171 165 95
167 162 95
172 165 100
165 159 93
170 165 94
162 157 91
168 163 96
164 158 95
170 164 95
168 163 97
169 163 97
170 164 95
162 156 93
169 163 95
166 160 90
170 163 93
162 155 87
163 156 93
163 158 95
166 160 91
166 160 92
162 156 87
156 150 84
159 154 85
161 154 87
165 158 92
153 148 80
159 152 88
162 156 85
152 147 81
149 143 76
151 146 78
155 149 77
154 146 83
153 147 82
144 139 75
149 143 77
152 145 78
153 146 80
150 144 70
140 135 73
140 135 62
153 149 72
139 138 59
148 149 63
156 163 53
147 158 39
160 175 41
154 169 30
159 176 30
168 189 11
166 185 22
170 190 11
176 198 0
172 196 0
172 195 0
175 198 0
174 197 0
171 194 0
175 198 0
175 198 0
173 197 0
172 196 0
174 198 0
174 197 0
172 195 0
173 197 0
174 197 0
175 198 0
173 196 0
174 196 0
172 195 0
171 194 0
175 198 0
172 196 0
174 196 0
172 195 0
172 194 0
172 196 0
174 196 0
172 196 0
173 196 0
173 196 0
172 195 0
171 194 0
171 194 0
171 195 0
171 194 0
171 195 0
173 197 0
171 195 0
172 196 0
174 197 0
172 196 0
172 196 0
170 193 0
173 196 0
171 194 0
171 195 0
170 193 0
173 196 0
172 196 0
174 197 0
172 195 0
171 195 0
172 195 0
174 197 0
173 197 0
174 197 0
172 196 0
171 194 0
172 196 0
172 196 0
175 198 0
172 195 0
170 194 0
170 194 0
170 194 0
172 196 0
171 194 0
173 196 0
172 196 0
173 196 0
171 195 0
170 194 0
172 195 0
172 195 0
172 195 0
172 195 0
172 196 0
172 195 0
170 193 0
175 198 0
171 194 0
171 195 0
172 196 0
171 194 0
172 196 0
173 196 0
171 195 0
169 193 0
173 196 0
173 196 0
171 194 0
172 195 0
174 196 0
170 194 0
172 195 0
170 194 0
169 192 0
169 192 0
166 190 44
147 171 95
118 145 139
66 102 176
63 99 178
62 99 178
63 100 180
62 99 180
62 99 180
62 99 178
62 99 181
62 99 180
62 99 180
62 99 180
62 99 181
62 99 181
63 100 180
62 99 179
63 100 179
62 99 180
62 99 179
62 99 180
62 99 181
62 99 179
61 99 179
62 99 181
62 99 180
62 99 181
62 99 180
62 99 180
62 99 180
62 99 180
61 99 181
62 99 181
62 99 180
62 99 181
62 99 181
61 99 181
62 99 180
62 99 180
62 99 178
62 99 181
62 99 181
61 98 179
62 99 181
61 98 180
62 99 177
62 99 180
61 98 178
62 99 180
62 99 181
62 99 180
61 98 179
62 99 180
61 98 179
62 99 181
62 99 178
62 99 177
62 99 180
62 99 179
62 99 180
62 99 181
61 98 179
62 99 179
62 99 180
62 99 180
62 99 180
62 99 177
62 99 179
62 99 181
62 99 179
62 99 178
62 99 179
62 99 178
62 99 178
62 99 177
63 100 181
62 99 181
62 99 178
62 99 180
62 99 179
62 99 180
62 99 180
62 99 179
62 99 180
62 99 178
61 99 181
62 99 180
62 99 179
62 99 179
62 99 179
62 99 180
62 99 179
62 99 180
61 98 178
62 99 177
62 99 179
61 98 177
62 99 181
62 99 177
62 99 179
62 99 178
62 99 179
62 99 178
62 99 179
62 99 181
62 99 177
62 99 178
62 99 179
62 99 180
63 100 179
62 99 179
62 99 176
61 98 177
63 99 179
62 99 178
61 97 169
63 99 178
62 99 177
62 99 178
62 99 179
62 99 172
62 98 173
62 99 176
62 99 172
61 98 176
62 99 178
61 98 176
62 99 175
62 99 172
61 98 174
62 99 173
61 98 173
62 99 176
62 98 176
62 99 173
62 98 174
61 97 169
61 97 172
62 99 171
61 97 166
62 98 171
61 97 173
62 97 165
60 96 166
61 96 167
60 96 166
61 95 160
62 95 162
70 96 149
90 102 119
84 91 89
114 115 86
91 92 62
110 109 74
106 106 70
90 93 66
97 99 72
105 106 73
89 92 62
93 96 69
112 111 75
100 102 73
103 104 74
107 109 77
105 106 74
106 107 75
102 104 75
99 103 74
114 116 82
113 114 80
117 118 82
123 124 84
111 115 82
114 116 81
130 130 89
124 124 85
124 125 87
136 135 91
124 125 86
130 130 87
134 134 89
128 129 88
137 136 92
141 139 93
137 136 90
137 136 89
135 134 89
138 138 92
142 142 93
147 146 95
152 149 98
148 146 95
146 144 90
154 151 100
152 150 98
147 145 96
160 157 101
151 148 95
150 149 95
164 160 103
157 155 101
160 157 100
158 155 98
160 157 101
161 158 98
171 166 105
165 161 101
165 160 98
166 162 101
165 161 100
167 163 104
165 161 103
167 163 99
170 164 101
169 164 99
168 164 104
170 165 102
170 166 103
171 166 105
170 165 102
170 165 100
172 167 98
170 165 101
171 167 103
174 169 103
172 167 102
176 171 107
172 168 105
174 168 103
170 165 100
172 166 102
175 169 102
173 166 101
173 167 103
173 168 101
170 164 96
172 166 102
171 166 100
171 166 101
176 169 104
173 167 102
171 166 99
170 164 98
173 168 102
173 167 101
172 165 103
171 166 103
167 162 95
171 166 98
169 164 99
171 166 98
173 167 101
170 164 98
167 161 86
170 164 99
171 164 97
168 161 97
168 162 93
167 161 95
162 157 88
169 162 96
161 155 91
163 157 91
165 159 87
159 155 87
166 161 90
162 156 88
163 157 87
158 152 84
168 161 96
160 155 90
160 154 87
161 155 91
163 156 90
160 153 89
155 149 82
157 152 82
154 149 81
153 147 77
158 151 83
162 155 80
160 154 77
143 138 68
153 147 79
142 137 68
146 141 75
151 145 77
138 132 64
134 129 64
147 143 71
143 143 59
150 152 63
141 147 51
147 152 51
154 163 44
154 163 48
159 173 32
164 178 39
165 183 25
164 182 28
174 194 25
171 195 0
172 196 0
173 196 0
173 196 0
171 195 0
174 197 0
172 195 0
172 196 0
174 197 0
172 196 0
173 196 0
171 196 0
174 197 0
169 193 0
172 196 0
171 194 0
174 197 0
171 194 0
174 197 0
173 196 0
172 196 0
173 196 0
175 198 0
172 196 0
175 197 0
173 197 0
174 197 0
173 196 0
171 194 0
171 196 0
173 196 0
172 196 0
170 193 0
170 194 0
172 196 0
171 194 0
174 197 0
174 197 0
173 196 0
172 196 0
172 196 0
170 194 0
172 196 0
173 196 0
174 197 0
174 197 0
171 195 0
172 195 0
173 197 0
171 194 0
173 196 0
171 195 0
171 193 0
173 196 0
171 194 0
170 193 0
175 198 0
170 194 0
171 195 0
172 196 0
173 196 0
169 193 0
173 196 0
171 194 0
172 195 0
170 194 0
170 193 0
172 196 0
171 194 0
172 196 0
173 196 0
173 196 0
171 194 0
171 195 0
174 196 0
173 196 0
172 195 0
171 194 0
169 192 0
171 194 0
170 192 0
170 194 0
174 197 0
173 196 0
171 195 0
172 196 0
168 191 0
168 191 0
172 194 0
169 193 0
173 195 0
172 195 0
170 194 0
171 194 0
172 195 0
171 194 0
171 194 0
168 191 25
154 177 80
126 152 130
80 113 169
62 99 180
62 99 178
62 99 181
63 99 179
63 100 179
62 99 179
63 100 181
62 99 181
62 99 181
62 99 179
62 99 181
63 100 180
61 99 180
62 99 179
63 100 181
62 99 181
61 98 179
62 99 180
62 99 179
62 99 181
62 99 181
62 99 181
63 100 181
62 99 181
62 99 178
62 99 179
62 99 181
62 99 179
62 99 178
61 99 179
61 98 179
62 99 179
61 98 179
62 99 179
62 99 180
62 99 181
62 99 180
62 99 180
62 99 181
61 99 181
61 99 180
62 99 181
62 99 181
62 99 180
62 99 180
62 99 180
62 99 181
62 99 179
62 99 178
62 99 181
62 99 180
62 99 180
62 99 180
62 99 180
63 100 178
62 99 178
62 99 180
62 99 180
62 99 181
62 99 180
62 99 179
62 99 178
61 99 181
62 99 179
62 99 181
62 99 181
61 98 180
61 98 178
62 99 181
62 99 179
61 98 178
61 98 179
62 99 177
62 99 179
62 99 181
62 99 179
61 99 180
62 99 178
62 99 181
61 98 177
62 99 178
62 99 181
63 100 179
62 99 179
61 99 178
62 99 180
62 99 180
62 99 180
62 99 178
63 100 178
61 99 179
63 100 181
62 99 178
62 99 181
62 99 178
62 98 174
63 100 178
62 99 178
61 99 179
63 100 180
62 98 174
62 99 178
62 99 178
62 99 176
62 99 177
62 99 177
62 99 180
61 98 174
62 99 177
63 100 178
62 99 177
62 99 175
62 99 177
62 99 176
62 99 178
62 99 176
62 99 176
62 99 178
62 99 172
62 99 176
62 99 171
61 99 177
62 99 177
62 99 177
62 99 176
62 98 175
62 98 171
62 99 177
62 99 176
62 98 176
62 98 176
62 98 172
62 98 170
62 98 174
60 96 169
62 99 171
62 98 169
61 97 171
61 97 168
62 99 174
61 97 170
63 99 176
62 98 174
62 97 167
61 97 166
59 93 159
63 91 146
80 97 134
94 104 113
101 104 83
100 101 69
104 105 71
99 100 68
93 94 64
91 92 64
104 104 71
106 108 76
100 102 74
92 96 70
102 104 74
97 99 69
99 102 72
106 108 78
104 106 77
105 107 76
120 120 82
102 105 74
116 117 83
110 111 79
113 116 79
116 116 79
113 116 83
112 114 82
120 122 86
124 125 84
123 124 85
136 135 91
118 120 83
124 124 86
145 143 92
142 140 94
142 141 95
146 144 93
129 129 88
133 133 90
148 146 96
149 147 98
143 141 94
146 144 97
146 145 93
155 152 101
152 148 95
151 148 98
161 158 96
159 156 97
159 155 98
156 153 97
159 156 101
155 153 97
161 158 100
157 154 96
156 154 97
163 160 103
164 161 102
165 161 102
165 161 99
159 156 101
161 159 101
170 164 104
169 165 102
172 166 104
166 162 101
171 166 104
170 165 104
174 168 105
171 165 100
171 166 98
171 166 103
174 168 104
172 167 102
174 169 103
173 167 103
173 167 101
172 167 102
172 167 103
176 170 99
177 171 104
175 168 102
178 171 105
176 169 104
174 169 103
177 170 103
173 167 100
173 167 104
172 167 103
173 166 102
177 170 104
174 168 103
172 166 99
169 163 95
171 165 101
175 168 101
174 168 99
171 165 101
174 168 99
172 166 99
174 167 99
173 167 99
173 167 102
169 163 97
166 159 93
166 161 93
171 166 100
166 160 95
167 160 91
169 162 96
169 163 96
166 160 93
162 157 93
167 161 95
165 158 93
171 164 97
168 161 93
161 155 90
165 159 90
165 159 91
160 154 88
155 150 83
170 163 93
161 155 88
166 161 90
164 157 91
159 153 82
158 152 84
157 151 78
155 149 76
154 148 83
153 147 80
151 144 79
147 142 73
157 150 86
146 141 74
154 148 76
146 139 75
138 133 64
151 146 76
144 138 69
146 142 64
135 135 60
145 149 52
148 152 53
146 152 48
151 160 51
157 171 45
155 169 34
161 177 30
163 181 25
169 190 0
167 189 0
173 197 0
174 198 0
174 196 0
175 198 0
172 196 0
173 197 0
174 198 0
172 196 0
173 196 0
172 196 0
174 198 0
170 195 0
172 196 0
171 194 0
173 196 0
173 197 0
172 196 0
172 196 0
172 196 0
172 196 0
175 198 0
174 198 0
172 195 0
174 197 0
172 195 0
172 195 0
174 198 0
173 197 0
170 193 0
171 194 0
174 197 0
171 195 0
172 196 0
174 197 0
172 195 0
174 196 0
175 198 0
170 193 0
172 196 0
172 196 0
172 196 0
171 194 0
172 196 0
173 196 0
173 197 0
171 195 0
173 197 0
174 197 0
172 194 0
170 194 0
172 196 0
173 196 0
171 195 0
171 195 0
173 196 0
172 195 0
170 193 0
174 196 0
172 195 0
173 196 0
173 196 0
169 191 0
173 196 0
172 196 0
171 195 0
170 193 0
169 193 0
169 193 0
172 195 0
173 197 0
171 194 0
172 195 0
173 196 0
173 197 0
170 193 0
175 197 0
171 194 0
171 194 0
172 194 0
171 194 0
169 193 0
170 194 0
171 194 0
169 193 0
172 195 0
173 196 0
166 190 0
168 191 0
172 195 0
172 195 0
168 191 0
170 195 0
171 195 0
171 193 0
170 194 0
173 196 0
173 196 0
164 188 60
132 156 120
98 128 158
64 101 179
63 100 179
62 99 178
63 100 181
63 100 181
63 100 181
61 98 178
62 99 179
62 99 177
62 99 180
62 99 181
62 99 181
62 99 180
62 99 180
62 99 179
62 99 179
62 99 180
61 99 178
62 99 180
62 99 178
61 98 179
63 100 180
62 99 180
63 100 181
62 99 181
62 99 180
62 99 179
62 99 181
62 99 179
62 99 180
61 99 180
61 98 176
62 99 181
62 99 180
62 99 181
62 99 178
62 99 178
62 99 181
63 100 181
61 99 181
62 99 181
62 99 180
62 99 179
62 99 179
62 99 181
62 99 180
62 99 181
62 99 180
61 99 181
61 98 180
62 99 178
62 99 181
62 99 178
61 98 180
62 99 179
62 99 181
62 99 178
62 99 177
62 99 179
62 99 180
61 99 180
62 99 177
62 99 180
62 99 180
62 99 180
62 99 180
62 99 179
62 99 177
62 99 179
62 99 178
62 100 181
62 99 178
62 99 179
62 99 179
62 99 178
63 100 180
62 99 180
62 99 177
61 99 179
62 99 177
62 99 178
62 99 180
61 98 177
62 99 178
62 99 180
63 100 179
62 99 180
62 99 178
62 99 174
62 99 176
62 99 177
61 99 179
62 99 178
63 100 179
62 99 177
62 99 178
62 99 179
61 98 176
62 99 180
62 99 177
62 99 176
62 99 176
62 99 179
62 99 179
62 99 177
62 99 180
62 99 179
62 99 177
63 100 181
62 99 177
62 99 178
62 99 179
62 99 178
61 98 179
61 98 175
62 99 177
62 99 178
62 99 177
61 98 175
62 99 177
62 98 173
62 99 176
63 99 176
62 98 171
63 99 176
62 99 174
62 98 170
61 98 171
61 97 170
61 98 174
62 98 177
63 99 176
62 99 175
62 99 171
62 99 174
62 99 175
62 98 171
62 98 172
62 98 171
61 97 173
62 98 171
61 96 168
62 97 168
62 97 168
61 96 165
61 96 169
61 96 164
60 94 160
70 96 151
76 94 126
85 93 94
100 103 77
103 103 66
101 102 69
89 90 61
80 83 57
80 84 61
99 100 71
100 102 73
87 91 65
92 96 71
95 98 69
110 110 78
98 101 71
94 97 71
96 101 74
89 92 67
97 99 71
112 114 80
115 116 81
114 117 83
111 112 77
117 117 82
125 126 89
122 123 85
124 125 85
119 120 81
115 117 81
131 130 89
138 137 89
123 124 79
123 124 87
131 131 90
135 135 93
135 135 88
139 137 89
126 127 85
147 145 93
135 134 90
141 140 92
150 148 97
144 143 95
157 153 98
146 144 92
154 151 99
148 146 95
159 155 100
155 152 95
159 156 98
154 151 96
165 161 104
157 154 99
164 160 101
165 160 100
164 159 97
171 166 104
163 159 100
165 161 101
168 163 98
164 161 102
162 159 95
170 165 104
165 160 98
165 161 100
168 163 102
167 163 98
168 163 98
169 164 98
174 168 103
170 165 98
178 172 107
169 164 101
173 167 102
171 166 99
168 164 96
171 165 101
175 169 104
171 166 98
172 167 104
175 168 102
172 166 101
174 168 101
177 170 99
169 164 98
176 171 104
176 169 104
172 166 97
174 168 104
175 168 100
173 166 101
172 166 99
175 168 101
175 168 99
174 167 103
171 165 99
170 164 97
174 169 104
173 166 101
171 166 99
171 165 95
173 166 101
172 166 102
168 163 97
166 162 93
173 167 97
168 162 93
168 161 97
161 155 85
170 163 93
169 162 96
162 156 87
165 158 87
164 158 89
160 154 92
161 155 83
153 147 84
163 157 87
158 152 85
166 159 89
168 162 90
156 151 84
164 158 88
161 155 85
161 154 86
154 148 80
160 153 86
157 150 87
154 148 80
151 145 80
150 143 80
151 145 75
148 141 74
151 145 76
143 138 71
151 145 74
144 138 66
149 143 72
152 146 75
132 128 64
147 144 70
144 146 54
146 147 57
146 151 42
152 163 42
160 170 49
164 176 47
156 171 30
169 187 28
166 186 16
173 195 16
173 196 0
174 198 0
173 196 0
174 197 0
173 197 0
171 194 0
174 197 0
172 195 0
173 197 0
171 195 0
173 196 0
170 193 0
173 196 0
169 193 0
173 197 0
172 196 0
173 197 0
174 197 0
172 196 0
172 196 0
173 196 0
175 198 0
173 196 0
173 197 0
173 197 0
171 195 0
173 196 0
173 196 0
174 198 0
172 196 0
171 195 0
172 196 0
172 196 0
171 195 0
171 195 0
175 197 0
172 194 0
173 197 0
172 195 0
173 196 0
172 196 0
171 195 0
173 197 0
173 196 0
172 194 0
172 195 0
172 196 0
174 197 0
173 197 0
172 196 0
170 193 0
174 196 0
174 196 0
171 195 0
168 191 0
172 195 0
172 196 0
173 196 0
172 196 0
172 195 0
173 197 0
174 196 0
172 195 0
170 193 0
171 194 0
170 194 0
170 194 0
170 193 0
170 193 0
173 196 0
169 192 0
172 194 0
169 193 0
171 195 0
172 195 0
174 197 0
170 193 0
171 195 0
170 194 0
171 194 0
171 195 0
173 197 0
172 194 0
173 196 0
171 194 0
173 197 0
170 193 0
171 194 0
171 194 0
173 196 0
171 195 0
173 196 0
174 197 0
169 192 0
173 195 0
169 193 0
165 188 40
144 169 95
112 139 143
70 105 177
62 99 176
62 99 178
62 99 177
62 99 181
62 99 178
62 99 179
62 99 180
62 99 179
63 100 181
62 99 180
62 99 176
63 100 180
62 99 181
62 99 181
62 100 181
62 99 180
62 99 181
62 99 179
62 99 180
62 99 180
62 99 181
62 99 179
61 99 180
62 99 178
62 99 181
62 99 181
62 99 180
61 99 180
62 99 181
62 99 178
62 99 181
62 99 179
62 99 179
62 99 181
62 99 178
62 99 180
62 99 181
62 99 180
62 99 178
62 99 181
62 99 179
61 99 181
62 99 181
61 99 179
62 99 181
62 99 181
62 99 180
62 99 178
62 99 180
61 99 178
62 99 180
62 99 180
62 99 181
62 99 179
62 99 179
62 99 181
62 99 181
62 99 181
62 99 181
62 99 180
62 99 181
62 99 180
62 99 179
62 99 181
62 99 177
62 99 178
62 99 178
62 99 180
61 98 176
61 99 181
62 99 179
62 99 178
62 99 178
62 99 178
62 99 177
61 98 180
62 99 179
62 99 180
61 98 175
62 99 176
62 99 180
62 99 180
62 99 177
62 99 179
62 99 177
62 99 180
62 99 180
62 99 178
61 99 179
62 99 179
62 99 178
62 99 176
62 99 181
62 99 177
62 99 178
62 99 179
62 99 179
62 99 176
63 100 178
61 99 178
62 99 177
61 98 175
61 98 176
62 99 178
62 99 177
61 98 174
62 99 179
62 99 176
62 99 177
62 98 171
62 99 176
62 99 175
62 99 178
62 99 176
62 99 178
62 99 177
62 99 176
61 97 173
62 99 178
63 100 178
61 98 177
62 98 172
63 99 176
62 98 173
61 98 174
62 98 173
62 98 172
62 98 173
62 99 173
62 98 173
62 98 171
61 98 175
62 99 174
62 99 176
62 98 174
62 98 169
62 98 173
62 98 173
62 99 174
60 96 166
61 96 164
61 97 167
61 97 170
62 98 170
60 95 163
61 97 166
60 95 160
61 96 163
64 95 155
78 99 141
77 93 118
91 96 82
82 84 64
87 90 64
91 94 66
95 97 68
85 88 65
83 87 61
82 86 62
85 89 65
86 89 65
99 101 71
103 105 74
86 90 67
119 120 85
90 95 70
107 109 75
102 106 75
105 109 80
105 109 80
112 113 78
106 109 78
121 122 87
130 130 88
121 122 84
126 125 85
124 125 85
123 123 84
121 123 85
128 128 84
126 126 82
125 126 84
137 136 91
129 130 89
147 145 89
140 138 90
142 140 92
140 139 94
143 140 91
145 143 95
139 138 90
152 148 93
155 152 98
150 148 94
157 154 97
147 145 95
153 149 94
162 158 101
159 156 98
161 157 93
157 155 100
160 157 97
156 153 93
163 159 96
160 156 98
165 160 100
160 157 98
163 158 98
164 160 100
169 164 103
171 165 103
169 164 102
170 165 104
170 165 101
165 160 97
168 163 101
166 161 95
170 165 99
166 161 97
172 167 103
173 168 98
173 168 104
171 166 102
168 163 97
174 168 103
174 168 101
172 167 102
172 166 98
173 168 102
173 168 103
171 166 98
175 169 101
174 168 103
173 168 101
174 168 100
171 166 97
174 167 99
172 166 102
167 162 93
172 166 100
174 168 97
169 162 93
168 163 97
175 168 97
173 166 98
175 168 103
169 163 93
169 164 96
173 166 101
172 166 101
172 166 99
165 159 91
167 161 97
170 164 98
168 162 92
166 160 94
169 163 95
170 164 91
170 163 94
170 165 95
168 162 94
167 160 88
158 153 83
169 162 94
169 162 94
166 160 90
155 150 84
158 152 86
166 159 92
161 155 90
163 157 85
160 154 84
159 153 83
161 155 86
156 151 81
158 152 86
160 153 82
158 151 86
158 152 84
154 148 77
153 147 78
145 139 70
151 145 83
154 147 81
143 138 72
144 138 67
144 138 73
137 133 62
140 137 65
148 149 66
142 143 53
148 150 58
157 164 56
151 162 36
152 166 32
156 169 32
167 186 28
167 186 22
171 190 19
167 189 16
172 196 0
173 197 0
174 198 0
176 198 0
174 197 0
173 196 0
168 191 0
173 195 0
170 194 0
172 195 0
174 197 0
173 197 0
171 195 0
172 195 0
172 194 0
173 197 0
172 196 0
173 197 0
173 196 0
173 196 0
172 195 0
172 195 0
173 197 0
168 192 0
172 196 0
174 197 0
175 197 0
172 196 0
172 195 0
171 195 0
173 197 0
173 197 0
173 196 0
174 197 0
172 196 0
174 196 0
174 197 0
170 194 0
170 193 0
174 197 0
171 194 0
169 193 0
174 197 0
171 195 0
171 194 0
173 197 0
174 197 0
172 195 0
171 195 0
171 194 0
170 192 0
172 195 0
173 196 0
172 196 0
172 196 0
172 196 0
172 195 0
170 193 0
170 193 0
173 197 0
171 195 0
171 194 0
169 193 0
173 195 0
172 196 0
173 196 0
169 193 0
172 196 0
172 195 0
173 196 0
173 197 0
168 191 0
172 196 0
173 195 0
174 197 0
174 197 0
173 196 0
172 195 0
172 195 0
173 196 0
172 195 0
170 194 0
173 196 0
171 195 0
171 195 0
171 193 0
169 191 0
170 193 0
171 194 0
166 189 0
170 194 0
172 196 0
171 194 0
172 196 0
170 193 0
169 194 0
158 183 67
133 158 120
90 120 165
62 99 179
62 99 180
62 99 180
62 99 177
62 99 179
63 100 180
62 99 180
61 99 178
62 99 181
62 99 180
62 99 180
63 100 179
62 100 181
62 99 180
62 99 179
62 99 180
61 99 180
62 99 178
62 99 179
62 99 179
61 99 179
62 99 181
62 99 180
61 99 181
62 99 180
62 99 181
62 99 179
63 99 180
62 99 181
62 99 178
62 99 179
61 98 178
62 99 178
62 99 179
61 99 177
62 99 180
62 99 178
62 99 178
61 98 177
62 99 180
62 99 180
62 99 176
62 99 178
62 99 180
62 99 179
62 99 181
62 99 178
62 99 180
62 99 181
61 99 180
62 99 181
62 99 180
61 98 176
62 99 180
61 98 178
61 99 181
62 99 180
62 99 180
62 99 179
62 99 180
62 99 180
62 99 181
62 99 179
62 99 179
62 99 180
62 99 178
62 99 180
62 99 180
62 99 178
61 98 180
62 99 180
62 99 177
62 99 179
62 99 179
62 99 180
62 99 180
61 98 176
62 99 179
62 99 180
62 99 180
62 99 180
61 99 178
62 99 180
63 99 177
62 99 176
62 99 177
62 99 177
62 99 176
62 99 179
62 99 176
62 99 177
61 99 176
62 99 179
62 99 180
62 98 174
62 99 176
62 99 177
62 98 174
62 99 179
63 100 180
62 99 176
63 99 178
62 99 178
62 99 179
62 99 175
62 99 178
62 99 176
62 99 177
62 99 176
61 99 180
62 99 176
62 99 175
62 99 177
62 99 176
62 99 178
62 99 178
62 99 176
62 99 177
62 99 178
62 99 177
62 98 174
62 98 175
62 98 172
61 98 175
62 98 172
62 99 177
62 99 175
62 98 171
61 98 174
62 98 170
61 98 173
62 98 169
62 98 169
62 98 169
60 96 169
62 99 175
61 97 168
63 99 174
61 97 171
62 98 170
62 98 170
62 98 171
61 97 168
62 98 169
61 97 170
62 98 173
61 95 166
60 95 162
60 95 161
60 95 164
67 95 155
78 98 136
77 89 107
95 98 77
84 85 58
78 82 58
89 93 69
93 94 65
81 85 59
98 98 67
101 102 70
90 93 66
91 94 68
100 103 73
97 100 72
91 93 66
100 103 75
93 97 68
93 96 69
113 113 77
109 111 79
110 112 79
119 121 83
109 111 78
112 114 83
115 118 80
121 122 85
124 124 86
126 126 85
129 129 88
120 121 85
127 126 83
131 131 86
132 132 86
125 126 83
143 141 92
142 142 93
148 146 95
132 131 87
140 139 92
145 143 93
155 152 97
144 142 88
150 147 92
155 152 97
146 144 87
156 153 95
145 144 92
164 159 99
157 153 97
158 154 94
163 159 99
159 155 96
161 157 98
160 157 98
161 157 99
166 163 103
168 163 99
165 160 96
165 160 93
165 161 101
164 160 96
166 162 98
167 163 103
165 161 101
168 163 95
171 166 102
168 162 97
170 165 101
172 167 100
171 166 100
172 166 100
168 163 97
171 166 103
170 165 99
175 169 103
173 167 102
175 169 104
174 168 103
174 169 104
174 168 101
169 165 93
175 169 103
171 166 96
177 171 104
177 171 105
172 167 95
172 167 102
169 164 93
173 167 101
173 167 98
172 166 100
171 164 97
174 168 103
177 171 103
173 166 95
172 166 98
170 165 95
168 162 94
173 167 98
167 161 90
173 165 97
167 160 93
172 166 98
170 164 93
166 160 93
169 163 96
167 161 93
164 159 91
168 162 92
164 158 87
166 160 90
169 162 93
163 158 93
165 158 91
167 160 92
163 157 89
160 155 85
158 153 84
159 155 87
161 155 88
154 148 86
164 157 87
157 151 82
159 153 78
166 159 87
155 149 81
158 151 88
163 156 82
156 149 84
151 145 79
152 146 79
149 142 79
152 145 79
147 141 72
142 138 63
151 146 73
137 132 65
142 135 69
142 141 62
142 141 62
144 144 61
145 151 49
149 155 48
154 164 42
159 168 52
155 170 32
163 179 32
168 187 32
169 189 19
173 195 11
172 196 0
173 197 0
172 196 0
169 194 0
170 194 0
174 197 0
170 194 0
173 196 0
167 190 0
172 196 0
170 194 0
173 196 0
174 197 0
172 197 0
174 197 0
172 196 0
172 196 0
173 197 0
173 196 0
173 196 0
174 197 0
172 195 0
170 194 0
173 197 0
174 197 0
174 198 0
172 196 0
173 196 0
172 195 0
172 195 0
172 195 0
170 194 0
171 194 0
172 196 0
171 195 0
176 198 0
171 195 0
171 194 0
172 196 0
171 195 0
171 194 0
174 198 0
175 197 0
172 196 0
170 193 0
173 197 0
170 193 0
168 192 0
170 194 0
172 195 0
173 196 0
171 195 0
172 194 0
172 195 0
169 192 0
173 196 0
172 195 0
171 194 0
170 194 0
172 195 0
172 196 0
173 197 0
172 195 0
173 196 0
172 195 0
172 196 0
171 194 0
172 196 0
171 195 0
171 194 0
173 197 0
170 193 0
171 194 0
172 196 0
171 194 0
171 194 0
172 195 0
169 193 0
175 198 0
170 193 0
169 192 0
170 194 0
172 195 0
175 198 0
171 195 0
170 193 0
167 190 0
170 194 0
171 193 0
171 194 0
172 195 0
168 191 0
174 196 0
172 196 0
169 193 0
162 185 60
140 165 108
98 127 158
64 101 179
62 99 179
63 100 180
62 99 177
63 100 180
63 99 180
63 99 179
62 99 181
62 99 180
62 99 181
62 99 180
62 99 180
62 99 180
63 100 180
62 99 178
62 99 178
62 99 180
62 99 180
62 99 181
62 99 180
62 99 181
61 99 178
62 99 180
62 99 181
62 99 181
61 99 179
61 98 178
62 99 179
62 99 179
61 99 181
62 99 180
62 99 179
62 99 179
62 99 179
62 99 177
62 99 178
61 99 179
61 99 177
62 99 181
62 99 180
62 99 178
62 99 180
62 99 180
61 99 177
62 99 178
62 99 179
62 99 178
61 98 180
61 98 178
62 99 178
62 99 177
62 99 179
62 99 178
62 99 180
61 98 178
62 99 180
62 99 180
62 99 179
61 99 180
62 99 181
62 99 178
62 99 181
61 99 180
61 99 181
62 99 181
61 98 177
62 99 178
62 99 178
62 99 179
62 99 180
61 99 180
62 99 178
62 99 180
62 99 181
61 98 178
62 99 176
62 100 181
62 99 179
62 99 177
62 99 177
62 99 179
61 99 179
62 99 180
62 99 179
62 99 178
62 99 179
62 99 176
62 99 179
62 99 179
62 99 179
62 99 178
62 99 179
63 100 180
62 99 180
62 99 178
62 99 180
62 99 179
62 98 175
62 99 177
62 99 178
63 99 179
62 99 175
62 99 175
63 100 179
62 99 176
62 99 177
61 98 176
61 99 178
62 99 177
62 99 176
63 100 179
62 99 177
62 99 177
62 99 173
62 99 177
62 99 180
62 99 176
62 99 175
62 99 175
62 98 174
63 99 174
62 99 174
63 99 174
62 98 174
62 98 175
62 99 179
61 98 175
62 99 177
62 99 174
62 98 175
61 97 168
62 99 179
62 98 174
61 98 174
62 99 170
62 99 176
62 99 175
62 99 173
61 97 170
63 99 170
63 99 177
61 98 169
62 98 173
61 96 162
61 97 168
61 97 167
61 96 167
61 97 168
60 96 168
60 95 162
60 95 162
60 95 161
73 97 148
85 99 123
87 95 92
80 85 73
84 85 60
98 98 65
94 96 68
83 86 59
99 101 70
87 90 65
94 97 69
87 90 65
87 91 67
99 101 69
108 109 76
100 103 75
95 98 69
106 108 75
102 104 73
102 105 75
119 120 83
110 111 78
101 104 75
122 121 82
104 107 77
112 115 83
118 120 85
110 113 76
126 126 86
124 124 85
128 128 85
130 131 85
125 125 82
129 129 86
144 144 94
138 138 89
135 135 86
148 145 95
140 139 88
144 143 93
145 143 91
148 146 92
150 148 94
145 143 92
149 146 88
152 150 96
151 150 93
151 148 90
153 150 94
161 157 96
151 149 91
164 160 100
155 151 93
159 155 95
161 157 97
164 160 100
168 163 99
163 160 95
165 161 97
166 160 98
163 159 95
164 160 99
165 162 98
175 168 103
168 163 102
167 163 95
169 164 102
170 165 102
168 164 99
172 166 104
171 166 98
170 165 99
172 167 99
175 168 100
172 167 100
174 168 98
174 168 100
173 167 97
171 166 97
172 166 96
174 167 104
174 168 101
169 164 97
172 166 95
172 165 93
169 163 99
171 165 99
173 167 101
173 167 97
174 167 99
176 169 103
173 166 94
175 168 101
171 166 94
175 167 96
175 169 96
172 165 96
171 165 96
168 162 96
169 163 95
167 160 88
172 167 99
168 162 94
172 166 99
174 168 98
165 158 93
164 159 90
163 157 90
167 160 92
163 157 89
165 159 87
162 156 84
159 153 87
167 160 90
169 162 91
166 160 93
157 152 84
157 150 86
167 161 91
166 159 90
156 151 80
150 144 78
163 157 87
151 146 80
157 149 80
156 151 78
159 151 80
157 151 84
153 147 80
143 138 75
154 148 80
141 136 69
151 145 75
140 134 70
150 144 71
144 139 72
142 137 66
141 135 68
133 130 61
145 142 60
139 139 54
150 155 51
148 156 48
153 162 41
151 163 37
161 176 39
160 176 28
162 181 28
169 188 25
169 191 0
172 196 0
175 198 0
174 198 0
170 194 0
172 194 0
173 197 0
173 197 0
174 197 0
173 196 0
173 196 0
173 197 0
173 196 0
174 196 0
172 196 0
172 195 0
172 195 0
172 196 0
174 198 0
175 198 0
173 197 0
173 196 0
172 196 0
174 197 0
169 193 0
173 197 0
171 195 0
170 195 0
171 195 0
173 196 0
173 196 0
174 197 0
170 194 0
171 194 0
174 198 0
170 194 0
172 196 0
173 196 0
174 197 0
174 198 0
173 195 0
170 194 0
171 194 0
170 194 0
172 195 0
174 198 0
170 194 0
172 195 0
172 195 0
172 195 0
173 196 0
171 194 0
172 195 0
173 196 0
172 195 0
174 198 0
171 193 0
172 195 0
173 196 0
171 195 0
171 194 0
172 196 0
171 194 0
174 197 0
171 194 0
174 198 0
172 196 0
171 195 0
171 195 0
172 195 0
170 193 0
170 194 0
171 195 0
174 196 0
172 195 0
170 194 0
173 196 0
171 195 0
169 192 0
170 193 0
173 196 0
170 193 0
169 193 0
169 192 0
169 193 0
173 196 0
173 196 0
169 192 0
172 195 0
171 195 0
170 193 0
170 194 0
173 196 0
171 195 0
170 193 0
167 190 25
147 171 100
138 163 117
75 109 173
63 100 181
63 100 176
62 99 177
62 99 180
63 100 181
63 100 181
62 99 177
62 99 179
62 99 180
62 99 180
62 99 181
62 99 179
62 99 180
62 99 178
62 99 179
63 99 180
62 99 178
61 98 176
62 99 180
62 99 180
62 99 181
62 99 181
62 99 181
62 99 181
62 99 181
62 99 181
62 99 179
62 99 180
62 99 181
62 99 180
62 99 178
62 99 179
62 99 179
62 99 180
63 100 180
62 99 179
62 99 181
62 99 180
61 99 180
62 99 181
62 99 181
62 99 181
62 99 178
62 99 180
62 99 177
62 99 179
62 99 179
62 99 181
63 100 181
62 99 178
61 99 179
62 99 177
62 99 181
62 99 180
62 99 179
63 100 181
62 99 177
62 99 178
62 99 181
62 99 177
62 99 179
62 99 180
62 99 179
62 99 178
61 98 175
62 99 180
62 99 179
62 99 180
62 99 181
63 100 179
61 98 177
61 98 176
62 99 178
61 98 175
62 99 177
62 99 177
62 99 177
61 98 177
62 99 181
62 99 176
62 99 181
62 99 179
62 99 178
61 99 178
61 98 176
63 100 179
62 99 178
62 99 180
62 99 177
62 99 176
62 99 180
62 99 178
63 99 179
62 99 178
62 99 178
62 99 179
62 99 177
62 99 175
62 99 180
62 99 176
62 99 176
62 99 178
62 99 177
63 99 178
62 99 179
62 99 178
62 99 177
63 99 176
61 98 177
62 99 179
62 99 175
63 100 177
61 98 179
62 99 180
62 99 176
62 99 178
62 99 174
62 99 175
62 98 176
62 98 169
61 98 174
62 98 170
62 99 175
62 98 174
61 98 173
62 98 174
62 98 174
62 99 173
62 99 175
62 99 175
61 98 176
63 99 175
61 98 170
62 98 174
62 98 170
61 98 174
62 99 172
62 99 174
62 98 171
62 99 174
61 97 167
61 98 173
61 97 166
60 96 167
62 98 172
62 98 171
60 95 160
61 97 169
62 97 167
61 96 166
61 95 161
61 96 162
62 93 156
58 84 128
81 94 110
83 88 76
78 83 67
73 76 58
74 77 53
77 80 57
84 87 62
95 96 65
80 83 60
75 80 58
100 100 67
83 87 64
86 90 68
92 97 71
100 103 74
101 104 75
94 99 73
99 103 73
98 101 71
106 109 76
113 115 80
107 110 78
114 116 78
112 113 76
118 119 81
121 123 84
125 125 83
134 133 87
127 127 84
125 125 82
130 130 85
130 129 84
140 138 92
134 134 88
127 127 80
149 146 93
138 138 89
139 137 88
146 144 92
138 137 89
155 152 95
151 148 95
147 145 95
149 147 90
154 151 95
154 150 94
159 156 99
160 156 98
157 153 95
158 155 97
152 149 94
157 154 94
162 158 100
165 161 100
158 155 95
160 157 98
170 165 99
166 162 98
166 161 99
166 162 99
165 161 94
171 166 103
168 163 99
170 165 100
175 169 103
167 162 97
170 164 99
167 162 97
172 166 99
175 169 100
169 164 94
172 166 97
176 169 101
170 165 102
173 167 102
173 167 99
175 169 101
171 165 95
176 170 103
171 166 98
171 165 95
173 167 99
169 165 95
173 167 97
173 167 99
172 167 99
172 166 94
173 167 97
176 169 95
174 167 95
175 167 99
175 168 98
169 164 91
176 169 100
170 165 96
174 167 96
165 160 90
172 165 95
169 163 92
168 163 97
168 163 92
170 163 95
173 166 99
169 162 94
166 159 92
163 158 86
166 160 93
165 158 90
169 162 90
165 159 87
164 157 91
161 154 86
162 154 85
163 158 88
161 156 84
164 159 94
165 158 87
153 148 84
160 154 86
165 157 85
163 156 87
156 150 80
156 151 82
160 153 84
164 156 84
155 149 78
149 143 75
156 149 81
148 142 76
151 145 75
145 139 69
145 140 71
146 140 70
142 136 67
134 130 64
143 137 67
141 138 56
150 150 61
152 153 56
157 160 52
146 154 39
158 168 44
155 165 45
160 176 30
166 184 34
164 184 22
166 186 0
166 188 16
172 196 0
171 195 0
174 198 0
174 197 0
175 198 0
173 197 0
173 197 0
171 195 0
173 195 0
173 196 0
173 197 0
172 195 0
172 195 0
171 195 0
171 195 0
171 194 0
171 194 0
172 195 0
171 194 0
171 195 0
172 195 0
174 197 0
173 195 0
173 196 0
172 195 0
173 197 0
171 195 0
171 195 0
169 193 0
168 192 0
173 196 0
174 197 0
173 195 0
172 195 0
174 197 0
175 198 0
173 196 0
172 195 0
173 197 0
171 195 0
175 198 0
173 196 0
173 195 0
172 196 0
171 194 0
172 195 0
174 197 0
172 195 0
174 197 0
170 194 0
170 193 0
173 195 0
172 196 0
170 194 0
172 195 0
171 194 0
173 196 0
169 192 0
170 194 0
173 196 0
173 197 0
174 197 0
173 196 0
172 195 0
170 193 0
174 198 0
171 195 0
164 187 0
172 195 0
172 195 0
174 196 0
173 196 0
171 195 0
171 194 0
174 197 0
172 196 0
170 194 0
172 196 0
171 195 0
166 191 0
173 196 0
175 198 0
171 194 0
170 194 0
171 195 0
171 195 0
171 194 0
171 195 0
173 196 0
163 187 0
168 192 0
173 195 0
172 195 0
170 194 0
158 182 74
139 163 113
86 117 166
63 100 178
62 99 176
62 99 179
61 99 178
62 99 179
63 100 181
62 99 180
62 99 180
62 99 180
62 99 181
62 99 181
62 99 179
62 99 179
62 99 178
62 99 181
62 99 180
61 98 176
61 99 179
62 99 180
63 100 181
63 99 179
62 99 180
62 99 178
62 99 178
62 99 179
61 99 179
62 99 178
62 99 180
62 99 181
62 99 180
61 98 177
63 100 179
62 99 179
62 99 181
62 99 180
62 99 180
62 99 180
62 99 180
62 99 178
62 99 179
61 98 178
62 99 180
62 99 179
62 99 180
62 99 180
62 99 178
61 98 180
62 99 180
62 99 181
62 99 178
61 99 180
62 99 180
62 99 180
62 99 179
62 99 178
62 99 180
62 99 180
62 99 181
61 99 179
61 98 178
62 99 180
62 99 178
62 99 180
62 99 179
62 99 178
61 98 179
62 99 180
61 99 178
62 99 176
62 98 175
62 99 177
62 99 181
62 99 181
61 98 178
61 98 179
62 99 177
62 99 179
62 99 178
62 99 175
62 99 176
62 99 179
62 99 178
62 99 179
63 100 179
63 99 177
62 99 180
61 99 178
62 99 176
62 99 178
62 99 178
62 99 178
62 99 174
62 99 180
62 99 175
63 100 179
63 100 180
62 99 178
62 99 177
62 99 178
62 99 176
61 99 179
62 99 175
62 99 178
62 99 176
62 99 177
62 99 175
63 99 176
62 99 179
62 99 176
61 98 176
62 99 176
62 99 177
62 99 174
62 99 177
62 99 179
62 99 177
63 99 176
62 99 180
62 99 174
62 98 177
62 99 176
62 99 178
62 98 174
63 100 179
62 99 175
62 99 175
62 99 176
62 99 174
61 98 170
62 99 175
62 99 173
62 98 172
62 98 172
61 98 171
62 98 174
62 98 175
61 98 170
62 99 175
62 99 171
63 99 172
62 98 166
62 99 175
61 97 168
61 97 167
62 98 168
62 97 166
62 98 172
62 97 169
61 96 166
61 96 162
61 97 168
61 97 170
60 94 161
59 92 151
64 92 146
68 91 132
73 84 99
75 80 67
76 79 58
84 88 63
78 83 59
78 82 59
94 96 67
74 78 57
97 99 71
83 88 66
81 85 60
83 88 67
72 78 58
89 93 67
99 101 71
96 98 70
98 101 72
108 111 79
108 111 78
115 117 80
107 109 77
113 113 78
115 116 81
120 121 80
111 112 74
118 119 79
127 127 85
131 131 87
131 131 87
129 128 85
129 129 84
127 127 85
141 139 93
137 137 91
139 138 85
142 140 87
149 146 92
150 147 95
144 142 87
136 135 84
152 150 96
147 144 93
151 148 96
153 150 96
159 155 96
157 152 94
152 149 95
156 152 95
161 157 99
161 156 97
154 152 92
154 152 94
159 156 95
159 156 98
156 153 92
160 156 95
163 159 100
167 162 98
166 161 98
167 162 100
167 162 97
166 161 98
170 166 99
164 159 98
166 162 98
170 165 99
171 165 98
173 167 98
170 164 95
170 165 95
170 165 96
171 166 96
171 166 102
172 166 98
172 166 93
172 166 98
173 166 97
176 169 101
172 167 98
170 164 94
174 168 100
172 166 97
171 165 93
174 168 98
171 165 92
172 165 92
171 165 96
171 164 96
174 168 96
170 164 94
171 165 95
167 161 92
172 166 96
174 168 95
169 163 93
172 165 94
170 164 86
168 163 89
165 160 92
172 165 95
164 158 81
165 159 85
172 166 97
166 160 90
169 161 91
170 163 93
167 160 92
166 160 89
167 160 90
167 161 93
163 157 83
164 157 92
166 159 88
160 153 86
166 159 91
164 157 86
167 159 88
163 156 86
160 153 84
163 157 87
160 153 82
160 153 83
158 152 79
154 148 78
149 145 69
149 142 74
146 140 68
153 147 76
152 145 77
153 148 75
150 143 75
144 138 71
143 137 63
143 138 63
129 125 63
135 131 53
146 147 51
141 146 45
142 149 44
151 155 53
151 161 48
164 175 48
162 178 28
168 185 34
164 184 22
171 191 11
171 194 0
171 195 0
170 194 0
173 197 0
171 195 0
173 197 0
172 195 0
171 195 0
172 195 0
174 197 0
173 196 0
173 196 0
173 197 0
171 195 0
173 197 0
172 196 0
171 194 0
172 195 0
171 194 0
173 196 0
171 194 0
170 194 0
172 196 0
169 192 0
173 196 0
173 197 0
173 197 0
168 191 0
174 196 0
173 196 0
172 194 0
171 195 0
172 196 0
170 194 0
174 197 0
173 195 0
174 197 0
174 197 0
174 196 0
172 195 0
171 194 0
172 195 0
171 195 0
173 196 0
172 195 0
174 196 0
174 196 0
171 195 0
171 194 0
172 195 0
171 194 0
173 197 0
172 196 0
173 196 0
171 194 0
172 196 0
172 196 0
170 192 0
169 192 0
173 196 0
171 194 0
172 195 0
171 195 0
171 195 0
172 195 0
173 196 0
172 195 0
173 196 0
172 195 0
172 195 0
170 193 0
173 196 0
173 197 0
170 194 0
169 193 0
172 195 0
173 196 0
172 195 0
173 197 0
174 197 0
171 194 0
171 195 0
170 193 0
171 194 0
170 194 0
170 195 0
173 195 0
169 192 0
171 194 0
172 195 0
168 191 0
172 194 0
170 193 0
170 194 0
168 191 36
149 173 94
116 143 141
68 103 175
62 99 180
63 100 179
62 99 181
62 99 179
62 99 180
63 100 181
62 99 179
62 99 179
62 99 181
62 99 178
62 99 181
62 99 180
62 99 181
62 99 178
63 100 181
62 99 179
62 99 179
62 99 181
61 98 178
62 99 179
62 99 180
62 99 181
62 99 179
62 99 180
62 99 180
62 99 181
62 99 179
62 99 179
62 99 181
62 99 180
62 99 180
62 99 178
62 99 179
62 99 181
61 98 177
62 99 181
62 99 180
62 99 178
62 99 179
62 99 179
62 99 178
62 99 174
62 99 181
62 99 179
62 99 180
61 99 180
62 99 176
62 99 181
62 99 180
62 99 178
62 99 179
62 99 180
62 99 180
62 99 178
62 99 181
62 99 180
62 99 177
62 99 181
62 99 177
62 99 179
62 99 179
62 99 176
62 99 180
62 99 180
62 99 180
62 99 179
62 99 180
62 99 178
63 100 179
62 99 177
62 99 178
62 99 179
62 99 179
62 99 177
62 99 180
62 99 178
62 99 180
62 99 176
61 99 180
62 99 177
61 98 172
62 99 177
62 99 178
62 99 180
62 99 178
62 99 177
62 99 178
62 99 180
62 99 176
62 99 177
62 99 178
62 99 178
62 99 178
62 99 180
61 99 178
62 99 176
62 98 172
62 99 178
62 99 178
62 99 179
62 99 178
63 100 180
62 99 181
62 99 180
62 99 178
62 99 176
62 99 176
62 99 178
62 99 179
61 98 175
62 99 174
62 99 175
62 99 178
62 99 177
61 98 174
63 99 178
62 99 174
62 99 176
62 98 171
62 99 174
62 99 177
63 99 171
62 98 168
62 99 178
62 99 178
62 99 176
62 98 169
62 99 174
62 99 173
62 99 173
62 99 174
61 97 170
62 99 174
63 99 171
62 99 173
62 99 174
62 99 171
62 99 172
62 98 165
61 98 176
62 99 172
62 98 169
63 99 174
62 98 172
61 97 169
62 97 166
61 97 165
61 97 171
62 97 170
61 97 170
61 97 165
61 95 162
60 94 160
60 96 165
59 94 157
62 89 138
73 88 111
79 85 80
82 84 61
74 76 55
66 73 54
83 86 59
88 91 64
83 87 60
91 94 68
84 87 61
86 89 65
77 82 63
95 98 69
102 105 75
94 98 71
103 107 76
105 108 76
113 113 77
112 113 77
108 111 80
108 110 76
105 108 78
125 125 84
113 114 76
132 132 88
123 124 83
120 121 80
117 118 78
130 130 89
130 129 85
137 136 89
124 124 81
127 127 81
122 123 83
143 141 91
132 131 84
145 143 92
137 137 86
145 142 91
143 141 90
140 139 87
150 147 96
142 140 89
156 152 97
157 153 95
144 142 83
152 150 91
146 144 87
150 147 91
158 154 93
165 160 96
161 157 98
161 158 98
163 159 94
167 163 100
164 159 94
162 158 91
165 160 94
157 153 91
166 161 98
171 165 96
171 165 99
169 164 98
165 161 91
174 168 100
168 163 98
169 164 95
173 167 97
169 163 98
172 166 97
171 165 97
172 167 98
171 165 94
170 166 96
171 165 95
173 167 96
171 164 94
170 164 95
177 171 102
173 167 101
174 168 98
172 166 95
171 166 95
172 166 95
168 161 90
172 166 101
174 168 99
172 166 99
174 168 95
172 165 94
173 166 93
175 168 99
174 168 101
169 163 91
170 164 95
168 163 93
169 163 86
168 162 96
165 159 90
171 164 93
169 163 93
169 163 92
171 165 94
164 158 87
167 160 89
170 165 92
164 157 91
167 161 93
171 164 96
163 157 93
165 158 89
161 155 85
169 162 95
165 159 87
165 158 87
156 150 84
160 154 84
160 154 86
159 152 80
157 152 81
163 155 85
161 153 84
161 153 80
159 154 81
156 150 78
150 145 77
149 143 68
151 145 71
147 141 74
145 138 67
148 142 68
149 143 73
152 145 74
141 136 68
140 135 69
136 132 60
148 147 59
142 144 61
153 157 57
154 162 45
158 168 37
159 171 37
160 177 25
160 175 36
161 181 16
168 190 11
168 191 0
174 198 0
172 196 0
172 196 0
172 195 0
175 198 0
172 194 0
171 194 0
175 198 0
172 195 0
173 196 0
175 198 0
174 198 0
174 197 0
171 194 0
173 197 0
173 196 0
171 194 0
172 195 0
172 195 0
171 195 0
171 195 0
171 195 0
174 198 0
174 197 0
173 196 0
171 195 0
169 192 0
172 196 0
174 197 0
172 195 0
171 195 0
170 193 0
171 195 0
171 195 0
174 197 0
172 196 0
171 193 0
174 196 0
174 197 0
172 196 0
174 197 0
174 197 0
173 195 0
171 195 0
171 195 0
171 195 0
171 194 0
173 196 0
172 196 0
172 196 0
173 197 0
171 196 0
172 195 0
171 195 0
173 197 0
171 195 0
173 196 0
173 196 0
173 197 0
170 194 0
171 195 0
171 194 0
170 193 0
169 192 0
170 194 0
171 194 0
170 194 0
171 194 0
170 194 0
169 193 0
172 196 0
174 196 0
171 194 0
174 196 0
173 196 0
171 194 0
172 196 0
169 193 0
172 195 0
170 193 0
168 192 0
172 196 0
174 197 0
173 197 0
172 195 0
172 196 0
170 193 0
172 194 0
173 196 0
169 193 0
172 195 0
170 193 0
168 191 18
165 188 47
128 154 126
95 124 157
63 100 179
62 99 180
62 99 180
62 99 176
63 99 178
63 100 181
62 99 180
63 99 178
63 100 181
62 99 176
62 99 179
62 99 177
62 99 179
62 99 181
62 99 180
62 99 178
62 99 178
62 99 181
62 99 181
62 99 179
62 99 180
63 99 179
61 99 181
62 99 180
62 99 178
62 99 176
63 100 180
62 99 179
62 99 179
62 99 181
62 99 181
61 98 178
62 99 179
62 99 180
62 99 181
62 99 180
62 99 179
62 99 177
62 99 181
62 99 178
61 99 178
62 99 179
62 99 178
62 99 181
62 99 180
62 99 177
62 99 180
62 99 177
61 98 178
62 99 179
62 99 179
62 99 177
62 99 178
62 99 180
61 98 178
62 99 180
62 99 180
61 99 179
62 99 181
62 99 178
62 98 178
61 99 179
62 99 178
62 99 179
62 99 179
62 99 178
62 99 173
62 99 179
62 99 176
62 99 176
62 99 178
62 99 179
62 99 179
62 99 179
63 100 178
62 99 179
62 99 178
62 99 179
62 99 177
62 98 174
62 99 179
62 99 176
62 99 176
62 99 179
62 99 179
62 99 179
62 99 180
62 99 178
62 99 179
62 99 178
61 98 175
62 99 175
62 99 177
62 99 179
62 99 173
62 99 179
62 99 179
62 99 175
62 98 172
61 99 177
62 99 174
62 99 179
62 99 176
62 99 178
62 99 176
62 99 177
63 99 175
62 99 178
64 100 177
62 99 176
62 99 178
62 99 179
63 99 178
62 99 176
62 98 173
62 99 176
62 99 174
63 99 177
62 99 177
62 99 177
62 99 176
61 98 174
62 98 170
62 99 177
63 100 175
63 99 174
61 98 172
62 99 174
62 99 173
62 99 174
62 98 171
61 98 170
63 99 173
62 99 174
62 99 175
62 98 173
62 99 169
61 98 166
62 99 173
62 99 174
62 98 172
61 97 169
62 99 171
62 98 169
62 98 168
61 98 170
61 97 165
60 97 168
61 97 165
61 96 166
60 95 160
61 97 162
61 96 170
61 96 165
59 93 158
59 93 159
57 89 151
68 89 120
60 72 85
76 80 71
69 74 56
80 84 59
80 82 58
84 87 62
81 84 61
71 76 57
81 85 62
94 98 71
72 77 57
95 98 72
109 110 76
94 97 68
101 102 70
101 104 73
107 109 77
92 95 67
96 100 70
114 116 77
112 114 81
114 116 76
112 115 78
119 118 77
116 118 81
119 120 78
129 129 85
119 120 80
122 122 79
125 125 80
127 128 81
130 130 85
142 140 89
142 140 91
143 141 92
139 137 89
148 146 90
143 141 89
140 139 85
146 143 88
151 147 88
146 145 89
151 149 93
154 150 94
151 148 91
156 152 93
156 152 93
160 155 93
158 154 98
163 159 94
159 155 94
162 156 96
159 155 93
167 161 98
165 160 98
165 160 96
167 162 96
162 158 95
164 159 92
170 165 101
168 163 96
171 165 98
165 160 96
172 166 97
160 158 93
167 162 95
174 168 100
170 164 97
172 166 98
173 166 101
167 162 93
171 166 95
174 169 105
172 165 98
170 164 93
173 167 97
173 166 98
175 169 102
175 168 101
171 165 93
170 164 97
171 165 97
175 169 97
169 163 92
173 167 96
173 167 98
173 167 96
173 166 97
170 163 90
170 164 93
167 162 90
173 166 95
170 165 95
171 164 91
165 160 93
173 166 94
163 157 86
168 162 90
171 165 95
173 166 95
170 164 91
167 159 90
163 157 87
163 158 87
166 160 84
165 158 90
164 158 84
166 161 87
165 159 85
166 161 83
159 153 75
165 159 86
167 160 90
160 153 84
164 157 85
156 150 80
161 155 84
162 157 81
155 150 76
155 149 76
153 147 78
162 155 81
153 147 75
154 148 73
155 148 75
159 153 79
157 150 76
152 146 76
145 140 69
147 141 73
145 140 68
144 138 67
147 140 70
145 140 66
135 132 56
150 154 53
136 139 51
147 151 52
155 163 44
158 168 48
157 169 36
159 175 28
164 181 30
168 187 19
169 189 0
167 191 0
174 197 0
171 194 0
174 197 0
175 198 0
172 196 0
171 194 0
172 196 0
172 196 0
172 196 0
175 198 0
172 195 0
172 195 0
172 196 0
173 196 0
171 194 0
174 196 0
171 194 0
170 195 0
170 194 0
172 195 0
172 195 0
174 197 0
173 197 0
173 197 0
171 195 0
172 196 0
172 196 0
172 195 0
173 196 0
168 191 0
171 195 0
173 195 0
172 196 0
169 193 0
171 194 0
172 196 0
170 194 0
173 196 0
172 195 0
168 192 0
174 197 0
171 194 0
174 197 0
172 195 0
173 195 0
172 195 0
169 193 0
173 196 0
170 193 0
171 194 0
171 194 0
171 194 0
170 193 0
166 190 0
172 195 0
173 197 0
172 195 0
172 195 0
170 192 0
170 194 0
171 194 0
170 194 0
173 196 0
170 193 0
172 195 0
173 197 0
174 196 0
173 196 0
170 193 0
170 194 0
169 193 0
172 195 0
168 192 0
172 196 0
173 196 0
170 194 0
171 195 0
171 195 0
173 196 0
170 193 0
171 195 0
171 194 0
171 195 0
171 194 0
168 192 0
173 196 0
168 192 0
173 196 0
169 192 0
169 193 0
167 191 0
170 194 0
167 190 25
145 170 100
116 143 141
71 105 173
63 99 177
63 100 181
62 99 179
62 99 178
62 98 174
62 99 179
62 99 181
62 99 177
61 99 179
62 99 178
63 99 179
62 99 179
62 99 179
62 99 179
62 99 178
62 99 179
62 99 179
62 99 178
62 99 180
62 99 181
62 99 180
62 99 179
62 99 179
62 99 178
61 98 178
62 99 177
62 99 176
62 99 179
62 99 178
62 99 180
62 99 179
62 99 178
62 99 179
62 99 178
62 99 178
62 99 178
62 99 181
62 99 180
62 99 179
62 99 180
62 99 178
61 99 180
62 99 178
62 99 178
62 99 179
63 100 180
62 99 179
62 99 180
62 99 180
62 99 179
62 99 179
61 99 180
62 99 181
62 99 178
62 99 179
62 99 180
62 99 180
62 99 179
62 99 178
62 99 179
61 99 177
62 99 176
62 99 180
63 99 179
62 99 179
61 99 180
62 99 176
61 98 177
63 100 181
62 99 180
62 99 179
62 99 180
62 99 178
62 99 176
62 99 179
62 99 177
62 99 177
62 98 172
62 99 175
62 99 175
62 99 179
62 99 177
62 99 178
62 99 179
61 98 177
62 99 179
62 99 176
62 99 177
62 99 174
62 99 178
62 99 175
62 99 177
61 98 174
62 99 181
63 99 177
62 99 178
62 99 178
62 99 178
62 99 176
62 99 173
62 99 178
62 99 178
62 99 177
61 98 176
62 99 175
61 98 174
61 98 172
63 99 177
62 99 175
62 99 177
62 99 176
62 99 176
62 99 173
62 99 174
62 99 174
61 98 176
62 98 173
61 98 172
61 98 174
63 99 177
62 98 171
62 99 176
63 99 178
62 99 172
62 99 176
62 99 173
63 100 174
62 98 173
61 98 176
62 99 173
61 98 171
62 99 173
63 99 173
62 98 173
62 99 176
62 99 175
62 99 172
62 99 173
61 98 171
62 98 171
62 98 168
62 98 170
62 98 171
62 99 170
62 98 170
62 98 173
61 96 164
61 96 167
62 98 166
61 97 165
61 97 166
61 96 159
61 96 168
60 94 153
59 93 158
59 93 158
62 94 155
61 89 142
83 96 107
68 77 73
70 75 56
87 88 59
82 84 59
76 81 60
64 71 53
69 74 55
103 105 72
87 90 65
81 86 63
72 78 56
91 94 67
91 93 66
99 102 68
104 107 75
95 99 67
108 109 76
112 112 71
104 106 73
104 107 72
116 117 76
108 111 75
116 116 75
131 129 81
128 127 82
118 119 77
120 121 79
123 124 80
128 128 83
129 128 80
131 130 82
137 136 90
143 140 90
138 137 91
142 140 89
141 139 85
131 131 83
155 151 92
151 148 92
144 142 88
141 138 80
150 147 92
156 152 93
152 149 90
155 152 93
152 149 89
153 150 91
158 154 98
154 150 87
162 158 94
156 153 92
156 152 90
160 156 94
162 157 93
162 158 87
169 163 97
160 157 94
158 154 93
172 165 96
169 164 97
166 161 95
164 159 91
166 161 94
168 162 94
169 164 96
173 167 98
169 163 96
173 167 95
169 163 92
168 162 95
174 167 97
175 168 99
166 161 93
166 161 94
173 166 96
173 167 98
172 166 93
167 162 93
173 167 97
174 167 95
177 170 104
172 165 99
169 163 94
171 165 96
175 167 97
172 166 95
169 162 85
174 167 94
170 164 98
170 165 94
166 161 87
174 167 91
175 167 95
165 159 90
170 164 93
168 162 94
163 156 85
170 163 95
166 159 86
165 158 86
168 162 93
168 162 91
166 160 88
169 162 90
167 161 90
165 159 89
166 159 87
165 159 86
164 158 88
158 152 81
158 151 80
160 154 80
158 153 85
157 151 82
158 152 82
157 151 84
155 149 75
156 151 81
151 144 76
153 147 78
159 153 78
153 147 76
149 143 68
159 152 80
147 141 68
154 148 77
149 143 74
143 138 69
148 142 73
146 140 66
147 140 67
130 125 56
150 144 67
143 142 59
146 145 65
152 154 57
152 157 51
153 161 48
151 160 47
162 175 41
158 173 30
163 180 28
166 186 16
169 190 16
172 194 0
173 196 0
172 195 0
172 196 0
171 195 0
171 194 0
171 195 0
173 196 0
175 198 0
174 197 0
174 196 0
172 195 0
173 196 0
172 196 0
174 197 0
174 196 0
170 195 0
171 195 0
175 198 0
172 195 0
173 196 0
173 196 0
173 196 0
173 197 0
174 197 0
171 194 0
171 195 0
175 198 0
172 195 0
172 195 0
170 193 0
173 197 0
171 194 0
172 195 0
173 196 0
173 196 0
172 195 0
172 196 0
173 197 0
170 194 0
169 192 0
171 195 0
173 196 0
169 192 0
171 194 0
171 194 0
173 196 0
174 197 0
170 192 0
173 196 0
172 195 0
173 196 0
170 193 0
170 193 0
172 195 0
170 193 0
173 197 0
173 197 0
167 190 0
172 195 0
171 195 0
170 193 0
169 193 0
169 193 0
173 196 0
172 195 0
170 194 0
172 195 0
169 192 0
173 196 0
173 197 0
171 194 0
173 197 0
174 196 0
172 195 0
173 196 0
174 197 0
172 195 0
172 195 0
171 195 0
173 196 0
172 196 0
174 196 0
170 193 0
169 192 0
169 193 0
167 191 0
171 194 0
170 193 0
171 194 0
171 194 0
173 196 0
169 193 18
161 185 67
130 155 125
99 128 156
63 100 179
63 100 178
62 99 179
63 100 181
62 99 179
62 99 177
62 99 181
62 99 180
62 99 177
62 99 178
61 99 178
62 99 180
62 99 180
62 99 180
62 99 179
62 99 179
62 99 178
62 99 179
62 99 177
62 99 180
62 99 180
61 99 179
62 99 180
62 99 178
63 100 181
61 99 179
62 99 179
62 99 180
62 99 178
62 99 181
62 99 177
61 98 180
62 99 179
61 99 179
62 99 180
62 98 178
62 99 178
62 99 179
62 99 180
62 99 181
62 99 179
62 99 179
61 99 181
62 99 179
61 99 179
62 99 178
62 99 180
62 99 180
62 99 178
62 99 181
62 99 180
62 99 180
62 99 178
61 98 177
61 99 177
62 99 178
61 99 179
62 99 180
63 100 180
62 99 178
61 98 178
62 99 179
62 99 180
63 100 180
63 100 180
62 99 179
62 99 180
62 99 180
62 99 178
62 99 180
62 99 177
62 99 178
62 99 178
62 99 176
62 99 179
61 99 179
62 99 179
61 99 180
62 99 181
62 99 179
61 98 175
62 99 181
62 99 176
62 99 180
61 98 176
62 99 178
63 100 179
62 99 178
62 99 179
62 99 178
62 99 177
61 98 176
61 98 176
62 99 174
62 98 175
62 99 178
62 99 177
62 99 177
62 99 178
62 99 178
63 100 177
62 99 175
61 98 177
62 99 175
62 99 177
62 99 179
62 99 179
62 99 177
62 99 176
62 99 178
62 99 176
63 100 179
63 100 178
62 99 176
61 98 171
62 99 174
62 99 173
62 99 176
62 99 176
62 99 173
62 99 178
62 99 175
63 100 178
62 99 176
63 99 176
62 99 173
62 99 173
62 99 178
62 98 175
62 98 171
62 99 170
62 99 175
63 100 173
61 98 172
62 99 177
62 99 173
62 99 173
62 98 172
61 98 170
62 98 172
62 99 174
62 98 170
61 98 169
61 98 168
61 97 169
61 97 167
61 97 166
61 97 163
60 95 160
60 96 168
61 97 167
59 94 156
62 98 173
62 98 165
61 95 160
61 96 164
59 93 157
60 95 161
66 97 157
80 95 121
73 86 100
66 74 67
61 67 48
73 77 57
85 88 63
65 70 49
65 72 54
65 70 54
90 92 64
85 87 60
72 77 56
93 97 69
98 100 69
87 91 65
97 99 68
104 107 74
96 99 67
104 107 74
107 109 72
105 107 73
111 113 73
120 120 75
111 113 75
125 125 81
130 129 81
126 127 81
119 120 77
123 123 80
127 127 82
126 126 78
131 130 84
125 125 78
133 131 82
135 134 84
131 130 80
146 144 89
141 139 90
153 149 89
137 136 82
151 147 92
146 143 89
152 148 90
151 148 87
159 156 96
155 152 92
149 146 90
160 155 92
160 156 96
157 153 89
160 155 93
151 148 88
157 154 88
166 161 96
162 157 98
164 160 91
162 158 92
161 157 95
164 160 93
163 159 94
165 160 93
163 159 97
164 160 94
165 160 96
171 165 95
165 161 94
170 165 97
173 167 95
172 166 98
172 166 96
171 165 93
173 167 98
166 160 89
169 163 92
172 167 97
168 163 94
176 169 103
170 165 95
172 165 95
174 167 99
172 165 94
176 169 97
172 167 96
174 166 90
175 168 97
172 166 93
170 163 93
169 163 94
170 163 91
168 161 91
174 167 93
171 165 94
169 163 93
168 162 91
167 161 89
169 163 90
173 166 98
168 162 90
164 159 86
161 155 85
167 161 91
164 158 84
162 156 85
166 160 90
165 159 84
160 155 76
162 156 87
163 157 82
167 160 93
161 154 81
165 159 87
154 148 82
159 153 78
156 151 77
167 160 88
160 153 82
166 159 89
159 153 82
164 157 81
150 145 74
158 151 79
159 153 79
153 147 70
153 148 75
146 141 69
155 150 77
157 151 76
149 144 68
146 140 65
145 139 64
139 134 68
138 131 64
142 137 63
143 139 68
145 144 64
147 147 66
148 152 48
153 158 47
156 164 41
147 158 32
157 170 39
164 180 36
163 182 16
160 178 19
168 188 19
168 190 0
172 195 0
173 197 0
172 195 0
174 197 0
173 196 0
173 196 0
173 196 0
171 196 0
172 196 0
171 195 0
172 195 0
173 197 0
173 196 0
174 196 0
171 195 0
172 195 0
176 197 0
172 195 0
171 194 0
172 196 0
173 197 0
170 193 0
169 192 0
172 196 0
171 196 0
174 197 0
170 193 0
169 193 0
168 192 0
172 194 0
173 195 0
173 196 0
172 196 0
169 192 0
172 196 0
170 193 0
172 194 0
173 196 0
174 197 0
169 192 0
172 195 0
171 195 0
168 191 0
174 198 0
169 193 0
170 194 0
171 195 0
175 198 0
169 193 0
172 195 0
175 198 0
172 194 0
174 197 0
173 196 0
169 193 0
172 195 0
172 195 0
172 196 0
171 194 0
174 197 0
172 195 0
172 196 0
170 193 0
171 195 0
171 194 0
169 193 0
169 193 0
172 195 0
172 195 0
168 191 0
174 196 0
170 193 0
171 194 0
168 192 0
173 196 0
172 195 0
172 195 0
171 195 0
173 196 0
173 195 0
172 195 0
172 194 0
168 192 0
170 193 0
169 193 0
171 194 0
169 193 0
169 193 0
169 193 0
172 195 0
170 194 0
168 192 36
156 180 82
121 147 135
65 101 178
62 99 179
63 100 180
63 100 180
63 99 179
63 99 178
62 98 175
62 99 180
63 100 181
62 99 181
62 99 180
62 99 177
61 99 178
62 99 178
62 99 178
62 99 181
61 98 174
63 99 179
62 99 180
62 99 178
62 99 178
62 99 176
62 99 179
62 99 181
61 99 178
62 99 178
62 99 180
62 99 179
62 99 178
61 99 179
62 99 180
63 100 181
62 99 177
62 99 178
62 99 179
62 99 180
61 98 177
61 99 177
62 99 179
62 99 179
62 99 181
61 99 180
62 99 180
62 99 180
62 99 178
61 99 177
62 99 179
62 99 180
62 99 180
62 99 179
62 99 177
62 99 180
61 98 176
63 99 178
62 99 177
62 99 176
62 99 176
62 99 181
62 99 179
63 99 179
62 99 181
62 99 178
62 99 177
62 99 176
62 99 176
61 98 178
62 99 179
62 99 178
62 99 179
62 99 177
62 99 176
62 99 175
62 99 179
62 99 180
61 98 175
62 99 172
61 99 178
63 100 179
61 98 176
61 98 177
61 98 173
62 99 178
62 99 181
62 99 173
62 99 177
62 99 176
62 99 178
62 99 179
61 98 176
63 99 175
62 99 176
62 99 177
62 99 177
61 99 178
61 98 175
62 99 177
61 98 173
62 99 178
62 99 180
62 99 177
62 99 177
62 99 176
62 99 174
61 98 176
62 99 178
61 98 172
61 98 175
62 99 177
62 99 176
62 99 175
62 99 172
62 99 175
63 100 178
63 99 169
62 99 176
62 99 176
62 99 176
62 99 173
62 99 174
61 98 170
62 99 176
61 98 174
62 99 173
62 99 173
62 99 175
62 99 175
61 98 169
62 99 174
62 99 171
63 100 174
62 99 173
63 99 173
62 99 174
62 98 166
62 99 171
62 98 169
62 99 171
62 98 170
63 99 176
62 98 170
61 98 168
62 99 173
62 98 169
62 98 171
62 98 171
62 99 170
62 99 173
62 98 169
61 98 171
62 98 173
62 98 174
62 97 167
61 97 165
62 98 168
62 97 166
62 98 167
61 95 163
60 94 156
60 94 161
59 93 155
56 84 134
75 91 115
79 86 82
76 81 60
64 68 48
73 77 56
58 66 50
82 85 61
73 77 57
86 90 65
87 90 64
78 83 61
84 88 64
96 98 68
90 94 63
91 95 64
109 110 72
98 100 68
102 104 73
101 104 72
110 111 74
103 105 71
112 114 74
122 122 81
117 118 81
119 120 80
124 125 78
123 123 79
120 121 79
123 124 81
136 135 87
129 129 81
130 130 82
139 137 86
130 128 83
139 138 88
148 145 90
135 134 83
140 138 88
153 149 91
149 147 93
154 151 94
146 144 90
154 151 92
151 148 92
152 150 90
161 156 100
161 156 90
157 153 92
152 149 85
160 155 94
158 154 94
160 155 90
164 160 96
164 159 96
160 156 92
160 156 91
166 161 94
162 157 94
165 160 96
167 161 93
167 162 96
167 162 94
170 164 93
165 159 88
164 159 91
168 162 94
168 163 93
172 165 97
171 165 93
166 161 93
171 165 96
168 163 91
175 168 99
172 166 94
164 159 87
171 165 93
172 166 93
164 159 87
169 163 93
169 164 95
176 169 101
169 163 94
166 161 94
173 167 97
173 167 97
172 166 95
168 162 90
171 164 94
169 164 89
171 165 96
171 164 90
170 163 93
167 161 87
165 159 84
171 164 97
166 160 89
167 162 90
164 158 90
166 160 89
169 163 89
164 157 86
171 166 92
160 154 80
161 155 87
166 160 87
165 158 83
157 152 80
162 156 84
166 160 87
157 151 85
162 155 85
166 159 87
159 153 82
158 152 80
164 158 83
153 147 78
161 154 82
157 151 84
160 153 80
156 150 80
162 155 79
150 144 77
153 147 73
153 147 73
158 153 75
146 141 72
147 141 67
143 138 63
140 135 59
131 126 54
143 137 63
150 145 66
136 134 56
140 140 54
151 154 53
142 144 49
149 155 47
153 162 45
158 171 39
154 167 25
162 180 25
161 179 30
161 181 0
162 182 0
172 193 0
172 196 0
173 197 0
174 197 0
174 197 0
172 195 0
172 196 0
175 198 0
172 196 0
174 197 0
172 195 0
171 194 0
173 197 0
173 197 0
174 197 0
175 198 0
174 197 0
172 195 0
173 197 0
170 194 0
171 196 0
172 195 0
172 196 0
172 196 0
170 193 0
172 195 0
175 197 0
173 197 0
175 198 0
171 194 0
173 196 0
170 193 0
173 197 0
172 195 0
172 195 0
171 195 0
174 197 0
173 197 0
172 196 0
170 193 0
174 196 0
174 197 0
172 195 0
169 193 0
172 195 0
170 193 0
174 196 0
173 197 0
173 196 0
168 191 0
173 196 0
172 195 0
172 194 0
170 193 0
173 196 0
173 196 0
168 191 0
171 194 0
170 193 0
169 193 0
171 194 0
172 196 0
169 192 0
169 194 0
174 197 0
172 195 0
168 192 0
171 194 0
171 194 0
171 195 0
171 195 0
172 196 0
169 193 0
166 190 0
167 190 0
170 193 0
170 193 0
171 194 0
171 195 0
174 197 0
173 196 0
173 196 0
169 192 0
172 195 0
170 193 0
172 195 0
170 194 0
169 192 0
172 195 0
169 192 0
169 192 0
168 192 0
165 188 54
150 175 97
84 115 166
63 100 180
62 99 180
62 99 177
63 100 179
62 99 177
63 100 179
63 100 179
62 99 176
62 99 178
62 99 180
63 100 180
62 99 178
62 99 179
63 99 178
62 99 178
63 100 179
61 98 180
62 99 178
61 99 178
62 99 175
61 99 179
62 99 177
62 99 179
62 99 181
62 100 181
62 99 178
61 98 176
62 99 178
61 98 176
62 99 179
62 99 177
62 99 178
63 100 180
62 99 178
62 99 176
62 99 178
61 99 179
62 99 179
61 99 177
61 99 177
62 99 179
61 99 180
62 99 179
62 99 180
61 98 177
62 99 178
62 99 178
62 99 179
62 99 179
62 100 181
62 99 178
62 99 179
62 99 177
62 99 180
62 99 180
62 99 179
63 99 180
62 99 181
62 99 179
61 98 176
63 99 178
62 99 180
62 99 178
62 99 179
62 99 176
61 98 174
63 99 179
62 99 175
62 99 176
61 98 176
62 99 178
62 99 178
62 99 179
62 99 179
62 99 178
62 99 177
62 99 177
62 99 177
61 99 179
62 99 175
63 99 178
62 99 179
62 99 180
61 98 176
61 98 177
61 98 173
61 99 177
62 99 176
62 99 175
62 99 178
62 99 177
62 99 175
62 99 175
63 99 178
62 99 175
62 99 177
62 99 178
62 99 174
62 98 169
62 99 176
62 99 176
61 98 177
62 99 175
62 99 181
63 100 177
61 98 173
61 98 177
62 99 173
62 99 176
63 100 178
62 99 176
62 99 172
61 98 174
62 99 177
62 99 178
63 99 176
62 99 171
62 99 176
62 99 175
63 100 177
62 98 172
62 99 172
61 98 172
62 99 173
62 99 171
62 99 172
61 98 172
62 99 174
61 98 174
63 99 174
61 98 166
62 99 173
61 98 171
61 98 172
62 98 170
62 98 174
62 98 171
62 98 171
62 99 173
62 98 170
62 98 173
62 98 171
61 98 170
63 99 172
62 98 170
62 98 171
63 99 176
61 98 168
63 99 173
62 98 169
62 98 167
61 97 164
62 98 174
62 97 165
61 97 165
61 97 163
61 97 165
60 95 161
59 93 160
60 95 158
60 93 158
64 87 124
69 83 97
62 72 74
77 80 57
63 69 51
69 74 53
63 68 49
73 78 55
84 88 63
86 90 64
79 84 61
90 93 63
87 90 61
82 87 62
91 94 67
101 104 72
95 99 70
96 97 68
95 98 67
103 105 67
110 112 77
116 118 82
106 109 71
114 116 77
113 115 73
118 119 78
124 124 80
125 125 79
125 124 82
117 118 78
137 135 84
118 120 79
135 134 82
134 133 87
143 141 89
138 137 87
142 140 87
139 137 81
148 146 93
146 144 88
151 148 91
150 147 91
149 146 90
139 137 84
151 148 90
147 145 89
153 150 91
159 154 91
160 156 93
156 152 86
155 152 90
156 152 90
162 156 98
159 155 89
164 158 89
166 160 93
165 161 93
164 159 91
165 161 92
164 159 96
170 164 96
165 160 93
167 162 90
172 165 94
171 164 95
170 164 90
163 158 91
172 166 96
173 167 98
167 161 89
169 164 94
163 159 86
163 159 89
173 167 98
171 165 89
172 165 95
176 168 97
167 162 87
170 164 92
173 166 91
171 165 94
162 157 83
171 165 92
173 167 98
167 161 85
169 163 91
168 162 90
167 161 84
173 167 92
170 164 92
171 164 93
170 163 93
169 161 89
167 160 79
175 168 95
167 160 93
172 165 93
168 163 89
164 159 89
165 160 82
163 157 86
161 155 82
167 161 90
166 159 87
165 159 84
166 160 86
162 155 86
163 157 86
166 160 81
161 154 87
161 155 79
156 149 80
149 143 72
160 154 84
165 157 85
155 148 76
153 148 78
163 158 80
159 153 80
159 152 80
160 153 80
152 146 74
154 149 82
151 145 69
148 142 71
144 139 68
143 137 68
150 144 71
138 133 62
141 135 62
148 142 64
137 131 64
134 130 56
146 148 57
143 144 52
153 157 57
151 158 56
149 157 42
149 162 37
161 175 41
161 176 30
159 176 19
168 187 19
170 189 19
169 191 0
170 194 0
173 196 0
171 195 0
172 195 0
172 195 0
173 196 0
171 194 0
172 196 0
171 195 0
174 197 0
173 196 0
173 196 0
174 197 0
174 197 0
173 196 0
172 196 0
173 197 0
174 197 0
171 195 0
172 196 0
173 197 0
169 194 0
172 196 0
173 196 0
174 197 0
170 194 0
174 197 0
173 196 0
170 194 0
170 194 0
171 194 0
172 195 0
172 196 0
171 195 0
173 195 0
172 195 0
168 191 0
171 195 0
171 195 0
171 195 0
170 194 0
174 197 0
171 195 0
171 195 0
171 195 0
173 197 0
173 197 0
171 195 0
172 196 0
171 194 0
173 197 0
171 194 0
172 196 0
174 197 0
169 192 0
169 193 0
170 193 0
172 196 0
171 195 0
171 194 0
172 196 0
170 193 0
170 194 0
170 193 0
173 196 0
172 195 0
173 195 0
171 195 0
170 193 0
171 194 0
171 195 0
173 195 0
166 190 0
171 195 0
174 197 0
169 192 0
170 193 0
173 195 0
171 195 0
170 193 0
172 195 0
169 191 0
173 197 0
169 193 0
172 195 0
171 194 0
167 190 0
169 194 0
168 191 0
167 191 0
162 186 36
150 174 95
120 147 139
72 106 175
63 99 179
62 99 178
62 99 179
63 100 179
62 99 177
63 99 177
62 99 180
62 99 177
63 100 179
62 99 179
63 100 180
63 100 180
62 99 178
63 99 180
63 100 179
61 99 179
62 99 178
63 100 178
62 99 178
62 99 178
62 99 176
61 98 176
61 98 176
62 99 176
62 99 179
62 99 179
62 99 178
62 99 178
62 99 179
62 99 180
62 99 180
62 99 179
62 99 178
61 99 180
62 99 180
62 99 177
62 99 180
62 99 179
62 99 179
62 99 176
61 98 178
61 98 177
62 99 178
62 99 178
62 99 180
62 99 177
62 99 178
62 99 177
62 99 179
62 99 180
62 99 178
62 99 177
61 98 178
62 99 177
62 99 177
62 99 176
62 99 177
62 99 179
62 99 177
62 99 179
62 99 179
62 99 179
62 99 175
62 99 181
62 99 179
61 99 178
62 99 178
62 99 179
62 99 177
62 99 177
62 99 175
62 99 178
62 99 177
63 100 179
61 98 174
61 98 175
62 99 176
62 99 179
62 99 178
62 99 176
62 99 176
62 99 177
62 99 177
62 99 174
62 99 177
62 99 177
63 99 177
63 100 178
62 99 179
62 99 179
63 100 181
62 99 176
62 99 175
62 99 178
62 99 178
62 99 174
62 99 175
62 99 178
62 99 176
62 99 172
61 98 176
62 99 176
61 99 179
62 99 175
62 99 175
63 100 179
62 99 175
62 99 175
62 99 179
61 98 175
62 99 178
62 99 176
62 99 174
63 99 177
62 99 173
61 99 177
62 99 176
62 99 174
62 99 176
63 100 177
62 99 171
62 99 175
62 98 170
62 99 174
62 99 175
62 99 175
63 99 176
62 99 166
62 99 172
62 99 176
62 98 168
62 99 174
62 99 175
62 99 171
62 99 174
62 99 174
62 98 171
62 98 167
61 98 169
61 98 171
61 97 169
61 98 169
62 98 167
62 98 169
61 98 173
62 98 171
63 99 172
62 99 171
62 98 167
62 97 164
62 98 169
60 95 157
60 96 164
61 97 163
61 97 164
59 94 152
59 94 156
60 94 153
60 94 162
60 94 157
60 94 156
56 86 142
58 75 102
60 70 75
69 75 67
63 68 46
70 73 48
66 71 53
71 77 53
72 76 54
78 82 59
71 76 53
89 94 67
84 88 62
78 82 57
102 103 71
96 98 68
98 100 68
93 97 69
99 100 66
102 104 69
90 93 63
109 112 77
107 110 73
117 118 75
105 107 71
111 114 75
125 124 76
117 118 79
136 134 84
135 133 82
129 130 84
136 134 80
137 136 83
136 134 84
134 134 81
128 128 77
135 134 82
133 133 85
139 136 76
149 146 87
144 142 86
146 143 86
145 142 83
157 153 91
156 151 91
157 153 94
154 150 89
160 156 93
163 159 95
152 148 88
163 158 92
160 156 90
156 152 88
165 161 96
164 160 92
159 155 93
161 156 91
162 157 90
161 156 86
169 164 95
168 162 94
164 159 86
161 157 89
168 162 90
171 164 93
171 165 91
161 156 91
172 165 93
167 162 91
167 162 88
169 164 91
171 166 95
172 166 95
171 165 96
171 166 94
171 165 94
169 164 89
172 165 92
171 166 91
171 164 91
171 165 94
174 167 91
169 164 91
167 161 85
173 166 95
169 164 86
171 165 90
169 163 90
169 163 94
166 159 87
171 165 93
166 160 87
169 163 90
165 159 86
171 164 88
164 158 84
173 166 93
163 158 87
165 159 88
164 158 86
170 163 87
169 162 90
165 159 87
170 163 85
164 158 86
159 154 80
160 153 83
159 152 84
163 156 82
156 150 76
166 159 90
153 149 80
157 150 77
163 157 80
162 155 80
161 154 80
155 148 78
155 149 80
156 151 79
154 148 78
148 143 68
152 146 75
149 143 71
151 145 75
152 145 69
149 144 75
153 147 73
149 143 66
141 134 64
151 145 68
147 141 67
140 135 64
150 146 69
156 153 63
146 150 56
151 154 59
151 155 56
143 151 44
156 167 45
159 172 37
163 180 22
167 184 25
165 184 16
169 190 16
171 193 0
171 195 0
175 198 0
171 195 0
173 197 0
172 196 0
172 196 0
171 195 0
174 198 0
171 196 0
171 194 0
173 196 0
172 195 0
171 194 0
174 197 0
170 194 0
170 194 0
169 193 0
170 194 0
172 196 0
172 195 0
172 196 0
172 196 0
170 194 0
172 195 0
173 196 0
171 194 0
175 197 0
173 196 0
168 192 0
174 196 0
174 197 0
169 193 0
173 196 0
170 194 0
172 196 0
171 194 0
172 196 0
173 197 0
172 195 0
168 192 0
172 195 0
171 193 0
170 194 0
172 195 0
172 195 0
173 196 0
172 196 0
171 195 0
172 195 0
168 192 0
170 192 0
172 195 0
173 196 0
170 193 0
170 193 0
169 192 0
169 193 0
169 192 0
168 191 0
171 195 0
172 196 0
168 192 0
170 194 0
170 194 0
172 195 0
169 193 0
174 197 0
170 194 0
173 196 0
171 195 0
171 194 0
171 194 0
172 195 0
173 196 0
174 197 0
170 194 0
172 195 0
172 195 0
170 194 0
167 191 0
168 191 0
170 193 0
168 190 0
173 196 0
168 191 0
171 193 0
169 193 0
169 192 0
173 196 0
169 193 0
168 191 31
138 163 113
99 128 154
63 100 180
62 99 175
62 99 175
63 100 180
63 100 178
62 99 179
63 99 178
63 100 180
63 100 181
62 99 179
62 99 181
62 99 178
62 99 178
62 99 180
62 99 180
62 99 177
63 100 180
62 99 179
62 99 177
62 99 178
62 99 180
62 99 180
62 99 178
62 99 180
62 99 177
62 99 178
62 99 179
62 99 178
62 99 181
62 99 178
62 99 176
62 99 179
62 99 178
62 99 179
62 99 179
62 99 179
62 99 177
62 99 178
62 98 177
61 98 175
62 99 180
61 98 177
62 99 180
62 99 178
62 99 180
63 99 179
61 99 180
61 98 175
62 99 179
62 99 180
62 99 177
62 99 180
62 99 178
62 99 178
61 98 179
62 99 177
62 99 178
63 100 179
62 99 181
62 99 177
62 99 179
62 99 175
62 99 178
62 99 176
61 98 175
62 99 176
62 99 176
62 99 178
62 99 178
62 99 179
62 99 176
62 99 179
62 99 179
62 99 175
62 99 179
62 99 175
62 99 175
61 98 172
61 98 177
62 99 176
62 99 178
62 99 179
62 99 177
62 99 177
62 99 177
62 99 176
63 100 180
62 99 179
62 99 179
62 99 177
62 99 177
61 98 172
62 99 176
62 99 178
62 99 180
62 99 178
62 99 174
62 99 174
62 99 173
61 98 176
62 99 175
62 99 177
62 99 175
62 98 174
62 99 175
62 99 178
62 99 178
62 99 177
62 99 177
62 99 175
62 99 175
62 99 175
62 99 174
62 99 174
62 99 176
62 99 175
62 99 174
62 99 175
62 99 175
62 99 176
61 98 175
62 99 178
62 99 172
62 99 171
62 99 173
62 99 172
62 99 170
61 97 163
62 99 169
63 99 171
61 98 169
62 99 170
61 98 168
62 98 170
63 100 175
62 98 168
61 97 164
63 100 177
62 99 175
61 98 170
62 99 174
61 98 171
62 98 171
61 98 175
63 99 173
62 99 176
61 97 165
61 97 170
61 97 163
61 97 164
62 99 172
61 97 162
62 98 167
63 99 173
60 96 154
61 96 164
61 97 164
61 96 162
61 96 157
61 95 155
60 94 161
60 94 155
62 91 137
56 80 122
48 63 77
57 65 52
63 68 47
72 77 57
69 72 50
73 76 48
70 76 57
71 76 53
69 74 56
86 89 60
84 88 62
91 93 64
84 87 59
95 98 66
86 90 58
103 105 69
89 93 65
96 101 68
107 109 72
109 109 67
110 112 72
116 117 75
123 123 80
111 112 75
115 117 69
121 121 77
131 130 83
128 128 81
119 120 77
130 130 84
129 128 77
133 133 82
138 136 83
135 134 79
138 136 83
134 132 84
141 140 85
144 141 85
144 142 89
145 142 88
153 149 89
147 144 88
157 153 89
144 141 85
150 147 87
150 147 85
155 152 92
157 153 86
156 153 89
160 155 87
165 159 93
158 154 87
164 159 91
165 160 93
165 160 97
159 154 91
163 157 88
164 159 89
169 164 96
168 163 92
166 160 94
168 163 94
167 162 91
167 162 93
162 157 93
174 168 99
168 162 87
170 163 91
166 161 88
170 164 94
168 163 90
166 161 90
172 165 95
172 166 96
174 167 93
170 164 89
169 163 93
174 167 95
169 163 86
166 161 83
171 164 95
172 166 91
170 164 93
174 167 91
176 168 98
169 163 93
170 164 89
170 164 90
166 160 87
166 159 89
165 159 88
168 161 93
166 160 87
166 159 88
167 161 90
167 160 84
167 161 82
166 160 89
172 164 93
159 154 79
167 159 90
164 157 82
162 156 83
162 156 83
163 157 84
166 159 85
158 152 79
162 156 82
168 161 93
161 155 76
163 156 89
162 155 82
160 154 79
158 152 78
156 150 75
147 141 75
159 153 77
149 143 69
148 142 70
149 143 68
151 146 74
158 152 77
143 137 69
153 146 73
158 151 75
149 142 66
134 129 62
143 137 65
145 138 67
141 137 63
144 140 58
140 139 47
145 148 48
146 149 52
152 158 53
149 161 36
156 167 37
155 170 25
164 179 28
167 187 19
170 192 11
169 190 11
173 194 11
175 198 0
172 195 0
174 197 0
172 196 0
168 192 0
172 196 0
172 195 0
175 198 0
172 195 0
172 195 0
172 196 0
172 196 0
172 195 0
172 195 0
172 195 0
169 193 0
175 198 0
174 196 0
173 197 0
173 197 0
171 194 0
172 195 0
169 192 0
170 194 0
174 198 0
173 196 0
173 196 0
174 198 0
172 195 0
173 196 0
174 197 0
174 197 0
172 196 0
172 196 0
173 197 0
170 194 0
172 196 0
174 197 0
172 195 0
174 196 0
171 195 0
169 192 0
175 198 0
170 193 0
172 197 0
173 197 0
172 196 0
171 194 0
171 194 0
173 196 0
168 192 0
175 198 0
175 198 0
171 194 0
170 193 0
169 193 0
170 193 0
169 193 0
171 194 0
170 194 0
172 195 0
172 195 0
170 194 0
173 197 0
172 195 0
170 193 0
170 193 0
170 193 0
173 196 0
169 193 0
173 196 0
170 193 0
168 191 0
170 193 0
170 193 0
172 195 0
166 189 0
171 194 0
172 194 0
172 195 0
169 193 0
171 194 0
167 190 0
172 196 0
172 195 0
170 194 0
169 193 0
169 193 0
170 193 0
171 194 18
148 172 88
125 152 133
70 105 174
63 100 180
63 100 178
63 100 179
63 99 179
63 99 176
62 99 180
62 99 179
62 99 179
63 100 179
62 99 179
61 98 176
62 99 180
62 99 178
62 99 176
62 99 180
62 99 180
62 99 176
62 99 176
62 99 177
62 99 180
62 99 178
62 99 179
62 99 177
61 98 176
62 99 180
61 99 181
62 99 181
61 98 177
62 99 179
62 99 180
62 99 180
63 99 178
62 98 175
63 100 179
62 99 179
61 98 180
62 99 176
62 99 177
62 99 180
62 99 179
63 99 179
62 99 178
62 99 181
63 99 178
62 99 180
61 98 175
61 98 177
62 99 178
62 99 178
62 99 181
62 99 179
62 99 179
62 99 178
62 99 177
63 99 179
62 99 177
61 99 177
62 99 179
63 100 179
62 99 173
62 99 176
62 99 178
62 99 177
62 98 173
62 99 177
62 99 177
62 99 177
61 98 175
62 99 172
62 99 174
62 99 175
62 99 177
62 99 179
62 99 177
62 99 180
62 99 177
62 99 174
63 100 177
62 99 178
62 99 179
62 99 179
63 100 180
62 99 179
62 99 176
63 99 175
63 100 179
62 99 175
62 99 178
62 99 174
62 99 175
62 99 177
62 99 179
62 99 172
62 99 178
62 99 175
61 98 175
62 99 175
61 98 175
62 99 178
63 100 177
62 99 179
62 99 174
62 99 175
63 100 179
62 99 177
63 99 174
62 99 179
62 99 178
62 99 174
63 99 176
62 99 177
62 99 173
62 99 175
62 99 175
62 99 176
63 99 177
63 100 173
62 99 176
62 99 175
61 98 166
63 99 175
62 99 176
62 99 177
61 98 173
62 99 171
62 99 175
63 99 174
62 99 171
63 99 176
63 99 175
62 98 166
63 99 173
62 99 175
63 99 174
61 98 171
63 99 172
63 100 174
62 99 172
62 98 165
62 99 171
61 97 168
62 99 170
63 99 171
62 98 174
62 99 175
63 99 173
61 98 170
62 98 170
61 97 164
61 96 158
62 98 169
61 97 162
61 97 165
61 96 159
60 96 163
61 97 167
61 96 158
61 96 161
61 96 157
61 97 162
60 96 155
61 96 157
63 93 148
58 83 120
59 78 108
60 72 77
51 58 44
65 67 43
58 63 47
63 68 50
65 68 43
73 77 55
82 87 57
84 87 58
85 88 61
73 79 53
90 94 64
82 87 61
85 88 63
97 100 70
102 106 73
99 101 67
113 113 73
96 99 65
108 110 70
95 99 68
114 114 73
110 111 70
116 116 71
122 121 73
117 119 73
119 119 79
122 123 74
129 128 79
131 131 82
144 142 87
130 129 79
137 136 83
135 133 78
145 143 84
131 130 76
146 143 87
150 146 89
151 147 89
148 145 87
145 143 82
157 153 92
149 147 81
151 148 87
157 153 88
154 150 93
150 147 86
155 150 83
157 153 89
164 159 94
161 157 90
158 154 90
155 151 83
166 160 92
166 161 94
168 162 96
160 156 86
162 157 90
171 165 95
164 159 86
168 162 92
172 165 94
166 159 89
167 161 90
167 161 89
171 165 95
172 165 91
169 163 90
164 158 86
169 163 90
170 164 90
168 163 90
171 165 94
164 158 89
173 166 94
170 163 93
174 167 93
173 166 93
169 163 90
173 166 95
172 165 92
173 166 94
173 166 97
167 161 90
170 164 93
169 163 93
164 159 83
164 158 85
168 161 86
165 159 80
168 161 88
169 163 87
167 161 87
171 165 90
161 156 84
162 156 83
169 162 87
162 156 81
162 156 80
168 161 82
162 155 80
166 160 87
165 159 77
163 157 85
165 158 84
160 153 84
160 154 79
162 156 83
156 149 77
155 149 76
159 152 79
160 155 79
150 144 74
162 154 84
159 154 75
158 152 78
155 149 74
148 141 71
153 146 68
156 150 72
150 145 71
139 135 64
147 141 68
152 145 76
139 135 57
144 138 69
135 129 64
140 134 59
145 143 63
135 133 62
148 147 54
152 155 54
148 156 48
156 165 42
154 163 39
163 177 39
156 175 16
162 178 30
165 184 11
163 182 11
170 190 11
175 197 0
172 196 0
173 196 0
172 195 0
173 196 0
172 196 0
171 194 0
170 193 0
173 196 0
172 195 0
175 198 0
172 195 0
175 197 0
175 198 0
173 196 0
171 195 0
172 195 0
171 195 0
173 197 0
174 197 0
173 196 0
173 196 0
174 197 0
171 195 0
171 194 0
171 193 0
171 195 0
171 194 0
171 195 0
173 195 0
170 194 0
172 195 0
173 196 0
169 192 0
174 197 0
174 196 0
172 195 0
174 196 0
172 195 0
170 193 0
174 197 0
170 194 0
172 195 0
170 194 0
171 194 0
173 197 0
170 194 0
173 195 0
171 196 0
172 196 0
170 194 0
175 198 0
173 196 0
172 195 0
173 196 0
171 195 0
171 195 0
171 194 0
170 194 0
172 194 0
170 193 0
170 194 0
167 191 0
171 194 0
170 193 0
172 196 0
168 192 0
171 194 0
172 195 0
174 197 0
171 195 0
171 194 0
169 192 0
171 194 0
171 194 0
171 193 0
171 194 0
169 194 0
170 193 0
168 192 0
168 192 0
169 192 0
169 191 0
169 193 0
168 190 0
172 195 0
173 195 0
170 193 0
170 193 0
171 194 0
167 190 25
142 166 99
107 134 151
63 100 179
63 99 175
62 99 179
63 100 179
62 99 179
62 99 176
62 99 177
63 100 179
63 99 179
63 100 180
62 99 180
62 99 178
62 99 174
61 98 177
61 98 176
63 100 180
62 99 178
62 99 179
62 99 180
62 99 179
63 100 180
62 99 178
62 99 179
62 99 179
61 98 175
62 99 179
62 99 178
62 99 178
62 99 179
61 99 177
63 100 178
62 99 178
62 99 178
62 99 178
62 99 177
62 99 178
62 99 178
62 99 179
62 99 179
62 99 177
61 98 177
62 99 176
62 99 178
62 99 178
62 99 180
62 99 176
62 99 179
62 99 173
62 99 181
62 99 174
62 99 176
62 99 178
62 99 175
62 99 176
61 98 175
63 99 178
62 98 175
62 99 178
62 99 180
62 99 175
62 99 178
62 99 180
62 99 178
62 99 179
62 99 173
62 99 177
61 98 173
62 99 179
62 99 178
62 99 178
62 99 176
61 98 177
62 99 177
61 98 178
61 98 173
62 99 177
62 99 179
62 99 177
62 99 174
62 99 176
61 99 177
62 99 177
62 99 174
62 99 174
62 99 174
62 98 174
62 99 176
62 99 177
62 99 173
62 99 177
62 99 177
62 99 176
61 98 175
63 100 178
62 99 177
62 99 178
62 99 171
63 100 179
62 99 178
62 99 178
62 99 174
62 99 173
63 100 180
62 99 177
62 98 174
62 99 176
62 99 176
62 98 175
61 98 175
62 99 178
62 99 175
64 100 178
62 99 175
61 98 175
62 99 175
62 99 175
62 99 176
62 99 173
62 99 174
63 99 177
62 98 170
62 99 174
62 98 169
62 99 175
63 100 178
62 99 175
62 99 175
62 98 172
62 98 170
62 99 171
63 99 174
62 99 172
62 99 177
62 99 176
62 99 176
62 98 171
62 99 169
62 99 171
62 98 167
61 98 168
62 98 173
62 98 171
61 98 173
61 98 164
62 99 171
62 99 171
62 98 166
62 98 169
62 98 163
62 98 170
62 98 170
61 97 166
61 97 166
61 97 166
61 97 164
62 98 169
62 98 165
60 96 161
62 97 161
62 97 165
62 98 168
61 96 163
60 94 156
57 90 146
61 89 139
59 79 112
60 72 79
54 62 55
61 67 52
64 68 50
74 78 53
65 69 48
80 84 58
57 64 47
68 75 54
82 87 58
94 96 63
81 85 57
92 94 61
91 94 64
99 101 70
93 96 62
99 102 65
102 103 68
100 103 66
110 111 71
114 115 73
113 113 69
120 120 76
119 120 71
125 125 77
125 124 78
129 128 80
117 117 74
137 135 81
124 123 73
130 130 81
129 128 77
135 133 79
137 135 84
141 138 82
127 126 75
140 138 82
147 144 86
147 144 84
144 142 83
145 142 81
151 147 86
148 145 85
151 148 85
158 154 83
153 150 88
158 154 89
155 152 89
157 152 87
155 151 86
160 155 88
161 156 86
163 158 92
160 156 89
168 162 93
163 159 94
163 159 92
167 162 91
164 159 90
163 159 87
165 159 95
166 160 86
164 158 89
164 160 89
164 159 88
165 160 91
164 159 90
169 163 93
169 163 90
168 162 93
174 167 95
170 163 89
164 159 87
167 161 91
172 165 91
172 165 92
169 164 87
168 162 87
169 162 88
166 161 89
167 160 90
173 167 93
168 162 87
168 162 87
170 164 92
171 164 91
169 162 88
167 161 89
171 164 90
169 161 89
170 162 88
168 162 85
165 159 84
168 161 84
166 160 88
164 159 80
165 159 87
166 160 83
162 157 83
161 156 80
162 155 87
162 156 80
170 161 93
160 153 76
153 148 75
163 156 84
163 156 82
158 151 78
166 159 84
157 152 75
161 154 81
159 153 79
158 151 78
160 153 81
153 147 73
154 147 69
147 141 68
154 148 70
145 138 67
153 146 75
151 145 67
146 140 66
138 132 64
144 139 64
144 137 65
136 130 61
134 129 54
140 135 59
138 134 62
146 144 57
146 146 54
147 151 48
138 145 34
153 165 39
154 163 44
158 171 32
161 178 25
164 183 16
161 179 19
168 187 11
169 191 0
169 191 0
173 197 0
170 194 0
172 197 0
171 194 0
174 198 0
171 194 0
173 196 0
172 196 0
173 196 0
174 198 0
166 190 0
171 195 0
169 194 0
172 195 0
172 195 0
172 194 0
175 198 0
172 195 0
173 196 0
173 196 0
173 196 0
169 193 0
170 194 0
174 196 0
170 193 0
172 195 0
172 195 0
172 196 0
168 193 0
172 195 0
171 194 0
171 194 0
170 194 0
172 195 0
171 194 0
171 195 0
172 196 0
171 194 0
171 194 0
172 196 0
171 193 0
170 194 0
175 198 0
171 194 0
170 193 0
173 195 0
171 194 0
173 196 0
173 197 0
171 195 0
172 195 0
174 197 0
168 192 0
166 190 0
170 193 0
173 196 0
171 194 0
172 195 0
173 196 0
170 194 0
174 197 0
172 195 0
171 194 0
172 195 0
173 196 0
173 196 0
173 196 0
169 193 0
171 194 0
169 192 0
170 194 0
172 194 0
168 192 0
167 191 0
171 194 0
170 193 0
170 193 0
171 194 0
171 193 0
172 195 0
170 193 0
171 195 0
174 197 0
172 196 0
168 191 0
172 195 0
168 191 0
170 193 0
171 194 0
168 192 51
129 154 120
80 112 170
63 99 177
62 99 174
63 99 176
63 100 177
62 99 179
62 99 179
62 99 179
63 100 178
63 99 175
62 99 179
62 99 177
62 100 181
62 99 180
62 99 178
61 98 177
62 99 181
62 99 179
62 99 175
62 99 179
62 99 179
62 99 179
62 99 179
62 99 178
62 99 176
62 99 179
62 99 178
62 99 176
62 99 181
62 99 176
62 99 178
63 100 180
62 99 175
62 99 178
62 99 177
62 99 180
61 98 175
62 99 177
62 99 177
62 99 175
62 99 177
62 99 180
61 99 178
62 99 179
62 99 178
62 99 177
61 98 175
62 99 178
62 99 177
62 99 176
62 99 174
62 99 179
62 99 179
62 99 177
62 99 179
62 99 177
62 99 175
62 99 179
62 99 177
62 99 175
63 99 176
62 99 174
61 98 178
62 99 177
62 99 177
62 99 178
61 98 175
62 99 179
62 99 177
61 98 175
62 99 178
62 99 176
62 99 176
62 99 177
62 99 178
62 99 179
62 99 178
62 99 179
62 99 175
61 98 174
63 99 177
62 99 175
62 99 174
62 99 176
62 99 176
62 99 174
62 99 177
63 100 178
63 99 174
62 99 179
63 99 171
62 99 176
62 99 176
62 99 175
63 99 178
63 99 177
62 99 175
62 99 176
63 100 177
62 98 169
62 98 172
61 98 177
62 99 177
62 99 178
62 99 176
62 99 174
63 100 177
62 99 175
61 98 170
62 99 171
62 99 176
62 99 173
62 99 178
62 99 177
62 99 174
62 99 174
62 99 175
63 99 176
63 100 172
62 99 175
61 98 173
62 99 171
63 99 173
62 99 173
62 99 173
62 99 173
62 99 174
62 99 177
62 98 169
63 99 173
62 98 172
63 100 177
61 98 170
62 99 175
62 98 169
62 99 170
62 98 167
62 99 173
62 99 175
62 99 171
62 99 175
62 98 170
62 99 172
63 99 170
62 99 170
62 99 172
62 98 166
62 98 166
61 97 167
61 98 167
62 98 172
62 97 168
62 98 171
61 97 168
61 97 165
61 97 167
62 97 162
61 96 160
61 97 164
62 97 168
62 97 165
61 97 164
61 96 160
61 96 160
60 95 155
59 93 157
64 87 131
65 79 90
57 67 71
59 65 41
48 55 42
65 70 51
54 62 42
70 76 51
73 78 58
75 78 54
86 89 59
70 76 58
95 97 64
86 87 55
72 77 56
89 92 62
84 90 63
94 99 69
99 101 62
101 103 67
102 105 71
111 111 70
124 125 82
104 107 67
110 110 68
112 112 70
124 125 81
123 122 77
129 127 74
126 126 75
132 131 76
136 134 83
122 122 78
142 139 80
136 134 83
132 131 76
140 138 80
148 145 87
134 133 80
150 146 85
161 156 94
151 148 87
144 140 84
152 149 84
155 151 88
150 147 84
152 147 81
161 156 89
158 153 85
152 148 86
154 150 89
153 150 85
154 150 85
168 163 94
163 158 89
165 159 93
165 160 93
166 161 88
164 159 94
167 162 87
165 160 85
167 161 97
169 163 90
167 160 88
166 161 91
168 163 90
162 157 88
168 162 90
167 161 90
170 164 88
169 164 90
166 160 87
168 162 90
166 160 83
170 164 89
168 163 87
174 166 91
168 163 90
167 160 85
169 162 84
169 162 90
167 161 86
168 162 87
168 161 86
171 164 90
167 160 86
174 166 92
172 164 89
164 157 84
166 160 85
172 164 90
165 159 84
168 161 92
164 158 82
166 159 81
162 156 84
164 157 80
172 165 93
165 159 88
160 154 84
157 152 77
159 152 82
166 159 91
163 158 76
164 157 84
155 150 74
165 158 82
155 149 72
158 151 77
160 155 75
158 151 77
153 147 74
155 150 74
153 147 73
160 154 83
153 147 70
158 152 76
152 146 72
155 150 70
153 145 75
153 147 70
143 136 69
148 141 72
156 151 71
137 132 57
156 150 71
142 137 64
137 130 62
137 133 57
139 137 58
136 136 47
135 137 49
146 151 51
154 162 52
151 162 41
159 171 32
153 167 30
161 176 30
169 185 32
168 187 22
166 186 11
169 191 0
171 192 0
172 195 0
171 195 0
173 196 0
173 196 0
173 196 0
169 193 0
173 197 0
173 196 0
173 196 0
172 195 0
171 194 0
173 196 0
171 195 0
171 195 0
173 196 0
170 193 0
172 195 0
173 197 0
169 193 0
173 196 0
173 196 0
173 196 0
175 197 0
169 192 0
171 195 0
175 197 0
172 195 0
172 195 0
171 195 0
174 197 0
167 191 0
172 195 0
170 193 0
173 196 0
173 196 0
169 193 0
170 192 0
172 195 0
171 194 0
173 197 0
172 195 0
168 192 0
173 196 0
173 197 0
171 194 0
171 195 0
170 193 0
174 197 0
171 193 0
171 195 0
172 195 0
171 195 0
171 194 0
171 194 0
172 195 0
171 194 0
170 193 0
169 192 0
173 196 0
173 196 0
171 194 0
174 198 0
168 191 0
172 195 0
171 194 0
167 190 0
173 196 0
171 195 0
166 189 0
169 192 0
169 193 0
171 194 0
170 193 0
170 193 0
172 195 0
172 196 0
169 191 0
169 193 0
170 194 0
169 193 0
172 195 0
169 192 0
169 193 0
171 195 0
172 195 0
169 193 0
172 195 0
171 194 0
169 192 18
146 170 88
109 136 147
65 101 176
63 100 179
63 99 179
63 100 181
63 99 178
63 100 177
62 99 178
63 100 180
63 100 180
63 100 180
62 99 179
62 99 177
62 99 173
62 99 180
62 99 178
62 99 179
61 99 178
62 99 178
62 99 179
62 99 178
62 99 178
62 99 181
61 98 173
62 99 179
62 99 180
62 99 177
62 99 176
62 99 176
62 99 179
62 99 179
63 100 180
62 99 180
62 99 180
62 99 181
62 99 179
62 98 175
62 99 179
62 99 180
62 99 177
62 99 178
62 99 180
62 99 179
62 99 177
62 99 177
62 99 177
62 99 179
62 99 179
62 99 178
62 99 177
62 99 176
62 99 178
62 99 179
62 99 177
62 99 177
63 99 176
62 99 177
62 99 176
62 99 177
62 99 177
63 99 178
62 99 176
62 99 180
62 99 176
62 99 177
63 100 179
62 99 177
62 99 175
62 99 178
62 99 176
62 99 176
62 99 177
62 99 176
62 99 176
62 99 176
63 99 174
62 98 175
62 99 176
62 99 174
62 99 177
61 99 177
63 99 176
62 99 175
62 99 177
62 99 177
62 99 178
62 99 176
62 99 177
61 98 176
62 99 175
61 98 177
62 99 177
62 99 178
63 100 179
62 99 176
61 98 175
62 99 175
62 99 173
62 99 176
62 99 177
63 99 176
62 98 170
63 100 175
62 98 171
62 99 171
62 99 175
62 99 177
62 99 172
63 100 176
62 98 170
61 98 166
62 99 178
62 99 176
62 99 176
62 99 171
62 99 175
62 98 174
62 99 173
62 99 174
62 99 172
62 99 177
62 99 178
62 99 172
62 99 175
62 99 172
62 99 177
62 99 174
62 98 171
62 99 176
62 99 178
62 99 174
63 99 174
61 98 173
62 98 169
62 98 167
63 99 175
61 98 170
62 99 171
63 99 172
61 98 165
62 99 174
61 98 170
61 97 165
62 98 165
61 98 168
62 98 168
62 98 168
63 99 171
61 97 165
62 98 167
61 97 165
62 98 170
62 98 169
61 96 159
61 98 165
62 98 168
62 97 166
61 97 161
61 97 166
63 98 169
62 98 162
60 96 162
61 97 163
61 95 158
60 95 163
59 93 152
60 94 148
64 91 142
62 81 108
65 75 82
59 66 61
56 63 49
57 63 45
64 69 47
61 66 43
76 78 51
63 70 48
75 80 56
83 87 59
82 86 63
89 91 52
75 80 56
81 84 57
81 85 51
101 104 67
110 111 66
103 106 65
115 117 74
113 114 71
115 115 68
107 109 71
113 114 71
106 108 69
116 116 73
123 123 69
120 120 75
131 130 77
124 124 74
128 127 81
126 126 68
135 133 76
126 126 77
140 137 79
134 132 75
146 143 80
143 140 83
135 134 81
140 137 86
144 142 79
147 144 81
143 140 81
156 151 86
154 150 86
150 147 82
151 147 86
156 151 87
154 150 87
154 151 84
156 152 88
158 154 91
162 157 90
157 153 87
162 157 89
168 163 93
164 158 94
160 155 82
166 161 91
170 164 94
170 163 91
170 163 91
167 162 89
165 160 83
166 160 85
164 159 84
165 160 83
167 162 87
163 157 84
169 162 86
162 157 84
169 162 91
171 164 84
167 162 89
167 161 83
171 165 89
168 163 90
169 163 87
168 162 91
172 165 92
169 163 93
164 158 83
165 158 87
170 163 91
167 160 85
164 158 87
167 161 84
165 159 83
167 160 90
166 161 86
165 159 85
163 157 86
163 157 80
161 155 81
166 160 83
153 147 73
165 159 80
159 152 78
157 151 75
163 157 78
167 160 82
157 151 77
162 156 86
162 155 75
152 146 73
165 159 80
167 159 87
157 151 73
157 151 71
162 155 77
156 149 75
157 151 72
156 149 75
157 150 78
157 150 71
146 140 71
152 145 73
156 150 73
147 142 71
149 142 76
141 136 64
147 140 71
151 145 66
158 151 76
149 142 69
130 125 53
148 141 71
142 140 59
138 136 53
143 142 58
147 150 42
144 150 47
153 162 42
150 161 34
163 177 37
160 175 34
160 176 28
159 176 16
168 189 11
167 187 0
170 191 0
170 191 0
174 197 0
170 194 0
171 194 0
173 196 0
175 198 0
173 196 0
171 195 0
168 191 0
173 196 0
171 196 0
172 195 0
170 193 0
173 195 0
171 195 0
172 195 0
171 194 0
173 197 0
172 197 0
169 192 0
172 196 0
170 193 0
172 194 0
173 197 0
171 195 0
174 197 0
169 192 0
173 196 0
172 196 0
171 195 0
174 197 0
171 194 0
172 195 0
169 193 0
171 194 0
172 195 0
169 192 0
173 196 0
170 194 0
169 193 0
171 195 0
169 192 0
172 195 0
172 195 0
172 196 0
174 196 0
173 196 0
169 192 0
169 193 0
171 194 0
169 192 0
172 196 0
170 193 0
171 195 0
173 196 0
171 194 0
170 194 0
168 192 0
169 192 0
170 194 0
171 194 0
172 196 0
171 194 0
170 193 0
170 194 0
170 194 0
171 194 0
171 194 0
173 197 0
168 191 0
172 195 0
168 191 0
172 195 0
170 193 0
170 193 0
170 194 0
171 195 0
171 195 0
168 190 0
170 192 0
168 191 0
168 191 0
170 194 0
172 195 0
169 193 0
171 193 0
169 192 0
171 194 0
172 195 0
166 189 51
139 164 108
98 127 156
62 99 174
63 100 176
63 100 178
63 100 179
63 100 178
63 100 179
63 100 179
62 99 176
62 99 179
63 100 181
63 100 180
62 99 179
63 100 178
63 99 179
62 99 179
62 99 174
62 99 178
63 100 180
62 99 178
62 99 177
62 99 181
63 99 180
62 99 177
62 99 177
62 99 177
63 100 177
62 99 177
62 99 178
61 98 174
62 99 177
62 99 176
62 99 180
62 99 180
63 100 180
62 99 176
62 99 179
61 99 177
62 99 179
62 99 177
62 99 179
62 99 176
62 98 172
61 99 177
62 99 177
61 99 179
61 98 176
62 99 179
62 99 176
61 98 179
62 99 180
62 99 177
62 99 178
62 99 177
62 98 175
62 99 178
62 99 176
62 99 176
62 99 180
62 99 176
61 98 173
62 99 179
62 99 177
61 99 176
63 100 176
61 98 175
61 98 176
61 98 176
62 99 175
62 99 179
62 98 175
62 99 177
62 99 180
61 98 174
62 99 173
62 99 176
62 99 178
62 99 176
63 99 178
62 99 176
62 99 173
62 99 177
62 99 179
61 98 172
62 99 177
62 99 178
62 99 177
62 99 177
62 99 175
62 99 175
62 99 176
62 99 178
62 99 178
62 99 177
63 100 176
62 99 177
62 99 175
63 99 174
63 99 176
62 98 172
62 99 172
62 99 174
61 98 172
61 98 172
62 99 175
62 99 174
62 99 175
62 99 172
62 99 176
62 99 174
62 99 177
61 98 173
62 99 176
62 98 169
62 98 174
62 99 175
62 99 172
62 99 174
62 99 176
63 99 175
62 99 174
62 99 177
62 99 174
62 99 171
62 99 175
62 99 173
61 98 166
63 99 173
62 99 176
62 98 170
63 100 174
62 99 175
61 98 168
63 99 173
62 98 167
63 99 172
62 98 167
62 98 167
62 99 170
62 98 171
62 98 168
62 98 170
62 98 166
62 99 173
61 97 161
62 99 167
61 97 166
62 98 170
62 99 174
61 97 165
61 97 166
62 98 174
61 97 162
62 98 169
62 98 165
62 98 172
62 98 166
61 96 155
61 96 157
62 98 168
61 97 166
61 97 162
61 97 167
59 94 153
62 97 166
60 95 157
59 92 153
58 87 135
62 82 114
55 73 98
51 57 46
58 65 45
65 72 51
63 67 47
76 81 58
76 79 52
62 69 46
70 74 49
87 91 62
85 89 55
87 90 57
83 87 57
92 95 60
89 92 59
85 89 59
97 98 61
93 95 60
100 102 60
110 112 67
99 101 68
101 103 66
100 101 56
126 125 73
114 116 71
122 122 74
120 119 71
135 133 79
116 117 72
135 134 77
133 131 77
127 126 74
137 135 82
147 143 85
139 137 84
139 137 80
143 141 84
141 140 81
138 135 73
143 140 80
140 137 78
148 144 86
145 142 80
152 149 87
147 143 78
160 154 85
156 152 85
149 146 84
153 150 81
161 156 88
160 155 87
162 158 86
152 148 83
163 158 86
158 153 85
163 158 88
164 158 90
163 158 92
168 162 92
157 153 83
171 165 96
166 160 89
166 161 89
165 160 90
166 160 87
168 161 91
165 159 83
166 159 86
167 162 91
167 161 94
162 157 81
168 162 82
167 161 89
169 163 89
168 163 86
168 161 84
171 164 89
168 161 86
166 160 86
168 160 87
169 163 91
168 162 84
168 161 87
170 164 90
171 164 87
166 160 85
170 164 87
169 162 85
169 162 86
161 154 80
171 164 93
170 164 87
169 161 87
169 161 89
168 161 81
164 157 80
162 156 82
166 160 85
158 153 75
157 150 75
159 153 81
161 156 75
162 156 78
163 156 82
163 156 75
157 150 75
155 149 75
166 159 79
153 147 76
161 155 80
159 151 75
151 145 69
157 150 75
149 143 68
152 147 66
158 152 76
151 144 73
156 149 75
144 138 64
144 138 64
149 142 68
140 133 61
149 142 70
141 134 62
153 147 68
140 135 61
139 138 49
140 137 54
149 149 54
153 157 56
146 151 39
152 160 51
147 158 32
153 165 30
158 172 37
166 182 32
167 185 22
171 192 11
171 193 0
171 193 0
173 194 0
174 197 0
171 195 0
170 193 0
172 195 0
172 196 0
172 195 0
173 197 0
172 195 0
174 197 0
173 196 0
170 194 0
171 195 0
173 197 0
173 197 0
169 193 0
173 197 0
172 195 0
174 197 0
171 194 0
173 196 0
172 195 0
173 197 0
168 192 0
174 197 0
171 195 0
170 193 0
171 194 0
172 195 0
172 195 0
173 196 0
170 194 0
171 194 0
168 193 0
170 194 0
172 196 0
171 195 0
172 195 0
171 194 0
169 193 0
170 194 0
173 197 0
170 194 0
170 194 0
173 197 0
172 195 0
170 193 0
168 193 0
172 194 0
173 196 0
171 195 0
169 192 0
168 192 0
174 197 0
167 190 0
168 192 0
170 193 0
171 194 0
170 194 0
169 194 0
171 195 0
169 192 0
173 197 0
173 195 0
169 192 0
174 197 0
169 192 0
171 194 0
168 192 0
170 194 0
173 196 0
171 194 0
169 191 0
172 194 0
172 194 0
166 190 0
170 194 0
168 191 0
170 193 0
171 192 0
171 193 0
171 194 0
168 191 0
166 190 0
168 191 0
170 194 0
173 195 0
168 191 0
168 190 18
156 180 70
122 147 139
66 102 175
63 100 176
63 99 177
62 99 178
63 99 178
63 100 179
63 99 178
63 99 177
63 100 179
63 100 177
62 99 177
62 99 180
62 99 177
62 99 178
62 99 180
62 99 178
62 99 179
62 99 179
62 99 181
62 99 177
62 99 175
62 99 180
63 99 179
63 99 177
61 98 174
62 99 177
63 99 178
62 99 180
61 98 176
62 99 180
62 99 176
62 99 175
62 99 177
62 99 180
62 99 177
62 99 180
62 99 179
62 99 180
62 99 175
61 98 178
62 99 180
62 99 178
62 99 179
63 99 176
62 99 177
62 99 175
62 99 179
62 99 176
62 99 177
62 99 176
61 98 172
62 99 178
61 98 176
62 99 177
62 99 178
63 100 179
61 98 176
62 99 176
62 99 173
62 99 175
62 99 179
62 99 178
62 99 176
61 98 170
62 99 176
61 98 174
62 99 176
62 99 174
62 99 175
61 98 172
62 99 178
62 99 175
62 99 178
62 99 178
62 99 178
62 99 177
63 99 178
62 99 177
62 99 176
62 99 177
62 99 174
62 99 178
62 99 177
62 99 178
61 98 174
61 98 173
62 99 176
62 99 173
62 99 176
61 98 172
62 99 179
61 98 173
62 99 173
62 99 175
63 99 175
62 99 174
61 98 168
62 99 175
62 98 173
62 98 172
62 99 174
62 99 175
62 99 175
62 99 175
62 99 176
62 99 175
62 99 178
61 98 172
62 98 172
62 99 172
63 99 174
62 99 174
62 99 170
62 99 174
62 99 172
63 100 180
61 98 172
62 99 176
62 99 170
62 99 176
63 99 177
62 99 168
62 99 175
62 99 176
62 99 172
62 99 169
62 98 170
62 98 169
62 99 171
62 98 166
61 98 170
62 99 175
63 99 177
62 98 173
62 98 167
62 99 169
61 98 173
62 98 168
63 99 174
61 98 161
61 97 170
62 98 165
61 97 165
61 97 166
62 98 169
63 99 170
62 98 166
62 98 166
63 99 166
63 99 168
62 98 166
62 98 167
61 96 163
62 97 168
61 97 161
61 96 160
61 96 163
61 97 158
62 99 170
62 97 161
61 96 161
62 98 168
60 95 154
61 96 155
60 94 156
60 95 151
59 93 152
62 94 144
57 85 128
48 67 93
48 58 56
60 64 39
62 67 43
61 66 47
67 71 47
78 82 54
77 80 51
75 78 51
70 75 49
70 75 52
76 81 51
86 90 59
85 88 59
87 91 57
92 95 58
87 90 57
102 104 65
95 98 57
92 96 61
107 108 65
123 122 76
116 117 73
125 124 73
118 118 69
117 117 68
122 121 74
126 127 72
136 134 81
127 126 75
133 132 76
137 134 77
137 135 75
127 128 75
133 131 74
132 130 76
144 142 81
145 142 81
140 136 80
144 142 83
144 140 81
155 150 82
143 140 79
147 145 81
156 152 89
157 152 86
144 141 76
151 147 84
162 156 88
156 152 88
162 156 86
166 160 93
155 151 86
156 152 87
157 152 83
165 159 90
161 156 81
154 150 81
161 155 82
168 162 90
164 157 85
168 162 89
165 159 84
162 156 82
163 158 88
166 160 86
164 159 87
168 162 81
168 162 87
173 166 92
169 162 92
168 162 88
162 157 85
173 166 91
169 163 86
165 159 85
169 162 84
172 165 84
168 161 87
168 162 83
163 158 79
167 160 88
164 158 84
166 160 81
163 158 81
168 161 91
160 154 80
165 158 81
169 163 87
168 161 90
161 155 80
170 163 84
160 154 79
163 156 81
163 157 84
168 161 84
163 156 83
165 158 80
164 158 78
162 156 84
158 152 79
165 158 80
160 155 73
162 155 80
161 155 74
157 151 74
162 155 83
153 148 63
152 147 72
161 155 79
159 153 73
159 153 77
155 148 75
150 144 68
147 142 60
158 151 75
148 142 74
142 136 61
155 149 68
144 138 62
149 142 57
148 142 70
139 134 59
137 132 59
140 133 59
136 132 53
149 146 54
145 143 57
149 151 52
144 148 49
151 156 44
152 160 44
159 172 36
158 170 37
161 176 30
162 178 25
169 186 28
167 186 19
166 186 11
170 192 0
172 193 0
172 195 0
171 195 0
170 194 0
171 195 0
169 192 0
174 197 0
172 196 0
171 195 0
170 194 0
172 196 0
171 194 0
171 194 0
173 196 0
172 195 0
171 195 0
172 194 0
171 195 0
171 195 0
171 195 0
174 197 0
171 194 0
174 196 0
172 195 0
170 193 0
172 196 0
170 193 0
172 196 0
171 194 0
168 191 0
170 194 0
170 195 0
171 194 0
171 194 0
170 194 0
168 191 0
174 197 0
175 197 0
165 189 0
169 193 0
171 195 0
170 193 0
172 195 0
171 195 0
171 195 0
169 192 0
171 195 0
171 194 0
172 196 0
168 192 0
173 197 0
172 195 0
166 190 0
171 195 0
170 193 0
167 190 0
172 196 0
169 193 0
172 195 0
170 194 0
174 197 0
170 193 0
168 191 0
170 194 0
169 193 0
168 192 0
167 191 0
172 194 0
173 197 0
170 194 0
168 192 0
169 193 0
171 194 0
174 197 0
170 192 0
169 193 0
170 194 0
170 194 0
171 195 0
167 190 0
173 196 0
171 193 0
171 194 0
174 197 0
169 192 0
169 192 0
171 194 0
173 196 0
169 191 44
148 172 95
105 133 145
65 101 175
63 100 179
63 100 179
62 99 180
63 100 178
62 99 179
62 99 176
63 100 179
62 99 179
62 99 178
62 99 177
62 99 175
62 99 177
62 99 175
63 100 180
62 99 177
62 99 178
62 99 177
62 98 177
62 99 178
62 99 178
62 99 178
62 99 177
62 99 180
62 99 178
62 99 176
62 99 175
63 99 173
62 99 178
62 99 180
62 99 179
62 99 178
62 99 178
62 99 177
62 99 175
62 99 181
62 99 179
62 99 180
62 99 174
62 99 176
61 98 174
62 99 177
62 99 180
61 99 177
61 98 175
62 99 180
62 99 178
62 99 180
62 99 179
62 99 174
62 99 178
62 99 177
62 98 174
62 99 175
61 98 177
61 98 174
62 99 178
62 99 178
62 99 181
62 99 179
62 99 178
62 99 177
62 99 179
63 99 176
62 98 175
62 99 178
63 100 180
62 99 176
62 99 175
62 99 179
63 100 180
62 99 176
62 99 172
63 100 178
62 99 177
62 99 179
63 99 175
62 99 173
62 99 176
61 97 170
62 99 172
63 100 180
61 98 175
62 99 174
62 99 175
62 99 177
62 99 174
61 99 179
63 99 175
62 99 177
62 99 175
62 99 175
61 98 172
62 99 175
62 99 176
63 99 178
62 99 176
62 99 172
62 99 170
62 99 173
63 100 176
62 99 169
62 99 175
62 99 176
62 99 178
63 100 177
62 98 169
63 99 177
62 99 172
62 98 171
62 99 173
61 98 164
63 99 175
62 99 176
62 99 176
62 99 176
62 99 172
62 99 177
62 98 171
62 99 174
63 99 175
62 99 173
62 99 168
62 98 172
62 98 164
62 99 169
62 98 164
62 99 169
62 98 165
62 99 172
62 98 163
61 97 165
62 99 170
62 98 171
63 99 174
62 98 168
62 98 173
62 98 169
62 99 171
63 99 168
61 97 164
62 98 168
63 99 173
62 98 169
62 98 169
62 98 168
62 98 168
62 98 168
62 98 166
62 98 167
61 96 160
62 98 163
62 97 163
61 97 168
62 98 165
63 99 173
61 97 160
62 97 163
61 96 162
62 97 159
61 97 161
62 97 162
61 96 162
61 96 159
60 94 156
61 96 158
61 96 156
63 96 155
63 92 143
56 75 97
61 73 78
52 58 45
62 68 47
56 61 40
58 65 45
60 67 46
81 85 50
68 72 46
88 90 54
76 81 53
88 91 54
81 85 55
90 93 60
91 93 59
88 93 59
100 101 59
107 108 65
87 93 65
112 111 60
114 115 71
104 107 59
108 110 70
114 116 70
115 116 65
115 115 67
118 118 67
125 124 74
133 132 76
121 120 72
131 129 73
127 126 77
135 131 72
140 137 80
143 140 79
142 140 83
141 138 82
137 136 77
139 137 77
133 132 73
145 142 82
142 140 79
153 149 83
148 144 79
150 146 80
156 151 82
157 152 83
148 145 79
149 146 84
160 155 86
157 152 87
155 152 78
162 157 88
156 152 81
158 153 85
155 151 83
156 151 80
158 153 81
165 161 89
160 156 87
158 154 82
164 159 87
162 158 83
165 159 82
164 157 88
164 157 84
165 160 87
164 158 82
169 162 90
169 163 88
165 158 87
165 158 87
166 159 82
170 164 88
172 165 92
172 165 90
168 161 90
173 166 95
169 162 90
171 164 91
171 164 89
168 161 84
164 158 83
163 157 78
164 158 81
170 163 90
164 157 82
160 154 80
168 160 87
166 158 85
161 155 75
170 163 86
161 155 75
168 161 85
162 156 83
166 160 87
164 157 78
164 157 86
161 155 79
162 156 78
162 156 79
166 160 82
159 153 72
150 145 68
157 152 69
154 147 74
157 151 73
150 144 66
157 150 73
157 150 77
156 150 70
158 152 71
158 151 78
158 151 75
142 137 59
156 149 76
149 143 71
151 145 68
153 146 69
151 145 68
143 138 67
144 138 66
141 136 57
142 136 60
137 131 57
142 136 62
139 136 60
142 141 57
140 143 39
142 147 37
145 154 36
148 158 42
153 164 37
157 172 34
155 170 30
164 183 11
163 182 16
168 189 0
168 188 11
171 193 0
173 196 0
174 197 0
173 196 0
172 195 0
174 197 0
173 197 0
170 194 0
174 197 0
171 195 0
170 194 0
170 194 0
171 194 0
173 197 0
172 196 0
173 197 0
171 195 0
170 193 0
171 195 0
171 195 0
172 195 0
171 194 0
170 194 0
173 196 0
171 196 0
173 196 0
171 194 0
173 197 0
171 194 0
172 195 0
172 196 0
172 196 0
171 195 0
170 193 0
171 195 0
171 194 0
170 194 0
174 197 0
170 194 0
169 192 0
173 196 0
174 197 0
170 194 0
172 195 0
170 193 0
171 194 0
170 194 0
171 194 0
170 194 0
168 192 0
168 192 0
174 197 0
173 197 0
170 193 0
172 196 0
172 195 0
171 194 0
172 196 0
169 192 0
172 196 0
170 193 0
173 195 0
172 194 0
171 194 0
171 194 0
170 194 0
169 192 0
168 192 0
172 195 0
171 195 0
174 197 0
171 195 0
170 192 0
171 195 0
169 192 0
171 195 0
170 194 0
169 193 0
168 193 0
171 194 0
169 192 0
170 193 0
169 192 0
171 195 0
172 196 0
169 193 0
171 195 0
168 192 0
172 195 0
159 184 65
132 157 115
89 120 163
62 99 174
62 99 177
63 100 179
63 100 179
62 99 178
62 99 178
63 99 177
62 99 179
63 100 179
63 99 175
62 99 179
62 99 178
62 99 175
62 99 177
62 99 176
62 99 176
62 99 178
62 99 179
63 100 179
62 99 179
62 99 176
62 99 174
61 98 171
61 98 177
62 99 175
62 99 179
62 99 177
62 99 177
62 99 179
62 99 178
62 99 178
62 99 176
62 99 178
62 99 177
62 99 177
62 99 178
61 98 176
62 99 179
62 99 176
62 99 179
62 99 176
62 99 174
62 99 179
62 99 178
62 99 172
62 99 177
62 99 179
62 99 178
61 98 177
61 98 173
62 99 175
62 99 178
63 99 178
62 99 177
62 99 178
62 99 178
62 99 173
62 99 176
62 99 175
62 99 176
62 99 176
62 99 175
62 99 178
62 99 175
62 99 178
62 99 175
62 99 175
62 99 179
62 98 171
62 99 177
62 99 178
61 98 174
62 98 173
63 99 178
63 99 179
62 99 176
62 99 177
62 99 176
62 99 174
63 99 176
62 99 176
62 99 176
63 99 178
62 99 174
62 99 176
62 99 178
62 99 176
62 98 175
62 99 177
62 99 175
62 99 175
61 98 173
63 99 175
62 99 175
62 99 175
62 99 174
62 99 176
61 98 176
62 98 173
62 99 178
63 99 179
62 99 177
63 99 176
62 99 176
62 99 175
62 99 178
61 98 171
62 99 177
62 99 174
62 99 178
62 99 174
61 98 169
62 98 172
62 98 170
62 99 177
62 98 176
62 99 174
62 99 172
62 98 172
63 99 172
62 99 173
62 99 172
62 99 172
62 99 171
62 99 176
61 98 170
62 99 173
62 99 173
62 99 173
62 99 174
62 99 170
62 98 171
62 98 170
62 99 171
62 99 173
62 98 167
62 99 167
62 99 172
62 98 170
61 98 167
63 99 173
62 98 169
62 98 169
62 98 165
62 99 172
62 98 169
61 97 163
62 98 169
62 98 166
62 98 165
62 98 174
62 99 171
62 99 171
62 98 165
62 98 169
61 97 162
62 98 167
62 98 167
60 96 155
62 97 163
61 97 164
62 98 166
61 97 166
62 97 163
62 97 162
61 96 159
60 94 156
61 95 156
60 92 147
53 77 116
58 69 72
49 59 49
43 51 36
58 64 43
58 65 45
64 68 37
60 67 43
75 78 48
69 73 40
80 82 54
72 77 48
83 86 59
94 97 58
93 97 57
97 100 62
84 86 51
93 97 61
105 105 63
100 102 63
103 104 61
104 106 65
109 110 63
106 108 67
114 113 70
122 121 68
116 116 67
133 130 75
121 121 74
132 130 76
124 123 73
136 134 75
140 137 79
143 140 76
133 131 75
131 130 77
146 142 83
146 142 81
144 140 77
150 147 87
148 145 83
153 149 82
153 149 84
146 143 83
145 143 83
160 156 86
149 146 76
148 144 76
156 151 78
161 156 87
149 146 77
158 153 88
164 158 88
165 160 87
157 152 81
166 160 88
163 157 83
161 155 84
164 158 89
160 155 84
165 160 87
163 158 79
165 159 79
162 156 80
168 162 91
169 163 90
162 157 79
164 159 87
165 160 87
163 158 82
167 160 93
171 164 87
170 163 82
163 158 77
164 159 87
171 164 86
170 163 92
165 160 82
165 159 87
169 163 89
166 159 87
168 162 84
169 162 89
166 159 78
169 162 87
162 155 82
166 160 79
167 159 82
167 160 84
168 161 88
171 164 90
163 157 79
159 153 75
168 161 84
162 156 78
160 153 77
161 154 77
155 148 71
156 150 74
168 161 79
161 154 80
164 157 84
159 152 78
155 149 75
159 153 71
152 146 64
158 152 75
152 146 72
155 149 74
148 143 71
156 149 73
152 146 70
147 142 68
154 148 72
143 138 57
156 150 75
155 149 73
145 140 60
151 145 68
149 142 65
146 141 63
152 145 70
141 136 60
141 135 61
143 137 57
140 137 54
146 142 62
144 143 54
138 143 44
148 153 44
155 160 48
148 159 32
149 160 30
155 169 22
156 172 19
172 190 22
168 186 25
166 185 16
168 187 11
170 190 0
176 197 0
173 196 0
173 196 0
169 193 0
174 197 0
172 196 0
173 196 0
169 193 0
172 195 0
174 197 0
172 196 0
173 197 0
173 196 0
168 192 0
171 194 0
170 193 0
172 196 0
172 195 0
173 196 0
174 197 0
172 196 0
171 194 0
172 196 0
171 195 0
175 197 0
169 193 0
172 195 0
172 195 0
171 193 0
165 189 0
170 194 0
170 193 0
169 193 0
169 192 0
174 197 0
169 193 0
173 197 0
174 197 0
171 194 0
171 194 0
173 196 0
172 195 0
171 194 0
168 191 0
169 192 0
169 193 0
171 194 0
170 193 0
170 194 0
171 194 0
169 193 0
167 190 0
170 194 0
170 194 0
172 195 0
170 194 0
170 194 0
172 195 0
171 194 0
170 194 0
174 197 0
169 192 0
170 193 0
170 194 0
169 192 0
172 194 0
172 196 0
170 194 0
170 194 0
175 197 0
171 194 0
173 196 0
173 195 0
167 191 0
170 194 0
170 193 0
169 193 0
172 196 0
171 194 0
167 189 0
170 193 0
168 192 0
171 194 0
167 192 0
166 189 0
166 187 0
167 190 0
166 189 0
161 183 65
125 151 124
72 106 171
63 100 173
63 100 178
63 99 175
63 100 176
63 100 179
63 99 175
62 99 176
63 99 176
62 99 178
62 99 175
62 99 178
63 100 178
62 99 178
62 99 179
61 98 175
62 99 177
62 99 177
62 99 177
62 99 174
62 99 180
62 99 178
62 99 177
62 99 174
62 99 177
63 99 177
61 98 174
62 99 179
61 98 175
62 99 177
62 99 180
62 99 177
61 98 175
62 99 177
61 98 175
62 99 178
63 100 179
62 99 176
63 99 178
62 99 176
62 99 175
62 99 178
63 99 178
63 100 179
61 98 174
61 98 176
62 99 178
62 99 176
62 99 176
62 99 178
62 99 176
62 99 177
62 99 176
62 99 178
63 100 179
63 99 176
63 99 177
62 99 176
62 99 180
62 99 175
62 99 178
62 99 177
61 98 175
63 99 177
62 99 175
62 99 173
62 99 179
62 99 176
62 99 177
61 99 177
62 99 178
62 99 175
62 99 176
62 99 175
62 98 174
62 99 176
62 99 175
62 99 176
61 97 169
62 99 180
61 98 174
62 99 172
62 98 173
61 98 175
63 100 177
62 99 176
62 99 175
63 100 177
63 99 178
62 99 176
62 98 171
62 99 174
62 99 177
62 98 173
62 99 172
63 99 177
62 99 174
62 98 166
62 99 172
62 99 173
63 100 175
62 99 179
62 99 171
62 98 170
62 99 175
62 99 177
62 98 171
62 99 171
62 98 168
62 98 171
62 98 168
62 99 173
61 98 166
62 99 173
62 99 171
62 99 172
62 99 173
62 99 171
62 99 172
61 98 172
62 99 179
62 99 170
62 99 171
62 98 167
62 99 175
62 99 171
62 98 169
62 99 175
62 99 177
62 99 175
61 98 169
62 99 171
63 100 176
62 98 166
62 99 172
62 98 165
62 98 164
62 98 169
62 98 169
63 99 167
62 99 172
61 98 169
61 98 166
62 98 169
62 99 174
62 99 174
61 98 165
61 97 165
62 98 169
62 99 172
62 98 167
62 98 163
61 97 159
62 98 169
62 98 163
62 98 161
62 97 164
62 98 167
61 96 159
62 97 161
62 98 166
61 97 161
61 97 166
62 98 166
61 96 159
60 95 156
61 96 156
60 94 156
60 94 153
57 90 145
58 81 116
57 77 100
52 63 53
56 61 39
46 53 36
56 60 35
58 63 35
70 74 48
63 67 39
72 76 40
70 76 51
71 76 46
70 75 45
77 83 50
93 95 61
84 88 56
82 85 51
92 95 58
90 93 56
107 109 67
106 108 67
108 110 63
100 102 62
112 113 63
98 101 64
112 112 67
117 118 70
122 122 73
122 120 70
133 131 77
124 123 73
135 132 75
135 133 80
139 137 74
137 134 81
140 137 75
144 140 77
143 140 80
145 143 78
143 140 72
141 138 78
142 139 80
147 144 84
140 139 74
148 143 77
157 152 82
147 143 81
161 155 90
155 151 86
152 148 85
155 151 85
161 156 87
154 149 79
160 154 81
164 158 91
156 152 78
158 153 81
163 157 82
163 158 92
164 158 81
158 153 83
159 154 82
164 158 84
171 164 87
163 157 78
167 161 86
166 160 83
160 153 81
166 160 84
162 156 78
167 161 85
165 159 76
165 159 82
167 160 86
170 163 89
171 164 89
162 157 85
169 162 88
168 161 81
166 160 84
163 158 82
163 157 82
165 158 80
169 162 87
161 155 77
169 162 84
164 158 83
156 150 77
167 161 77
168 161 77
162 157 80
168 161 78
162 156 79
167 160 83
162 156 72
164 158 82
161 155 75
159 152 78
161 155 80
160 153 80
161 155 75
162 155 77
164 157 80
156 151 74
161 155 77
151 146 64
157 150 75
153 147 67
153 147 70
159 152 76
159 153 75
140 135 62
146 140 64
148 142 62
152 145 73
150 143 69
147 141 72
144 138 61
146 141 62
139 133 63
138 133 60
149 143 67
140 135 56
144 139 65
140 135 58
145 143 56
139 139 49
136 139 44
145 148 48
147 151 39
144 151 44
149 159 44
155 166 32
154 170 19
163 178 30
163 179 19
163 181 16
171 191 11
170 191 0
170 192 0
169 191 0
172 195 0
170 193 0
170 194 0
174 197 0
167 190 0
172 196 0
173 196 0
173 197 0
170 193 0
173 197 0
172 195 0
170 194 0
174 196 0
175 197 0
170 192 0
172 196 0
173 196 0
173 196 0
169 192 0
173 197 0
167 190 0
170 194 0
171 194 0
172 195 0
173 196 0
172 196 0
170 194 0
175 198 0
172 196 0
172 196 0
171 194 0
171 194 0
172 195 0
172 195 0
170 193 0
171 194 0
172 195 0
172 195 0
169 193 0
171 194 0
173 197 0
175 197 0
171 194 0
168 191 0
174 196 0
172 195 0
168 191 0
170 194 0
169 192 0
169 192 0
173 196 0
169 192 0
171 193 0
169 192 0
168 192 0
172 196 0
167 190 0
171 194 0
169 192 0
171 194 0
171 194 0
172 195 0
170 192 0
170 193 0
169 193 0
171 194 0
167 191 0
173 196 0
171 195 0
169 193 0
168 192 0
169 193 0
171 195 0
169 193 0
171 194 0
172 194 0
170 193 0
168 191 0
170 194 0
168 191 0
170 193 0
170 193 0
168 192 0
170 193 0
170 194 0
168 191 0
167 191 18
146 171 99
99 128 155
67 102 176
63 99 174
63 100 176
63 100 179
63 100 179
62 99 178
63 99 175
63 100 179
62 99 179
63 100 179
62 99 178
63 100 178
62 99 177
62 99 179
62 99 177
62 99 176
62 99 178
63 99 179
62 98 173
62 98 175
62 99 179
62 99 178
62 99 178
62 99 176
62 99 177
63 99 174
62 99 177
62 99 179
63 100 177
63 99 178
62 99 176
61 98 175
61 98 177
62 99 176
62 99 176
62 99 177
62 99 175
62 99 173
62 98 177
63 100 179
62 99 176
62 99 179
62 99 175
62 98 174
62 99 179
63 100 180
62 99 176
62 99 178
61 98 178
63 99 176
62 99 178
63 99 177
61 98 171
62 99 176
62 99 176
62 99 178
62 99 178
62 99 178
62 99 178
62 99 174
62 99 172
62 99 176
62 98 175
62 99 177
62 99 177
62 99 174
62 99 173
62 99 176
61 98 176
62 99 175
61 98 172
62 99 175
62 99 177
63 100 178
62 99 175
62 98 174
61 98 175
62 98 170
62 99 176
62 99 173
61 98 174
63 99 174
63 100 178
62 99 175
63 99 176
62 99 175
62 99 176
62 99 177
61 98 175
62 98 169
62 99 176
62 99 175
62 99 173
61 98 174
62 99 175
62 99 177
62 99 174
62 98 173
62 98 173
61 98 170
62 98 173
63 100 177
63 99 175
62 99 177
62 98 171
61 98 172
62 99 171
62 99 173
62 98 170
61 98 166
62 99 173
62 99 174
62 99 173
61 98 176
62 99 174
62 99 174
62 98 171
62 98 171
61 98 166
62 99 173
62 99 173
63 99 176
61 98 169
63 99 175
62 98 167
62 99 174
62 99 172
62 98 169
62 98 170
62 98 165
62 99 172
63 99 172
62 99 177
62 99 171
62 99 174
62 98 166
63 99 169
62 99 170
62 99 171
62 99 175
62 99 169
62 98 166
63 99 169
62 98 165
62 99 171
62 99 171
61 97 158
63 99 170
62 98 169
61 97 156
62 98 167
62 98 168
62 98 167
62 98 164
61 97 156
62 97 165
61 96 159
61 97 162
61 97 166
61 97 165
62 97 159
61 95 156
62 98 166
61 96 166
60 93 154
62 97 161
61 96 161
60 94 149
60 94 151
60 93 151
65 90 129
60 80 110
48 64 81
57 64 47
62 66 38
57 62 38
58 63 41
66 70 44
74 76 45
73 76 52
69 74 41
67 71 42
85 89 49
98 99 59
81 85 45
100 102 57
93 96 59
97 100 64
97 99 58
100 103 62
112 112 59
103 104 61
112 113 66
102 104 64
126 124 72
122 121 63
124 123 75
113 113 65
122 121 69
130 129 72
129 128 81
133 131 70
128 126 71
127 126 73
133 131 73
131 131 67
147 144 77
141 138 74
150 146 77
151 147 81
139 137 76
144 141 76
162 156 89
149 146 79
146 142 79
144 141 81
158 153 86
154 149 80
154 149 78
159 154 87
160 154 90
166 161 88
159 154 83
157 153 83
156 152 81
162 156 87
163 157 86
155 150 76
162 157 83
167 161 83
164 159 85
161 156 82
165 159 85
163 157 83
165 158 88
166 161 82
163 158 87
167 161 82
164 159 82
162 156 84
168 162 86
165 158 90
160 154 81
163 156 84
164 158 82
166 160 83
167 160 87
169 162 86
162 157 78
166 160 77
168 161 82
175 167 90
159 152 78
168 162 80
165 158 80
166 160 83
162 157 80
161 155 75
163 157 84
167 160 81
162 157 80
163 157 78
168 161 87
162 156 76
165 159 84
156 151 74
165 159 79
157 151 78
156 150 66
164 157 83
160 153 70
165 158 80
160 154 73
154 148 71
162 155 79
150 144 67
153 146 69
162 156 78
158 152 69
154 148 70
157 151 71
147 141 58
143 137 68
153 147 71
142 137 57
149 143 67
138 133 62
143 137 63
138 133 58
142 138 52
146 140 64
145 139 61
134 129 54
139 133 59
138 134 52
136 136 48
140 139 45
151 154 48
142 146 41
148 160 36
152 158 34
158 172 32
159 169 34
162 177 22
168 184 28
165 185 11
170 191 11
167 188 11
169 190 0
173 194 0
170 191 0
173 196 0
172 196 0
172 195 0
167 191 0
175 198 0
171 195 0
171 195 0
173 196 0
172 195 0
173 197 0
171 194 0
172 195 0
174 197 0
172 196 0
172 196 0
171 195 0
172 195 0
170 194 0
169 192 0
170 194 0
169 193 0
172 195 0
173 196 0
174 197 0
172 196 0
175 197 0
171 194 0
172 195 0
173 197 0
172 196 0
170 194 0
171 194 0
167 190 0
172 195 0
175 197 0
173 196 0
171 194 0
172 195 0
172 195 0
170 194 0
171 194 0
170 193 0
169 193 0
167 190 0
172 196 0
172 195 0
172 196 0
172 195 0
172 196 0
171 195 0
170 193 0
168 190 0
171 194 0
171 194 0
171 195 0
169 192 0
167 191 0
169 193 0
165 188 0
171 194 0
172 197 0
171 193 0
170 194 0
168 191 0
172 196 0
170 193 0
172 195 0
171 194 0
170 194 0
165 189 0
170 193 0
168 192 0
170 194 0
172 194 0
171 194 0
171 194 0
172 195 0
170 194 0
167 191 0
168 191 0
171 193 0
171 194 0
171 194 0
166 188 0
169 191 0
168 191 0
163 186 51
131 156 117
93 123 160
63 100 177
62 99 176
63 99 173
63 100 178
63 100 178
63 100 178
63 100 181
63 99 178
62 99 175
63 99 177
62 99 175
62 99 177
63 100 178
62 98 175
62 99 175
61 98 176
63 100 178
63 100 179
62 99 176
62 99 177
63 100 179
62 99 177
62 99 178
62 99 177
62 99 176
62 98 174
62 99 178
62 99 180
62 99 176
62 99 177
62 99 179
62 99 176
63 99 176
62 99 177
61 98 173
62 99 174
62 99 179
62 99 177
62 99 177
61 98 175
63 99 176
61 98 170
63 99 178
62 99 179
62 99 177
62 99 178
62 99 176
62 99 173
63 99 176
62 99 176
62 99 174
61 98 173
62 99 177
61 98 170
62 99 176
62 99 178
62 99 175
62 98 171
62 99 176
62 98 174
63 100 179
62 99 174
62 99 177
62 99 177
62 99 175
62 99 178
62 99 176
63 100 177
62 99 175
62 99 175
62 99 177
62 98 170
62 99 176
62 98 173
62 99 176
62 99 178
62 98 173
61 98 172
62 99 175
62 99 171
62 99 174
62 99 174
61 98 173
63 99 174
62 98 174
62 99 179
62 99 173
62 99 172
62 99 175
61 98 173
63 99 175
62 99 176
62 98 172
62 99 174
62 99 171
62 99 174
62 99 174
61 98 173
62 99 173
62 99 175
62 99 173
62 99 174
62 99 174
63 99 175
61 98 171
62 99 172
62 99 174
62 98 168
63 100 177
62 99 173
62 99 176
63 100 175
62 99 171
62 99 172
63 99 170
62 99 172
62 99 174
62 98 173
63 99 174
62 98 171
62 99 177
62 99 172
62 99 170
62 99 169
62 99 171
62 98 175
62 98 171
62 98 171
62 99 177
62 98 168
62 98 173
63 100 172
63 99 174
62 98 166
62 98 168
63 99 172
62 99 167
61 98 168
62 99 168
61 98 170
62 99 171
62 98 167
62 98 161
62 98 160
62 98 166
62 98 170
62 98 165
62 98 166
63 99 175
61 98 168
61 97 164
62 98 168
62 98 166
62 98 168
62 98 164
61 97 168
63 99 172
62 98 164
62 97 163
61 97 159
62 98 164
61 97 160
61 96 156
61 97 160
62 97 164
60 96 153
62 97 165
60 95 157
60 95 160
60 94 154
57 88 140
53 76 105
62 74 78
61 68 50
64 69 43
64 67 37
61 65 41
57 62 34
71 75 47
63 69 41
68 71 41
86 89 53
70 76 47
80 84 51
90 91 54
79 83 57
93 94 50
94 95 52
89 92 59
93 96 53
107 108 57
93 95 60
99 101 61
110 110 63
123 121 69
121 120 68
109 111 67
120 119 71
118 117 66
114 115 60
133 131 76
122 121 66
136 133 74
131 129 75
130 128 72
132 130 76
124 124 69
144 141 81
134 133 72
142 139 78
149 146 80
146 143 74
138 135 72
143 140 71
152 149 82
153 149 74
145 141 77
158 153 87
153 149 79
155 150 84
155 150 81
160 155 81
163 157 88
156 151 80
155 151 78
158 153 85
162 157 86
163 157 76
164 159 85
156 151 72
160 153 82
161 155 87
165 158 84
162 156 76
170 163 89
161 155 80
159 153 78
166 160 79
167 160 85
161 155 78
165 159 87
168 161 79
165 159 81
161 155 78
169 162 87
168 162 87
166 159 77
159 153 76
165 160 77
164 158 75
168 161 80
162 156 82
165 159 81
167 160 78
167 160 83
164 159 76
164 158 77
163 156 83
161 154 83
167 160 79
162 156 75
163 157 75
166 159 81
161 155 80
163 156 80
167 160 82
157 150 72
151 146 69
154 148 69
168 161 80
151 146 65
158 152 78
159 154 74
159 153 73
164 158 75
159 153 74
150 144 66
155 149 71
154 148 75
148 142 67
151 144 70
157 149 75
147 141 65
154 148 68
149 143 68
149 143 62
153 147 67
146 140 63
152 146 68
140 135 58
138 133 60
132 126 52
138 132 57
143 137 60
138 138 52
134 134 44
147 149 51
140 145 41
146 152 42
144 152 41
147 158 34
156 168 36
158 172 25
160 176 30
159 175 22
164 183 16
168 187 0
170 193 0
171 192 0
170 192 0
172 193 0
169 193 0
173 197 0
173 197 0
175 198 0
174 197 0
169 193 0
170 193 0
173 196 0
173 196 0
170 194 0
169 192 0
172 196 0
173 196 0
171 194 0
171 194 0
170 195 0
171 195 0
171 194 0
171 194 0
172 195 0
173 196 0
172 196 0
171 194 0
173 196 0
172 195 0
170 194 0
173 196 0
170 193 0
172 195 0
172 196 0
173 196 0
171 194 0
168 193 0
169 193 0
170 194 0
172 195 0
172 195 0
171 194 0
168 191 0
167 191 0
170 194 0
172 195 0
168 191 0
173 196 0
173 196 0
169 193 0
171 195 0
170 195 0
172 196 0
170 193 0
171 194 0
175 198 0
174 197 0
166 190 0
174 197 0
176 199 0
168 192 0
173 196 0
173 195 0
172 195 0
169 192 0
170 193 0
170 193 0
168 192 0
172 196 0
171 194 0
170 192 0
170 194 0
167 191 0
165 188 0
166 190 0
168 192 0
170 194 0
168 191 0
171 195 0
172 195 0
169 193 0
173 195 0
168 191 0
170 194 0
173 196 0
168 191 0
171 194 0
170 194 0
171 194 0
172 194 0
159 184 62
136 161 114
73 107 167
63 99 174
64 100 178
63 100 176
62 99 178
64 100 178
62 99 178
62 99 179
62 99 176
63 99 177
63 100 178
62 99 175
63 99 176
62 99 177
62 99 178
62 99 174
62 99 176
63 100 181
62 99 179
63 100 178
63 99 180
61 98 172
61 99 178
62 99 176
62 98 174
63 99 176
62 99 174
62 99 177
62 99 175
62 99 177
62 99 176
62 99 175
63 99 175
63 100 177
62 99 178
62 99 179
61 98 176
62 99 178
62 99 177
62 99 175
62 99 176
62 99 178
62 99 175
62 98 174
62 99 179
63 100 178
62 99 178
62 99 175
62 99 176
62 99 174
62 99 179
62 98 173
62 99 177
62 99 176
62 99 177
62 99 179
63 99 178
62 99 173
62 99 178
62 99 179
63 99 179
62 99 179
62 99 176
62 99 176
62 99 176
62 99 175
62 99 176
62 99 174
63 99 176
61 98 170
63 99 178
61 98 172
62 99 175
62 99 174
62 99 176
62 99 174
62 99 177
63 99 177
62 99 178
62 99 174
62 99 177
63 100 178
62 99 176
62 99 174
62 99 178
62 99 173
63 99 174
62 99 175
63 100 177
62 98 171
62 98 173
61 98 173
62 99 174
62 99 174
61 98 168
62 99 174
62 99 176
62 99 174
62 99 175
62 98 168
62 99 171
63 100 175
62 99 172
62 99 174
62 99 173
62 99 175
61 98 169
62 99 172
62 99 172
63 99 175
62 99 177
62 99 172
62 98 172
61 98 170
63 99 175
63 99 172
62 99 173
62 98 172
62 99 176
62 99 173
62 99 172
61 98 168
62 99 169
63 100 177
62 99 175
63 99 175
62 98 166
62 98 171
62 98 169
63 99 174
63 99 170
62 99 170
62 99 169
62 98 170
63 99 175
62 99 168
63 99 167
63 99 170
63 100 177
62 98 167
63 99 171
62 99 170
63 99 173
61 98 165
63 99 173
62 98 170
63 99 164
62 98 168
62 98 163
61 97 164
62 98 165
62 97 160
62 97 166
62 99 165
62 98 169
61 97 163
62 98 167
61 97 164
61 98 166
60 96 163
61 97 163
62 98 166
61 97 163
60 96 158
60 95 157
61 96 162
61 96 163
61 96 163
61 96 157
60 95 153
59 92 149
57 88 140
64 90 135
60 77 94
51 62 60
45 51 31
54 58 36
64 68 35
59 63 36
67 72 43
60 66 43
77 81 48
69 73 38
79 82 48
82 84 50
79 83 50
81 83 48
88 91 50
99 101 60
89 92 52
101 102 66
112 112 59
103 106 58
101 102 57
120 119 66
114 114 63
105 107 58
112 113 66
120 119 63
113 112 60
131 129 67
125 124 65
125 125 74
137 135 73
130 127 64
139 136 76
132 130 67
138 135 74
145 142 69
139 136 71
147 144 75
141 138 75
149 144 80
145 142 76
147 143 76
148 144 76
150 146 75
152 148 80
142 139 76
160 154 86
157 152 84
160 154 85
153 149 72
158 154 83
159 153 79
155 150 72
159 154 79
161 155 83
167 160 87
160 155 80
158 154 79
157 152 82
161 157 80
163 157 80
164 158 77
164 159 81
166 159 86
161 155 85
168 161 80
169 163 87
161 156 78
168 162 86
166 159 82
161 156 79
169 162 83
160 155 79
164 158 78
164 157 78
168 162 84
159 153 79
165 159 80
166 160 71
161 156 75
165 158 83
167 161 82
166 158 82
167 160 81
157 152 76
161 154 80
164 158 76
167 159 83
158 153 73
160 152 81
163 157 80
161 155 73
165 158 83
162 156 77
160 154 81
162 156 81
162 156 75
157 152 70
158 152 73
163 157 79
160 154 71
160 155 72
158 152 71
160 154 78
153 147 69
159 153 72
157 151 74
156 149 72
148 143 69
151 145 68
160 153 68
148 143 63
150 143 72
151 145 66
151 145 68
141 135 56
145 139 66
135 130 58
146 140 60
143 136 62
143 138 58
142 137 62
140 138 56
142 141 56
136 138 37
140 143 36
141 148 25
154 161 42
152 164 30
153 165 25
162 175 22
166 183 16
162 178 19
168 188 16
170 190 0
172 194 0
172 194 0
171 192 0
173 193 0
174 197 0
169 193 0
172 196 0
174 198 0
172 196 0
172 196 0
170 194 0
172 196 0
170 193 0
172 196 0
171 195 0
171 194 0
171 195 0
170 193 0
169 193 0
172 195 0
171 195 0
173 196 0
168 193 0
173 197 0
171 195 0
170 194 0
173 197 0
170 193 0
172 196 0
174 197 0
171 194 0
173 195 0
171 195 0
172 196 0
174 197 0
170 194 0
170 193 0
170 193 0
171 194 0
173 196 0
170 193 0
170 194 0
173 196 0
171 195 0
172 196 0
169 193 0
174 197 0
172 194 0
171 195 0
173 196 0
170 193 0
165 188 0
174 197 0
168 191 0
172 196 0
171 194 0
171 195 0
172 195 0
172 195 0
172 196 0
171 194 0
170 193 0
170 194 0
170 193 0
168 191 0
170 194 0
170 194 0
173 197 0
170 194 0
170 194 0
166 189 0
169 191 0
171 195 0
169 192 0
172 195 0
169 192 0
171 194 0
171 195 0
168 192 0
171 195 0
169 192 0
171 195 0
166 190 0
170 194 0
170 195 0
170 193 0
170 194 0
170 193 0
170 192 0
169 192 31
156 180 70
110 138 145
66 101 175
63 100 176
63 100 180
63 99 176
62 99 177
63 100 178
63 100 178
63 99 174
62 99 177
63 100 180
63 100 178
63 100 181
62 99 177
63 100 180
63 100 181
62 99 176
62 99 176
62 99 176
62 99 179
62 99 178
61 98 176
62 99 176
62 99 178
62 99 176
61 98 173
61 98 171
62 99 175
62 99 175
62 99 174
62 99 174
62 99 173
62 99 175
63 100 178
62 99 176
62 99 174
62 99 178
63 99 179
62 99 178
62 98 175
62 99 177
62 99 177
62 99 172
62 99 174
62 99 176
62 99 177
63 99 176
62 99 176
62 99 177
62 99 173
62 99 178
61 98 173
62 99 176
62 99 175
62 99 178
62 99 175
62 99 174
61 98 171
62 99 176
62 99 172
62 99 177
62 99 175
62 99 175
62 98 177
63 99 175
61 98 173
62 99 176
61 98 174
63 99 176
62 99 174
62 99 174
62 99 178
62 98 173
62 99 172
62 99 170
62 99 177
62 99 178
62 99 174
62 99 172
62 99 178
63 99 176
62 99 172
62 99 174
61 98 172
62 99 172
62 98 172
62 99 177
63 99 175
62 99 175
62 99 175
62 98 169
61 98 175
62 98 172
62 99 175
62 99 176
62 98 175
62 99 175
62 98 172
63 99 176
62 99 173
62 98 170
62 99 173
62 99 171
63 99 174
62 99 176
62 99 175
62 99 176
62 98 173
62 99 173
62 99 174
62 98 171
62 99 172
62 99 177
62 99 176
61 97 166
62 99 174
62 99 172
63 100 179
62 99 171
62 99 170
62 99 176
63 99 173
62 99 169
62 99 171
61 97 164
62 99 169
63 100 174
62 99 170
62 99 167
62 99 174
63 99 171
63 99 173
61 98 172
62 98 170
62 98 167
63 99 173
62 99 172
62 98 163
61 97 164
62 99 168
61 98 169
63 100 174
61 98 162
62 99 170
62 99 172
62 98 166
62 98 163
62 98 167
62 99 169
62 98 168
63 99 165
62 98 167
62 98 171
61 98 168
62 98 159
61 96 159
61 97 160
61 97 163
61 97 163
62 97 161
61 97 161
62 97 162
61 97 155
60 96 159
62 98 161
61 96 158
61 97 160
60 95 147
61 96 154
61 95 156
61 95 158
59 93 151
59 93 146
58 83 118
50 72 112
58 68 63
52 56 31
55 61 33
56 61 39
62 69 38
68 72 39
55 60 30
74 77 41
73 78 44
72 75 43
77 80 44
89 92 55
90 92 52
91 93 50
83 86 44
99 100 50
99 100 59
101 102 63
111 112 59
106 107 61
115 114 64
115 114 68
117 115 62
122 121 69
131 129 73
118 119 62
132 130 75
123 122 67
140 136 76
121 122 64
120 119 67
146 142 79
124 121 67
136 133 71
139 136 70
141 139 70
145 141 73
141 138 72
143 140 75
143 140 71
153 148 77
149 145 74
145 141 70
147 144 74
146 142 77
148 145 78
157 151 77
157 151 77
154 150 79
150 146 75
159 153 81
158 153 75
153 148 73
161 155 85
165 159 81
160 155 79
162 156 81
162 155 84
163 157 82
164 158 82
166 159 80
161 156 75
161 154 80
158 153 73
163 157 79
162 156 79
166 159 82
167 160 81
165 158 82
164 157 80
164 158 80
170 163 86
164 157 71
165 159 78
169 161 84
162 157 73
157 152 71
162 156 77
167 159 79
170 163 85
160 154 78
158 153 75
168 160 78
159 152 69
166 160 84
162 155 81
161 155 80
164 157 80
162 156 74
160 154 70
157 151 75
163 156 78
165 158 74
159 153 75
156 151 73
154 148 75
160 153 80
165 158 78
154 148 73
153 147 70
159 153 76
158 151 71
155 148 71
150 144 67
152 147 66
158 151 73
150 144 69
165 157 78
151 145 68
142 137 59
155 148 69
146 141 58
145 138 59
145 140 58
150 142 68
142 137 60
141 134 59
135 130 53
133 127 49
132 128 49
139 136 44
136 133 47
152 152 52
140 143 42
142 145 49
143 154 30
145 155 34
164 176 41
155 167 39
162 178 28
160 177 16
165 184 19
168 190 0
169 190 0
170 191 0
167 186 0
170 193 0
168 189 0
173 196 0
172 195 0
173 196 0
171 195 0
172 196 0
174 198 0
170 194 0
171 195 0
173 197 0
171 195 0
173 197 0
170 194 0
173 196 0
172 195 0
171 194 0
172 196 0
173 196 0
170 194 0
171 195 0
172 195 0
169 192 0
171 194 0
171 195 0
170 194 0
175 198 0
167 190 0
172 196 0
171 194 0
172 195 0
169 192 0
169 191 0
170 193 0
173 196 0
173 196 0
166 189 0
172 196 0
172 195 0
169 192 0
172 195 0
170 193 0
173 197 0
171 194 0
169 193 0
169 193 0
173 196 0
171 195 0
172 196 0
171 194 0
169 193 0
174 197 0
171 194 0
171 195 0
168 192 0
170 193 0
170 194 0
172 195 0
169 192 0
172 194 0
171 195 0
169 193 0
168 191 0
170 193 0
167 189 0
171 194 0
169 193 0
169 192 0
170 194 0
170 193 0
169 192 0
168 191 0
169 193 0
166 190 0
167 191 0
168 192 0
168 193 0
169 192 0
168 190 0
170 194 0
168 191 0
169 193 0
169 192 0
169 193 0
172 195 0
171 194 0
169 192 0
165 189 47
143 168 103
97 126 153
65 101 176
63 100 178
62 99 175
63 100 176
63 100 179
63 100 179
62 99 175
63 99 178
62 99 175
62 99 176
62 99 175
63 100 181
62 99 176
61 98 173
63 99 178
63 100 176
62 99 179
62 99 178
62 99 180
62 99 174
62 99 175
62 99 178
63 100 179
62 99 177
62 99 177
62 99 178
62 99 174
62 99 180
62 99 177
62 99 177
62 99 178
62 99 177
62 98 173
62 99 175
63 100 177
62 99 175
62 99 178
62 99 176
61 98 174
61 98 174
62 99 178
61 98 175
62 99 178
62 99 175
62 99 177
62 99 177
61 98 174
62 99 176
62 99 176
62 99 174
62 99 179
63 99 177
62 99 176
62 99 173
63 99 177
61 98 175
62 99 174
62 99 174
62 99 174
62 99 176
62 99 175
62 99 175
62 99 174
62 99 174
62 99 172
62 99 175
62 99 177
62 99 177
62 99 176
63 99 179
61 98 173
62 98 171
62 99 176
61 98 171
62 99 177
62 99 177
63 100 177
62 99 173
62 99 178
62 99 173
62 99 174
62 98 169
62 99 174
62 99 172
61 98 172
62 99 174
63 99 170
61 98 172
62 99 178
62 99 177
62 99 173
61 98 173
61 98 169
61 98 174
61 98 172
63 99 175
62 98 169
62 99 173
62 99 172
62 98 172
62 99 173
62 99 170
62 98 168
62 99 175
62 99 173
62 98 169
62 99 173
62 99 178
62 99 171
61 98 164
62 99 177
62 99 170
61 98 166
62 99 171
61 98 172
63 99 171
62 98 169
62 99 174
63 99 171
62 98 167
62 99 171
63 99 170
61 98 167
62 98 170
63 99 173
62 99 172
62 99 170
62 99 174
62 99 171
63 99 170
62 99 174
62 99 171
62 98 170
62 98 167
62 99 175
62 98 164
63 99 172
62 98 163
62 98 171
62 98 165
62 98 168
62 98 169
62 98 169
61 97 162
62 99 172
63 100 176
62 98 164
62 98 167
61 97 161
61 97 164
62 98 165
62 98 170
63 99 173
62 98 164
62 98 162
63 99 168
61 97 166
61 96 160
61 97 162
62 97 158
61 97 162
62 98 166
62 97 160
60 95 159
61 96 159
60 95 152
61 96 150
61 96 160
62 97 161
61 97 160
61 96 162
60 93 147
59 88 132
56 73 98
59 72 83
60 65 46
56 60 33
57 62 34
69 72 32
57 63 40
63 67 40
65 72 40
75 78 39
81 83 46
74 79 47
75 79 47
89 91 51
83 85 51
88 89 50
98 100 53
98 98 53
105 107 63
99 99 55
102 103 60
110 110 65
111 112 59
112 112 62
112 112 53
112 112 59
111 112 63
121 121 69
124 124 65
131 129 70
129 128 63
124 123 74
133 130 67
132 129 66
125 123 71
139 135 72
134 132 57
139 136 76
152 148 76
144 141 70
138 135 68
132 130 68
141 137 67
146 143 77
152 149 79
156 151 80
149 145 72
146 142 67
150 146 73
156 151 79
142 139 77
158 152 80
152 148 73
155 151 78
154 149 78
148 145 74
157 151 75
162 157 83
157 152 78
166 160 84
163 157 82
167 160 84
158 152 78
159 154 74
163 157 79
164 157 77
162 156 77
166 159 82
162 156 77
153 147 70
164 157 81
160 154 77
164 159 77
163 157 75
165 158 79
165 159 78
166 159 83
159 153 82
161 155 76
164 158 74
161 156 75
167 161 75
164 158 76
167 160 81
166 158 80
160 153 75
162 156 75
163 156 81
161 155 75
158 152 70
168 160 83
166 159 80
162 156 77
164 157 79
164 156 78
156 151 68
159 153 75
159 152 77
154 148 67
157 152 69
157 151 72
151 146 67
155 150 73
150 145 67
156 150 67
153 147 66
149 144 64
150 143 67
156 150 72
144 139 63
148 142 61
147 141 63
149 143 72
140 135 54
150 143 63
151 145 65
146 140 66
139 134 52
148 142 61
141 136 57
145 138 65
148 144 61
140 140 45
140 143 47
145 149 47
149 156 44
152 160 37
159 167 42
156 169 34
164 180 34
164 181 22
164 181 19
159 177 11
168 188 11
169 189 11
171 191 0
172 194 0
169 191 0
168 190 0
175 198 0
173 196 0
173 197 0
172 195 0
175 198 0
173 197 0
171 194 0
172 196 0
174 197 0
171 195 0
170 193 0
174 197 0
171 194 0
169 192 0
169 193 0
171 194 0
170 192 0
168 191 0
172 194 0
170 194 0
171 195 0
169 192 0
169 192 0
170 193 0
172 195 0
169 194 0
172 196 0
171 195 0
171 193 0
169 193 0
167 190 0
172 195 0
172 195 0
170 194 0
171 195 0
172 196 0
174 197 0
172 195 0
171 194 0
173 196 0
172 195 0
171 194 0
168 192 0
170 193 0
172 196 0
171 195 0
170 193 0
166 189 0
168 193 0
168 191 0
169 192 0
168 192 0
172 195 0
172 194 0
165 189 0
172 196 0
169 193 0
167 189 0
169 194 0
166 189 0
168 193 0
169 192 0
170 193 0
171 194 0
168 192 0
173 196 0
169 192 0
171 195 0
170 193 0
168 192 0
169 193 0
169 193 0
169 193 0
172 196 0
171 194 0
167 190 0
169 193 0
172 195 0
169 191 0
169 192 0
166 189 0
166 189 0
168 191 0
167 190 0
165 187 0
156 179 65
136 162 111
88 119 161
64 100 176
63 100 179
63 100 177
63 99 175
63 100 176
63 100 181
62 99 177
63 99 176
62 99 175
63 100 176
62 99 177
62 99 177
63 99 179
62 99 178
62 99 173
62 99 176
63 100 179
62 99 178
62 99 176
62 99 178
62 99 176
62 98 172
62 99 176
62 99 178
62 99 177
62 99 176
62 98 172
63 99 178
62 99 176
62 99 178
63 100 181
62 99 176
62 99 178
62 98 173
63 100 178
62 99 178
62 99 173
62 99 177
62 99 173
62 98 171
62 99 175
62 98 171
62 99 176
62 99 177
62 98 173
62 99 177
63 99 177
62 99 172
62 99 175
62 99 174
62 99 175
62 98 173
62 99 177
61 98 172
62 99 175
62 99 172
62 99 176
62 99 175
62 99 176
62 99 178
62 99 174
62 99 175
62 99 174
62 99 175
63 99 179
62 99 174
62 98 171
62 99 177
62 99 179
61 98 172
62 99 177
62 99 174
62 99 176
62 99 173
62 98 168
63 99 177
62 99 172
63 99 172
62 98 170
62 99 178
62 99 173
62 99 176
62 99 174
62 99 168
62 99 175
62 98 175
62 99 174
62 99 175
62 99 173
62 99 175
61 97 167
62 99 170
62 99 176
62 98 170
63 99 173
63 99 175
62 99 173
63 99 174
62 99 173
62 99 173
62 98 171
62 99 171
62 99 172
62 99 171
62 99 176
62 99 173
62 99 175
61 98 170
61 98 170
61 98 166
62 98 170
62 98 171
62 99 176
63 99 175
62 98 171
62 98 172
62 99 169
62 99 173
62 99 171
63 99 171
63 99 169
61 98 169
62 99 172
62 98 167
62 99 167
62 99 172
63 99 175
63 99 174
62 99 169
62 98 167
62 98 169
63 99 172
62 98 164
62 99 174
63 99 170
62 98 166
63 100 174
61 98 165
61 98 169
61 97 159
62 98 166
61 97 162
62 98 165
62 98 169
62 98 168
62 98 167
62 98 167
61 97 163
61 97 158
63 99 173
62 98 166
63 98 164
62 98 169
62 98 162
62 98 166
62 98 166
61 98 169
62 98 165
62 98 167
62 97 165
62 98 164
62 97 165
62 97 161
62 97 160
61 97 160
60 95 153
61 96 161
61 96 160
60 94 146
61 95 151
60 94 150
59 91 138
58 89 140
57 79 110
44 61 76
64 69 53
56 61 39
63 67 33
68 71 33
72 75 38
67 73 43
63 67 35
68 74 44
76 78 45
84 86 42
81 84 42
88 90 46
87 87 46
91 93 49
96 98 51
93 94 50
101 101 57
88 91 53
106 105 60
121 120 64
103 105 62
119 117 57
122 120 67
120 118 61
124 122 66
124 123 60
120 121 64
126 124 67
139 136 72
130 129 64
130 128 64
138 135 65
140 137 72
134 130 65
133 130 70
146 142 82
139 136 79
144 141 70
146 142 76
144 140 69
152 148 76
142 139 70
149 145 76
155 151 81
146 142 77
145 142 75
157 151 83
153 149 77
158 153 78
151 146 72
161 154 80
159 154 75
156 151 73
153 148 73
155 150 72
159 153 81
158 152 79
156 152 73
165 159 77
156 151 71
160 154 76
163 156 76
165 159 77
164 158 79
164 157 82
159 153 75
159 153 73
160 154 78
158 152 71
163 157 74
169 162 85
158 153 75
165 159 77
163 157 75
161 154 69
170 163 84
165 158 78
167 161 83
168 161 78
163 156 80
158 152 75
165 158 80
165 159 75
169 162 80
161 155 75
165 159 80
162 156 80
165 157 77
167 160 80
157 151 77
162 155 76
153 147 66
158 152 72
156 150 73
155 149 73
158 152 75
157 151 70
161 154 80
156 150 67
153 147 63
150 143 62
155 148 72
148 142 65
155 148 70
149 143 67
147 140 63
160 153 68
150 144 60
143 137 62
142 137 51
148 142 60
145 140 58
144 139 62
137 131 57
142 137 64
143 138 58
135 130 56
145 140 58
137 134 47
142 141 48
143 144 48
147 151 48
148 151 48
143 152 25
143 154 32
159 171 37
157 170 28
153 167 22
159 175 22
164 184 16
170 190 0
165 185 0
172 194 0
172 192 0
170 191 0
172 193 0
172 193 0
172 196 0
174 196 0
173 196 0
167 190 0
170 194 0
171 194 0
174 197 0
167 190 0
174 197 0
171 195 0
174 198 0
170 194 0
172 195 0
172 195 0
171 195 0
173 196 0
172 195 0
171 194 0
171 195 0
172 196 0
172 196 0
170 194 0
169 193 0
170 195 0
172 195 0
174 196 0
174 197 0
172 195 0
169 192 0
171 195 0
172 195 0
173 196 0
171 194 0
171 194 0
168 192 0
169 193 0
167 191 0
169 192 0
171 195 0
172 196 0
171 194 0
171 195 0
166 190 0
174 197 0
170 194 0
171 193 0
171 195 0
171 194 0
171 194 0
169 193 0
172 195 0
167 190 0
168 191 0
170 193 0
171 194 0
169 192 0
168 192 0
172 195 0
170 193 0
170 194 0
168 192 0
166 189 0
170 195 0
170 193 0
168 192 0
167 191 0
169 193 0
168 193 0
168 191 0
172 195 0
169 192 0
169 192 0
169 193 0
172 195 0
170 194 0
169 191 0
171 194 0
172 195 0
172 194 0
172 195 0
169 192 0
172 195 0
166 189 0
172 194 0
171 195 18
157 182 65
131 157 121
77 110 169
63 100 174
63 100 177
63 99 174
63 100 175
63 99 177
63 100 177
62 99 174
63 99 178
63 100 179
62 99 173
62 99 173
62 99 176
62 99 173
62 99 175
62 99 172
62 99 179
62 99 175
62 99 178
62 99 170
63 100 178
63 99 177
62 99 176
63 99 176
63 100 178
62 99 176
63 99 179
62 99 176
62 99 178
62 99 179
62 99 177
62 99 173
62 99 174
62 99 173
62 98 173
61 98 174
62 99 176
61 98 172
61 98 169
62 99 174
62 99 178
62 99 176
62 99 175
61 98 175
62 99 178
62 99 177
62 98 173
62 98 171
62 99 177
61 98 169
62 99 177
62 99 176
62 98 173
62 99 178
63 100 178
62 99 177
62 99 173
62 99 176
62 99 174
62 99 177
62 99 175
61 98 174
62 99 176
62 99 177
62 99 174
62 99 175
61 98 173
62 99 174
62 99 172
62 99 179
63 100 173
61 98 172
62 99 173
62 98 170
62 99 176
62 99 176
61 98 169
62 99 174
62 99 177
62 99 171
63 99 173
62 99 174
62 99 173
62 99 172
62 99 173
62 99 172
62 99 172
62 99 176
62 98 168
62 99 175
63 99 175
62 99 174
63 99 172
62 99 177
63 100 178
63 99 170
62 99 175
61 98 173
62 99 173
61 98 170
62 99 171
62 99 175
62 98 170
62 99 175
63 100 174
62 99 174
63 99 174
62 99 172
63 100 174
61 98 173
62 98 168
62 99 170
62 98 170
62 98 169
62 98 168
61 98 170
62 98 166
62 99 172
62 98 169
62 98 171
63 99 170
62 98 168
62 98 171
61 98 167
62 99 172
62 98 167
62 99 171
62 99 172
62 99 170
62 99 168
62 98 168
61 97 166
62 99 170
62 98 169
62 98 165
61 98 161
63 99 172
63 99 167
62 98 163
61 98 169
62 99 165
62 98 165
62 99 170
63 99 167
62 98 166
62 99 169
62 98 168
62 99 166
62 98 168
61 97 162
63 99 166
61 98 163
63 99 167
62 98 168
62 98 166
62 98 167
61 97 162
62 97 165
62 98 167
61 96 158
61 97 155
62 98 162
62 98 166
61 96 152
61 97 159
61 97 161
60 95 150
61 95 154
60 94 151
61 95 156
61 96 160
61 96 162
59 93 145
58 90 140
59 83 121
58 73 85
53 62 59
62 66 31
64 69 38
72 76 34
76 78 42
70 72 41
68 72 38
66 71 42
78 81 42
74 77 38
87 90 49
81 85 50
94 94 51
90 91 48
96 98 57
95 98 51
96 98 53
97 98 47
101 101 55
112 113 63
117 117 64
115 115 64
113 113 59
120 118 59
122 120 58
117 117 60
116 116 62
124 123 65
135 132 71
134 131 68
133 130 71
129 127 68
132 130 67
136 133 66
129 128 66
136 133 68
142 139 71
141 138 68
143 139 76
147 142 71
140 137 64
150 145 74
142 140 73
152 147 76
153 148 75
152 146 76
158 152 76
153 149 72
149 145 71
152 147 71
163 156 83
159 154 76
161 154 83
155 149 73
157 152 74
161 154 80
153 148 78
159 153 79
164 158 77
160 155 80
157 153 67
163 156 79
162 156 75
160 155 70
158 152 73
159 154 78
160 154 75
161 155 75
161 155 78
164 157 79
167 161 80
157 151 64
163 157 79
162 155 79
161 155 75
164 156 82
170 163 82
163 157 75
163 157 81
160 154 68
166 159 72
162 156 71
164 158 80
159 152 79
163 156 75
156 150 72
168 161 80
157 151 79
165 158 71
155 149 72
162 156 72
153 147 73
161 154 72
158 152 68
158 151 69
164 158 75
157 151 69
153 148 69
158 151 73
156 150 64
156 150 69
150 144 56
151 145 63
152 146 61
141 137 49
146 142 59
149 144 62
155 149 65
143 137 63
142 136 62
146 139 67
141 136 61
148 143 58
130 126 49
129 125 53
135 129 53
133 129 51
134 131 49
141 138 51
144 141 58
139 141 49
141 145 42
146 152 44
157 165 47
152 164 25
157 169 36
157 169 34
160 176 19
161 177 25
167 186 11
168 187 16
169 191 0
169 191 0
172 192 0
170 190 0
168 189 0
172 193 0
174 196 0
170 194 0
169 193 0
172 195 0
174 197 0
175 198 0
172 195 0
172 195 0
172 196 0
175 198 0
169 193 0
175 198 0
169 193 0
172 195 0
170 193 0
171 195 0
170 193 0
173 197 0
172 195 0
168 191 0
172 195 0
168 192 0
172 196 0
168 192 0
172 195 0
173 197 0
173 197 0
172 196 0
171 194 0
171 195 0
170 193 0
170 194 0
168 192 0
167 191 0
170 194 0
169 193 0
173 197 0
172 195 0
171 194 0
170 193 0
169 192 0
170 192 0
170 193 0
169 193 0
172 196 0
168 191 0
170 193 0
172 196 0
168 192 0
171 194 0
172 195 0
168 192 0
169 192 0
168 192 0
171 192 0
172 195 0
171 194 0
172 196 0
170 194 0
167 190 0
168 193 0
169 193 0
173 196 0
172 195 0
167 191 0
169 193 0
169 192 0
169 191 0
166 190 0
169 193 0
167 191 0
168 191 0
169 192 0
168 191 0
168 192 0
167 190 0
170 193 0
168 191 0
167 192 0
169 193 0
168 190 0
172 194 0
168 192 0
169 193 0
166 189 0
153 176 78
126 152 126
72 106 172
63 100 175
62 99 170
63 99 174
63 100 176
63 99 172
63 100 180
63 99 171
62 99 176
63 100 180
63 100 178
62 99 179
62 99 175
62 99 178
63 100 178
62 99 171
62 99 173
62 99 176
62 99 177
63 100 179
62 99 177
62 99 177
63 99 177
62 99 175
63 100 179
62 99 177
62 99 179
61 97 174
62 99 173
62 99 175
62 99 177
62 99 176
62 99 176
61 98 176
62 99 177
62 99 177
62 99 173
62 99 175
62 99 174
62 98 172
62 99 174
61 98 170
62 98 170
62 99 176
62 99 178
62 99 178
62 99 175
62 99 173
62 99 178
62 99 176
62 98 175
62 98 175
61 98 173
62 99 179
63 99 173
62 99 178
63 99 175
62 99 173
62 99 175
62 99 179
61 98 174
62 99 175
63 100 178
62 98 172
63 99 174
62 98 171
62 99 173
63 100 180
62 99 177
62 99 177
62 99 172
62 99 173
62 99 171
62 99 171
63 99 176
61 98 167
62 99 176
62 98 170
61 98 172
62 98 172
62 98 168
62 99 174
61 98 173
62 99 175
62 99 174
62 99 177
62 99 176
62 99 172
63 99 172
61 98 171
62 98 172
62 99 172
62 99 174
62 98 173
62 99 170
62 99 173
62 99 170
63 99 177
62 99 170
62 98 168
62 99 170
62 99 177
62 98 172
62 99 173
62 99 172
62 98 174
62 99 176
62 98 171
63 99 174
62 98 169
63 99 177
62 99 175
62 98 173
62 99 175
61 98 170
61 98 167
62 99 167
63 99 173
62 98 169
62 99 170
62 99 173
62 99 171
62 99 172
62 99 170
62 99 171
62 98 166
62 99 170
62 99 167
62 98 167
62 98 168
62 99 173
62 98 162
63 99 172
62 98 162
62 98 164
62 98 166
62 99 171
62 99 165
62 99 167
62 98 167
62 98 167
62 99 172
62 98 165
61 97 160
62 98 165
62 99 167
62 99 168
62 98 169
63 99 167
61 97 163
62 97 160
61 98 163
61 97 162
62 98 164
61 96 155
60 96 159
62 98 160
62 98 166
60 96 163
62 98 164
61 98 167
62 97 167
61 97 161
60 95 156
61 97 161
61 97 157
62 97 156
62 97 160
62 97 158
60 95 156
61 96 162
61 96 157
60 93 147
60 93 150
59 84 121
62 78 95
55 66 65
53 59 40
44 50 31
59 63 33
75 78 36
65 67 34
74 78 35
81 85 46
72 76 38
69 71 34
81 84 41
91 92 49
93 95 54
84 85 41
100 100 48
89 91 44
102 103 51
97 99 53
92 94 53
112 112 57
104 105 55
119 118 59
120 119 64
106 107 57
120 118 63
116 116 60
128 126 73
113 113 59
118 118 55
135 132 71
139 136 74
130 127 65
135 133 68
131 129 62
133 131 60
135 133 67
142 139 70
147 143 75
150 145 73
149 145 75
143 140 71
150 146 71
149 145 68
139 136 71
146 142 66
152 147 70
153 148 77
162 155 77
154 149 76
158 153 75
157 152 80
161 155 85
165 158 86
160 153 85
158 152 74
161 155 81
161 156 79
154 149 75
163 156 73
155 151 74
156 151 72
159 153 75
159 153 74
161 155 75
160 154 77
161 155 73
166 158 86
164 158 75
164 158 75
160 154 78
159 153 74
159 153 76
161 154 73
161 155 79
163 157 81
159 154 73
165 159 76
165 158 70
160 154 76
163 158 74
160 154 71
160 154 71
161 154 75
166 159 80
148 142 60
152 146 65
152 146 69
158 152 73
159 152 70
161 155 75
162 156 73
151 146 67
158 152 67
159 153 70
148 143 59
161 155 73
146 140 59
154 148 64
154 147 70
161 155 75
151 144 68
142 136 51
153 146 61
150 143 65
145 140 58
156 148 74
148 144 52
149 142 63
143 138 56
153 146 66
139 133 56
152 145 64
147 140 67
143 137 60
130 124 47
143 137 61
142 136 56
144 140 57
133 130 42
141 142 44
136 138 44
145 147 30
150 156 44
154 164 34
153 163 32
157 172 30
160 171 39
165 180 11
159 174 19
163 183 19
166 185 16
170 189 0
169 189 0
171 192 0
169 190 0
168 190 0
171 194 0
171 194 0
169 193 0
172 196 0
170 193 0
168 192 0
175 198 0
173 196 0
174 196 0
170 194 0
169 193 0
171 195 0
173 196 0
170 193 0
171 194 0
171 194 0
173 196 0
171 193 0
170 194 0
170 194 0
173 196 0
171 195 0
166 190 0
172 196 0
172 195 0
170 193 0
171 194 0
172 195 0
172 195 0
170 193 0
173 196 0
173 197 0
170 194 0
170 193 0
174 198 0
168 191 0
172 195 0
172 195 0
171 193 0
172 195 0
168 192 0
170 193 0
173 196 0
170 193 0
169 192 0
170 192 0
170 194 0
170 192 0
169 193 0
171 193 0
172 195 0
167 191 0
170 193 0
171 195 0
171 194 0
172 195 0
173 197 0
169 192 0
171 194 0
170 193 0
172 193 0
169 192 0
170 193 0
168 192 0
170 194 0
169 192 0
166 189 0
169 192 0
171 194 0
168 192 0
169 192 0
167 191 0
168 192 0
166 190 0
167 190 0
168 192 0
171 196 0
169 192 0
168 191 0
170 193 0
170 193 0
165 189 0
172 195 0
171 195 0
167 190 0
166 189 25
147 173 86
99 128 145
66 101 175
64 100 176
63 99 175
63 99 173
63 99 174
63 99 176
64 100 178
63 100 180
62 99 176
63 99 175
62 99 177
62 99 177
62 99 176
62 99 175
62 98 171
63 100 178
62 99 174
62 98 171
62 99 173
63 99 174
62 99 178
62 99 174
62 99 177
62 98 173
62 99 176
62 99 176
62 99 175
62 99 177
62 99 177
62 99 174
62 98 171
62 98 176
62 98 174
62 98 169
62 99 175
62 98 169
62 99 173
62 99 177
62 99 174
63 100 179
62 99 171
61 98 175
61 98 175
62 99 177
62 99 176
62 99 174
62 99 175
62 98 176
62 99 175
63 99 176
62 99 176
63 99 174
62 99 174
62 99 179
62 99 177
62 99 175
62 98 169
62 99 177
62 99 178
62 99 172
62 98 174
62 99 172
62 98 176
62 99 174
62 99 179
62 99 172
62 99 176
62 99 173
62 99 175
61 97 167
62 99 173
62 98 171
62 99 178
62 99 175
62 98 170
62 99 174
62 99 173
62 99 176
63 99 172
62 99 170
63 99 174
63 99 176
61 98 171
62 99 172
62 99 170
62 99 172
62 99 174
62 99 177
62 99 177
62 99 171
63 99 174
62 99 173
62 99 175
62 99 173
62 98 167
62 98 171
62 99 172
62 99 175
62 99 172
62 99 170
62 98 171
62 99 172
62 99 171
63 99 174
63 99 173
62 99 172
62 99 174
62 99 170
62 99 171
62 99 175
62 99 172
62 99 172
62 99 174
62 98 169
62 99 171
61 98 167
62 98 163
62 99 170
63 99 173
62 98 168
62 98 169
62 99 175
62 98 169
62 99 166
63 99 172
62 98 168
62 99 168
62 99 169
63 99 170
61 98 167
62 99 171
62 99 169
61 97 161
62 98 167
63 99 170
63 99 172
61 98 164
62 98 168
62 98 167
62 99 168
61 97 164
61 97 165
61 97 162
63 99 167
62 98 166
62 99 169
62 99 171
62 98 169
62 98 163
62 98 168
62 98 166
59 95 153
62 97 160
61 98 164
62 98 162
61 98 168
62 98 165
61 97 164
61 97 164
62 98 165
61 96 163
61 97 159
62 98 161
61 96 157
62 98 164
60 95 156
62 97 159
61 96 162
61 96 154
60 94 153
60 94 152
61 95 152
58 92 144
56 87 137
61 90 137
54 76 104
53 65 68
66 67 32
68 72 35
70 72 29
55 61 34
62 67 41
76 80 38
72 76 45
75 77 33
82 84 41
83 86 44
76 80 47
82 85 43
89 90 46
90 93 52
95 97 50
87 90 52
100 101 53
97 98 45
114 112 58
107 107 53
106 107 49
110 110 51
120 119 57
112 111 52
113 113 56
126 125 66
113 112 61
120 119 67
136 133 62
134 131 66
128 126 68
135 131 64
137 133 67
126 126 62
138 134 66
134 130 63
140 137 74
154 149 78
141 138 69
145 141 68
144 140 68
147 143 70
149 144 67
154 148 72
142 139 66
152 148 76
148 143 78
154 149 75
150 146 70
146 142 71
156 151 74
157 152 73
161 154 82
156 151 77
150 145 69
156 152 74
154 149 72
153 149 69
154 148 71
159 153 76
158 152 73
156 150 68
162 156 79
164 157 75
159 153 73
159 152 73
167 160 82
163 157 78
162 156 74
165 158 78
156 149 69
161 156 76
168 161 78
164 157 78
162 156 66
160 154 70
159 153 68
160 153 73
160 153 73
163 157 79
165 159 79
162 155 71
164 157 75
162 156 76
155 150 74
154 148 72
163 156 72
165 158 77
160 153 72
160 153 70
151 146 60
157 151 72
161 155 69
156 150 69
154 149 66
158 151 73
149 143 62
151 145 62
151 145 62
153 147 69
153 147 68
144 139 57
148 141 62
144 138 62
138 132 61
142 136 57
146 139 66
144 139 62
147 141 65
146 141 69
144 139 49
137 131 53
141 135 56
139 133 58
136 131 45
137 133 54
140 137 47
139 139 51
144 145 47
146 149 51
143 148 47
150 159 37
139 148 28
154 164 25
157 172 25
158 172 25
167 185 19
162 181 16
169 188 16
168 187 0
170 191 0
168 188 0
170 190 0
172 194 0
169 189 0
170 192 0
174 196 0
170 194 0
170 194 0
173 196 0
172 196 0
170 193 0
173 197 0
172 196 0
170 194 0
171 195 0
170 193 0
173 196 0
168 191 0
171 195 0
171 195 0
172 196 0
175 197 0
172 195 0
173 196 0
167 190 0
171 194 0
171 195 0
170 194 0
171 194 0
166 190 0
173 196 0
173 196 0
172 196 0
169 193 0
173 197 0
168 192 0
171 195 0
170 194 0
174 197 0
173 197 0
170 194 0
172 195 0
171 195 0
171 193 0
170 194 0
169 193 0
167 191 0
170 193 0
171 194 0
170 193 0
167 191 0
169 192 0
168 192 0
167 191 0
169 193 0
168 192 0
171 194 0
168 191 0
171 195 0
171 195 0
171 195 0
168 192 0
169 192 0
171 194 0
171 194 0
170 193 0
169 193 0
167 191 0
169 193 0
168 192 0
171 193 0
167 191 0
170 194 0
170 193 0
169 192 0
170 194 0
167 190 0
171 194 0
168 191 0
170 194 0
171 194 0
170 193 0
170 193 0
167 190 0
166 188 0
170 193 0
166 188 0
165 189 0
166 188 0
166 189 36
140 166 107
95 124 158
64 100 178
63 100 175
63 99 176
62 98 172
62 99 171
63 99 175
62 99 174
63 100 175
63 99 177
62 99 173
62 99 175
63 100 178
62 99 176
62 98 173
62 99 178
63 100 179
63 99 173
62 99 175
62 99 176
63 99 179
63 99 173
62 98 172
63 99 180
62 99 174
62 99 176
62 99 174
62 99 173
62 99 175
62 99 176
62 99 176
62 99 177
62 99 175
62 99 178
63 99 177
62 99 176
62 98 173
62 99 176
62 98 175
63 99 176
62 99 177
62 98 173
61 98 173
62 99 176
62 99 177
62 99 175
63 99 176
61 98 171
63 100 176
61 98 174
62 99 173
62 99 181
62 98 173
62 99 174
62 98 171
62 98 175
63 100 179
62 99 177
62 99 176
61 98 172
62 99 169
62 99 176
62 99 175
63 99 177
62 99 174
61 98 170
62 99 173
61 98 165
62 99 176
62 98 175
62 99 176
62 99 175
62 99 175
62 99 172
62 99 174
62 99 171
62 98 172
62 99 173
63 99 175
63 99 176
62 99 174
62 99 175
62 99 176
62 99 176
62 99 176
62 98 167
61 98 170
62 98 166
61 98 174
63 99 174
62 99 173
62 98 169
62 98 170
62 99 175
61 98 170
62 99 171
62 99 171
62 99 176
62 99 171
62 99 173
61 98 169
63 100 181
62 99 172
62 98 168
62 99 174
62 99 173
62 98 170
62 99 172
61 98 168
63 99 169
62 99 171
62 98 164
62 99 171
63 99 170
62 98 170
61 98 166
62 98 169
63 99 174
62 98 172
61 98 172
62 99 169
62 99 170
62 99 169
62 98 165
63 99 172
63 99 171
63 99 173
63 99 171
63 99 172
62 98 168
62 98 171
62 99 170
63 99 172
62 98 168
63 99 169
63 99 173
62 98 169
62 98 164
62 98 164
62 98 166
62 98 163
62 98 166
61 98 166
63 99 166
63 99 172
62 98 165
61 98 167
61 98 161
61 97 163
62 98 167
61 98 161
62 98 164
62 98 163
61 98 163
63 99 169
62 98 166
62 98 163
62 97 160
63 99 169
61 96 157
62 98 160
61 97 156
61 97 153
61 97 156
62 96 153
61 97 156
61 97 163
62 97 157
61 96 157
61 96 152
61 96 160
59 93 151
61 95 154
60 95 152
59 93 148
58 89 145
65 84 102
74 84 71
52 61 51
64 66 30
53 57 26
71 72 31
67 70 29
70 74 37
73 76 35
77 79 40
87 87 45
71 76 42
87 90 53
82 85 39
99 100 52
103 103 55
90 90 49
91 93 46
103 104 51
110 110 59
96 96 48
98 100 46
111 112 57
116 116 58
126 124 55
116 115 59
109 109 52
119 119 57
124 122 58
121 120 60
123 121 61
129 126 57
130 127 62
129 127 61
137 133 62
134 131 60
144 139 69
132 129 68
141 139 62
147 143 73
149 145 74
141 137 68
149 144 75
146 142 72
148 144 68
151 146 67
155 149 75
149 144 76
148 143 72
149 145 67
150 145 70
155 149 75
151 145 70
155 149 70
149 143 72
157 151 77
157 151 76
159 154 72
158 152 73
159 153 72
158 152 69
161 155 78
159 154 69
158 153 72
163 156 77
161 155 76
159 154 77
155 150 73
156 152 67
158 152 75
158 152 76
160 154 75
163 156 76
162 155 76
161 154 70
155 149 59
154 148 73
163 156 70
163 157 72
159 153 70
157 152 65
166 158 81
165 157 75
156 149 67
158 153 66
154 149 66
157 151 68
156 149 68
157 151 71
155 149 73
150 144 62
165 158 77
158 152 64
151 146 63
152 147 64
155 149 59
159 153 62
151 145 68
156 149 72
157 150 71
154 147 65
148 142 63
150 144 53
152 146 67
149 143 56
149 143 67
152 146 66
153 148 58
135 130 48
147 142 59
144 139 63
140 135 52
147 141 63
146 141 59
135 130 54
144 138 62
134 129 53
135 132 49
140 138 39
140 139 52
145 148 44
148 149 49
152 158 34
142 150 34
151 160 36
155 164 39
157 172 19
161 176 25
167 185 19
167 187 16
164 182 22
173 193 0
167 188 0
168 188 0
171 190 0
172 193 0
170 191 0
167 188 0
172 196 0
172 196 0
172 195 0
174 197 0
171 194 0
172 196 0
170 194 0
174 197 0
169 193 0
172 195 0
172 195 0
169 193 0
171 195 0
170 194 0
171 194 0
172 195 0
171 194 0
170 194 0
172 194 0
170 194 0
172 196 0
172 195 0
169 193 0
174 197 0
169 192 0
169 193 0
169 193 0
174 198 0
173 196 0
169 193 0
172 195 0
170 194 0
167 190 0
173 196 0
171 194 0
170 193 0
168 192 0
168 192 0
173 196 0
173 196 0
173 195 0
171 196 0
171 195 0
166 189 0
170 193 0
171 194 0
169 192 0
175 197 0
171 194 0
172 194 0
168 191 0
168 191 0
172 195 0
171 195 0
168 191 0
170 194 0
170 194 0
169 192 0
171 193 0
169 191 0
170 194 0
166 190 0
167 190 0
170 193 0
166 190 0
167 191 0
166 189 0
170 192 0
169 193 0
169 193 0
168 192 0
169 192 0
166 189 0
169 192 0
167 191 0
169 192 0
169 192 0
166 189 0
166 189 0
171 194 0
169 191 0
174 196 0
165 188 0
167 191 0
161 184 54
140 165 102
77 110 169
63 99 177
63 100 176
63 100 178
63 100 179
63 99 175
63 100 179
63 99 172
63 100 178
63 99 176
61 98 170
62 98 172
63 100 178
63 99 174
62 99 176
62 99 174
62 99 174
62 99 172
62 98 171
62 99 177
62 99 174
62 98 175
62 99 176
62 98 171
62 99 174
62 99 175
62 99 173
62 99 177
62 99 174
62 99 172
62 99 176
62 99 176
61 98 172
62 99 177
62 99 177
61 98 175
62 98 176
62 99 173
62 99 179
61 98 174
62 98 171
62 99 176
62 99 175
62 99 176
62 98 174
62 99 175
62 99 177
62 98 173
62 98 172
62 99 175
62 99 173
62 99 175
62 98 169
62 99 174
62 99 178
63 99 178
61 98 173
62 99 173
62 99 172
62 99 176
62 98 172
62 99 175
62 99 176
63 99 176
62 99 176
61 98 174
62 99 175
62 99 170
62 99 177
62 99 173
63 100 177
62 99 172
62 99 172
62 99 166
61 98 176
62 99 170
62 98 174
62 99 172
62 99 175
63 99 175
61 98 173
62 99 174
62 99 177
62 99 176
62 99 174
62 98 172
63 99 174
62 99 172
62 99 173
61 98 168
62 99 173
62 99 169
62 99 171
62 99 173
62 99 174
62 99 171
62 99 175
62 99 171
62 99 174
63 99 174
62 99 173
62 99 173
62 99 171
62 99 171
61 98 172
61 98 167
62 99 174
62 98 167
62 99 175
62 99 168
63 99 172
62 99 170
62 99 172
62 99 175
62 99 172
62 98 167
62 98 170
62 98 169
63 99 171
62 99 167
62 98 165
61 98 165
62 98 170
62 99 165
63 99 168
62 98 165
63 99 172
63 99 172
63 99 171
62 98 166
62 98 170
62 98 166
62 99 171
62 98 165
62 99 172
62 98 171
62 98 167
63 99 172
62 98 168
62 98 170
62 98 163
62 98 165
62 98 169
62 98 163
62 98 170
62 99 169
62 98 163
63 99 169
61 97 159
62 98 165
62 99 171
61 97 164
62 98 166
62 97 163
61 97 162
62 98 166
62 98 162
62 98 162
61 97 158
60 95 155
61 97 160
62 97 160
61 96 155
62 97 161
61 97 161
60 96 158
62 97 159
62 97 158
62 97 164
61 96 151
61 96 156
61 96 155
60 95 148
61 95 152
60 94 145
60 91 143
62 83 110
65 76 78
53 61 37
57 63 27
68 70 23
58 61 29
67 70 33
68 70 27
83 85 30
94 94 46
78 79 41
81 83 44
85 87 43
92 94 42
83 85 40
96 98 42
99 100 53
108 108 56
90 92 41
109 108 54
100 101 57
101 103 50
112 110 50
98 100 50
110 110 55
112 112 57
116 115 58
119 117 57
126 125 60
120 120 59
128 126 61
130 128 68
133 130 67
135 131 66
134 131 70
130 127 66
131 129 59
138 134 62
133 131 62
138 135 66
143 140 72
143 140 68
149 145 72
153 149 76
139 137 65
140 137 61
144 140 67
139 136 73
147 142 69
149 143 75
153 148 76
152 147 66
148 145 70
154 149 74
159 154 81
155 149 74
153 147 71
152 148 64
152 146 70
160 153 78
156 151 71
159 153 73
160 155 74
158 152 73
160 154 73
163 157 76
154 146 74
157 152 69
156 150 69
155 150 62
164 159 72
158 151 73
161 155 67
162 155 77
158 151 68
160 154 73
161 155 70
161 154 75
157 151 69
157 150 66
154 149 71
164 156 74
160 153 72
163 157 74
153 148 70
160 155 70
157 151 69
160 153 73
158 151 71
156 149 70
155 148 64
153 148 66
159 153 66
156 150 64
150 145 60
150 144 59
160 153 71
158 152 71
155 149 63
157 151 67
154 146 71
150 144 63
151 145 65
153 147 63
147 140 63
145 139 59
154 148 62
143 137 61
150 144 61
143 137 53
147 142 58
136 131 57
136 131 48
137 132 45
134 128 53
137 131 56
135 131 52
140 138 49
143 145 47
142 144 47
144 145 37
143 150 41
146 151 39
151 162 32
154 166 30
156 169 22
160 173 25
160 174 30
165 181 16
164 183 0
163 182 0
169 189 0
172 194 0
169 188 0
165 186 0
170 189 0
168 188 0
171 194 0
174 198 0
173 196 0
171 195 0
172 195 0
170 194 0
174 197 0
169 193 0
172 196 0
173 196 0
170 194 0
170 193 0
171 194 0
172 195 0
170 193 0
172 195 0
171 195 0
170 194 0
169 193 0
171 195 0
170 194 0
170 193 0
171 195 0
172 196 0
171 195 0
173 196 0
170 194 0
174 196 0
174 196 0
171 195 0
172 195 0
171 195 0
171 194 0
170 194 0
171 194 0
172 195 0
170 194 0
173 197 0
170 194 0
170 193 0
174 197 0
171 194 0
171 195 0
165 188 0
171 194 0
172 195 0
169 193 0
166 189 0
171 194 0
172 196 0
173 196 0
168 191 0
171 194 0
172 195 0
172 194 0
169 192 0
170 194 0
165 189 0
169 193 0
171 195 0
170 193 0
173 196 0
168 190 0
166 189 0
169 192 0
169 193 0
168 193 0
171 194 0
170 193 0
168 192 0
165 189 0
169 192 0
167 191 0
168 192 0
164 187 0
168 191 0
168 191 0
169 191 0
167 191 0
171 195 0
169 193 0
171 195 0
169 193 0
167 191 0
167 190 18
153 176 67
129 155 124
83 115 160
63 100 178
62 99 173
63 99 174
63 99 172
64 100 177
63 100 178
63 99 177
63 99 172
62 98 172
63 100 178
63 99 175
63 99 175
62 99 175
62 99 176
62 99 180
62 99 172
63 99 172
62 99 173
62 99 174
62 99 175
61 98 170
62 98 172
60 97 169
63 99 175
62 98 173
63 99 174
62 99 178
62 99 176
61 98 174
62 99 177
62 98 173
62 99 173
62 99 178
62 99 177
62 99 176
62 99 172
62 99 176
62 98 173
62 99 172
62 98 170
62 99 176
62 99 177
62 98 178
62 99 176
61 98 171
61 98 168
62 99 176
61 98 174
62 99 176
62 99 175
62 98 172
61 98 173
62 99 172
62 99 174
62 99 176
63 99 173
62 99 175
62 99 174
61 98 169
62 98 171
61 98 171
62 98 171
62 98 174
62 99 174
62 99 177
62 98 170
62 99 175
62 99 174
62 99 176
62 99 176
62 99 174
62 99 170
62 99 177
63 99 173
62 99 174
62 98 174
62 98 171
62 99 171
62 99 175
63 100 176
62 99 174
62 99 172
62 99 178
63 100 178
62 98 170
62 99 171
62 99 170
62 99 173
62 99 170
62 98 172
61 98 168
62 99 169
62 99 171
62 99 172
62 99 172
62 99 173
62 98 171
62 99 173
61 98 165
63 99 175
61 98 165
61 98 167
62 98 167
63 99 173
62 98 168
62 98 171
62 98 171
61 98 169
62 99 169
63 99 170
62 99 170
62 99 170
62 98 169
62 98 172
62 98 164
63 99 167
62 98 165
62 98 171
62 98 167
63 99 174
62 98 165
63 99 169
62 99 169
62 99 170
63 99 171
62 98 167
62 98 167
61 97 157
63 99 168
62 98 165
62 99 171
63 99 167
62 98 164
62 99 167
62 98 164
62 98 166
62 98 170
62 98 169
62 98 165
62 98 165
61 97 162
62 99 165
62 99 169
63 99 170
62 99 168
61 97 159
62 98 164
62 99 168
62 98 164
61 98 164
62 99 168
62 98 162
62 98 164
62 98 165
63 99 165
61 97 161
61 97 161
62 98 161
62 98 161
62 98 163
61 96 151
61 97 162
60 95 147
62 98 160
61 96 161
61 97 153
61 96 153
62 97 162
59 94 148
61 97 156
62 97 158
61 96 155
60 95 157
59 93 152
59 89 136
74 91 108
58 70 69
61 67 51
54 60 30
59 62 28
65 68 30
61 65 31
71 74 33
83 86 44
76 77 34
82 84 39
80 82 41
87 89 45
86 90 44
80 83 40
75 79 41
88 89 35
93 96 40
101 102 50
100 101 44
105 104 43
94 95 55
101 103 54
108 108 52
119 117 56
123 122 58
109 109 46
129 125 55
127 125 57
122 120 53
124 123 57
127 125 65
138 135 66
126 124 60
142 137 70
136 133 65
141 137 64
131 129 59
135 131 60
139 136 63
140 137 67
142 138 72
149 144 71
140 137 65
144 139 67
158 151 80
154 148 69
148 143 70
152 148 68
147 143 72
153 149 72
153 148 72
152 147 80
152 147 70
160 154 75
154 148 64
159 152 75
152 147 74
157 150 74
154 148 68
161 155 72
158 152 69
158 153 67
155 150 71
158 152 75
159 153 74
155 150 67
162 156 72
160 154 66
158 152 76
164 157 73
161 155 74
155 149 63
160 154 69
163 156 76
156 151 65
156 150 66
156 150 64
161 154 74
162 155 75
162 156 67
156 150 73
159 153 64
162 155 73
158 152 68
156 150 71
156 150 70
160 154 73
158 152 69
161 154 71
157 150 74
150 144 69
155 149 72
157 151 66
158 151 68
159 152 69
153 147 65
155 149 65
149 142 62
152 146 69
151 145 66
156 149 69
140 135 58
146 140 58
144 139 48
155 148 68
149 143 58
148 142 56
151 144 66
146 141 58
140 135 45
144 139 56
148 141 64
145 140 57
135 129 51
142 138 54
139 135 53
136 133 42
143 143 47
147 153 37
140 145 34
145 151 34
145 152 36
142 150 25
149 158 30
154 168 32
163 175 28
165 183 19
158 178 0
169 187 11
170 192 0
167 187 0
170 191 0
170 189 0
169 190 0
171 192 0
169 190 0
173 194 0
170 193 0
169 193 0
173 197 0
171 194 0
171 194 0
169 193 0
172 195 0
172 196 0
174 197 0
174 197 0
172 196 0
165 188 0
169 193 0
171 194 0
170 194 0
173 196 0
170 193 0
169 192 0
169 192 0
170 193 0
170 194 0
171 195 0
172 195 0
173 196 0
172 195 0
174 197 0
168 193 0
173 195 0
169 193 0
170 193 0
171 195 0
173 195 0
170 194 0
170 193 0
170 194 0
171 194 0
173 196 0
172 195 0
172 196 0
170 193 0
170 194 0
170 194 0
172 196 0
170 194 0
170 193 0
170 194 0
170 193 0
171 194 0
171 195 0
170 192 0
169 192 0
168 192 0
170 194 0
170 192 0
166 190 0
171 195 0
168 192 0
169 192 0
169 193 0
169 192 0
166 190 0
170 193 0
169 193 0
170 193 0
169 192 0
166 191 0
172 196 0
167 191 0
172 195 0
170 193 0
166 190 0
166 190 0
168 191 0
171 193 0
170 194 0
170 194 0
167 190 0
168 192 0
170 193 0
169 191 0
170 192 0
164 187 0
164 187 0
169 192 18
145 168 88
122 147 133
71 106 169
63 100 175
64 100 180
63 100 177
63 100 176
63 99 177
63 99 175
63 99 172
63 100 175
62 98 174
63 100 178
62 99 171
62 99 174
62 99 177
62 98 171
63 100 178
63 99 174
62 99 176
62 99 173
62 99 175
61 98 173
62 99 173
62 98 173
62 99 174
62 99 179
62 99 172
62 98 172
62 99 177
62 99 176
62 99 174
62 98 175
61 98 174
62 99 174
62 99 175
62 99 176
62 99 177
62 99 174
62 99 178
62 99 175
61 98 174
62 99 177
62 99 174
62 99 174
62 99 176
62 99 171
62 99 177
61 98 173
62 99 175
62 99 173
62 99 176
62 98 173
62 99 173
62 99 171
62 99 169
61 98 172
62 99 175
62 99 171
62 99 177
63 100 180
62 99 176
62 99 173
62 99 176
62 99 176
62 99 174
63 99 174
62 99 174
63 99 177
62 99 175
62 99 175
62 99 176
63 99 177
62 99 172
63 99 172
62 98 170
61 98 168
62 99 169
62 99 175
62 99 171
62 99 173
63 100 176
62 98 167
61 98 164
62 98 171
61 98 167
62 99 176
63 99 173
62 99 171
62 98 170
61 98 172
62 98 168
63 99 172
62 99 172
62 99 168
62 99 171
63 99 171
62 98 166
62 98 164
62 99 173
62 99 169
62 98 165
62 99 172
62 99 170
63 99 172
61 98 166
62 98 171
62 99 173
62 98 168
62 98 170
63 99 172
63 99 170
62 99 174
62 99 172
62 99 170
63 99 172
61 98 164
61 98 171
62 99 171
62 99 172
62 98 169
63 99 172
62 99 169
62 99 167
62 99 171
62 98 166
62 98 167
61 98 167
62 99 169
61 98 165
62 99 170
62 99 171
62 98 168
62 98 166
63 99 173
62 99 168
61 97 161
62 98 163
61 97 161
62 98 168
62 98 164
62 98 164
62 99 174
62 99 164
62 98 164
61 98 165
61 98 163
62 99 173
62 99 168
62 97 161
62 98 160
62 98 161
61 97 159
63 99 172
62 98 158
62 98 163
60 96 157
62 97 152
61 97 164
62 98 165
62 98 162
62 97 159
62 98 161
61 96 159
62 97 156
61 97 164
61 97 157
60 95 156
62 97 160
61 96 155
61 95 152
61 96 154
62 97 162
61 95 153
60 95 154
61 96 156
59 93 150
59 91 137
55 85 126
62 79 94
62 72 60
81 82 26
64 68 25
61 66 31
71 73 21
67 70 30
79 79 33
77 79 31
77 81 45
73 75 40
83 84 42
77 80 41
94 94 40
90 91 40
96 96 49
107 106 49
100 102 47
116 113 50
109 110 50
100 102 48
101 102 49
122 119 55
96 98 39
115 114 51
109 109 51
117 117 56
123 121 61
120 119 50
130 127 59
121 119 54
130 126 65
128 125 61
137 132 62
141 137 67
135 132 61
134 131 64
139 136 68
140 137 67
140 137 62
136 134 64
146 143 67
148 144 70
140 136 58
148 144 69
143 138 68
152 147 72
146 141 71
146 142 63
155 149 71
154 148 71
155 150 67
152 146 64
158 152 74
159 154 78
154 149 73
158 153 70
152 146 68
156 150 68
157 151 65
156 151 70
153 148 66
154 147 70
160 154 70
156 150 70
157 151 71
155 150 65
147 142 55
155 149 66
162 155 73
160 154 71
153 148 67
158 153 67
161 155 72
163 156 71
157 152 61
164 156 74
157 151 64
158 152 64
158 152 63
160 154 70
157 150 70
156 150 62
157 151 66
149 144 58
155 149 64
155 149 63
157 151 69
150 144 64
152 147 65
157 150 68
157 151 72
152 146 64
154 148 66
155 149 58
140 135 56
155 149 69
149 144 62
146 140 56
147 141 63
139 134 59
149 143 63
146 141 56
154 147 64
146 140 61
148 142 65
140 135 56
135 130 48
143 137 51
148 142 59
141 135 52
144 139 52
140 135 52
134 128 47
125 120 42
144 142 53
132 131 44
140 141 44
149 151 41
147 150 39
139 147 36
149 158 30
151 161 32
151 164 30
161 176 28
164 180 19
165 184 16
167 188 11
166 187 11
170 189 0
165 185 0
170 190 0
166 186 0
173 195 0
168 189 0
168 189 0
168 188 0
172 195 0
172 196 0
172 195 0
174 197 0
173 196 0
173 196 0
168 192 0
171 195 0
172 196 0
172 195 0
168 192 0
170 193 0
169 193 0
169 192 0
171 194 0
171 194 0
173 196 0
171 194 0
171 195 0
170 193 0
173 196 0
171 195 0
170 194 25
171 193 25
170 193 25
172 194 0
172 195 36
171 194 0
170 193 0
172 195 25
171 194 25
165 188 0
171 194 0
168 191 0
174 197 36
172 195 25
171 195 0
167 191 0
165 189 25
169 192 36
171 194 36
171 192 36
173 195 25
171 194 44
168 192 36
174 197 25
173 196 44
173 196 36
168 193 0
170 194 25
167 190 0
171 194 36
170 192 25
171 194 36
170 193 0
166 189 0
170 193 0
168 190 0
169 193 0
169 192 25
170 193 0
170 193 0
170 193 0
167 191 0
167 191 0
166 190 0
168 192 0
169 192 0
163 186 0
167 191 0
165 189 0
166 188 0
167 191 0
169 192 0
165 188 0
167 191 0
172 194 0
167 190 0
169 191 0
168 192 0
169 193 0
170 193 0
164 188 0
158 182 31
150 173 82
116 143 139
68 103 168
63 99 175
63 100 174
63 100 178
62 99 175
63 99 174
62 98 169
63 99 176
63 100 176
62 99 175
63 99 173
63 100 177
62 99 178
62 99 169
62 99 176
63 99 174
62 99 175
62 98 173
62 99 172
63 99 172
62 99 173
62 99 175
63 99 177
61 98 173
62 99 175
62 99 174
61 98 172
63 99 178
61 98 174
61 98 170
61 98 174
62 99 172
62 99 173
62 98 173
63 100 177
62 99 181
62 99 175
62 99 177
62 99 175
62 99 174
62 99 176
62 99 178
62 99 177
61 97 172
62 99 174
63 100 179
62 99 172
62 98 175
62 99 177
61 98 172
62 98 169
62 99 176
61 98 169
63 100 176
61 98 173
61 98 173
62 99 172
62 98 174
62 98 170
62 99 175
61 99 177
62 99 175
62 99 170
62 99 174
62 99 175
62 99 170
63 99 173
62 99 171
62 99 174
62 99 177
62 99 171
62 98 170
63 99 174
62 99 172
61 98 168
62 99 175
62 98 172
61 98 169
62 99 169
62 98 166
62 99 168
62 99 174
61 98 171
62 99 175
62 99 176
63 99 176
61 98 171
62 99 175
63 99 173
62 99 174
62 99 171
62 99 170
62 98 169
62 98 169
62 99 174
62 99 172
62 99 169
63 99 174
63 99 175
62 99 173
62 98 171
61 98 171
63 99 172
62 99 169
62 98 169
62 99 174
62 99 171
62 99 174
63 99 171
62 99 174
61 98 164
62 98 170
61 98 162
61 98 166
62 99 170
62 99 170
61 98 167
63 99 173
61 98 166
63 99 169
63 99 175
62 98 164
62 98 165
62 99 169
63 99 167
63 100 172
62 99 173
62 98 165
62 99 171
63 99 168
63 99 174
62 98 172
62 98 167
61 98 165
62 99 170
61 97 160
62 98 166
63 99 172
63 99 171
62 99 172
62 99 165
62 98 165
63 99 170
62 98 168
62 98 166
62 98 163
62 98 160
61 97 159
63 99 165
62 98 164
62 98 162
62 98 171
63 99 169
61 97 163
61 97 156
61 96 154
61 97 158
62 98 160
63 99 167
62 98 163
61 97 161
62 98 162
61 97 159
62 97 162
62 97 163
61 96 151
61 96 154
62 98 158
61 97 158
60 94 155
62 98 163
62 97 158
60 94 148
61 94 150
59 92 148
59 92 139
63 89 134
64 81 96
67 74 48
78 81 38
65 67 31
68 71 33
76 77 25
71 74 40
73 76 32
66 69 29
86 88 37
79 82 42
66 72 32
80 82 30
91 92 36
95 98 45
100 100 39
104 104 45
94 96 47
104 104 46
118 116 52
105 105 52
101 101 49
118 115 59
117 115 59
126 123 63
123 120 46
120 118 60
126 123 64
124 121 57
127 125 51
111 112 46
115 114 59
127 125 67
139 135 67
143 140 67
131 128 57
134 131 60
142 136 63
139 136 60
136 132 62
144 140 69
142 137 68
143 138 60
144 140 68
153 147 68
151 146 69
149 144 71
144 140 64
147 143 66
151 147 65
153 148 65
145 141 58
147 143 61
149 145 68
152 147 65
154 149 70
146 142 60
148 144 59
157 151 73
157 152 72
151 147 66
157 151 69
155 149 72
154 149 71
161 155 71
161 154 77
152 146 71
157 150 72
160 154 72
160 154 61
159 152 71
154 149 71
159 153 72
161 154 74
159 152 70
158 152 72
161 155 68
154 149 68
158 152 68
158 152 65
160 153 73
150 144 60
162 155 74
159 153 67
151 145 59
161 155 69
151 145 65
156 149 64
161 154 69
153 147 68
154 148 64
152 146 63
157 150 62
156 149 69
148 142 63
154 149 65
152 146 64
143 137 52
155 149 63
146 140 52
151 145 63
147 140 61
152 145 61
146 141 54
146 141 51
143 137 56
144 138 52
138 132 58
146 139 59
141 136 45
146 140 57
137 130 52
140 136 48
138 133 45
136 134 48
138 136 52
136 140 37
140 142 45
144 147 34
144 155 28
155 164 37
144 156 22
150 163 22
159 174 25
161 177 16
166 185 19
160 178 11
168 187 11
166 186 0
169 190 0
169 189 0
167 187 0
169 189 0
171 192 0
169 188 0
169 189 0
171 190 0
172 195 0
167 191 0
170 194 0
171 195 0
174 197 0
170 193 0
170 194 0
171 195 0
174 197 0
172 195 0
171 195 0
170 194 0
171 195 0
170 194 0
171 195 0
171 194 0
172 196 0
171 195 0
172 196 0
171 194 0
173 197 25
173 196 0
170 194 25
174 197 25
169 193 0
172 196 25
171 194 25
170 193 0
171 194 0
168 191 0
172 194 25
173 196 25
168 191 36
174 198 36
172 195 51
174 197 51
175 198 36
172 195 25
167 190 51
171 194 0
168 191 36
169 192 0
171 193 25
172 196 0
174 198 25
175 197 51
169 192 44
171 194 25
172 195 36
166 190 25
168 191 25
169 193 0
170 193 51
170 193 0
167 190 0
169 192 25
167 190 36
170 193 0
170 193 0
169 192 0
166 189 0
170 193 0
168 191 0
170 193 25
170 193 0
165 189 0
168 192 0
169 192 0
166 188 0
167 190 0
169 193 0
168 191 0
165 188 0
169 193 0
164 187 0
169 192 0
169 192 0
166 190 0
168 191 0
165 188 0
165 188 0
166 189 0
167 192 0
162 185 31
141 166 99
97 126 155
64 100 176
63 99 171
64 100 175
63 99 172
63 100 173
63 100 177
63 99 175
61 98 170
63 99 175
62 99 170
63 99 175
62 99 172
62 99 171
63 100 179
61 98 172
62 99 175
63 99 175
62 99 173
63 100 177
62 98 172
62 99 174
63 99 178
63 99 177
61 98 175
62 99 175
61 98 175
62 98 173
62 98 171
62 99 171
63 99 176
62 99 178
61 98 169
63 99 176
62 99 173
62 99 177
62 99 177
63 99 177
62 98 169
62 99 178
62 98 171
62 99 174
62 98 171
62 99 177
63 99 175
62 99 176
63 100 178
62 99 177
62 99 173
63 99 174
62 99 177
61 98 176
62 99 174
62 98 171
62 99 175
61 98 174
63 99 174
62 99 174
62 99 172
62 99 174
62 99 173
62 99 174
62 99 172
62 99 175
62 99 173
61 98 164
61 98 170
62 99 173
62 99 171
62 98 169
62 99 177
62 99 174
61 98 170
62 98 172
62 98 170
62 99 173
62 99 171
62 99 173
62 99 172
62 99 177
63 99 174
61 98 166
62 99 175
62 99 177
61 97 165
62 98 167
62 98 169
62 99 173
62 99 172
62 98 168
62 99 172
62 98 169
62 99 174
63 99 176
62 99 171
62 99 169
63 99 176
62 99 171
62 98 171
61 98 167
62 98 170
62 99 169
61 98 163
63 99 168
62 99 173
62 99 172
62 99 169
63 99 171
62 98 167
62 98 171
62 99 170
62 99 170
63 99 172
63 99 169
62 99 174
62 99 169
62 98 167
63 99 171
62 99 165
62 98 171
61 98 168
62 98 164
61 98 171
63 99 172
61 97 157
63 99 169
62 98 162
63 99 171
62 99 170
61 98 168
62 99 167
62 98 166
62 98 166
63 99 170
62 98 167
62 98 165
62 98 168
62 98 163
63 99 169
62 98 165
62 98 170
62 99 168
61 98 166
61 98 162
62 98 166
62 98 163
62 98 169
62 98 162
62 99 168
62 98 168
61 97 159
62 98 160
63 99 166
62 98 162
63 99 167
61 97 157
61 97 160
61 97 162
62 98 164
62 98 160
62 97 155
62 97 162
62 97 156
62 97 157
61 96 160
62 97 162
61 96 156
61 96 153
61 96 155
61 95 153
60 95 150
61 96 160
61 95 152
61 96 157
60 94 149
59 93 140
61 96 156
60 89 132
56 75 101
69 75 59
58 63 40
75 77 30
67 70 25
78 79 21
78 80 30
64 68 27
79 80 37
76 79 33
79 80 32
79 82 36
79 81 37
86 88 29
95 96 36
91 92 42
96 98 45
95 95 46
112 111 52
98 98 46
103 103 45
100 101 45
110 109 52
114 113 49
113 113 51
120 118 54
111 111 54
114 112 45
121 119 58
115 113 49
122 120 58
129 126 54
132 129 60
129 127 64
126 123 57
139 136 62
133 130 61
141 137 67
130 128 60
139 135 61
135 132 56
148 143 67
132 130 57
139 135 60
139 136 62
145 141 66
142 137 55
144 140 61
147 142 64
144 140 68
151 146 68
151 145 63
148 142 66
156 150 69
149 144 61
154 148 71
149 144 69
152 147 62
161 155 76
146 142 62
157 151 73
152 147 63
155 150 67
158 151 69
159 151 71
155 149 67
158 152 71
160 154 72
155 150 71
161 154 71
153 148 66
150 145 54
159 152 75
152 146 61
158 151 64
157 151 73
149 144 62
153 147 61
157 151 68
152 146 65
160 154 68
159 152 74
164 156 71
151 145 56
158 151 65
155 148 61
156 149 69
159 153 67
155 149 66
150 143 54
155 149 62
155 148 66
153 147 63
152 146 56
153 147 63
152 146 63
148 143 56
153 147 60
147 141 57
146 140 59
147 141 52
155 148 67
141 136 52
142 137 57
146 139 52
143 138 52
140 133 54
141 136 51
134 129 45
140 136 56
142 136 57
132 128 44
148 142 59
141 138 48
143 139 59
140 141 45
139 139 39
149 152 51
151 159 36
155 163 39
151 162 28
149 160 30
163 174 32
159 174 25
165 183 16
170 189 16
162 179 19
166 185 11
172 192 0
168 187 0
172 191 0
171 190 0
169 188 0
170 189 0
168 189 0
169 189 0
168 188 0
170 193 0
173 195 0
169 192 0
170 194 0
171 194 0
170 193 0
169 193 0
168 192 0
169 193 0
171 194 25
169 192 0
173 197 0
172 194 25
169 193 0
171 194 0
169 193 0
174 197 36
171 194 25
173 196 44
171 193 0
173 197 51
173 196 36
172 195 51
174 196 62
174 197 44
169 192 0
172 195 57
170 194 25
170 194 0
171 194 44
170 192 44
174 197 44
170 194 51
169 193 25
171 194 44
171 194 44
171 195 36
171 194 44
170 193 25
169 192 44
175 198 57
168 191 0
175 198 51
170 194 0
174 196 25
171 194 36
170 192 36
174 196 51
175 197 44
171 193 36
171 194 57
173 195 36
173 196 62
173 196 44
166 189 51
168 191 25
172 195 36
172 195 25
173 196 25
167 190 0
172 195 36
167 191 25
165 188 25
170 193 25
169 193 25
168 191 0
171 194 0
169 192 0
165 189 0
170 193 0
167 192 0
170 194 0
170 193 0
166 189 0
166 189 0
167 189 0
170 194 0
164 188 0
168 191 0
167 190 0
169 192 0
166 189 0
170 194 0
164 188 47
144 169 99
97 126 151
63 99 170
63 99 171
63 99 171
63 99 173
63 100 175
63 100 172
63 100 178
63 100 176
62 99 173
62 99 174
63 99 175
62 99 174
62 99 170
63 100 178
63 99 175
63 99 174
63 99 178
63 99 176
63 100 181
62 99 175
62 99 173
63 100 179
62 99 175
62 99 177
62 98 173
62 98 175
62 99 175
62 98 175
62 99 175
62 99 176
63 100 176
63 100 181
63 100 180
62 99 177
62 98 175
62 99 175
62 99 172
61 98 173
62 98 173
62 98 169
62 99 175
62 99 175
62 99 173
62 99 176
62 98 173
62 98 173
62 98 172
62 99 174
62 99 173
62 99 170
62 99 172
62 99 176
62 99 173
62 98 171
62 99 175
62 99 175
62 99 172
62 98 166
62 99 171
62 99 172
63 99 171
62 99 173
62 99 175
62 99 173
62 99 173
62 99 174
62 98 172
62 99 172
62 98 169
62 99 168
62 99 172
62 99 175
62 99 175
62 99 172
62 99 175
62 99 174
62 98 169
62 99 172
62 99 173
62 98 172
61 98 169
62 98 168
62 99 174
62 99 169
62 99 174
62 99 172
62 99 171
61 98 171
62 98 173
62 99 171
61 98 172
62 98 171
62 98 170
61 98 168
62 99 170
63 99 175
62 99 177
62 99 171
62 99 172
63 99 170
63 99 174
62 98 169
62 99 169
62 98 170
63 99 172
62 98 164
62 99 173
62 99 172
63 99 168
62 99 171
62 98 170
63 99 171
62 98 170
61 98 163
63 99 174
61 98 168
61 98 165
63 99 170
63 99 171
63 99 169
62 99 164
61 98 165
62 99 172
61 98 163
62 99 165
62 98 165
63 99 168
62 98 163
61 98 168
62 99 168
62 99 167
62 98 165
62 99 169
62 99 164
61 97 162
63 99 166
62 99 168
62 98 166
62 99 172
62 99 166
62 98 166
61 96 158
62 98 166
62 98 165
61 98 158
63 99 171
63 99 168
61 97 157
62 98 162
62 98 162
62 98 156
62 98 163
61 97 165
61 97 158
62 98 165
60 97 157
61 96 153
61 96 153
62 98 163
60 95 156
62 98 164
62 97 154
62 98 162
61 97 151
60 96 154
62 98 164
61 96 155
61 97 157
62 97 162
61 97 161
60 95 159
61 96 155
61 96 155
61 95 151
59 93 149
59 92 150
57 87 129
64 85 113
64 75 68
56 63 42
52 55 20
64 66 25
77 77 29
82 84 29
74 77 22
66 69 28
89 89 41
92 94 41
77 79 33
94 94 29
86 88 31
98 100 37
101 100 48
106 106 49
102 103 49
109 109 43
108 108 48
116 114 56
115 112 48
112 111 50
115 115 48
115 113 52
111 111 50
127 124 55
121 118 54
106 105 51
119 118 53
123 121 52
119 118 56
130 128 59
132 128 63
137 134 62
130 127 56
140 136 61
145 140 69
130 128 60
137 133 60
144 139 61
139 135 52
139 135 61
139 135 65
147 142 72
135 131 60
142 139 63
145 141 68
148 143 61
151 147 67
150 143 66
157 150 69
145 140 61
149 143 65
147 143 52
152 147 62
154 148 67
158 151 71
150 146 62
155 149 69
152 146 64
150 145 65
153 148 70
157 151 73
154 148 65
145 140 64
153 148 56
162 156 71
168 161 76
150 145 67
154 150 59
157 152 65
159 152 71
155 150 62
156 150 61
159 154 63
158 152 64
158 152 65
155 149 70
161 153 77
157 150 69
150 144 59
151 146 60
158 152 67
154 147 62
150 145 60
156 150 67
148 142 62
148 143 60
160 153 64
151 147 63
149 144 59
154 147 66
148 142 60
150 145 58
147 141 52
152 147 58
151 145 63
143 139 51
150 144 58
146 140 59
145 138 57
140 136 52
148 143 60
147 141 58
139 133 48
140 135 45
136 130 42
143 137 56
136 132 44
128 123 42
136 132 54
133 130 48
137 135 42
136 135 41
135 136 37
149 150 45
149 156 36
149 156 36
154 164 34
155 169 28
152 165 25
152 168 22
159 173 16
164 180 19
163 181 11
166 186 0
164 183 16
169 188 0
169 189 0
166 183 0
168 188 0
173 192 0
169 190 0
169 189 0
168 188 0
172 193 0
172 196 0
173 196 0
170 193 0
171 194 0
170 194 0
170 193 0
172 196 0
172 195 0
169 194 0
170 194 0
169 193 25
174 197 25
172 195 0
174 197 25
173 197 44
169 193 25
170 192 25
171 195 0
170 194 0
172 195 0
173 196 51
168 192 44
177 199 44
173 196 25
171 194 36
173 196 51
175 198 57
171 194 44
174 196 62
173 195 57
171 194 36
173 195 36
173 195 51
171 194 25
170 193 51
168 191 36
173 196 25
170 193 51
167 190 36
171 195 44
172 195 36
169 192 62
167 190 51
171 194 44
171 195 44
171 193 51
172 194 57
174 197 44
172 195 57
169 192 51
172 195 44
172 195 62
169 192 36
170 193 36
174 197 57
172 196 25
168 190 57
165 188 0
170 193 0
169 193 36
168 191 0
171 194 25
169 191 25
172 196 25
172 195 25
166 189 25
166 190 0
168 190 25
172 195 0
173 196 0
168 191 0
169 192 25
166 189 0
168 190 25
166 189 0
169 193 0
171 195 0
168 191 0
170 194 0
162 185 0
172 194 0
165 188 0
162 185 0
161 184 51
130 156 117
91 121 159
63 99 172
64 100 174
64 100 176
62 99 174
63 99 175
63 100 178
63 100 177
62 98 171
62 99 173
63 99 178
63 99 175
62 99 173
63 99 172
63 100 177
63 100 178
62 99 176
62 99 172
61 98 169
62 99 173
62 99 174
61 98 171
62 99 175
62 98 173
62 98 171
63 99 174
62 99 172
62 98 174
62 99 174
62 99 171
61 98 173
61 98 171
62 99 175
62 98 175
61 98 173
63 100 179
61 98 172
62 98 172
62 99 175
62 99 179
62 99 172
62 99 171
62 99 174
64 100 176
62 98 170
62 99 173
62 99 175
62 98 172
62 98 171
62 98 171
62 99 172
62 99 170
62 99 173
62 99 175
62 99 173
62 99 173
62 99 172
62 99 176
62 99 177
62 99 174
61 98 170
62 99 175
62 99 171
62 98 174
62 98 166
62 98 167
62 99 169
61 98 168
62 99 172
61 98 169
62 99 172
62 99 173
62 99 175
61 98 174
62 98 171
62 99 173
62 99 170
62 99 177
62 98 165
62 99 173
62 99 170
62 99 172
61 97 170
62 99 173
62 99 173
62 98 170
62 98 164
62 99 171
62 99 174
62 98 165
62 99 169
62 98 167
62 99 172
63 99 173
62 98 169
62 99 172
62 98 173
62 99 173
62 98 166
62 99 172
61 98 167
61 97 164
62 99 176
62 99 168
63 100 173
63 99 172
62 98 166
62 99 175
62 99 173
62 98 167
62 98 169
62 98 170
62 99 173
62 98 162
62 99 172
62 98 160
62 99 166
63 99 172
61 98 171
62 99 163
62 98 166
63 99 169
63 99 171
62 99 169
62 99 169
62 98 168
62 98 162
63 99 170
61 98 164
61 97 164
62 98 165
62 98 163
62 98 164
61 97 161
62 98 162
61 98 168
63 99 168
61 97 161
62 98 167
62 98 159
61 97 160
62 98 165
61 97 157
61 97 160
62 99 172
62 98 162
61 97 159
62 98 160
61 97 160
62 98 159
61 97 155
63 99 163
62 98 166
62 99 167
62 98 163
62 98 160
62 98 164
62 98 164
62 97 161
62 98 163
62 98 160
62 98 168
61 97 152
62 98 163
62 97 161
62 98 162
62 97 158
62 97 162
61 96 150
61 96 156
60 95 152
61 96 155
63 98 162
61 95 153
60 94 148
61 96 153
59 93 151
61 90 126
66 87 111
64 74 66
66 72 50
74 75 19
72 74 29
77 78 28
75 77 24
75 77 32
86 86 35
70 73 28
77 79 32
90 92 37
87 89 33
93 94 39
99 100 47
97 97 44
94 94 39
91 93 39
93 94 39
86 89 39
106 106 37
105 105 47
108 108 51
115 115 52
110 108 48
110 109 51
113 112 47
117 116 48
121 119 54
125 122 59
135 130 61
111 111 49
122 120 49
133 129 61
131 128 53
119 117 50
133 130 58
138 135 62
135 131 61
138 134 64
137 134 57
139 134 60
146 141 71
149 145 71
150 145 65
137 133 55
150 146 59
138 134 63
140 136 65
152 147 65
151 146 63
157 150 70
146 142 53
147 142 64
156 149 62
152 147 62
148 143 67
149 144 63
153 147 61
153 148 66
157 151 73
156 150 71
148 144 59
156 150 66
158 152 71
158 152 68
153 147 68
158 152 63
159 152 68
155 150 57
156 151 64
150 144 64
157 151 66
152 146 67
154 147 69
149 143 60
150 145 57
156 150 63
153 147 60
162 156 65
153 147 61
151 144 61
156 150 66
160 153 72
161 154 68
153 147 61
157 151 65
152 145 60
153 147 59
152 146 59
152 145 62
147 141 60
150 143 59
151 146 59
150 144 57
153 147 62
145 139 58
145 139 53
151 146 58
140 134 49
137 131 51
141 136 57
138 133 45
145 139 53
136 133 48
132 127 47
144 137 58
138 133 51
132 126 48
146 140 54
130 125 45
127 124 47
133 130 44
143 141 47
144 145 44
142 143 47
148 150 36
147 151 37
152 161 37
140 148 32
157 168 32
154 166 11
155 169 25
161 176 22
166 184 11
163 183 0
167 185 16
165 184 0
168 187 0
170 188 0
169 187 0
170 190 0
168 188 0
168 188 0
167 189 0
170 191 0
168 189 0
168 191 0
171 195 0
174 198 0
171 195 0
171 194 0
173 196 0
171 195 0
171 195 0
175 198 51
174 197 25
173 197 0
173 196 0
173 196 0
171 194 25
171 194 25
173 196 51
175 198 51
173 197 57
174 198 36
170 194 25
172 195 36
172 194 0
175 197 51
171 194 62
175 197 57
174 197 57
174 197 51
174 197 44
175 196 62
173 196 62
173 196 67
170 194 36
173 196 44
171 194 44
173 195 67
175 197 57
176 199 62
174 196 51
171 194 57
173 195 80
170 193 57
171 193 62
171 194 44
171 194 25
174 196 67
172 195 57
168 191 36
169 192 44
173 196 62
171 193 36
169 193 36
169 193 44
172 195 44
174 196 36
167 190 36
170 192 25
171 193 51
167 191 25
171 193 57
167 190 25
175 196 51
168 191 44
171 194 51
173 195 57
172 195 25
172 195 44
171 194 25
167 190 44
168 192 0
167 190 0
172 194 0
167 190 0
166 190 0
168 191 0
169 192 0
161 185 0
168 191 0
167 190 0
166 189 0
168 190 0
166 189 0
164 187 0
165 188 0
157 180 65
127 152 113
79 111 163
63 100 169
63 100 175
63 100 175
64 100 174
63 100 178
63 99 174
63 100 180
62 98 172
63 100 179
63 99 173
62 98 173
62 99 170
62 99 171
62 99 174
62 99 176
62 99 174
62 98 170
62 99 172
62 99 175
62 99 175
62 99 174
62 99 175
62 99 174
62 98 172
61 98 175
63 99 178
62 98 172
62 99 175
62 99 176
62 99 175
62 99 177
62 99 172
62 99 174
62 98 172
62 99 171
63 99 169
62 98 173
62 99 172
62 99 173
62 98 175
61 98 169
62 99 171
63 99 176
62 99 174
62 99 171
62 98 172
62 98 168
62 98 174
62 99 174
61 98 173
62 99 173
62 99 171
62 98 175
62 99 174
63 99 174
62 99 174
63 99 174
62 99 175
61 98 171
62 99 172
62 98 171
61 98 169
61 98 172
62 99 177
61 98 173
63 99 176
62 99 172
62 98 173
62 99 174
62 99 173
62 99 173
62 98 169
62 99 175
62 99 173
62 99 168
62 99 169
63 100 176
62 98 169
62 99 170
62 99 175
62 99 170
62 99 171
62 99 169
62 99 172
61 98 170
63 99 170
61 98 165
62 98 168
62 99 174
62 99 167
61 97 163
62 98 169
62 99 175
63 99 175
62 99 166
62 98 171
62 98 169
62 98 169
62 98 170
61 97 161
62 99 170
62 98 169
62 99 172
62 99 172
63 99 170
62 98 167
62 98 165
62 98 171
62 98 164
61 98 165
62 98 166
61 97 158
62 98 168
62 99 170
62 99 170
62 99 169
62 98 164
63 99 172
62 98 169
62 99 167
62 99 169
62 98 163
61 98 166
62 98 163
62 98 163
61 98 168
62 98 168
61 98 163
62 99 173
62 98 164
62 98 169
61 98 161
63 99 164
62 99 167
61 97 160
62 98 162
62 99 170
62 98 166
62 98 165
61 97 162
62 98 164
62 97 158
62 98 165
63 99 171
62 98 162
62 98 165
62 98 162
62 98 162
62 98 160
62 98 158
62 98 161
62 98 166
62 98 166
62 98 161
62 98 160
62 98 159
61 97 158
62 98 163
62 98 162
61 97 160
62 98 161
62 98 164
61 97 156
62 98 163
62 98 167
60 95 150
61 96 152
60 95 154
62 97 156
60 95 148
61 95 147
60 95 152
59 93 143
58 92 141
61 95 147
58 92 147
57 86 125
64 85 115
61 76 84
70 76 53
79 80 25
75 75 27
68 69 24
73 76 29
72 74 27
83 85 41
86 88 28
84 86 31
88 89 27
93 94 37
93 93 33
91 92 38
89 90 36
98 99 43
100 100 43
105 105 40
102 103 42
106 105 40
104 105 35
109 109 46
109 109 45
106 107 50
116 113 43
113 112 50
111 112 33
120 119 53
123 121 54
130 128 56
130 127 56
131 128 63
137 135 53
129 127 53
132 129 59
129 125 55
138 134 66
140 136 61
139 135 63
138 134 65
135 132 52
130 127 56
140 136 60
136 134 47
141 138 63
142 138 56
145 142 59
148 144 63
147 142 61
144 139 58
152 148 63
145 140 56
144 140 55
152 147 64
144 140 69
152 146 65
150 145 64
152 147 65
157 151 69
151 144 63
157 149 69
149 144 66
156 150 71
162 155 77
149 144 63
157 151 69
154 149 67
155 150 63
150 144 61
156 150 63
165 157 73
155 149 66
150 144 67
151 146 61
154 147 59
151 146 60
152 146 61
151 146 61
150 145 52
150 145 56
150 144 62
150 145 57
156 149 68
157 150 62
143 139 48
163 156 75
149 144 59
144 139 54
150 145 60
153 148 63
152 147 59
150 144 53
141 136 44
150 144 60
150 144 52
150 143 64
141 137 49
143 137 51
146 140 52
143 137 53
144 137 62
135 131 48
134 130 41
145 139 57
142 135 60
147 140 54
141 136 45
139 133 58
141 136 47
140 135 51
140 135 51
132 130 39
133 133 36
146 148 37
144 145 37
148 153 39
148 150 37
149 158 32
149 160 30
148 160 25
157 171 19
158 174 19
162 178 22
160 178 0
165 183 11
165 184 0
169 189 0
165 182 0
165 184 0
169 188 0
167 187 0
169 190 0
170 189 0
172 193 0
168 187 0
170 191 0
169 193 36
170 194 0
171 194 0
171 195 0
174 196 25
171 194 25
174 197 36
171 195 0
170 193 25
170 193 36
172 196 25
173 196 44
173 196 57
173 196 36
172 196 36
174 196 62
174 197 51
176 198 51
172 195 51
171 196 44
176 199 57
175 197 67
175 198 62
169 193 36
173 196 51
173 196 72
170 193 51
173 196 44
171 194 51
175 197 51
172 196 51
175 198 80
175 198 67
174 197 57
172 195 51
170 193 57
171 195 36
170 193 44
169 192 44
173 196 57
170 194 51
168 191 44
172 195 51
176 199 88
171 194 25
171 193 51
171 193 62
175 198 67
174 197 57
169 193 44
169 192 57
171 194 36
169 192 44
173 196 62
171 193 62
172 194 62
169 192 51
173 197 57
166 189 44
171 195 62
171 194 25
173 196 67
171 194 51
163 185 44
168 190 44
168 191 25
171 193 44
169 192 25
173 195 25
165 188 25
164 187 51
170 192 36
168 192 25
168 192 0
164 186 25
168 192 0
165 189 0
165 188 0
167 190 0
163 186 0
162 186 0
165 188 0
165 188 18
158 181 60
122 148 124
80 112 164
63 100 177
65 101 178
63 99 175
63 100 176
63 100 175
63 99 174
63 100 176
63 99 174
62 99 177
63 100 177
63 100 177
62 99 171
63 100 176
62 99 174
62 98 175
62 99 174
62 99 173
62 99 173
62 98 173
62 98 172
63 99 174
61 98 169
61 98 175
62 98 168
62 99 172
62 99 172
62 99 172
63 99 175
62 99 176
62 99 171
62 98 174
61 98 169
62 98 172
62 99 174
63 99 175
62 98 173
62 98 173
63 99 174
62 98 169
63 99 171
63 99 176
62 98 173
62 99 174
62 99 175
62 98 174
63 99 172
62 99 174
62 98 173
62 99 175
62 99 175
63 99 173
62 98 170
62 99 172
61 98 172
62 98 169
62 99 169
62 99 172
62 99 175
62 98 170
62 99 172
63 100 175
62 98 169
62 99 170
63 100 178
62 99 173
62 99 171
62 98 169
63 99 172
62 98 169
63 99 178
62 98 163
62 98 172
62 99 175
62 99 177
62 99 171
62 99 170
62 99 170
62 98 163
62 98 168
62 98 168
62 98 163
62 98 169
62 99 173
62 98 170
62 98 167
63 99 171
62 99 171
63 100 174
61 98 166
62 99 172
62 98 167
63 99 172
61 97 166
62 98 168
62 98 169
62 98 171
62 99 168
62 99 173
62 99 172
63 99 172
62 99 171
62 99 170
61 97 162
62 98 161
62 99 170
62 98 164
61 97 165
62 98 164
62 98 167
62 98 171
62 98 167
61 97 162
61 98 167
62 99 169
63 99 169
62 98 170
63 99 174
63 99 163
62 98 161
62 98 166
62 99 169
63 99 171
62 98 168
62 99 167
61 98 160
62 98 163
62 98 165
63 99 167
63 99 173
61 97 157
62 98 164
62 98 165
62 98 164
62 98 167
63 99 164
62 99 165
61 97 160
62 98 161
62 98 167
63 99 169
62 98 163
62 98 165
62 99 168
63 99 165
63 99 162
61 97 156
62 98 166
62 98 164
61 96 153
62 98 157
62 98 166
62 98 166
62 97 163
62 98 165
63 99 164
61 97 157
63 99 165
60 96 156
61 97 151
63 99 165
62 98 160
61 97 161
61 96 159
62 97 155
62 98 161
61 97 162
61 96 157
61 96 157
61 95 153
60 94 143
60 94 148
61 95 158
60 94 149
60 95 151
60 95 149
60 93 146
61 92 135
55 78 103
70 82 77
69 72 45
77 77 15
69 71 16
63 66 19
87 87 31
88 88 26
79 82 31
81 82 28
74 78 30
86 87 32
85 87 36
81 84 35
84 85 30
94 94 43
85 86 30
100 101 38
104 103 43
104 104 43
105 104 44
95 95 42
105 105 44
111 112 49
115 114 47
124 122 42
116 115 45
123 120 47
124 122 55
122 120 51
119 118 53
137 133 56
137 132 54
134 130 59
121 120 55
133 131 55
131 129 59
136 132 58
137 133 60
136 132 56
139 136 57
138 135 57
129 126 51
136 132 61
142 138 62
145 140 63
146 142 66
151 146 58
147 142 60
136 133 55
143 138 62
149 144 62
143 138 61
153 147 67
143 139 55
148 142 66
146 141 54
151 146 69
151 146 62
151 146 61
153 148 60
152 147 60
153 147 70
155 150 62
147 142 68
150 144 57
153 147 58
152 146 60
148 142 60
149 143 59
160 154 67
149 145 60
156 150 67
159 153 63
147 142 58
153 147 67
151 145 59
155 148 61
153 147 63
154 148 69
150 143 53
155 149 63
149 144 49
153 147 65
150 144 59
151 144 60
145 139 53
153 147 62
145 140 58
146 140 61
154 148 54
157 152 69
145 139 57
141 135 53
148 142 59
148 143 53
140 136 52
138 133 52
144 138 61
137 131 48
146 139 54
148 141 59
140 135 53
137 133 45
140 135 49
139 135 45
127 122 37
135 130 45
136 130 44
123 119 41
142 139 48
141 136 48
130 129 44
133 134 36
141 146 32
143 149 36
150 154 41
147 157 28
148 159 32
145 157 22
159 173 22
158 171 22
166 180 25
163 180 19
161 176 16
166 185 0
167 187 0
170 189 0
169 191 0
168 188 0
171 192 0
166 186 0
168 186 0
172 193 0
171 190 0
168 187 0
170 191 0
173 197 25
174 198 25
170 194 25
173 197 0
172 195 25
174 197 36
172 195 51
170 193 25
175 198 25
173 195 51
171 195 51
172 195 44
173 196 36
169 193 25
175 197 44
174 197 51
172 195 36
174 197 51
174 197 36
173 196 62
170 194 51
174 196 62
173 196 44
169 191 51
174 197 57
176 198 84
172 195 36
174 197 72
177 200 76
174 197 62
176 199 62
175 197 57
173 196 57
173 196 72
173 195 57
175 198 67
173 196 51
172 195 44
175 198 84
171 193 76
173 196 51
174 196 57
171 193 36
174 197 62
176 199 76
175 197 62
173 197 51
174 197 72
175 199 57
173 196 67
178 200 80
172 194 76
170 192 44
171 194 51
172 194 62
166 189 44
173 196 67
171 194 51
175 197 62
174 196 62
171 194 57
171 195 62
171 194 51
172 195 36
170 193 25
168 191 36
174 196 51
169 192 36
173 195 62
171 192 44
172 194 51
169 192 44
165 189 0
165 187 36
167 190 25
170 193 36
169 192 36
170 193 44
171 193 25
164 186 25
161 184 0
172 196 18
161 184 36
154 177 57
127 152 120
79 112 169
63 100 175
63 99 175
64 100 174
64 100 173
62 99 175
62 99 171
62 99 172
62 98 168
62 99 173
63 100 172
62 98 169
62 99 176
63 99 176
62 99 174
62 99 175
63 99 170
62 99 174
63 99 178
62 98 172
61 98 169
62 98 173
62 99 176
63 99 179
63 100 176
62 99 173
62 98 173
62 99 177
62 99 176
62 99 172
62 99 172
62 98 169
62 98 174
62 99 174
62 99 175
62 99 176
62 98 172
62 99 172
62 99 173
62 98 170
62 99 175
63 100 175
62 99 174
62 99 173
62 99 176
62 99 172
62 99 170
62 99 172
62 99 171
62 99 171
63 99 174
63 99 172
61 98 168
62 99 173
62 98 171
62 98 172
62 99 174
63 99 177
62 99 179
62 99 174
62 99 173
62 99 173
62 99 170
62 98 169
62 99 175
62 99 172
61 98 172
62 99 171
62 99 175
62 98 170
62 98 171
62 98 167
62 98 166
62 99 172
62 99 171
62 98 170
62 98 168
62 98 169
62 98 170
62 99 171
63 99 174
62 98 171
64 100 176
62 98 168
62 99 168
62 99 170
62 98 169
62 98 167
62 98 168
62 98 165
62 98 167
62 98 167
62 99 170
61 98 170
64 100 175
62 99 172
63 99 174
63 100 176
62 98 167
62 98 171
62 99 171
62 98 169
62 98 165
62 99 167
62 98 166
62 98 168
61 98 168
62 99 170
63 99 167
62 98 164
62 99 168
62 98 165
62 98 163
62 99 170
62 98 164
63 99 171
62 98 165
62 99 166
62 98 168
62 99 170
62 99 169
62 99 172
62 99 169
61 98 163
62 98 166
62 98 168
62 99 169
62 98 160
62 98 170
62 98 164
62 99 170
62 98 167
63 99 167
63 99 172
61 97 164
62 99 166
63 99 162
62 98 167
61 98 161
62 98 168
62 99 166
62 98 163
62 98 166
62 98 160
62 98 163
61 97 161
62 98 162
61 97 158
63 98 162
61 97 159
61 97 163
62 98 157
62 98 161
62 98 160
62 98 165
61 97 162
61 96 146
62 97 155
62 98 161
62 98 163
61 97 155
63 99 167
62 97 161
62 98 161
61 97 152
62 98 161
61 96 157
60 96 157
61 96 158
61 97 160
60 95 151
60 96 157
61 96 154
61 96 156
59 92 141
59 94 146
60 94 150
62 93 143
65 89 119
63 74 72
62 70 57
63 65 22
66 69 24
72 75 18
74 76 15
78 79 33
85 85 21
91 92 24
89 91 31
77 80 33
95 95 32
81 83 36
87 89 27
96 98 26
89 90 37
96 95 30
104 104 38
101 101 41
100 99 41
97 97 44
101 102 37
122 119 48
114 110 47
112 112 46
110 109 46
121 119 45
119 117 45
119 116 49
128 124 55
126 123 47
118 116 44
131 128 51
140 137 48
136 132 54
126 123 53
133 130 55
122 121 46
132 128 53
139 135 54
137 133 54
140 136 57
139 134 55
141 137 60
129 125 51
140 136 56
143 139 58
148 142 64
148 144 57
140 138 52
140 137 60
146 141 58
148 142 57
154 148 68
143 139 59
145 140 56
146 141 57
154 149 60
151 146 62
155 148 72
154 149 62
157 151 66
149 144 61
155 148 56
151 145 67
150 145 60
150 145 60
145 140 53
156 150 67
148 143 46
146 141 56
147 142 59
153 146 58
152 147 59
155 149 61
153 147 58
159 153 67
157 151 64
156 149 65
145 139 53
146 140 57
153 146 57
146 140 53
147 142 57
155 148 60
151 145 67
161 154 74
147 142 57
154 148 62
145 140 52
144 138 52
147 141 52
149 143 56
138 134 49
141 138 47
139 133 56
144 138 57
141 136 56
145 139 57
144 139 47
143 137 52
146 139 59
135 130 56
140 134 53
136 132 47
140 134 49
141 135 54
137 132 49
136 131 51
137 136 42
140 136 51
139 138 37
149 153 42
140 144 28
144 152 32
146 153 32
146 156 16
147 155 30
151 164 11
156 167 32
155 168 19
166 183 16
161 177 16
164 183 0
164 183 0
167 186 0
167 185 0
170 190 0
168 190 0
170 190 0
165 185 0
168 187 0
166 185 0
170 191 0
169 191 0
171 192 0
170 194 0
172 196 36
173 196 25
170 193 0
174 196 36
172 195 44
173 196 51
172 194 51
172 195 36
171 195 51
172 195 36
169 193 25
175 198 25
175 198 62
179 201 76
173 195 67
174 196 57
176 198 80
169 192 44
171 194 44
172 195 51
176 199 72
172 196 57
171 194 57
172 194 62
174 197 57
173 196 57
180 201 67
172 195 57
170 193 44
176 198 84
176 198 80
172 194 67
179 201 92
177 198 76
175 197 72
176 198 84
173 195 51
171 194 67
172 194 51
172 195 57
173 195 76
173 195 67
177 199 84
175 198 67
174 196 67
170 193 67
174 195 67
176 198 88
174 196 57
173 196 80
175 197 57
168 191 44
171 193 80
175 197 67
175 197 67
173 196 67
172 195 51
177 199 84
171 194 44
171 194 51
171 194 36
173 195 62
174 196 67
172 195 62
172 195 67
165 189 57
173 196 57
172 194 25
169 192 44
171 194 36
168 192 36
168 191 44
166 190 44
171 193 44
162 185 25
166 189 36
161 183 0
170 193 25
168 190 36
172 195 25
169 192 25
169 192 54
154 179 74
121 147 134
75 108 166
66 101 172
66 101 174
63 100 171
63 99 173
63 100 177
64 101 180
63 100 178
62 99 175
63 99 170
62 99 171
64 100 175
62 99 171
62 99 173
62 99 178
62 99 175
63 99 172
63 99 174
62 99 176
63 100 176
62 99 171
62 99 175
62 99 173
62 99 174
62 99 171
62 99 179
62 99 175
61 98 171
63 99 176
63 100 177
62 98 174
62 99 172
62 99 174
61 98 170
62 99 176
62 98 167
62 98 177
62 99 175
62 99 172
62 99 175
62 99 175
62 98 171
61 98 173
63 100 178
62 99 170
62 98 175
62 99 173
62 98 171
62 98 167
61 98 169
61 98 169
61 98 173
63 99 176
62 98 169
62 99 176
62 98 168
62 99 176
62 99 171
62 99 175
62 99 172
62 99 176
63 99 174
62 98 171
63 99 174
62 99 173
62 99 174
62 99 172
62 99 174
62 99 173
62 98 173
62 99 171
62 99 173
62 99 169
62 99 175
62 99 175
63 99 173
61 98 167
62 98 169
61 98 172
61 98 167
62 99 174
63 99 171
62 98 171
63 100 175
62 99 171
63 99 170
61 98 166
62 99 171
63 99 176
61 98 168
62 99 172
61 98 166
62 98 168
62 98 165
62 98 167
62 99 167
61 98 167
62 98 168
63 99 171
63 99 173
63 99 171
62 98 168
61 97 161
62 99 170
62 98 163
62 99 168
62 98 166
62 99 168
62 99 166
61 98 167
62 98 170
63 99 170
62 98 164
62 98 164
62 98 161
61 98 162
62 99 169
62 99 170
62 99 169
61 98 167
63 99 162
63 100 171
62 98 169
61 97 158
61 98 163
61 97 164
63 99 171
62 98 164
62 98 167
61 98 164
62 98 166
62 98 169
62 98 164
62 98 167
61 97 152
62 98 163
62 98 163
62 98 166
62 98 159
62 98 163
62 98 165
61 97 161
61 97 160
62 98 163
62 98 161
61 97 159
62 99 163
61 97 163
63 98 161
61 97 154
62 98 160
62 98 165
63 99 171
61 97 155
62 98 160
62 98 158
62 98 163
61 97 159
61 97 157
61 97 162
62 97 153
62 98 161
61 97 155
62 98 156
61 96 155
62 98 161
61 97 159
61 97 155
61 96 153
61 97 159
61 96 156
62 97 157
61 97 157
61 95 149
59 93 139
59 93 140
60 94 144
56 88 131
61 84 110
71 80 75
66 72 45
63 66 17
61 64 23
85 85 24
71 75 18
78 80 31
80 81 28
91 92 31
85 86 25
89 90 32
94 93 34
78 81 23
89 89 33
82 84 32
101 101 36
103 102 35
111 110 43
100 100 36
109 108 46
104 103 44
99 99 36
100 102 44
111 110 48
112 110 38
117 115 50
116 115 39
111 111 36
125 123 53
128 125 57
128 124 49
123 121 53
119 117 52
122 122 51
133 130 50
131 129 48
131 130 55
141 136 62
132 129 42
139 134 62
140 137 59
140 135 59
138 134 55
141 136 52
138 133 57
145 142 56
144 140 58
141 137 58
146 143 61
157 152 68
144 140 59
153 148 58
160 152 68
146 141 58
138 134 59
147 142 57
146 140 61
150 145 57
150 146 62
149 144 56
159 153 66
154 147 63
150 145 59
158 151 73
153 147 61
155 149 58
155 149 65
152 145 58
160 154 66
157 150 60
147 143 49
146 141 53
161 155 64
152 147 65
147 142 53
154 148 54
157 151 66
153 146 58
152 145 62
148 143 60
152 146 65
148 143 53
145 139 60
155 149 59
148 142 57
151 146 59
147 142 52
142 136 53
154 148 61
144 139 51
148 144 47
144 139 51
145 140 53
138 133 48
145 140 49
141 135 56
140 135 45
146 140 57
142 137 59
144 138 53
137 132 52
138 132 47
131 127 44
139 134 47
148 142 53
141 134 52
126 122 34
135 131 47
132 129 45
133 131 36
135 136 36
135 136 37
137 137 42
144 149 34
149 156 39
147 155 30
144 154 25
155 168 19
156 168 19
158 170 22
156 170 22
160 177 0
167 184 0
166 184 11
165 183 0
165 184 0
164 182 0
168 189 0
166 186 0
166 186 0
170 191 0
168 186 0
169 190 0
167 187 0
169 188 0
167 186 0
171 195 36
174 197 51
172 195 36
174 196 44
171 194 44
177 199 62
175 198 57
174 198 57
170 194 44
173 197 51
173 196 51
173 196 44
173 196 67
174 197 67
175 198 51
176 199 72
172 196 51
176 199 76
175 197 62
176 198 80
175 197 67
172 195 84
175 198 62
170 193 51
174 196 51
174 197 80
178 200 67
178 201 84
176 199 84
175 197 76
177 200 72
175 197 76
175 198 72
179 201 92
176 199 80
177 199 80
173 196 76
175 198 84
178 200 99
179 201 92
176 198 57
176 198 88
180 201 102
175 198 84
177 199 105
178 200 108
176 198 76
172 194 88
175 197 80
176 199 57
171 194 76
178 200 99
177 198 84
172 194 72
176 198 84
171 193 67
180 201 102
174 196 80
171 195 62
175 197 80
175 198 62
172 194 57
175 197 84
176 199 67
172 195 44
171 193 62
170 192 51
171 194 25
172 196 72
172 194 76
173 195 62
170 193 44
168 191 44
166 188 51
169 192 44
166 189 0
165 189 25
169 192 44
159 182 36
169 191 51
167 191 18
166 189 25
162 186 54
148 172 88
118 143 131
78 111 168
70 105 171
63 99 170
69 104 170
66 101 176
64 100 170
65 101 170
63 99 176
62 98 171
63 99 173
63 99 173
62 99 172
62 99 172
63 99 173
62 99 175
62 98 171
62 98 172
62 99 171
62 99 177
62 99 175
62 99 176
61 97 168
62 98 175
62 99 170
62 99 175
62 99 174
62 98 169
61 98 169
62 99 175
62 99 175
61 98 172
62 99 174
62 99 174
62 99 176
61 98 173
62 99 174
62 99 178
62 98 169
62 99 173
63 99 176
62 99 173
61 98 170
62 99 172
62 99 171
61 98 171
61 98 170
62 98 170
62 98 170
62 98 171
62 99 172
62 98 173
62 99 169
63 100 173
62 98 169
61 98 173
62 99 174
62 99 170
62 99 172
62 98 168
62 99 172
62 99 171
62 98 168
62 98 170
62 99 174
62 99 169
61 98 171
62 98 168
62 99 172
62 98 166
62 99 170
62 99 169
62 98 163
62 98 170
62 98 168
62 99 172
62 99 173
62 99 175
62 99 172
62 99 172
62 99 174
62 98 167
62 99 172
62 98 171
62 99 170
61 98 168
62 99 169
62 98 163
62 99 171
62 98 172
62 99 172
63 100 175
61 98 166
61 98 165
62 99 170
62 99 174
62 98 165
62 99 164
63 99 174
62 99 166
62 98 169
61 98 166
62 98 162
62 98 167
63 99 175
62 99 167
62 98 167
62 98 164
63 99 167
63 99 169
62 98 162
62 99 171
62 98 167
61 98 171
62 98 166
62 98 162
62 98 169
63 99 165
62 98 167
62 98 164
62 99 170
63 99 166
62 98 160
62 98 167
62 98 167
61 97 157
62 99 171
62 98 164
62 98 165
62 99 166
61 98 162
62 98 163
62 98 160
62 98 159
61 97 150
61 98 166
63 99 167
62 98 161
62 99 169
62 98 162
62 99 168
62 98 165
61 96 155
62 98 164
62 98 161
63 99 167
62 97 164
61 97 157
62 98 160
61 97 163
62 98 165
61 96 151
63 99 169
62 97 161
61 97 156
61 97 161
61 97 154
61 97 162
61 97 158
61 95 146
61 97 156
63 99 165
62 98 161
62 98 162
62 98 160
61 95 151
61 97 154
60 95 143
61 95 152
61 97 152
60 94 151
61 95 149
60 95 149
61 96 154
61 96 155
60 94 154
62 97 148
60 94 144
61 95 154
57 85 127
61 78 92
74 79 56
78 78 18
81 82 19
81 83 23
77 79 21
77 78 28
80 82 17
86 85 26
98 98 9
88 89 26
91 92 26
86 87 22
91 91 35
93 91 33
106 105 38
104 103 43
109 107 33
98 98 34
109 108 32
103 103 42
102 103 42
108 108 34
103 103 40
122 119 49
120 118 41
118 116 48
109 109 38
126 123 50
121 119 49
120 117 46
124 122 48
130 126 55
129 127 46
131 127 54
126 124 47
136 133 50
124 121 51
135 132 53
143 138 60
142 137 51
137 134 59
150 144 62
137 134 49
150 145 63
140 136 54
139 136 54
144 139 52
135 131 49
148 143 63
147 141 57
147 141 55
144 139 47
144 140 57
144 139 54
153 148 57
148 143 61
148 143 65
149 144 61
145 139 57
151 145 56
152 147 63
146 141 58
143 139 52
160 153 63
149 144 57
147 141 54
155 150 64
156 150 59
155 148 63
151 146 62
145 139 52
150 145 61
152 145 59
151 145 59
157 151 65
149 143 56
148 141 58
152 146 53
146 141 49
148 142 57
152 146 59
150 144 61
145 140 47
150 143 61
150 144 54
146 141 48
142 137 52
143 138 53
148 143 57
142 137 47
139 133 52
141 136 48
139 133 51
134 129 36
143 138 44
144 138 51
143 137 52
148 142 58
147 141 61
136 131 51
145 139 57
131 126 49
143 138 47
141 135 47
130 123 44
130 126 44
127 123 44
135 132 44
132 132 41
138 141 36
142 144 45
152 155 45
140 146 36
147 157 19
147 156 16
153 163 32
155 167 16
150 164 16
160 175 19
160 176 0
167 185 11
160 179 11
170 189 0
172 190 0
166 184 0
169 189 0
169 188 0
166 185 0
169 189 0
168 188 0
170 190 0
170 190 0
168 189 0
166 186 0
168 188 0
174 197 36
173 196 51
174 197 36
175 198 51
175 197 67
172 195 36
174 197 44
173 196 36
171 194 25
173 196 36
176 198 76
174 197 51
172 195 51
173 196 67
174 197 67
175 197 84
175 197 67
174 196 76
171 193 36
179 200 80
175 197 62
175 197 51
176 198 84
177 199 76
177 200 72
180 202 88
176 199 80
180 202 92
178 200 92
175 197 76
179 200 95
183 203 125
179 201 105
180 201 99
177 199 105
176 197 95
176 198 88
181 203 105
180 201 99
181 203 108
181 202 108
176 199 80
175 196 95
180 202 95
177 198 92
173 195 84
176 199 76
177 198 111
178 201 88
177 199 88
179 201 95
176 199 88
179 200 102
180 202 84
179 200 102
172 194 57
174 197 88
176 197 88
176 198 67
177 200 88
175 197 92
173 195 62
172 194 76
174 196 72
173 195 76
170 194 36
168 192 36
176 198 67
177 198 67
167 190 57
171 193 67
171 194 57
169 191 44
171 193 57
167 190 25
167 191 57
168 191 36
167 190 44
172 196 36
171 194 57
164 188 36
165 188 31
164 187 65
148 173 88
120 146 135
76 109 164
73 107 172
67 102 169
69 104 171
63 100 176
67 102 172
68 103 172
64 100 169
63 99 173
63 99 175
63 99 172
63 99 174
63 100 177
62 99 173
62 99 170
63 99 176
63 99 169
62 99 171
63 99 175
63 99 169
61 98 168
61 98 174
62 98 171
62 99 176
62 98 166
62 99 175
61 98 172
63 99 174
62 98 167
62 99 175
62 98 170
62 99 176
62 98 166
61 98 165
61 98 173
62 98 175
62 99 171
62 98 170
61 98 167
62 98 170
62 99 169
62 99 176
62 98 170
61 98 169
63 100 176
61 98 164
62 98 172
61 98 175
62 99 171
62 99 173
62 99 172
62 99 172
62 99 176
62 99 171
62 98 167
61 98 170
62 98 159
62 99 171
62 99 173
61 98 171
63 99 172
62 99 170
62 99 171
62 99 171
62 99 170
62 98 167
62 98 172
62 99 173
62 99 170
62 98 169
62 98 171
62 99 172
61 98 166
61 98 173
62 98 170
61 98 168
61 97 160
62 99 171
62 98 166
61 98 167
62 98 170
62 98 166
62 99 172
63 99 171
61 98 161
62 98 170
62 99 167
61 97 164
62 98 165
62 98 163
62 98 161
62 99 169
61 98 166
61 97 161
62 98 164
62 99 170
62 98 165
62 99 173
61 97 162
62 98 168
61 98 166
62 99 168
61 97 159
62 98 167
62 98 166
63 99 164
62 98 169
63 99 170
62 98 169
62 98 165
62 99 168
62 99 170
61 98 162
62 98 170
61 98 165
62 99 168
63 99 171
62 99 170
62 98 159
62 99 168
62 98 167
61 97 162
63 99 170
62 98 164
63 99 169
61 98 161
62 98 166
61 97 157
62 99 169
60 96 156
62 98 163
61 98 161
61 97 158
62 98 169
63 99 162
61 98 163
63 99 168
62 98 163
61 97 161
61 98 162
62 98 164
62 98 162
62 98 161
61 97 156
61 97 152
62 98 167
62 97 161
62 99 165
62 99 167
62 98 164
62 98 158
61 97 160
62 98 167
63 99 163
62 98 163
63 99 167
61 97 154
63 98 163
62 98 158
62 98 162
62 97 157
61 97 155
62 98 159
61 96 158
61 97 156
62 98 160
62 98 158
60 95 152
62 97 159
61 96 154
61 96 154
62 97 157
61 96 155
60 95 149
61 95 146
58 90 127
60 94 141
60 93 132
59 87 120
62 80 93
66 72 46
75 76 24
78 77 24
89 88 22
78 77 21
77 78 23
92 92 22
83 82 18
83 85 33
82 84 29
94 93 22
86 86 26
98 97 32
95 95 33
88 89 28
105 105 31
100 101 25
105 105 37
92 93 37
109 107 33
113 113 37
113 110 43
106 103 42
117 115 45
112 110 35
122 119 47
122 119 52
115 113 39
124 121 48
123 121 48
128 124 47
132 130 48
130 126 48
129 126 56
130 127 57
134 130 56
134 130 56
137 133 56
130 127 50
137 132 58
139 134 56
145 139 57
131 128 49
138 134 56
138 135 54
145 141 53
142 137 53
141 138 52
136 132 51
140 137 50
143 139 56
141 135 51
145 139 65
146 141 56
141 136 57
146 141 62
143 139 56
149 144 54
154 149 60
147 142 54
159 153 66
157 151 57
151 146 61
146 141 54
152 146 60
150 144 57
147 143 56
148 142 58
151 145 54
145 139 57
154 147 62
151 145 54
150 144 52
151 145 56
150 145 57
153 147 57
147 143 51
152 146 60
150 144 51
145 138 53
148 143 54
146 141 51
147 142 53
151 145 57
155 148 67
146 139 56
148 142 60
141 135 53
145 141 49
150 144 51
140 134 48
148 142 53
143 137 52
143 137 54
142 137 49
144 138 52
142 136 57
140 136 51
138 133 44
137 132 44
130 125 48
133 128 47
137 131 47
133 128 44
124 119 42
138 135 45
135 133 36
137 135 49
139 142 30
145 150 39
149 153 34
141 146 30
148 155 28
146 155 25
152 160 28
148 159 22
156 169 22
157 171 11
160 174 22
164 181 11
164 182 11
163 180 11
166 182 11
167 184 0
172 192 0
166 185 0
163 181 0
160 178 0
166 186 0
170 190 0
167 187 0
170 189 0
166 187 0
167 187 0
172 192 0
175 198 36
175 198 57
172 197 36
175 197 57
175 197 72
174 196 72
176 198 62
175 198 62
171 193 51
179 201 76
177 199 72
177 200 72
175 198 80
175 197 84
176 198 72
177 199 76
176 198 76
179 202 88
178 199 92
177 199 80
181 203 105
182 203 114
179 202 95
177 199 80
178 200 88
179 201 105
180 202 120
178 200 102
175 197 80
179 201 102
181 202 117
177 198 99
181 202 102
180 201 99
179 201 102
179 201 102
177 198 105
179 202 99
181 202 105
179 201 108
178 200 102
179 200 105
183 204 127
184 205 133
179 201 95
178 198 114
176 198 95
172 194 84
181 203 108
175 198 92
178 200 99
178 200 99
180 201 114
181 202 122
180 201 102
171 193 62
180 201 111
173 196 62
177 199 99
174 196 80
168 191 57
173 195 80
175 198 88
175 197 80
173 196 57
170 193 57
176 198 72
171 194 76
171 193 76
171 192 80
175 198 72
172 195 62
172 196 51
172 194 62
171 194 67
176 198 80
167 191 36
165 187 44
166 188 36
164 187 36
168 191 36
159 182 51
165 188 70
144 168 97
127 152 129
90 120 161
74 107 171
67 103 172
68 103 164
71 105 170
62 98 168
63 99 173
66 102 170
63 99 175
62 99 170
64 100 172
63 99 175
63 99 172
62 99 175
62 98 172
63 99 173
62 98 173
62 99 174
62 99 174
61 97 166
62 98 168
62 99 175
62 98 171
62 98 173
63 99 176
62 99 171
62 99 175
61 98 173
62 99 173
62 98 174
62 99 175
61 98 172
62 99 175
62 99 173
62 99 174
62 99 176
61 97 171
62 98 169
63 99 173
62 98 164
63 99 172
62 99 170
62 98 172
61 97 167
61 98 167
62 98 167
61 98 174
62 99 170
62 98 170
62 98 167
62 98 170
62 98 168
62 99 168
62 99 173
62 98 167
62 99 173
61 98 170
63 99 175
62 98 167
62 98 167
61 98 172
61 98 168
62 99 172
63 99 177
63 99 170
62 99 174
62 98 175
61 98 171
63 99 173
62 99 173
62 99 173
62 99 168
62 99 174
62 99 171
62 99 173
62 98 167
62 98 168
62 99 170
62 99 168
62 99 167
62 99 170
61 98 164
61 98 161
62 98 162
62 99 176
62 98 167
62 98 166
62 98 170
62 99 169
62 98 167
62 98 166
63 99 169
62 98 169
62 98 167
62 99 170
62 98 168
61 98 162
62 98 164
62 98 165
62 98 168
62 98 167
61 98 165
61 97 160
63 99 175
62 98 167
62 98 167
62 99 171
62 98 162
62 98 166
63 99 168
62 99 167
62 98 168
62 98 160
62 98 166
61 98 164
62 99 169
62 99 166
62 98 164
61 97 158
62 98 168
62 98 163
62 98 165
62 99 170
62 98 167
62 99 165
61 98 166
62 98 164
63 99 164
62 98 161
62 98 162
62 98 161
63 99 172
62 98 162
62 98 161
62 98 159
61 97 157
62 98 161
62 98 163
61 98 166
62 98 157
61 97 163
62 98 164
62 99 165
63 99 164
61 97 157
62 98 163
62 98 163
62 98 158
63 99 170
62 98 163
63 99 171
62 98 158
62 98 157
62 97 163
63 99 171
61 97 154
62 97 158
62 98 162
61 97 162
63 98 162
62 98 158
62 98 159
61 96 160
62 97 161
61 96 152
62 97 158
61 96 150
61 97 155
62 97 160
60 95 146
61 96 151
60 95 155
60 95 150
61 95 144
61 95 154
60 94 151
60 93 138
59 92 136
64 87 106
59 79 97
73 79 62
70 71 15
75 77 19
70 70 23
89 88 23
82 82 20
85 85 14
82 83 25
74 77 22
87 86 29
84 83 28
94 93 26
88 89 34
99 99 27
100 98 29
95 95 35
87 89 29
98 98 37
103 103 32
93 95 37
115 113 45
118 116 43
107 107 34
94 95 31
118 116 43
109 108 34
118 117 41
118 114 48
110 109 31
111 110 40
120 118 48
124 121 43
119 118 46
124 122 41
123 120 43
129 125 54
120 119 50
129 126 43
127 125 43
133 130 57
137 132 55
137 133 48
139 135 54
134 130 49
128 125 51
136 132 58
137 133 51
134 131 46
142 138 51
141 136 51
136 132 49
141 135 60
141 137 52
141 135 56
147 143 52
148 142 57
142 136 57
145 140 51
149 143 59
151 145 60
155 149 63
148 143 64
137 132 42
146 141 61
148 143 57
153 148 54
146 140 44
154 148 58
147 141 56
153 147 57
151 145 56
149 143 57
153 146 59
152 146 51
150 144 58
145 141 47
147 141 54
145 140 53
152 145 65
145 139 52
148 142 58
141 137 48
144 138 51
147 141 53
145 139 58
148 143 57
143 137 56
151 144 64
147 141 51
136 132 41
145 139 48
140 134 53
146 141 53
140 135 52
143 136 53
136 132 41
144 137 45
135 130 51
142 136 52
138 132 48
134 130 44
136 131 44
134 129 41
127 124 41
140 135 48
142 138 42
137 133 42
130 132 37
136 139 32
141 144 36
150 154 42
141 148 36
151 162 36
153 159 30
153 165 28
156 167 22
155 168 11
157 173 11
158 175 11
164 182 11
161 179 11
166 185 0
163 181 0
170 190 0
164 182 0
168 190 0
168 189 0
168 188 0
169 188 0
170 190 0
167 187 0
167 186 0
170 191 0
169 189 0
167 188 0
172 195 36
177 199 62
172 195 44
175 198 67
175 198 51
174 196 57
176 198 76
173 196 62
174 196 57
177 199 80
177 198 76
175 197 80
176 198 80
177 199 92
178 200 76
178 200 92
178 200 88
177 199 95
179 201 92
181 203 108
180 202 105
182 203 99
181 203 114
181 202 105
182 203 120
179 201 102
184 205 114
180 202 111
182 203 111
179 201 95
181 203 114
181 202 108
179 201 108
178 200 99
182 203 111
181 203 127
182 203 125
184 204 130
182 203 117
184 204 105
180 202 102
182 204 117
183 204 122
181 201 122
182 203 122
181 202 117
184 205 127
179 200 102
187 207 135
181 202 117
183 204 127
176 198 95
181 202 105
180 202 95
174 195 99
176 199 92
179 200 105
183 204 108
177 199 92
174 195 84
180 201 111
173 196 72
177 199 105
172 194 84
174 196 76
177 199 88
178 200 99
176 198 80
174 195 76
177 199 84
177 199 95
171 192 51
170 191 72
176 199 76
171 194 36
167 189 51
172 195 57
166 190 57
168 191 44
169 193 47
164 187 67
156 180 78
145 169 86
144 168 105
111 138 143
82 114 167
84 114 171
72 106 173
73 106 167
64 100 172
69 104 171
66 102 169
68 103 176
64 100 171
64 100 170
66 102 171
63 100 179
63 99 173
63 100 173
63 99 175
62 99 174
62 99 176
62 98 172
62 99 175
62 98 169
61 98 171
62 99 169
62 99 174
62 98 173
62 98 173
62 99 172
61 98 167
62 99 175
62 99 174
61 97 170
62 99 174
62 99 177
61 97 167
61 98 172
62 99 175
62 99 176
62 99 176
61 97 166
61 98 174
61 97 168
62 98 172
62 98 170
61 98 172
62 99 170
61 98 170
62 99 171
62 99 178
62 99 174
61 97 171
62 98 169
62 98 172
63 99 172
62 99 173
62 98 172
62 98 167
61 98 166
62 99 173
61 98 169
62 98 169
62 98 165
62 98 173
62 99 169
62 98 168
62 98 168
61 97 165
62 98 174
62 98 170
62 98 168
62 98 167
62 99 170
62 99 170
61 98 169
63 99 170
62 99 176
61 98 163
62 99 175
61 98 169
62 98 167
61 98 165
62 98 165
62 98 170
62 99 170
62 98 166
62 99 173
62 99 169
62 99 172
63 99 174
61 97 166
62 98 172
62 98 168
62 98 170
62 99 170
62 99 168
62 98 170
62 99 170
62 98 171
63 99 170
63 99 169
62 98 162
61 98 166
62 98 166
63 99 172
62 98 166
61 98 163
63 99 170
61 98 162
62 98 166
61 97 156
62 99 169
63 99 173
62 99 164
61 98 166
62 98 169
61 98 161
62 98 168
62 98 165
63 99 169
62 98 166
62 98 167
62 99 169
62 98 169
63 99 169
62 98 165
62 99 164
62 98 164
62 98 160
62 98 163
62 98 162
61 97 163
62 98 162
62 98 162
63 99 167
62 98 166
62 98 162
62 98 159
62 98 162
62 98 166
62 98 169
62 98 164
62 98 166
63 99 171
63 99 165
63 99 165
62 98 161
62 98 165
62 97 155
62 98 162
61 97 158
61 97 156
62 98 157
62 98 166
62 98 161
62 97 158
63 99 164
62 98 162
62 98 158
62 97 150
63 99 171
61 97 155
61 97 161
62 98 156
61 96 149
63 99 165
62 97 155
62 97 155
61 96 156
60 95 146
60 95 146
60 94 144
62 98 158
61 95 149
61 95 143
60 95 145
60 94 150
60 94 142
60 94 147
59 93 146
60 94 147
67 92 126
55 73 90
60 71 67
72 72 4
86 86 22
81 81 17
91 91 19
76 78 17
87 87 14
83 84 18
82 81 17
81 83 27
90 90 24
79 82 28
84 86 28
99 100 33
99 98 35
93 94 29
96 98 39
96 96 39
95 95 28
107 107 27
103 102 31
104 103 38
100 99 33
111 109 39
113 111 42
121 119 45
119 116 39
116 115 40
123 120 37
126 122 42
128 124 50
120 117 50
127 125 53
127 124 38
121 120 48
130 126 42
127 124 40
137 133 49
136 132 50
133 130 42
139 135 56
135 131 49
135 130 54
133 130 43
145 140 56
145 140 55
136 133 46
140 136 60
142 137 53
147 142 61
144 138 56
141 136 60
146 140 60
146 141 58
145 139 62
140 136 48
148 143 56
146 141 56
146 142 54
155 148 65
147 141 61
147 142 56
152 147 57
146 142 42
148 142 58
157 150 61
148 142 53
150 144 55
142 137 52
143 137 49
146 141 54
136 131 45
149 143 59
151 145 58
147 142 48
141 136 45
147 142 52
147 141 52
146 141 49
146 139 59
142 136 51
143 138 54
146 140 53
142 137 52
144 140 48
147 141 51
140 134 41
137 131 48
140 137 44
142 137 53
137 133 42
143 138 53
140 133 54
147 141 47
133 128 39
138 134 42
134 128 45
136 130 44
142 137 45
135 130 47
135 130 51
134 128 44
134 129 42
135 132 42
128 127 32
130 127 36
145 143 42
126 127 28
143 145 25
148 154 36
134 138 22
141 149 22
143 150 28
144 155 19
154 166 22
152 164 19
160 174 11
155 167 16
164 179 11
168 185 0
165 184 0
169 188 0
167 186 0
163 182 0
167 186 0
168 186 0
166 185 0
172 190 0
166 187 0
168 187 0
168 187 0
163 183 0
170 191 0
170 189 0
168 190 0
177 200 80
175 198 51
173 196 67
171 194 51
172 194 57
175 196 84
177 200 88
179 202 99
181 202 99
179 200 105
174 197 80
176 199 72
174 196 72
175 199 84
178 200 111
179 200 88
180 202 92
180 201 102
179 200 105
174 196 92
181 203 114
181 203 111
184 205 114
183 204 120
180 202 111
182 204 111
179 201 105
180 202 117
191 211 153
181 203 114
182 204 125
181 202 114
183 204 130
185 206 140
183 204 114
185 206 137
184 204 120
185 206 133
188 209 142
185 206 130
184 205 133
186 206 133
182 203 120
187 207 144
182 203 114
188 209 144
187 207 142
182 203 117
180 201 117
185 206 130
185 206 133
180 201 102
182 203 125
179 200 120
179 200 117
183 203 125
184 204 125
181 201 125
178 199 92
181 202 111
177 198 102
179 201 108
183 204 122
180 201 114
178 199 108
171 194 80
178 200 88
174 196 88
176 198 95
176 198 92
174 195 80
175 197 84
171 193 72
167 189 67
176 198 72
171 194 57
172 195 72
172 195 67
168 191 51
171 194 47
161 185 76
149 173 82
162 185 86
144 168 120
117 143 133
76 109 172
84 115 161
82 114 171
78 110 165
72 106 168
74 107 168
65 100 172
69 104 169
63 99 175
62 98 166
69 103 167
65 100 172
62 99 175
64 100 174
63 99 170
62 98 171
62 99 172
62 99 174
62 99 172
62 98 167
63 99 176
62 98 173
63 99 177
62 99 176
62 98 174
62 98 169
62 98 169
62 98 168
62 98 171
61 98 173
61 98 171
61 98 175
62 98 168
62 98 174
62 98 175
61 98 168
61 98 174
62 99 171
62 98 167
62 98 175
62 98 169
62 99 169
62 99 172
61 98 170
62 99 175
62 98 168
62 99 175
62 99 173
62 99 172
62 99 168
62 99 175
62 98 171
61 98 168
62 98 168
62 98 170
61 98 173
62 99 174
62 98 171
62 99 172
62 98 169
63 99 173
61 98 168
62 98 170
62 98 169
62 99 169
62 98 167
62 99 169
62 99 171
62 98 167
62 99 170
62 98 169
62 98 169
61 97 166
62 98 167
61 98 168
61 98 165
61 98 166
61 98 164
62 99 172
62 98 165
62 98 168
62 98 168
62 98 168
62 99 171
62 99 170
62 98 169
62 98 167
62 99 171
62 99 172
62 99 173
62 98 165
62 98 166
62 98 165
62 99 169
63 100 175
62 98 164
63 99 171
63 99 173
63 99 174
62 98 167
62 99 170
63 99 173
62 98 164
61 97 159
62 98 163
62 98 166
61 98 168
62 99 173
63 99 170
62 98 159
62 98 161
62 98 165
62 99 169
61 98 164
62 97 161
62 98 164
62 99 169
62 98 169
61 97 161
62 98 163
62 98 165
62 99 167
62 98 161
61 97 153
61 98 163
63 99 165
62 99 169
62 98 165
62 99 170
62 98 165
62 98 162
62 98 160
61 97 157
62 98 162
61 98 159
62 99 166
62 98 163
63 99 165
63 99 169
62 98 162
62 98 159
62 98 166
61 98 159
62 98 163
62 98 162
62 98 161
61 97 160
62 98 159
62 98 163
62 98 165
62 98 159
62 98 163
62 98 159
61 97 156
61 97 160
61 97 157
62 98 160
62 98 156
62 98 159
62 97 159
62 98 158
61 97 159
61 97 152
62 97 157
62 98 156
60 96 145
62 97 158
61 96 153
61 96 151
60 95 149
61 96 154
60 95 150
61 95 147
60 94 149
59 94 141
60 95 151
58 92 144
59 92 137
68 92 122
66 83 97
80 82 39
72 72 30
88 88 20
83 83 15
71 74 21
95 94 30
88 87 25
94 94 17
80 82 23
76 79 25
84 86 27
97 95 22
97 97 25
99 99 27
104 103 29
89 89 27
98 98 25
100 99 29
111 111 36
103 101 36
106 105 24
102 101 30
109 108 42
103 101 39
112 110 35
117 116 36
122 120 44
109 107 44
116 114 44
120 118 36
124 121 45
112 110 30
123 121 44
120 118 42
117 115 45
133 128 58
124 120 40
125 121 51
128 126 45
129 125 46
138 134 52
138 134 54
135 132 46
132 128 51
138 136 48
145 140 52
140 136 48
133 128 45
146 141 57
131 128 46
143 139 53
146 140 56
140 136 43
139 135 52
142 138 50
144 139 51
148 143 50
144 140 50
147 142 45
142 137 52
149 144 55
150 144 59
141 136 53
148 142 52
139 134 47
147 140 56
146 142 53
147 141 52
144 138 57
141 136 53
146 141 49
146 140 49
146 140 49
148 143 47
145 140 48
148 142 52
147 141 54
155 150 51
151 144 54
149 143 58
144 138 42
146 141 49
147 142 54
145 139 63
144 139 39
148 141 52
143 138 53
145 140 47
138 133 41
147 142 48
145 140 42
152 144 53
140 133 47
142 136 49
130 127 36
139 133 51
140 135 41
126 121 41
124 120 28
136 130 48
136 128 57
128 124 37
138 133 41
131 129 36
135 134 42
139 140 41
134 136 30
137 140 32
131 135 25
141 149 30
144 149 32
147 154 28
143 156 11
149 158 19
155 170 19
153 165 19
156 172 0
156 171 0
161 177 19
158 176 0
168 185 0
166 186 0
167 185 0
170 189 0
166 184 0
167 185 0
164 182 0
168 189 0
168 187 0
168 187 0
166 186 0
167 185 0
168 188 0
166 185 0
169 187 0
176 199 67
176 199 57
177 199 67
173 195 62
177 199 84
176 198 57
174 196 67
181 202 99
178 200 92
178 201 92
181 203 99
184 204 114
179 201 95
178 200 88
182 203 122
181 202 102
179 202 111
185 206 130
181 203 111
184 204 125
185 205 135
182 203 122
186 206 142
182 203 125
182 203 114
183 203 135
181 203 108
186 206 147
188 207 140
188 208 137
188 208 147
185 206 140
185 205 127
185 205 147
190 209 151
186 206 133
190 210 149
190 210 153
186 207 140
187 207 144
190 210 151
185 205 137
188 208 147
180 202 117
184 205 125
187 207 140
187 207 137
184 205 127
183 203 133
186 206 135
183 204 127
189 210 153
186 206 137
186 207 133
185 206 130
181 202 108
183 203 127
183 203 117
181 201 125
183 204 120
183 204 117
179 200 117
180 200 125
180 201 114
177 199 95
177 198 95
173 194 102
181 202 105
180 201 105
177 199 102
177 198 92
176 197 95
170 192 88
174 196 67
175 196 84
171 194 84
168 191 67
168 190 72
170 192 74
170 192 82
154 178 92
155 179 90
151 175 88
149 172 122
120 146 140
79 111 167
80 111 165
87 117 167
80 111 165
65 100 170
75 108 171
73 107 171
66 102 170
65 101 170
66 102 170
65 100 169
65 101 174
63 99 172
63 99 175
63 99 173
65 100 171
62 99 173
63 99 174
62 99 171
61 97 168
62 98 169
61 98 169
62 99 175
61 98 168
62 98 170
62 99 171
62 99 174
62 99 174
62 98 166
62 99 174
62 98 171
62 98 171
61 98 171
62 99 176
62 98 169
63 100 176
61 98 176
62 99 176
62 98 170
62 98 173
62 98 172
62 99 173
62 98 175
62 99 175
62 98 168
62 98 170
62 99 176
62 98 165
62 98 168
62 99 170
61 98 171
63 99 175
62 99 166
61 98 169
62 99 173
62 99 172
62 98 169
61 98 169
62 98 165
62 99 166
62 99 171
62 98 170
62 99 171
62 98 166
62 99 177
62 99 168
62 99 175
62 99 172
62 98 168
62 99 169
62 98 163
62 99 171
62 99 171
61 98 166
62 99 171
62 98 169
62 98 172
62 98 166
62 98 163
62 98 168
61 98 168
62 99 170
62 98 174
61 97 164
62 99 171
62 99 170
61 97 161
63 99 171
62 98 165
61 98 166
62 99 170
62 98 164
62 98 168
62 99 171
62 98 168
62 98 168
62 98 164
61 98 163
62 99 172
62 99 170
62 98 163
62 99 167
61 98 166
62 99 165
63 99 173
63 99 174
63 99 170
62 99 168
61 97 158
61 98 169
62 99 166
60 97 158
62 98 163
62 98 160
62 98 163
61 98 162
62 98 163
62 98 162
63 99 172
62 98 168
61 97 157
62 98 161
63 99 168
63 100 169
62 98 165
62 99 165
62 98 161
62 98 156
62 98 165
62 98 164
62 98 163
62 98 160
62 98 160
62 98 169
62 98 166
62 98 161
62 98 161
62 98 164
61 97 156
62 98 158
62 98 160
62 97 156
62 98 161
62 99 165
61 97 156
62 98 158
62 98 159
62 98 161
61 97 156
62 97 158
61 96 158
61 98 162
61 96 151
61 97 161
62 98 161
62 98 162
62 97 158
62 98 159
61 96 157
63 98 159
62 97 162
62 98 161
61 96 145
62 97 152
61 96 155
62 97 156
62 98 155
60 95 145
61 97 152
62 97 154
61 95 150
61 96 151
61 95 147
61 96 156
61 95 148
60 95 147
59 92 128
60 94 146
67 91 119
73 85 85
78 81 53
69 71 25
79 78 16
84 85 25
81 80 10
81 81 11
76 77 22
88 87 23
91 90 25
90 89 13
84 84 14
103 101 20
90 89 19
94 93 26
99 98 29
85 84 25
105 104 25
95 96 30
102 101 32
112 111 37
111 109 38
105 104 43
112 109 38
116 114 42
111 109 43
111 109 35
113 112 31
119 116 47
121 118 50
124 121 45
125 122 47
134 129 47
121 118 51
133 129 56
120 117 41
129 125 49
120 117 39
124 121 39
127 125 47
134 129 44
133 128 48
136 132 47
135 131 49
141 138 49
134 130 50
136 132 48
139 136 42
146 140 55
146 140 54
131 128 56
140 137 44
146 142 51
143 138 44
141 135 55
142 137 54
147 141 52
143 138 46
147 141 57
151 145 51
143 138 48
145 139 59
140 134 49
154 148 58
151 144 55
143 137 54
149 143 58
150 145 53
145 139 45
148 142 49
145 140 52
145 140 47
155 148 67
145 140 49
140 135 47
147 140 51
157 150 62
151 145 52
141 136 53
145 141 45
154 147 61
143 138 42
139 133 42
140 135 42
142 137 45
142 137 49
139 133 51
141 134 57
138 134 37
142 136 51
142 137 48
138 134 47
144 139 48
140 134 45
139 135 42
132 127 37
141 134 44
131 125 44
133 128 44
140 134 54
138 133 39
132 127 42
135 130 51
144 139 49
133 129 41
140 137 42
145 140 45
137 138 34
137 142 30
139 144 22
150 159 25
150 157 25
155 163 19
160 172 28
156 165 30
155 169 16
156 170 11
166 181 0
167 184 0
165 182 11
168 188 0
171 190 0
167 184 0
164 181 0
165 183 0
166 184 0
169 187 0
167 187 0
168 186 0
165 184 0
171 192 0
165 183 0
171 191 0
164 184 0
169 187 0
170 191 0
174 197 57
175 197 67
180 202 88
181 202 92
179 201 80
178 200 84
177 199 95
179 201 111
179 200 105
182 203 102
178 200 99
179 201 111
180 201 108
180 201 108
183 204 125
181 203 117
185 206 133
180 201 99
181 202 122
183 204 111
181 203 120
189 209 140
179 201 117
190 209 144
184 205 137
190 210 149
190 210 155
189 209 137
186 207 137
188 208 149
186 207 140
188 209 149
187 207 140
188 209 149
191 210 161
188 207 153
187 208 147
186 207 137
186 207 133
186 207 135
196 215 175
194 213 163
183 204 133
186 206 147
189 210 149
190 209 151
193 213 161
186 207 144
186 206 140
188 209 151
189 209 149
186 207 137
189 209 165
186 207 140
184 204 133
182 204 117
191 211 159
186 206 137
185 205 144
185 205 133
189 209 147
179 200 95
184 204 133
182 203 125
182 203 120
177 199 102
183 204 120
183 204 120
179 201 111
177 198 102
179 200 117
177 198 88
179 199 114
172 194 95
178 200 95
176 198 80
175 197 88
167 190 47
168 191 74
165 187 110
153 176 111
155 177 108
148 171 107
140 164 108
122 148 139
86 117 166
86 116 165
75 108 171
74 107 170
75 108 166
70 104 164
73 107 169
68 103 172
66 101 169
67 102 164
65 101 173
69 103 163
62 98 169
62 98 169
64 101 175
64 100 171
62 98 170
64 100 171
61 98 164
61 97 170
62 99 171
62 98 173
62 98 174
62 98 171
62 98 172
61 97 170
62 98 171
61 98 169
62 98 170
62 99 173
60 97 166
61 98 166
62 99 175
62 99 173
61 98 170
62 99 177
61 98 169
61 98 166
62 99 171
62 98 169
62 98 169
62 99 175
62 98 169
62 99 174
62 98 169
62 99 171
62 99 177
61 98 172
62 98 168
62 98 171
62 98 169
61 98 165
62 98 167
62 99 172
62 99 174
62 98 168
62 99 172
62 99 170
61 98 166
60 97 165
61 98 167
62 99 172
61 98 168
61 98 163
62 99 169
62 98 170
62 99 175
62 98 166
62 99 169
61 98 170
62 98 170
62 98 166
62 98 166
61 98 168
62 99 172
63 99 174
62 99 172
62 99 169
62 98 165
61 98 168
62 98 165
62 99 166
62 98 168
62 98 159
62 99 168
63 100 174
62 98 166
62 98 164
62 99 170
62 99 168
61 98 163
62 99 170
62 98 166
63 99 170
61 98 166
62 98 166
62 98 165
61 98 169
62 98 165
62 98 168
61 98 167
61 97 164
62 98 168
62 98 165
62 99 169
61 97 162
61 98 168
62 98 167
62 98 163
62 98 166
61 97 162
62 99 165
61 97 158
61 98 165
61 97 160
61 97 161
62 98 165
62 98 156
62 98 159
61 98 159
62 99 168
63 99 171
62 98 164
61 97 162
62 98 169
61 98 160
62 98 162
62 98 165
61 98 160
62 98 157
62 98 160
62 99 163
62 98 164
61 97 160
63 99 162
62 98 160
62 98 157
63 99 165
62 99 164
63 99 169
62 99 165
62 99 165
61 97 159
61 96 152
62 98 164
62 99 165
62 98 161
62 98 157
61 96 151
61 97 161
61 96 157
62 98 158
62 98 163
61 97 153
62 98 158
62 97 156
61 97 159
61 97 153
62 98 157
61 97 155
61 97 157
62 98 158
61 96 159
62 97 153
62 98 154
61 96 153
62 96 149
61 96 147
61 96 153
60 96 149
61 96 148
60 94 144
61 95 151
60 95 150
60 95 150
58 91 139
59 91 131
59 92 134
63 87 113
74 85 83
76 81 60
80 79 18
88 85 18
88 88 20
77 77 22
81 82 21
79 79 16
89 90 15
87 87 19
93 93 17
75 78 22
92 92 24
92 90 25
93 92 15
92 92 23
96 96 29
96 94 29
97 96 25
106 103 36
106 106 31
93 94 29
110 107 30
110 108 30
111 110 30
101 100 41
118 115 35
109 107 36
119 116 41
117 115 38
114 112 38
125 122 37
120 117 42
132 130 44
127 123 42
116 114 31
122 119 41
129 127 40
134 129 48
131 127 47
138 134 51
139 135 49
136 132 39
141 137 53
140 136 47
144 139 51
141 135 48
136 131 45
135 130 45
138 134 47
145 139 47
138 134 41
142 137 54
142 138 50
142 136 51
135 131 40
151 146 62
147 141 53
143 137 59
142 137 48
145 140 52
141 136 44
153 147 58
147 143 45
147 142 48
137 133 49
144 140 39
146 141 51
145 140 41
146 140 50
139 133 48
145 141 49
143 139 41
145 140 44
148 142 53
139 134 44
145 139 52
141 137 48
143 137 49
133 128 32
142 137 44
144 139 49
146 140 48
147 141 54
143 138 45
135 130 39
135 129 44
139 134 45
137 132 45
139 134 42
141 135 53
147 142 52
138 134 41
135 130 39
132 125 41
127 122 39
136 128 42
129 125 41
135 131 39
134 129 39
124 118 36
124 120 34
138 134 34
132 132 37
139 139 34
138 139 39
150 148 41
142 148 32
138 144 25
148 158 22
146 151 34
151 159 28
154 165 28
157 165 32
159 174 11
153 168 0
161 177 11
166 183 19
165 182 11
166 184 0
171 189 0
167 185 0
168 184 0
167 185 0
166 186 0
163 183 0
164 182 0
165 183 0
168 190 0
172 191 0
168 187 0
169 187 0
166 185 0
169 189 0
166 185 0
166 187 0
176 198 88
181 203 92
178 200 102
178 200 80
177 199 95
177 199 102
179 201 84
179 201 105
184 204 125
183 203 114
186 207 135
182 203 120
181 202 117
182 203 120
186 207 133
188 208 142
185 207 135
187 208 133
184 206 135
185 206 144
191 211 149
181 202 114
188 208 144
186 207 140
188 208 151
187 207 142
188 208 155
188 208 137
189 210 155
190 209 147
190 209 163
193 213 169
194 213 167
191 211 163
190 210 149
187 207 140
188 207 149
194 214 169
190 210 155
193 213 161
190 210 157
188 208 153
192 211 169
195 214 165
191 210 165
192 211 165
190 209 157
194 213 171
189 209 153
191 211 149
191 211 161
191 210 163
190 210 149
190 210 155
189 209 161
187 207 147
187 207 149
189 208 149
188 208 149
185 205 130
187 208 137
184 204 127
187 207 147
183 205 120
188 208 144
187 206 147
185 206 130
183 203 130
186 206 122
185 206 117
177 198 111
181 202 111
182 202 117
175 196 92
172 195 84
174 196 92
176 198 95
178 199 103
172 194 99
164 186 129
150 173 105
146 169 121
145 169 125
142 165 108
124 149 140
93 122 165
77 109 171
85 116 165
83 114 167
77 109 161
75 108 168
71 105 165
70 105 172
68 103 172
68 103 167
73 107 170
66 100 166
71 105 164
66 101 165
64 100 168
62 99 174
64 100 171
61 97 165
61 98 172
62 98 173
61 98 176
62 98 171
60 97 168
61 97 165
61 97 171
61 97 168
62 98 171
61 98 168
62 98 175
61 98 173
62 99 173
61 98 173
62 99 177
61 98 167
62 98 170
62 98 170
62 98 171
61 97 166
61 98 168
62 99 173
62 99 172
62 99 174
61 98 172
62 99 172
62 98 170
62 99 173
61 98 172
61 97 169
62 99 171
63 100 177
61 98 168
62 99 172
62 98 172
62 98 173
61 97 161
61 98 166
62 99 173
62 98 174
62 98 172
62 98 169
62 99 172
61 98 166
61 98 169
62 99 171
62 98 170
61 98 166
62 99 174
62 98 169
62 98 168
62 99 170
62 98 168
62 98 168
62 98 166
62 98 165
62 99 174
62 98 164
62 99 169
61 98 161
62 99 170
62 99 170
62 99 173
62 98 166
62 98 167
62 98 163
62 98 164
62 98 163
63 99 169
62 98 169
61 97 163
62 98 165
62 98 166
62 98 165
62 98 167
63 99 166
62 98 165
61 98 167
62 98 164
62 99 168
62 98 166
62 98 166
62 98 162
62 98 162
63 99 170
62 98 171
62 98 164
62 98 164
61 98 164
61 98 164
62 98 164
63 99 167
62 98 164
62 98 162
62 98 162
62 98 163
63 99 167
62 98 163
63 99 170
62 98 163
62 98 166
61 97 158
62 98 164
62 98 165
64 100 168
62 98 166
62 98 166
61 98 165
62 98 166
62 98 157
62 98 162
62 98 163
62 98 162
62 98 162
62 98 162
62 98 159
62 98 159
61 97 157
62 98 165
62 98 158
62 98 159
62 97 159
62 98 161
63 98 161
61 97 154
62 98 164
62 97 158
61 97 154
62 98 159
62 97 156
61 97 156
63 99 163
61 97 159
61 96 154
62 98 159
62 98 158
62 98 162
61 97 149
62 98 163
62 97 159
61 97 156
61 97 156
62 98 157
60 96 151
62 97 155
61 97 158
61 97 159
61 97 153
61 97 151
60 94 149
61 96 157
61 96 150
59 94 143
61 97 153
61 96 149
60 95 145
60 94 143
57 91 128
60 94 146
61 94 141
59 85 114
72 88 99
86 89 59
75 75 15
84 84 14
79 77 16
78 79 18
78 77 20
84 84 19
78 77 20
89 87 15
87 87 23
90 89 19
90 88 26
94 93 18
99 99 23
86 85 13
100 98 27
94 95 29
103 102 20
108 105 31
93 93 20
97 96 31
113 111 36
106 103 30
102 101 28
106 107 34
118 115 39
115 113 42
114 110 39
110 109 26
115 113 39
113 110 43
116 115 33
121 118 34
135 131 38
119 115 39
124 121 48
131 126 37
122 120 40
128 125 39
128 124 42
130 127 45
134 130 41
136 132 51
135 131 56
139 135 52
130 127 44
140 136 43
129 125 37
141 135 56
141 136 42
135 131 42
137 132 45
139 133 44
139 133 47
136 132 43
139 134 40
150 145 54
137 132 45
151 145 55
147 142 51
149 143 53
145 140 51
148 143 60
156 149 62
141 136 44
144 139 49
144 138 54
146 142 46
144 139 45
139 135 42
151 144 51
138 133 36
142 138 47
147 140 52
145 141 48
145 139 51
139 135 42
147 141 48
153 146 56
138 133 45
147 141 52
144 138 49
138 133 51
141 135 41
138 134 37
138 133 42
140 135 44
144 138 53
142 137 49
139 135 48
130 125 37
137 131 42
139 134 44
136 130 37
130 125 44
122 118 36
130 126 42
131 125 39
135 129 41
133 128 37
132 128 39
133 132 30
133 130 34
129 128 36
139 139 30
145 148 42
138 143 19
141 147 28
147 152 28
156 166 28
152 162 22
152 162 28
150 162 16
159 171 25
163 180 0
160 172 22
164 181 0
162 178 0
166 182 0
162 180 0
164 182 0
168 187 0
165 182 0
165 185 0
167 186 0
166 184 0
164 184 0
168 186 0
167 187 0
169 188 0
167 185 0
166 184 0
166 186 0
169 188 0
170 188 0
179 201 92
183 204 105
182 203 99
186 207 125
179 201 95
179 200 120
179 201 117
177 199 95
185 205 130
187 207 142
183 204 122
186 206 133
189 209 151
188 208 149
188 209 142
182 203 133
189 209 155
191 211 157
188 208 144
188 208 144
188 208 149
188 208 151
190 209 155
189 209 157
190 210 144
192 212 157
193 212 161
189 209 161
190 210 161
191 211 159
192 211 169
188 208 149
189 209 161
193 212 163
194 214 169
192 211 169
197 216 184
191 210 165
192 212 163
196 215 181
195 215 184
194 213 173
196 215 175
194 213 175
193 212 157
188 209 151
187 207 153
187 207 153
190 210 167
193 213 169
194 213 171
196 216 175
193 213 171
188 208 155
191 209 157
191 210 153
189 208 151
187 207 144
189 209 153
190 210 155
183 204 140
186 207 142
186 206 133
183 203 130
189 208 151
190 209 147
184 205 122
187 206 142
186 207 137
184 204 137
187 207 135
184 205 130
184 204 135
178 199 114
183 204 120
173 196 99
175 197 84
174 196 86
166 188 107
153 176 113
154 177 130
141 166 121
143 167 122
136 160 139
120 145 133
99 127 165
95 123 170
79 110 162
81 113 170
79 111 171
87 117 164
70 104 171
78 110 171
74 107 163
68 103 173
68 103 171
65 100 174
65 100 162
62 99 174
68 103 169
63 99 167
66 101 171
63 99 165
62 98 170
62 98 168
62 99 175
61 98 174
62 98 173
61 98 169
62 98 173
62 98 172
60 97 167
61 98 170
60 96 171
63 99 173
61 97 168
61 97 164
61 98 169
62 99 172
61 98 171
61 98 171
61 97 165
61 97 169
62 99 173
62 98 172
61 97 168
61 98 166
62 99 170
61 98 173
62 98 167
62 99 168
62 99 174
62 98 167
63 99 171
62 99 171
61 97 165
62 99 174
62 98 165
62 99 172
62 99 171
62 99 169
62 99 171
62 98 163
61 98 172
62 99 171
62 99 170
63 100 174
61 97 163
62 99 173
62 98 173
62 98 169
61 98 169
61 98 168
61 97 167
62 98 167
62 99 171
61 98 165
62 98 170
62 99 170
62 98 163
61 98 169
61 97 167
62 99 166
62 98 166
62 98 167
63 99 173
62 98 166
61 98 164
62 98 165
61 98 165
62 98 166
62 98 167
61 98 161
62 98 160
62 99 167
61 97 160
62 98 168
63 99 166
63 99 168
62 98 165
62 99 165
62 98 169
62 98 165
62 98 165
62 98 161
62 98 167
62 98 164
62 98 161
62 98 168
62 99 164
61 98 167
61 98 165
62 99 172
62 99 167
61 97 163
62 98 165
62 99 167
63 99 168
63 99 161
61 98 159
62 98 165
62 98 162
62 98 162
62 98 166
61 97 158
62 99 170
62 98 161
62 98 168
62 98 165
61 98 162
62 98 163
62 98 165
61 97 156
63 99 166
62 98 162
62 98 159
61 98 160
62 98 164
62 98 160
62 97 157
62 98 160
62 98 161
62 98 160
62 98 162
62 98 160
62 99 164
62 98 158
62 97 155
61 96 156
62 99 163
62 98 163
62 97 155
62 98 160
61 97 156
62 98 159
62 97 157
62 98 162
62 97 153
63 98 161
61 97 155
62 98 164
62 98 159
62 98 156
62 97 155
62 98 159
62 97 158
61 96 152
62 97 156
61 97 156
62 98 162
61 96 152
62 97 155
62 98 158
61 96 152
60 95 146
61 96 154
61 95 148
61 96 155
60 95 151
59 92 141
61 97 158
60 94 143
58 91 136
68 91 119
66 79 85
75 81 57
84 84 28
85 84 16
96 94 16
79 76 5
96 93 10
83 83 18
86 86 19
73 75 12
83 83 16
82 83 23
84 83 20
93 92 27
90 90 20
88 89 22
94 95 31
95 94 24
107 106 24
101 100 25
104 104 26
107 105 33
102 100 34
107 105 26
107 105 29
103 102 24
103 103 28
110 108 34
116 113 35
115 113 33
118 114 43
120 118 38
112 109 36
116 114 30
112 109 32
120 118 30
122 120 41
124 121 38
127 125 44
124 119 34
128 124 32
123 121 30
129 126 36
133 130 41
124 120 38
133 128 45
131 127 42
123 119 48
137 133 46
126 123 37
136 133 42
135 131 47
136 132 43
137 133 45
141 136 48
137 133 50
135 131 40
138 134 42
147 141 45
144 139 59
148 142 50
144 138 51
136 131 39
138 133 36
145 140 51
139 134 45
142 137 52
141 137 42
150 144 58
145 139 45
144 138 48
138 132 54
144 139 46
147 141 47
140 134 49
141 136 39
146 140 54
138 133 45
140 134 48
139 133 47
152 145 52
136 131 37
142 136 45
149 144 51
134 128 51
135 129 44
138 134 39
141 135 51
138 133 47
137 131 45
128 123 30
144 139 48
137 132 44
130 125 39
140 134 44
134 128 44
125 119 34
132 127 32
126 120 37
125 121 37
130 126 41
136 134 32
133 133 32
133 136 30
138 141 28
137 137 22
138 145 28
143 150 22
148 153 19
149 159 19
148 156 32
153 163 22
146 156 16
158 171 25
160 173 19
159 175 11
163 179 0
165 182 0
167 185 0
163 180 0
165 182 0
170 190 0
167 184 0
164 182 0
167 184 0
166 186 0
168 186 0
167 187 0
167 186 0
167 187 0
167 185 0
168 186 0
163 182 0
165 184 0
167 187 0
168 188 0
178 199 95
182 203 108
178 201 102
181 202 108
176 199 88
181 202 114
185 207 130
185 206 133
184 205 125
183 203 130
184 205 137
188 208 142
188 208 149
185 205 135
185 207 137
183 204 137
189 210 147
191 211 151
189 209 149
195 214 171
193 212 173
191 211 159
184 205 125
196 214 175
191 211 159
191 211 167
196 215 182
197 216 188
189 210 147
192 212 163
194 213 181
196 215 181
191 211 171
195 213 182
201 219 198
200 218 191
195 214 177
195 214 171
198 217 193
195 214 177
194 214 175
196 215 182
197 216 181
197 216 182
196 215 182
196 215 179
199 218 194
199 218 196
197 215 182
195 214 177
197 217 189
197 215 186
200 218 188
194 213 169
194 213 173
194 213 165
191 211 165
186 206 144
196 215 184
192 212 167
193 212 171
194 213 175
196 215 175
193 212 163
185 206 149
187 206 149
191 211 161
181 202 122
188 208 149
183 203 127
187 206 140
184 205 130
182 203 125
180 200 125
183 204 130
173 195 88
182 203 133
173 194 129
163 185 121
156 178 131
143 165 140
147 170 135
146 169 136
133 158 125
121 147 148
99 127 168
90 118 166
90 119 173
83 114 177
74 106 168
86 117 166
85 115 167
72 106 165
73 106 165
67 102 172
68 102 173
68 103 169
70 104 167
62 98 169
63 100 177
65 101 171
62 98 169
62 99 173
62 98 170
61 97 172
62 99 173
61 98 170
61 98 173
61 97 162
61 97 170
60 97 169
61 97 174
61 98 166
60 97 169
61 98 168
61 97 167
62 99 172
62 98 171
62 98 174
61 98 168
61 98 166
62 99 175
61 97 166
62 98 168
61 98 171
62 98 167
62 99 176
62 99 177
62 98 167
61 98 172
62 99 170
62 98 173
62 99 174
62 98 170
61 98 165
62 98 169
61 98 168
62 99 170
61 97 165
61 98 162
62 98 170
63 99 171
62 99 169
62 98 165
61 98 167
61 98 166
62 98 169
63 99 170
61 98 164
62 98 168
62 98 166
62 99 171
62 99 172
62 98 170
62 99 173
62 99 172
62 99 171
61 97 169
62 98 170
62 98 165
62 98 161
62 98 169
62 98 167
62 98 169
62 99 171
61 97 159
62 98 169
63 99 169
63 100 175
61 98 166
62 98 165
62 98 164
62 99 171
63 100 174
62 98 164
62 98 168
62 99 170
61 98 159
62 98 160
62 98 163
62 98 165
62 99 167
62 98 163
62 98 164
63 99 173
61 97 165
62 98 168
62 99 169
62 99 170
62 99 169
62 98 166
63 99 171
62 98 165
61 98 163
62 98 162
61 97 159
63 99 166
62 99 169
62 99 168
62 98 168
63 99 166
63 99 164
63 99 164
62 98 165
62 98 164
62 98 160
62 98 166
62 99 169
62 99 164
62 98 164
62 99 163
62 98 158
62 98 169
62 98 162
62 99 166
61 97 159
62 98 162
61 97 153
61 97 155
61 97 155
63 99 161
64 99 163
61 97 160
61 97 159
61 97 153
61 97 157
63 99 162
63 99 164
62 97 153
62 98 156
62 98 164
63 98 161
61 97 156
62 97 156
63 99 166
61 97 150
61 97 151
62 98 162
62 97 157
61 96 151
63 99 160
61 96 150
61 97 153
62 98 158
61 96 151
62 98 153
62 97 154
61 97 149
61 97 160
61 96 145
60 95 144
61 96 155
60 96 150
61 96 150
60 95 141
61 96 143
59 93 130
60 95 145
60 94 143
60 95 141
59 93 138
59 93 142
59 90 139
69 91 117
70 81 91
80 84 60
84 83 21
84 84 16
89 88 8
93 90 21
84 83 14
90 88 17
79 79 19
84 84 20
89 87 18
92 90 12
78 80 16
89 90 16
94 94 20
97 97 28
99 98 18
100 98 22
95 92 28
102 99 24
109 108 29
116 113 37
104 101 24
96 96 29
111 109 32
105 104 32
111 108 29
123 120 34
113 111 24
123 119 34
108 106 32
119 116 41
107 105 25
110 108 25
122 120 33
119 118 32
130 127 43
121 119 47
132 129 43
125 121 35
130 125 42
128 124 43
124 121 31
130 126 43
128 123 51
128 124 42
142 136 46
137 135 36
138 133 42
133 128 42
136 131 40
136 133 39
140 135 45
135 130 45
139 134 42
134 130 40
144 139 50
142 136 47
149 143 49
133 128 45
136 130 45
138 134 35
142 137 45
148 143 47
147 140 47
142 137 45
134 131 39
143 137 52
140 136 44
136 131 41
136 132 41
146 141 48
142 137 45
151 145 49
132 128 44
147 141 49
136 131 41
144 138 48
141 136 44
141 134 39
140 136 37
144 139 45
139 134 39
134 130 36
137 132 44
135 130 45
147 140 47
134 129 34
131 127 34
136 131 47
128 123 42
136 130 41
124 120 34
132 126 44
135 130 36
133 128 37
126 121 34
136 131 41
125 121 36
135 132 42
138 136 36
136 136 32
139 137 41
137 138 32
140 145 28
137 143 28
144 149 32
144 152 19
149 156 25
146 156 11
148 160 19
160 173 16
149 160 0
161 176 22
165 180 22
164 182 11
164 181 0
163 180 0
163 180 0
170 188 0
169 187 0
163 178 0
167 185 0
169 188 0
167 187 0
167 183 0
170 190 0
163 181 0
166 185 0
165 185 0
164 183 0
164 182 0
168 186 0
166 185 0
167 187 0
169 188 0
181 202 105
183 205 120
186 206 135
186 206 135
185 206 130
180 202 117
184 204 140
185 206 127
187 207 142
184 205 142
189 209 144
188 208 142
192 212 165
191 211 157
193 213 163
192 212 167
194 213 167
191 211 161
191 211 151
193 212 163
189 209 147
193 213 165
190 211 153
196 215 179
195 214 163
195 214 171
198 217 184
194 214 175
198 217 193
196 215 181
192 212 177
201 219 201
198 217 182
200 218 194
199 217 189
197 216 186
202 220 206
198 218 189
201 219 203
196 216 182
200 219 193
199 218 188
198 217 189
195 215 184
195 214 175
198 217 191
194 213 177
193 212 163
195 215 177
196 214 177
199 218 193
199 218 193
192 212 171
195 214 186
197 216 193
196 215 182
190 210 165
197 216 186
198 216 182
189 209 169
196 215 186
194 214 173
194 213 165
192 211 165
191 211 157
192 212 161
191 210 157
187 207 151
192 211 165
186 207 149
188 208 149
188 207 153
187 207 147
180 201 111
184 204 137
183 203 133
181 201 133
174 196 124
167 187 147
152 175 137
158 180 143
135 158 150
136 160 141
127 151 142
113 139 144
92 120 163
82 113 166
83 113 171
84 115 169
84 115 170
83 114 172
77 109 169
67 102 173
77 110 173
83 114 169
70 104 169
67 102 172
62 98 171
66 101 175
60 96 169
67 102 166
62 99 174
62 98 170
64 100 168
63 99 172
63 99 171
62 98 168
63 99 175
62 99 175
61 97 171
61 97 169
61 98 170
62 98 171
61 98 170
61 97 172
62 99 174
62 98 174
61 98 172
61 98 177
61 97 169
61 98 166
61 97 170
61 98 167
61 98 172
61 98 167
61 98 170
62 99 171
63 99 173
61 97 164
61 98 174
62 98 166
62 98 165
61 97 164
62 99 173
62 98 173
62 99 173
63 99 174
63 99 175
62 98 169
62 98 171
62 98 172
62 98 169
62 98 169
62 98 169
62 98 172
61 97 162
61 98 170
62 98 168
62 99 170
62 98 166
62 99 170
62 99 173
62 99 174
62 98 163
61 98 167
62 98 171
62 99 168
62 98 169
61 97 161
62 98 163
62 98 171
62 98 165
62 98 168
62 99 168
62 98 165
62 99 172
63 99 175
62 98 161
62 99 170
62 98 164
62 98 168
62 99 166
62 99 167
61 98 165
62 98 167
62 98 161
62 98 167
62 98 163
62 98 166
62 99 172
62 98 167
61 98 162
62 98 160
62 98 165
61 97 160
61 97 164
63 99 173
62 98 159
61 98 165
62 98 164
61 97 160
62 98 161
62 98 167
62 98 164
61 97 161
62 97 162
62 98 159
61 98 161
62 98 164
62 99 172
62 99 170
62 98 158
62 98 163
62 99 168
62 99 165
62 99 169
62 98 161
61 97 156
63 99 168
62 98 159
63 100 171
61 97 163
62 98 164
62 98 160
61 97 157
62 98 164
62 98 163
61 97 161
63 99 165
61 98 164
63 99 167
62 98 159
61 96 151
62 98 162
62 98 160
61 97 155
61 97 158
62 98 157
61 97 159
61 97 156
61 97 162
62 97 158
62 98 155
62 98 162
62 97 155
62 97 159
62 98 158
62 98 159
62 98 156
62 98 152
61 97 155
60 96 149
62 97 154
62 97 156
60 95 147
62 98 154
61 96 149
61 96 156
62 97 152
62 97 156
62 97 153
61 95 145
61 96 156
62 97 151
61 96 145
61 96 143
59 93 147
62 96 151
59 93 134
61 95 148
60 95 144
60 94 140
57 89 118
68 90 123
83 93 80
84 82 28
99 97 24
85 84 16
80 78 14
94 92 11
90 88 2
100 96 19
85 83 12
101 99 8
103 100 25
96 95 18
93 91 16
87 84 15
89 88 29
98 96 18
107 105 28
88 87 19
101 100 21
95 92 20
100 100 30
121 116 36
94 93 27
105 102 29
110 108 22
94 94 25
106 104 32
111 108 29
108 106 28
98 96 24
118 115 32
108 108 32
126 123 38
116 113 32
120 116 42
124 121 33
112 110 28
126 122 39
124 121 39
129 125 39
115 112 34
131 128 33
129 126 43
129 126 42
135 132 38
134 129 51
134 129 41
130 126 38
139 136 34
135 131 40
136 132 42
136 130 45
133 128 44
135 129 44
136 131 45
135 131 47
142 137 45
139 133 48
138 134 42
136 132 39
134 129 25
140 135 51
141 136 48
125 121 36
134 128 41
135 131 39
141 136 46
139 133 42
136 131 44
140 135 48
132 128 37
136 132 41
140 135 41
138 132 42
146 141 47
137 132 42
138 132 48
138 134 42
140 135 41
138 133 37
139 135 42
133 129 36
136 130 45
145 138 44
137 132 37
138 131 42
141 136 39
136 130 41
133 129 37
141 136 47
135 130 36
129 123 34
139 133 44
130 125 37
128 124 36
128 123 42
124 119 25
131 125 25
122 119 28
140 137 44
138 134 30
139 139 39
139 140 36
138 140 34
141 149 32
145 148 30
150 158 32
148 152 34
146 157 11
147 158 0
154 165 19
150 162 16
153 163 22
162 178 11
162 177 0
157 171 0
164 182 0
164 181 0
163 178 0
166 184 0
168 189 0
167 183 0
163 180 0
164 182 0
167 183 0
168 188 0
165 182 0
168 185 0
168 187 0
167 184 0
167 186 0
164 182 0
163 179 0
169 188 0
164 182 0
169 189 0
184 204 111
187 207 127
182 204 117
181 203 117
189 209 142
189 210 147
188 208 147
182 204 120
191 211 163
188 209 144
185 205 127
189 209 157
187 207 140
191 211 163
198 217 186
196 216 181
189 210 159
194 214 169
196 215 179
196 215 186
194 213 171
196 215 177
193 212 159
196 215 184
194 213 179
198 217 189
198 217 184
194 213 177
198 217 189
199 218 191
198 217 193
198 217 188
200 219 199
194 214 177
200 218 199
193 213 175
197 215 191
199 218 194
202 220 199
200 218 198
201 219 204
196 216 191
198 218 191
198 217 194
197 216 186
201 220 201
201 219 201
201 219 201
195 215 181
200 218 191
201 220 201
202 220 201
198 217 193
196 216 184
196 215 181
198 216 193
198 217 189
198 217 188
198 217 184
200 219 191
198 217 189
196 215 179
199 218 191
196 215 182
196 214 182
194 214 175
190 209 163
193 212 163
190 210 153
191 211 169
194 213 175
192 212 161
193 212 165
193 212 157
177 198 111
184 205 135
176 196 150
178 198 166
159 181 147
149 171 156
144 167 152
141 163 152
129 153 145
131 154 143
120 145 160
94 123 172
81 112 171
80 111 174
87 117 177
93 122 168
79 111 170
77 110 166
75 108 169
70 104 168
78 109 173
77 109 167
77 109 171
72 105 164
66 101 165
69 104 166
66 101 171
67 102 169
62 98 166
65 100 168
65 101 170
68 102 167
61 97 168
62 98 174
62 99 166
61 98 175
62 98 169
61 97 168
61 98 172
62 98 169
61 97 169
61 97 167
61 97 168
62 99 171
61 98 172
61 98 169
61 97 169
62 98 170
60 97 169
61 98 169
61 97 164
61 98 169
62 99 175
62 98 173
62 98 168
62 98 168
62 98 169
61 97 161
62 98 169
62 99 175
61 98 165
62 98 167
63 99 170
63 99 168
62 99 172
63 99 174
62 99 167
63 99 172
62 98 169
62 98 166
62 98 169
62 99 167
62 98 164
62 99 170
62 99 169
61 98 169
62 98 166
62 99 172
61 98 166
62 99 171
62 99 172
62 99 173
61 97 161
63 99 164
62 98 161
62 98 171
63 99 167
62 99 168
62 98 165
62 99 166
61 97 162
62 98 167
62 98 165
62 99 166
63 99 168
61 98 165
61 98 169
61 98 163
62 99 170
62 98 163
62 99 167
62 99 170
62 98 166
62 98 167
62 98 165
62 99 166
63 99 168
62 98 167
61 97 164
61 97 160
62 98 162
62 98 166
62 98 166
62 98 155
61 98 162
61 98 162
61 97 161
61 98 164
62 98 165
61 98 158
63 99 163
62 98 163
63 99 165
61 98 159
62 98 162
62 98 154
63 99 167
62 98 162
61 97 161
62 98 157
61 97 159
62 99 168
62 98 166
62 98 161
62 98 159
62 98 161
62 98 159
62 98 162
61 97 154
61 97 155
62 98 161
61 97 150
61 97 153
62 98 161
62 98 161
61 97 160
62 98 163
61 97 152
62 99 164
61 97 153
61 97 155
61 97 158
61 97 151
62 98 158
61 97 158
60 96 154
62 98 166
62 97 159
62 98 160
61 97 155
61 97 161
62 98 158
62 98 157
62 97 154
62 98 161
62 97 152
62 97 154
62 97 150
61 96 151
61 97 151
62 97 162
62 97 159
61 96 153
62 97 152
60 96 149
62 97 153
61 96 145
60 95 149
61 96 156
61 97 158
63 99 159
61 96 145
61 96 152
61 96 146
60 94 144
60 94 147
61 96 153
58 91 127
59 92 128
68 91 109
80 92 86
80 83 52
82 81 8
86 85 14
100 95 14
69 70 11
85 83 14
87 84 11
91 90 18
92 91 16
92 91 8
82 82 14
90 88 14
99 98 16
108 105 23
104 101 18
95 93 16
102 100 20
82 82 25
93 93 20
110 105 22
102 100 21
88 86 23
105 102 25
110 108 22
96 96 32
110 107 31
98 97 27
115 114 30
115 112 35
112 109 23
118 116 36
119 117 35
123 120 35
118 115 33
118 115 41
131 127 40
106 106 22
125 122 33
117 115 34
123 118 29
135 131 33
124 122 35
125 121 42
132 129 32
121 118 35
130 125 40
135 131 45
130 126 41
130 127 39
125 121 37
132 128 37
127 122 45
140 136 43
136 131 36
138 134 37
136 132 43
136 130 34
131 127 42
138 132 42
132 127 42
135 129 37
138 133 34
139 132 42
135 131 37
139 134 44
146 140 44
133 129 36
139 134 41
141 135 42
139 135 42
133 127 44
130 125 37
139 134 41
131 127 25
136 132 34
137 131 44
133 129 36
131 128 32
142 137 48
135 130 36
137 132 47
138 132 42
131 127 37
133 127 36
129 124 34
126 121 37
133 127 34
127 122 30
132 127 42
135 130 36
130 125 37
125 120 30
136 130 44
126 121 36
132 127 28
126 121 36
136 133 41
126 122 30
141 139 34
142 144 22
145 147 36
138 138 22
144 148 28
138 144 19
150 158 16
147 152 28
144 152 19
147 157 11
150 161 11
148 159 11
159 172 19
154 166 0
160 176 0
169 184 11
164 180 0
164 182 0
165 183 0
165 182 0
167 185 0
164 179 0
164 183 0
163 180 0
165 184 0
165 183 0
164 182 0
167 185 0
166 185 0
167 184 0
168 187 0
164 181 0
166 185 0
168 187 0
169 186 0
168 187 0
162 180 0
188 208 137
179 201 114
178 200 102
189 209 153
190 210 153
189 209 140
193 213 163
190 210 157
191 211 161
190 210 155
194 214 177
192 212 159
194 213 169
189 210 153
190 210 159
188 209 153
199 217 182
190 210 171
198 216 186
195 215 181
195 214 179
192 212 171
197 216 196
200 219 196
203 221 206
201 220 203
198 218 198
199 218 199
198 218 191
200 219 198
195 215 186
200 219 196
197 216 186
201 220 199
202 221 201
202 220 204
200 219 196
202 221 206
202 220 204
201 220 204
202 220 204
195 215 186
203 222 212
201 220 206
199 218 194
204 222 214
198 217 193
203 221 214
200 219 194
201 220 204
201 219 194
207 224 221
200 218 199
204 222 209
205 223 212
195 214 182
201 220 206
201 219 201
196 215 181
195 214 173
199 217 189
199 217 189
199 218 189
196 215 181
196 215 177
195 214 177
193 212 171
194 212 173
195 214 173
198 216 186
194 212 171
191 210 157
188 208 153
191 211 153
189 209 157
193 212 171
178 199 125
174 194 152
161 181 168
146 168 156
150 171 170
138 161 155
130 155 159
127 151 151
126 151 165
99 127 167
96 124 169
93 122 170
76 109 167
95 124 161
94 123 169
86 116 157
81 113 170
76 109 170
78 111 175
66 102 171
75 108 165
66 101 166
65 100 169
61 97 168
68 103 171
63 99 170
60 96 164
65 100 164
63 98 164
61 98 169
63 99 167
61 98 172
63 99 167
61 98 168
61 98 169
61 97 171
61 98 175
62 98 173
61 98 169
61 97 164
61 98 172
61 98 175
61 98 169
60 96 167
61 98 171
62 98 169
62 98 172
61 98 169
62 98 170
61 98 167
62 98 166
61 98 172
61 97 166
61 98 166
61 97 169
62 98 168
62 98 169
61 98 169
62 98 172
61 97 164
62 98 167
61 98 165
61 97 165
62 98 168
62 98 167
62 98 163
61 98 170
62 98 168
62 98 169
62 99 172
62 98 170
62 98 164
61 98 167
61 98 165
63 99 170
62 99 170
62 99 173
62 98 162
62 99 173
61 98 161
62 98 166
62 98 169
62 98 164
61 98 166
62 98 165
62 98 167
61 98 165
62 98 165
62 99 172
62 98 166
61 97 164
62 98 167
61 97 158
62 98 169
61 98 166
62 98 165
61 97 161
62 98 165
62 98 165
62 98 169
63 99 170
62 98 167
62 98 167
62 99 173
62 99 167
62 98 167
62 98 167
63 99 168
61 97 159
61 98 163
61 97 160
62 98 163
61 98 167
61 97 162
63 99 164
61 97 158
62 97 157
62 98 162
62 98 163
62 98 163
61 98 165
63 99 171
61 97 165
62 98 164
63 99 170
62 98 160
63 99 171
62 99 165
63 99 163
61 97 152
62 97 158
62 98 164
62 98 163
62 98 164
63 99 161
61 98 162
62 98 165
62 99 165
62 98 161
61 97 153
62 98 163
62 98 159
63 99 168
61 97 155
62 98 164
62 98 160
61 97 155
61 97 154
62 98 156
62 98 164
62 98 161
62 98 160
62 98 157
61 97 150
62 97 156
61 97 153
61 97 161
62 98 159
61 96 154
62 97 161
63 99 162
61 96 152
62 97 156
63 99 160
62 98 158
60 95 147
61 97 153
62 98 161
61 96 149
61 96 151
60 95 140
60 95 146
63 98 161
61 96 150
61 96 149
61 96 144
62 98 153
62 98 164
61 95 145
60 95 144
60 95 148
61 96 148
59 93 141
60 95 145
58 92 132
59 92 132
59 91 133
64 82 100
76 88 89
76 80 57
91 90 30
93 93 18
90 89 14
91 90 19
79 79 14
86 85 5
77 77 11
91 88 12
86 86 18
90 88 16
86 85 14
97 95 16
79 78 16
90 91 18
85 84 9
97 96 16
98 96 25
98 96 24
111 110 27
101 100 22
115 112 21
99 97 21
109 108 25
101 100 27
101 100 24
100 98 24
113 110 19
110 106 24
113 111 32
111 110 21
114 112 36
117 114 32
113 111 31
122 119 28
123 119 33
127 122 42
131 126 45
117 116 24
121 118 31
115 112 30
127 124 24
130 125 39
126 122 35
117 115 31
118 114 32
131 128 24
137 132 45
132 128 37
134 130 39
138 132 50
142 138 41
136 131 45
132 128 42
137 132 50
135 131 30
139 135 36
133 128 45
143 138 39
142 137 39
149 143 51
141 135 49
133 129 37
134 128 28
137 132 38
134 129 22
141 135 36
135 129 47
142 135 44
139 134 39
134 130 28
132 126 42
142 137 32
140 134 49
136 131 34
143 137 39
145 139 45
138 132 42
135 128 37
136 131 41
130 124 34
126 120 22
132 127 36
135 130 44
141 135 37
123 118 32
130 125 37
132 126 41
133 127 42
130 124 34
132 128 37
123 119 30
139 134 39
133 128 32
128 126 36
141 138 36
128 126 32
130 128 36
127 129 28
134 134 30
142 145 25
142 146 19
144 149 19
140 146 19
141 147 16
153 160 22
143 150 19
153 165 16
139 151 16
158 171 16
159 173 11
160 172 0
158 174 0
165 180 11
162 180 0
163 178 0
160 177 0
163 180 0
166 184 0
163 178 0
164 183 0
166 185 0
165 183 0
167 185 0
162 179 0
165 184 0
169 187 0
167 186 0
167 183 0
164 182 0
167 188 0
170 189 0
162 180 0
167 188 0
168 187 0
188 209 144
188 208 157
190 210 149
193 212 157
193 211 167
188 208 151
189 209 159
193 212 165
193 212 163
189 209 149
195 214 175
193 212 169
196 215 177
197 216 186
193 212 173
198 217 188
197 216 193
194 214 173
198 217 184
200 219 198
200 219 198
198 217 191
198 218 199
202 221 211
203 222 211
200 219 207
200 218 206
202 221 211
204 223 217
202 221 206
202 221 212
200 219 199
200 220 207
200 219 199
206 224 221
200 219 204
202 221 209
201 220 204
202 221 209
205 223 215
200 219 194
205 223 215
203 222 212
201 220 206
203 221 212
200 219 207
203 222 212
200 219 206
201 220 204
205 223 214
201 219 203
200 218 206
203 222 209
205 223 214
196 216 191
204 222 212
202 220 206
203 222 207
202 221 204
200 219 198
198 217 191
201 219 198
199 218 201
197 216 193
192 212 175
200 219 191
196 215 188
195 214 179
196 215 186
193 213 171
197 215 193
193 213 169
191 210 165
188 208 153
190 210 155
181 202 156
181 201 170
171 191 170
158 179 172
146 168 183
149 170 183
133 156 179
127 151 162
125 149 164
122 147 171
106 132 162
103 130 168
85 116 169
87 117 167
82 113 171
94 123 176
79 111 168
78 111 176
85 115 172
81 113 168
65 100 166
78 110 166
67 102 160
66 101 167
66 100 162
71 105 168
67 102 166
64 100 172
64 100 171
65 100 166
63 99 172
62 98 171
61 98 172
61 97 163
61 98 172
60 97 163
61 98 170
61 98 165
61 97 165
61 98 173
61 98 173
61 97 168
60 96 166
61 97 168
61 97 168
62 98 172
61 97 170
61 97 169
60 97 165
60 96 162
61 98 172
61 98 168
61 98 164
62 98 168
62 98 168
62 98 167
61 98 166
61 98 166
62 98 165
61 97 167
62 98 171
61 98 165
62 98 168
61 97 161
62 98 166
62 99 174
61 98 165
62 98 164
62 98 167
61 98 167
61 98 162
62 98 167
62 98 165
62 99 169
62 98 167
61 98 170
61 98 164
62 98 170
62 98 167
63 99 172
62 99 170
62 98 165
62 99 167
62 98 162
62 99 171
62 99 168
61 98 168
61 98 162
61 97 162
62 99 167
61 98 161
62 99 166
62 98 165
62 99 169
61 97 158
61 97 163
61 98 164
62 98 163
63 99 165
61 98 167
62 98 164
62 98 167
62 99 167
63 99 167
62 99 170
62 98 169
62 98 165
62 99 167
62 98 166
62 99 169
61 98 162
62 99 167
63 99 167
62 98 162
62 99 167
61 97 163
63 99 168
61 97 157
62 99 165
62 99 164
61 98 159
62 98 161
62 97 161
62 98 162
62 98 157
62 98 160
62 97 157
61 97 159
63 99 169
62 99 168
61 97 158
62 98 163
62 98 155
62 98 157
61 97 157
62 99 162
62 98 155
61 97 158
62 98 161
62 98 163
62 98 165
61 98 158
62 98 164
62 98 157
62 98 162
63 98 159
62 97 159
62 98 165
61 97 157
62 98 163
61 97 156
61 97 157
62 98 157
62 98 159
63 99 166
63 98 161
62 97 158
62 97 160
62 98 157
62 98 156
61 97 156
61 97 155
60 96 148
61 97 160
61 96 147
62 97 163
62 97 155
61 97 153
61 97 152
62 97 156
62 97 157
62 97 152
61 96 154
62 98 158
61 97 150
62 98 158
62 97 152
60 95 147
61 96 144
61 96 142
60 95 137
61 95 141
62 96 151
61 95 153
60 95 138
61 94 144
57 90 121
60 91 127
76 94 104
76 84 71
89 92 55
80 82 11
84 84 11
93 91 9
84 82 14
91 87 16
94 92 0
77 77 12
79 78 16
85 84 14
85 85 14
87 85 14
87 86 14
90 89 12
96 92 14
93 91 21
99 97 14
111 108 29
102 98 17
101 99 20
103 101 16
93 92 20
97 96 19
109 107 32
98 97 24
107 105 18
115 111 30
106 104 20
117 113 23
115 113 28
115 112 14
114 111 23
112 110 38
109 105 29
120 117 32
118 114 31
121 117 20
115 112 22
128 125 28
132 127 42
121 118 34
127 123 32
124 120 42
128 123 42
113 109 24
128 123 39
130 125 37
119 117 31
128 126 29
132 127 34
127 123 31
130 125 38
127 123 40
134 127 45
135 130 47
141 136 39
132 128 39
138 133 34
136 131 37
134 128 37
142 138 37
140 135 37
135 130 35
135 131 41
136 130 48
136 131 40
137 132 37
134 130 32
141 136 34
140 135 41
129 126 36
138 132 39
126 121 39
135 131 37
135 129 39
132 127 36
133 128 44
142 136 42
130 125 39
133 127 36
133 128 41
125 120 37
137 131 36
129 124 32
131 125 36
127 122 34
132 126 36
127 121 34
121 117 30
114 108 25
129 124 37
132 127 41
144 138 41
125 122 36
133 130 37
135 131 34
133 133 41
132 133 32
138 140 30
137 138 28
142 147 32
137 141 32
145 151 32
147 156 19
144 152 19
145 154 11
147 154 22
153 162 19
157 171 16
158 170 0
162 177 11
156 170 0
162 173 11
161 177 0
162 177 0
162 177 0
163 179 0
159 177 0
163 180 0
165 182 0
161 177 0
164 180 0
169 186 0
165 182 0
165 184 0
167 185 0
162 181 0
167 186 0
167 185 0
168 187 0
166 183 0
167 187 0
166 185 0
164 183 0
167 188 0
188 209 144
192 212 159
189 209 157
191 210 159
189 209 153
189 209 159
190 210 147
190 210 159
194 214 177
193 213 169
192 212 171
197 217 184
195 215 179
195 215 181
202 221 204
196 215 186
196 215 182
200 219 206
200 219 199
203 221 211
200 219 199
199 218 196
202 221 211
198 217 201
202 221 209
202 220 211
204 223 212
204 222 212
203 222 215
205 223 218
204 222 209
203 221 203
202 221 207
203 222 214
203 222 218
205 223 221
201 220 204
206 224 221
202 220 206
200 220 214
202 220 207
203 222 218
206 224 221
203 222 211
205 222 214
203 221 212
199 218 198
204 222 212
209 227 230
209 226 224
201 220 204
203 222 211
204 222 212
202 221 206
206 223 224
207 225 220
205 224 218
199 218 198
202 220 204
203 221 209
204 222 211
202 221 207
203 222 214
198 216 198
198 217 186
199 217 191
196 215 186
199 218 191
199 218 186
198 216 186
193 212 175
195 214 182
196 215 181
193 212 169
194 213 188
184 203 166
178 198 174
164 185 180
161 181 195
153 174 176
142 163 183
142 163 182
143 165 172
127 151 169
129 154 162
105 131 174
92 121 171
91 120 177
87 116 163
85 116 170
86 116 170
77 109 172
75 108 159
83 113 163
85 115 177
76 108 170
72 105 167
64 99 171
68 102 165
68 103 172
67 102 170
65 100 167
65 100 166
66 101 171
67 102 167
63 99 170
62 99 172
63 99 167
61 98 171
61 98 170
65 100 160
63 99 168
61 98 169
61 98 171
61 98 167
61 98 171
61 98 169
62 98 171
61 98 166
61 97 166
61 98 169
61 97 168
61 98 170
62 98 167
61 97 168
61 98 172
61 98 171
61 98 171
61 97 161
62 98 169
61 97 168
62 98 172
62 99 174
61 97 162
61 97 165
62 98 171
62 98 163
62 98 169
62 99 172
62 99 171
62 98 169
62 99 170
62 98 166
60 96 164
61 98 164
62 98 169
62 98 167
62 98 167
62 98 168
62 98 168
61 97 166
62 98 166
62 98 165
62 98 165
62 99 165
61 97 161
62 99 169
61 98 160
62 99 170
62 98 164
62 98 164
62 98 165
62 98 166
62 99 167
62 99 168
61 97 164
62 98 164
63 99 167
62 98 164
62 98 167
62 98 163
62 99 167
62 98 165
61 98 164
62 99 168
62 98 162
61 97 155
62 98 160
61 98 166
61 97 162
62 99 168
62 98 163
62 98 164
62 98 161
62 99 166
61 97 159
62 98 163
61 97 161
62 98 158
62 98 163
61 98 165
62 99 168
61 97 157
62 98 162
63 99 172
62 98 160
62 98 159
62 98 160
61 98 164
62 98 164
62 98 165
63 99 167
63 99 167
62 98 162
62 98 161
62 98 166
62 98 163
62 98 155
62 98 166
62 98 163
62 98 160
62 99 164
62 98 158
61 97 160
62 98 163
62 98 162
62 98 163
61 97 158
62 97 158
62 98 159
62 98 162
61 97 150
61 97 156
62 98 158
62 98 159
62 98 161
62 98 157
62 98 157
62 97 156
63 98 160
61 97 161
62 97 150
62 98 161
61 97 153
61 97 152
61 97 153
61 97 153
62 98 153
62 97 160
61 97 153
61 97 152
61 96 145
61 96 150
61 96 153
62 97 154
62 98 161
60 94 148
61 97 153
61 96 149
60 95 148
61 96 148
61 97 150
61 95 145
60 96 145
61 97 157
60 94 148
62 96 143
58 92 135
61 96 147
60 94 139
58 92 128
60 93 144
58 90 122
73 88 104
83 91 63
90 92 45
100 97 11
93 91 8
86 87 0
80 76 8
86 83 8
99 95 8
92 90 0
94 90 3
82 80 10
88 86 0
93 90 18
88 87 11
86 86 12
89 88 9
97 95 14
90 88 14
97 95 18
100 97 19
107 104 18
98 96 21
105 101 14
99 97 23
106 104 12
102 101 24
108 105 14
98 97 11
119 117 29
113 110 22
111 108 28
110 108 34
124 121 24
120 117 28
115 113 20
121 118 30
119 115 31
116 114 27
121 118 25
108 107 24
114 111 38
127 123 26
123 120 33
121 118 33
130 126 38
127 122 43
125 120 33
139 134 36
125 122 37
129 125 28
123 118 37
124 120 25
124 120 26
129 124 28
133 130 38
132 128 43
139 135 39
135 131 36
140 135 39
132 128 36
141 136 36
133 129 42
133 130 41
142 137 36
133 129 44
137 132 39
135 129 42
135 131 34
135 131 40
141 135 42
124 120 28
131 126 37
123 119 25
136 131 41
131 126 28
134 129 36
135 130 34
137 132 37
132 126 37
137 132 36
132 127 32
133 127 41
131 125 45
122 117 19
132 127 32
132 127 32
131 126 48
134 129 39
127 123 34
132 127 41
121 117 30
134 131 36
129 124 39
127 123 34
133 133 32
138 136 34
131 126 32
132 131 30
133 136 28
134 132 28
142 144 30
139 146 16
143 149 22
150 154 22
147 156 22
147 157 11
149 159 19
152 163 11
156 170 0
153 166 0
158 171 0
158 173 0
163 178 0
159 175 0
165 181 0
161 176 0
158 173 0
161 176 0
157 173 0
167 182 0
166 184 0
167 185 0
161 178 0
165 181 0
165 184 0
168 186 0
166 183 0
165 184 0
168 187 0
164 182 0
164 185 0
170 189 0
162 180 0
168 187 0
165 183 0
166 187 0
190 210 159
193 212 169
190 210 163
191 211 159
194 213 175
196 215 175
195 215 179
196 216 182
196 216 182
194 214 171
198 217 188
199 218 189
198 217 188
199 218 191
200 219 204
202 220 196
204 222 211
202 220 204
203 221 209
202 221 209
198 218 196
205 223 215
202 221 215
200 219 199
200 219 204
197 217 194
201 220 207
202 221 209
201 220 206
203 221 218
204 222 215
206 224 221
203 221 209
203 222 217
202 221 211
208 226 227
204 223 215
204 223 214
205 223 224
206 224 220
203 222 215
205 223 217
201 220 201
205 223 217
203 221 217
205 223 215
204 223 220
206 224 218
204 223 215
205 224 223
200 219 198
205 223 214
205 223 217
205 223 217
203 221 211
205 223 212
207 225 226
203 221 207
199 219 203
203 221 211
202 220 209
203 221 203
203 222 209
201 220 206
204 222 211
200 218 189
203 221 207
197 216 188
202 221 201
201 220 199
201 220 203
198 217 188
194 213 175
199 218 189
200 219 195
189 208 183
183 202 201
156 176 183
166 186 199
160 180 197
142 164 185
140 162 181
128 151 182
133 156 184
126 150 181
109 134 180
99 126 180
105 131 172
86 116 172
94 123 171
83 114 173
82 113 177
83 114 170
69 103 173
78 110 173
75 108 166
80 112 174
69 103 172
73 106 172
67 102 174
70 105 168
66 102 173
65 100 161
62 98 171
67 102 169
64 99 167
61 98 166
61 97 163
61 97 161
61 98 172
66 101 170
63 99 167
62 98 172
62 99 173
61 97 167
61 98 169
61 98 166
61 97 166
61 97 166
62 98 170
60 97 167
61 98 174
61 98 173
61 98 172
61 97 166
61 98 170
61 98 168
61 98 171
61 98 167
61 98 167
61 98 167
62 98 168
61 98 164
61 98 168
61 97 165
61 97 163
62 98 169
62 99 173
61 98 167
62 98 166
62 99 170
62 98 170
61 97 164
62 99 173
62 98 168
61 98 168
61 97 160
61 97 165
62 98 171
62 99 167
62 98 167
62 98 163
62 98 168
61 98 168
61 97 165
61 98 163
61 97 162
62 99 167
61 98 165
62 98 167
63 99 165
62 98 163
62 98 165
61 97 165
62 98 168
62 98 164
62 98 163
62 98 164
62 98 166
62 98 166
62 98 165
62 99 171
61 98 164
62 99 166
62 98 162
62 98 164
62 98 163
61 98 164
62 98 165
62 99 169
62 98 158
62 98 165
63 99 170
62 98 165
62 99 164
62 98 162
61 97 154
62 98 162
62 98 164
61 98 164
61 97 155
61 97 161
62 98 159
61 98 160
61 96 154
62 97 160
61 97 156
62 98 162
63 98 161
61 97 157
62 97 157
62 98 166
63 99 168
61 97 152
63 99 172
62 98 168
62 98 158
61 97 156
62 98 157
62 98 160
62 98 165
61 97 158
62 98 159
62 98 160
63 98 160
62 98 155
62 98 162
62 98 160
62 97 156
62 98 159
61 97 159
62 98 166
62 98 160
61 96 145
61 97 153
62 97 154
63 99 162
62 98 156
61 97 151
61 97 152
63 98 160
62 98 158
61 97 152
61 96 153
62 97 152
61 97 159
62 98 158
61 96 150
62 98 163
62 98 159
62 98 158
61 97 159
62 97 155
62 97 152
61 96 145
61 96 156
62 97 152
62 97 154
62 97 151
61 96 150
62 98 160
60 95 140
60 95 149
61 96 149
61 96 148
61 95 150
61 96 153
61 96 147
59 93 134
60 94 144
60 94 140
59 93 132
58 91 136
65 86 102
77 85 74
79 81 36
100 98 16
82 81 11
89 90 18
82 80 0
91 88 21
93 91 0
81 79 0
85 83 0
84 82 8
100 97 11
89 86 3
91 88 1
98 95 22
94 92 18
89 87 16
85 85 20
92 91 8
97 93 19
103 99 24
94 92 22
101 99 18
100 98 18
101 100 18
104 99 21
100 97 20
115 112 29
113 111 18
107 104 18
118 115 28
102 100 22
113 109 16
119 115 18
112 110 22
120 117 29
112 110 22
117 115 31
117 114 30
111 107 19
123 119 21
116 113 19
126 122 36
124 120 31
120 116 28
118 115 19
127 123 35
132 128 32
118 114 30
130 125 36
130 126 37
127 123 22
126 122 28
133 128 37
122 118 32
133 127 38
129 125 29
132 127 34
137 132 41
136 131 37
126 123 35
134 130 37
130 125 34
139 135 40
127 122 36
135 130 39
136 131 35
133 129 22
129 126 25
131 126 30
131 126 36
133 128 37
121 116 32
131 127 36
132 127 37
135 130 36
132 126 37
128 123 19
125 122 11
121 118 30
129 124 34
140 136 28
126 119 30
133 127 34
125 120 34
127 120 28
135 129 37
127 122 32
132 128 36
133 128 37
119 113 30
129 125 37
126 122 22
131 132 25
135 131 36
135 137 25
127 128 25
135 137 19
141 143 36
132 138 16
142 144 16
146 150 30
142 150 19
139 146 11
154 163 25
150 159 16
154 164 0
158 168 0
159 171 11
157 173 0
161 176 0
160 175 0
163 178 0
168 186 0
167 182 0
165 182 0
162 179 0
163 180 0
164 180 0
163 178 0
164 182 0
162 178 0
163 179 0
168 186 0
166 187 0
164 182 0
166 182 0
167 184 0
167 184 0
166 184 0
164 182 0
165 183 0
165 183 0
165 184 0
163 181 0
169 189 0
192 212 165
193 212 173
192 212 159
192 212 161
197 216 177
196 215 188
199 218 191
197 217 181
203 221 211
199 219 196
198 217 189
197 216 186
196 215 182
202 221 203
200 219 199
199 218 199
200 219 204
199 218 198
202 222 215
204 223 217
204 222 218
204 223 217
203 222 211
201 219 201
205 223 224
204 222 215
205 223 215
201 219 209
204 223 215
204 223 217
203 222 214
205 224 223
206 224 223
206 224 220
204 223 214
207 225 224
205 224 220
202 221 209
208 226 230
202 221 212
206 225 228
204 222 220
208 226 231
208 226 230
204 223 220
207 225 227
206 224 220
205 224 223
206 224 221
204 222 217
206 224 226
209 226 233
203 221 212
203 222 215
202 220 206
207 225 224
203 221 211
207 225 228
203 222 214
207 224 226
201 220 209
200 218 196
203 221 209
201 220 199
202 221 206
204 223 214
202 221 211
207 224 226
204 222 212
202 220 206
201 219 198
201 220 204
198 216 189
198 216 194
196 213 199
187 207 187
179 198 202
174 193 207
167 186 203
154 174 196
151 172 201
133 156 191
124 148 188
137 159 189
127 149 182
115 139 182
102 129 182
104 131 177
95 124 171
91 120 173
81 113 172
84 115 167
85 116 171
84 115 171
73 106 163
79 111 168
69 103 167
73 106 159
71 105 170
78 110 161
67 102 168
64 99 163
73 106 163
66 101 164
63 99 167
61 97 164
63 99 170
62 98 169
63 99 166
63 99 166
63 99 166
62 98 167
60 97 166
61 97 171
61 97 161
62 98 170
61 98 167
61 97 166
62 98 171
61 98 170
60 96 168
62 98 172
61 97 168
61 98 171
61 98 168
61 98 164
60 97 161
62 99 175
60 96 167
60 96 160
62 99 169
61 97 170
62 98 169
62 98 168
61 97 167
61 97 159
61 97 161
61 98 160
61 98 168
61 97 165
61 98 165
62 98 172
62 98 162
62 99 169
62 98 165
62 98 165
62 98 165
63 99 172
61 98 166
62 98 164
61 97 162
62 99 168
62 98 166
62 98 165
62 98 165
62 98 163
61 98 159
62 99 167
61 98 165
61 98 163
62 98 165
62 97 160
62 98 162
62 98 168
61 97 162
61 98 161
62 98 166
61 97 159
62 98 158
63 99 170
62 98 165
63 99 169
62 98 163
61 96 150
62 98 165
62 98 159
62 98 162
61 97 160
62 98 166
62 99 167
62 98 165
62 98 161
62 98 161
62 98 163
61 98 161
62 98 165
62 98 165
61 97 150
62 98 158
62 98 162
61 97 158
61 98 158
63 99 167
61 97 155
62 99 166
62 99 163
61 97 156
63 99 165
62 97 158
62 98 157
62 98 163
62 98 158
62 98 160
62 98 159
61 98 159
62 98 162
62 98 161
62 98 158
62 98 161
62 99 166
62 97 157
62 98 158
62 98 158
61 97 162
62 98 162
62 98 160
62 98 163
62 97 159
61 97 160
61 97 151
62 98 159
62 98 158
61 97 149
62 98 160
61 97 158
62 98 158
62 98 155
61 96 157
61 97 156
61 97 156
62 97 159
61 96 151
61 97 150
61 97 155
62 97 153
62 98 156
61 97 154
61 96 155
62 97 152
61 97 152
61 97 151
60 95 145
62 97 153
62 97 157
62 98 156
62 97 154
61 96 150
60 96 147
61 97 149
60 96 151
61 96 148
61 96 148
60 95 144
60 94 140
60 94 139
59 93 134
61 96 148
60 95 141
59 92 134
59 92 131
59 94 139
59 93 136
61 90 129
82 96 107
84 91 56
87 88 18
104 103 11
86 86 0
88 89 0
86 86 21
85 82 8
83 81 8
83 80 8
91 87 8
101 97 8
86 87 11
90 86 3
91 90 14
86 84 0
97 94 8
88 86 8
102 100 8
103 99 18
96 93 16
95 94 12
99 96 16
105 101 14
98 96 16
94 94 16
104 101 26
100 96 19
98 96 16
104 102 24
104 102 24
113 109 24
105 102 25
112 108 22
112 110 28
116 113 31
125 121 19
112 109 27
121 117 25
114 110 36
114 111 28
119 116 24
128 124 25
121 119 27
121 118 24
119 115 24
128 123 29
115 113 29
128 124 24
126 123 29
130 127 31
136 130 37
133 128 36
125 121 33
119 116 11
131 127 37
131 126 26
131 127 40
134 130 33
127 123 30
122 119 19
136 132 30
135 129 42
143 136 36
130 127 25
121 117 37
130 126 25
122 118 39
140 135 41
133 128 36
134 128 37
133 130 34
128 123 37
130 124 41
140 134 45
132 127 28
132 127 36
134 129 28
124 119 37
127 121 30
131 125 36
128 123 28
125 121 28
122 117 28
127 121 32
131 124 32
129 123 36
130 126 22
124 120 36
123 120 30
124 120 32
122 117 28
133 131 32
132 134 32
122 122 28
131 130 22
128 127 22
141 144 25
139 144 22
134 135 22
137 140 28
144 151 16
143 150 11
149 156 32
145 156 0
143 150 11
139 148 16
158 170 0
154 165 22
157 169 16
159 173 0
162 177 0
160 173 0
167 182 0
162 178 0
160 178 0
162 177 0
166 184 0
163 179 0
164 180 0
163 179 0
169 185 0
164 181 0
164 181 0
167 183 0
164 181 0
163 181 0
161 178 0
167 185 0
160 179 0
165 183 0
165 183 0
167 183 0
166 184 0
164 183 0
168 185 0
167 187 0
192 211 159
189 209 161
198 217 194
193 213 171
195 215 186
199 218 194
198 217 193
196 216 184
197 216 189
198 217 203
199 218 191
202 220 209
202 220 203
201 220 199
204 222 209
203 222 214
206 224 215
204 223 221
206 224 220
204 223 215
201 221 207
205 223 221
207 225 227
206 224 224
204 223 218
208 226 230
204 222 217
208 225 226
208 226 233
209 227 233
207 225 228
208 226 228
209 227 230
206 225 228
208 225 227
207 225 223
209 227 237
207 225 230
207 225 226
205 223 221
206 225 227
206 224 223
207 225 227
206 225 224
207 225 230
209 226 233
204 222 223
208 225 226
205 223 220
204 223 218
208 226 227
209 226 230
207 225 228
206 224 223
206 224 223
205 224 221
209 227 233
209 226 233
209 227 231
205 223 215
206 224 220
203 221 211
207 225 223
205 223 217
204 222 215
206 224 218
205 223 214
201 220 206
203 221 201
206 224 217
202 220 203
201 219 203
204 222 211
199 217 203
190 209 193
185 204 200
175 194 202
173 193 206
162 182 203
144 166 202
152 172 201
142 163 198
132 155 188
140 162 194
127 150 188
117 142 176
122 146 187
110 136 185
97 126 175
89 119 168
80 112 179
75 108 171
91 120 167
79 111 178
86 116 168
73 106 167
77 109 170
68 103 167
78 110 172
71 104 170
72 105 167
66 101 169
68 102 172
69 103 169
67 101 165
65 100 166
63 98 168
62 98 167
61 97 162
69 103 161
62 98 166
61 98 173
61 98 165
62 98 165
61 97 165
61 98 168
61 98 172
61 98 168
61 97 163
60 96 162
61 98 174
60 96 162
60 96 157
59 95 160
61 97 166
61 97 165
61 98 169
61 97 162
61 98 167
61 98 171
60 96 162
62 98 170
62 98 170
61 97 161
61 97 167
62 98 167
62 99 168
62 98 165
62 99 173
62 98 167
61 98 164
62 98 167
62 99 172
61 98 166
62 98 166
62 98 166
63 99 168
61 97 163
61 98 165
62 99 170
62 98 164
62 98 164
62 98 169
62 98 163
62 98 160
62 98 169
63 99 168
62 98 170
61 97 158
61 97 156
63 99 171
61 98 167
61 98 161
62 98 165
62 98 168
60 96 154
62 98 163
62 98 163
61 98 162
61 97 159
62 98 167
61 97 156
62 98 164
62 98 163
61 97 160
62 98 159
62 98 163
61 97 158
61 98 161
62 98 165
62 98 158
62 98 162
62 98 160
62 98 161
61 97 160
61 97 158
61 97 160
61 98 159
61 97 161
62 98 164
62 98 165
61 97 153
61 97 161
62 97 158
61 97 158
62 98 158
62 98 166
62 99 167
62 98 158
63 99 165
62 98 165
62 98 166
62 98 156
62 98 160
62 98 158
62 98 159
62 98 158
62 98 164
62 98 161
61 97 160
63 99 165
61 97 155
62 98 159
61 97 157
61 97 161
62 98 163
63 99 160
61 97 154
61 97 155
62 98 156
61 97 156
62 97 153
61 97 163
61 97 157
62 98 157
61 97 157
61 97 160
62 98 159
60 96 151
61 97 154
62 98 159
62 98 162
62 98 154
62 98 159
61 96 148
62 98 156
62 97 157
61 96 151
62 97 155
62 98 159
62 98 156
63 98 156
60 95 144
62 97 156
61 96 158
62 97 152
61 97 154
62 98 161
62 97 153
61 96 144
61 96 147
61 95 146
61 96 140
60 94 148
60 95 143
60 95 148
60 95 148
60 94 138
60 94 140
61 95 139
59 93 139
59 92 132
60 87 117
76 90 97
70 77 63
97 99 29
100 101 0
102 102 16
89 88 12
102 102 11
88 87 0
91 91 8
80 79 8
82 81 8
96 94 14
97 92 12
94 92 11
78 76 0
86 84 9
95 92 16
110 106 18
93 90 8
94 94 12
93 91 16
100 99 18
101 96 11
103 100 18
95 92 11
99 98 19
108 104 16
113 110 20
114 111 24
110 108 16
112 109 28
103 100 16
105 103 18
107 103 22
102 101 26
105 102 14
115 111 25
122 117 30
123 119 32
113 111 16
119 116 25
123 118 33
123 120 28
120 116 24
124 121 28
121 118 22
121 118 16
127 122 31
119 114 16
125 121 31
125 121 34
126 121 34
126 121 32
131 126 34
130 126 22
128 123 37
134 128 36
124 120 28
132 127 32
130 124 40
120 116 30
124 120 30
126 123 25
138 133 34
127 122 30
127 122 30
132 127 34
136 131 36
130 125 22
136 130 32
128 124 30
121 118 28
126 122 30
128 123 34
131 127 30
131 125 32
124 119 25
134 130 36
133 127 37
121 116 22
128 122 28
124 117 36
128 122 37
132 126 41
129 124 28
127 122 30
130 128 11
123 118 22
121 118 22
124 120 19
127 124 32
121 120 22
129 125 30
135 136 30
139 140 28
130 129 22
138 137 28
141 144 28
140 145 11
142 148 16
144 150 16
142 145 22
147 157 19
150 157 30
155 163 25
148 158 16
158 170 11
156 169 16
158 172 0
158 171 0
153 169 0
164 177 0
163 178 0
159 174 0
161 179 0
159 173 0
166 182 0
166 182 0
169 187 0
164 182 0
165 180 0
162 176 0
163 179 0
161 178 0
162 175 0
165 179 0
171 187 0
166 181 0
164 183 0
164 182 0
166 184 0
169 188 0
169 188 0
169 188 0
163 181 0
170 191 0
166 185 0
195 214 167
198 217 189
199 218 193
194 214 179
198 217 186
200 219 198
200 219 203
201 219 203
201 220 209
197 217 189
198 217 193
199 218 203
202 220 209
203 221 209
202 221 212
200 219 201
204 223 218
202 221 209
205 223 221
206 224 221
202 221 212
202 221 211
205 224 223
203 222 212
205 223 218
209 226 233
208 226 231
210 227 230
205 224 221
208 226 233
207 226 228
206 225 227
208 226 228
207 224 224
210 227 231
209 226 233
210 226 226
208 226 233
209 226 236
207 225 228
207 225 228
208 226 231
208 226 230
210 228 237
207 225 228
207 225 230
210 228 237
210 228 240
210 227 233
209 226 231
211 229 241
206 224 220
205 223 220
209 226 228
209 227 234
205 223 218
205 224 220
209 227 236
207 225 230
207 224 227
208 226 224
204 222 214
203 221 214
206 223 218
207 224 217
206 224 221
204 222 207
205 223 214
206 224 221
201 220 207
204 223 212
202 220 206
204 222 212
201 219 215
188 207 188
188 207 209
183 202 223
172 191 211
158 178 210
146 167 207
149 170 200
144 164 199
130 153 182
119 144 186
126 150 189
120 144 184
120 144 188
115 140 186
100 128 185
95 123 176
81 113 166
83 115 172
81 112 169
84 114 175
85 116 175
76 109 166
82 113 169
81 113 170
70 103 164
79 111 172
66 101 168
69 103 174
69 102 165
68 102 171
63 100 174
68 103 173
67 102 171
61 97 163
62 98 172
62 98 167
61 97 166
60 96 169
61 97 162
60 96 163
63 99 162
61 98 173
61 97 169
61 97 165
62 97 162
62 99 170
61 97 167
61 97 166
62 98 168
60 96 162
61 98 173
59 96 163
61 98 168
61 97 169
61 97 160
61 98 166
62 98 164
62 98 173
61 97 164
62 98 170
61 97 167
62 99 171
62 98 170
62 98 166
61 97 164
61 98 168
61 98 165
61 98 166
61 98 165
63 99 168
61 97 160
62 99 169
62 98 162
62 98 170
62 98 167
62 98 163
62 98 171
61 97 162
62 98 169
62 98 164
62 99 168
62 98 168
62 98 166
62 98 169
62 98 163
62 98 165
62 99 164
62 99 169
62 99 165
61 97 163
62 98 163
63 99 167
61 98 164
61 98 167
62 98 165
62 97 159
62 98 167
62 98 169
62 98 164
63 99 166
62 98 162
61 97 158
62 98 162
62 97 163
62 98 162
62 98 162
62 98 164
61 97 160
62 98 163
62 98 160
62 98 161
61 97 159
62 98 162
61 97 155
61 97 163
62 98 165
63 99 167
62 98 162
62 98 163
62 98 161
61 97 155
62 98 160
62 98 166
60 96 149
62 98 158
61 98 160
61 97 155
62 98 159
61 97 156
61 97 157
62 98 158
61 97 153
61 97 157
62 98 162
62 98 156
62 98 155
61 97 157
62 98 162
61 96 148
61 96 149
61 97 157
62 98 163
61 97 157
62 98 160
61 97 151
63 99 168
61 97 154
62 98 156
62 97 153
62 98 156
62 97 157
62 98 162
62 98 159
61 97 153
61 97 147
62 98 158
62 98 162
61 97 156
62 98 153
61 97 153
61 97 153
62 98 160
61 97 153
61 97 147
62 98 160
62 97 152
62 98 154
61 97 158
62 97 151
61 97 147
63 99 159
61 96 145
61 96 142
62 97 156
61 96 150
61 96 152
60 95 143
62 97 152
61 96 149
61 95 149
60 95 146
62 97 147
59 94 140
61 96 152
61 95 145
59 93 138
59 92 135
58 91 134
73 96 109
80 90 83
97 102 66
90 93 31
94 95 8
93 94 11
97 99 14
89 87 0
91 89 11
100 97 0
78 80 0
107 105 8
90 88 0
98 95 11
94 90 8
96 94 8
96 93 0
90 86 0
88 85 9
84 81 11
85 83 0
99 96 11
93 88 5
105 101 15
103 101 21
106 103 22
104 101 8
106 103 0
102 100 16
108 106 16
107 104 12
100 98 16
111 108 19
112 109 16
104 101 8
108 104 11
106 102 16
108 104 18
120 117 21
118 114 28
113 110 14
114 110 8
119 114 22
113 111 29
120 116 25
120 114 33
121 117 34
124 119 19
113 109 19
123 119 24
126 122 25
116 114 26
125 120 33
124 120 25
124 121 26
125 122 28
121 117 19
128 124 32
126 122 24
120 117 21
131 126 22
129 126 30
125 122 25
131 127 36
130 125 32
129 125 22
133 127 36
132 126 34
130 125 28
125 120 22
131 125 34
129 124 34
121 117 19
126 121 25
128 124 22
123 119 28
124 119 30
124 119 30
117 115 16
123 118 22
129 125 32
137 131 37
129 124 34
123 118 36
123 118 28
115 109 16
127 123 34
134 131 25
131 128 25
119 116 28
130 129 34
122 121 16
128 124 34
133 133 30
135 136 32
135 137 28
135 135 22
142 147 25
135 137 11
149 154 22
138 142 16
143 151 19
146 151 28
147 155 16
152 161 25
154 167 0
151 163 0
154 165 11
151 163 0
158 174 11
163 176 11
162 175 0
166 180 0
161 176 0
163 178 0
163 178 0
161 174 0
165 182 0
161 175 0
163 179 0
163 178 0
167 185 0
162 176 0
168 185 0
162 181 0
167 184 0
156 171 0
168 187 0
164 182 0
168 187 0
169 188 0
166 183 0
165 182 0
168 186 0
159 176 0
168 187 0
168 187 0
164 182 0
201 219 198
199 218 196
199 218 194
203 221 206
197 217 189
198 217 196
201 220 201
201 220 204
206 224 218
203 222 207
204 223 215
201 219 204
204 223 218
203 222 212
204 222 212
203 222 215
206 225 223
205 223 220
204 222 218
210 227 231
209 227 230
207 225 227
207 225 227
206 224 224
206 225 226
206 224 221
206 224 223
205 223 220
210 227 236
209 227 238
207 225 227
207 225 227
207 225 230
210 228 236
210 228 237
212 229 240
209 226 227
208 226 227
206 224 226
210 227 231
209 227 237
208 226 230
207 225 227
207 225 224
209 227 236
211 228 237
213 230 244
210 227 237
208 226 233
206 223 228
208 226 228
208 226 231
211 228 234
205 223 224
210 227 228
210 228 237
210 227 237
207 225 220
209 226 228
208 226 228
208 226 226
208 225 228
207 225 224
207 225 223
210 228 234
207 225 223
204 223 214
202 220 206
208 226 230
207 225 223
204 222 212
203 222 212
204 222 219
202 220 223
197 215 214
196 214 220
177 195 223
184 202 226
166 185 217
157 177 211
158 178 214
143 164 203
156 177 217
127 150 196
117 142 194
124 147 188
131 154 201
107 133 183
102 130 180
111 137 181
94 122 178
92 121 164
77 109 175
85 116 167
77 109 167
92 120 167
73 106 176
70 103 170
78 110 172
73 106 166
72 105 163
67 102 170
70 104 173
67 102 167
64 100 171
67 102 165
70 104 162
62 98 168
64 100 170
60 97 170
61 97 163
60 96 166
61 98 167
61 97 164
64 99 166
61 98 168
63 98 164
62 98 168
62 98 167
61 98 161
61 97 165
62 98 168
61 97 169
61 98 165
61 98 164
61 97 165
62 98 169
61 97 169
61 98 168
62 98 170
61 98 165
60 97 165
62 99 169
60 96 160
61 98 169
62 98 166
61 97 157
63 99 171
61 97 161
62 99 169
61 97 165
62 98 165
61 97 156
62 98 163
61 97 160
62 99 167
62 98 164
62 98 164
61 98 166
60 96 156
61 98 164
62 98 166
61 97 158
61 98 165
61 97 163
61 98 160
60 95 153
62 98 164
61 98 166
62 99 168
62 98 164
61 98 164
61 97 160
61 97 155
62 98 166
62 99 167
61 97 157
62 98 166
62 98 163
62 99 168
62 98 164
63 99 167
62 98 161
62 98 165
62 98 163
61 97 157
62 98 158
62 98 165
62 98 166
62 97 160
61 97 152
62 98 160
62 98 160
62 98 158
61 97 156
61 97 160
62 98 164
62 98 157
62 98 157
62 98 154
61 97 158
62 98 163
62 98 162
62 98 161
62 98 159
61 97 159
61 97 162
62 98 162
62 98 161
61 97 154
61 97 155
62 97 154
62 97 155
61 97 154
61 97 151
62 98 161
62 98 157
61 97 155
62 98 160
61 97 154
61 97 159
61 97 161
61 97 158
62 98 160
62 98 159
61 97 155
62 98 161
62 98 160
62 98 164
62 98 156
61 97 155
61 97 153
61 97 154
63 99 161
62 98 161
61 97 152
62 98 159
62 98 157
62 98 154
62 98 161
62 98 156
61 97 152
62 98 157
62 98 155
61 97 160
61 96 145
61 97 150
62 98 155
61 97 155
60 95 143
61 96 151
62 97 155
61 96 151
61 96 150
61 96 151
61 97 151
61 97 156
62 97 147
61 96 143
60 95 150
60 94 142
60 95 134
60 95 140
61 96 144
60 95 149
61 96 147
60 94 131
60 94 143
59 93 132
58 91 133
60 94 140
60 93 140
81 101 124
89 100 75
101 105 57
113 114 22
103 102 8
108 109 2
99 98 8
91 88 14
100 99 8
97 95 0
101 99 8
102 101 11
88 87 11
96 93 8
86 86 3
93 89 3
96 93 16
95 91 0
94 91 8
93 89 11
83 81 3
96 94 20
91 89 3
94 91 11
97 95 14
97 92 8
100 98 8
103 100 11
100 97 16
108 106 8
105 104 18
97 94 24
108 103 11
111 106 18
110 106 22
102 100 3
119 116 18
111 108 11
118 113 19
113 109 19
113 109 18
109 106 21
116 113 16
117 114 24
121 117 24
120 114 18
111 107 25
127 123 30
111 107 19
119 114 32
112 109 19
122 118 28
122 118 16
119 114 22
109 106 18
125 121 25
127 123 28
119 113 22
125 120 25
131 127 25
123 119 22
127 122 19
124 120 22
132 126 34
131 126 25
132 127 25
128 121 22
122 118 36
133 127 22
131 126 37
124 118 25
123 120 22
126 121 32
121 116 19
129 124 32
137 131 34
119 113 30
131 126 37
121 115 36
138 131 37
118 113 22
123 119 19
124 119 32
128 123 34
118 114 25
127 122 22
124 117 34
126 120 30
127 123 28
127 124 37
126 124 30
120 121 22
139 137 36
132 132 25
132 133 22
131 137 16
134 137 11
140 145 28
131 134 16
139 145 16
146 151 11
148 154 16
147 156 11
153 163 11
154 165 0
153 161 0
148 159 0
152 161 11
156 168 0
159 173 0
159 173 0
160 174 0
158 175 0
158 172 0
158 172 0
165 180 0
161 178 0
157 170 0
160 174 0
162 178 0
163 179 0
160 174 0
162 178 0
163 181 0
161 177 0
166 183 0
169 186 0
165 183 0
161 177 0
167 186 0
164 182 0
166 183 0
162 179 0
161 180 0
170 190 0
166 182 0
168 186 0
169 189 0
202 220 204
199 218 196
201 219 203
203 221 203
197 216 191
205 223 214
201 220 201
204 222 209
207 225 223
203 222 212
204 222 214
200 219 198
204 222 211
203 222 214
203 222 214
206 224 221
206 224 226
208 225 224
202 220 203
207 225 226
206 225 226
211 228 238
209 227 233
209 227 234
208 225 228
205 223 221
208 226 230
209 226 230
210 228 236
209 227 233
208 226 231
207 225 230
208 226 231
210 228 234
211 228 234
210 228 241
210 227 233
208 225 227
210 227 233
205 223 226
209 226 230
210 228 236
208 226 233
208 226 233
205 223 227
212 229 242
211 229 241
212 229 241
211 228 234
211 228 240
211 228 238
209 226 233
209 227 231
204 222 220
207 224 221
210 227 231
208 226 227
212 228 238
208 226 227
213 230 241
207 225 228
208 225 227
210 227 230
205 223 224
207 224 226
207 224 221
207 225 223
208 226 227
205 223 217
208 225 223
209 226 226
206 224 215
202 221 210
196 214 217
195 214 216
183 202 219
183 202 226
170 189 226
169 188 220
150 171 210
157 178 215
151 171 212
155 176 218
139 160 206
127 150 200
124 147 198
118 143 194
117 141 193
109 135 190
105 132 186
106 132 181
86 116 177
101 128 179
97 125 177
81 113 169
72 106 176
77 109 174
80 112 176
79 111 167
77 109 167
81 112 175
74 107 170
67 102 170
73 106 173
73 106 161
61 97 167
61 97 166
67 102 166
63 99 168
65 100 164
62 98 170
63 98 160
61 97 161
61 97 161
61 98 167
61 97 163
62 98 171
61 97 170
61 97 164
62 98 166
61 97 170
61 98 173
61 98 166
61 98 167
61 98 165
60 96 160
63 99 167
61 98 170
62 98 166
61 98 163
61 97 160
61 97 164
61 98 169
62 98 169
61 97 164
61 98 169
62 99 166
61 98 164
62 98 172
62 98 170
62 98 166
61 97 158
61 98 166
62 98 169
62 98 167
62 98 163
62 99 174
62 97 159
62 98 165
62 99 170
62 99 172
62 98 167
62 98 163
62 99 166
62 98 164
62 98 163
62 98 161
62 98 166
63 99 169
63 99 166
62 98 159
62 98 165
61 97 154
60 96 160
62 99 167
61 98 163
62 98 165
61 97 162
61 97 157
61 98 161
62 98 161
62 98 163
61 98 164
61 98 163
62 98 163
62 98 163
62 98 160
61 97 159
62 98 162
61 97 157
62 98 162
61 97 158
62 97 160
61 97 157
62 98 161
61 97 157
62 98 159
62 98 158
61 97 155
62 98 163
62 98 161
61 97 154
62 98 161
61 97 160
61 97 156
62 98 163
62 97 157
61 97 164
62 98 158
62 98 163
63 99 162
60 96 156
62 98 157
62 98 161
63 99 165
62 98 164
62 98 162
62 98 162
62 98 161
62 98 158
62 98 156
61 97 158
62 98 154
61 97 158
61 97 156
63 99 166
62 98 157
62 97 160
61 97 156
63 99 160
61 97 152
62 97 157
61 97 157
61 97 157
60 95 137
61 97 155
61 97 151
62 98 157
62 98 158
61 97 152
62 97 152
62 98 154
62 98 158
61 96 150
61 97 154
63 99 164
61 96 151
62 98 155
61 96 144
62 98 152
61 96 142
61 96 153
60 95 142
62 97 155
61 97 148
61 96 144
60 95 138
62 97 153
61 96 151
62 98 156
61 96 142
61 95 143
61 95 143
61 95 144
60 95 140
60 94 143
60 95 142
59 93 138
59 93 141
61 95 142
58 90 136
61 93 127
70 91 99
88 98 78
91 97 57
105 104 0
102 105 0
94 93 12
109 109 11
105 103 11
93 92 0
92 93 2
93 90 11
90 88 14
94 91 11
100 99 0
91 89 12
99 96 9
91 88 14
99 96 3
97 94 3
88 87 18
89 86 14
86 83 8
84 82 14
95 91 14
99 94 0
102 99 0
92 88 18
104 100 19
106 102 14
103 100 11
95 94 14
101 99 14
111 107 8
110 106 19
104 101 14
103 101 11
108 105 21
108 101 14
114 111 14
115 112 25
116 112 16
112 107 11
112 108 16
117 114 28
114 109 24
120 116 20
112 109 14
121 116 24
111 109 14
114 111 25
114 110 16
125 121 19
112 110 0
127 122 16
118 115 16
123 119 22
113 110 19
126 122 25
122 119 19
127 122 34
123 118 19
131 127 28
130 125 34
125 119 28
130 125 28
128 123 28
124 121 28
121 117 25
128 124 28
124 121 22
123 119 19
129 124 30
121 116 25
119 115 11
123 118 25
123 116 25
127 123 19
121 116 30
131 126 16
117 112 22
114 109 28
124 118 36
119 112 34
120 113 28
121 119 19
113 110 25
134 131 25
132 129 25
130 128 30
127 126 30
134 134 25
126 127 11
127 128 19
130 133 28
132 135 22
135 137 22
132 135 0
145 153 19
145 152 22
150 155 11
141 148 11
146 155 16
146 154 0
151 161 22
153 163 11
154 164 11
160 173 0
157 170 0
160 173 0
161 174 0
161 175 0
162 175 0
155 167 0
163 177 0
161 177 0
163 181 0
161 175 0
161 176 0
162 178 0
163 178 0
166 183 0
164 179 0
159 174 0
164 180 0
165 181 0
169 187 0
166 183 0
163 180 0
167 184 0
164 182 0
164 179 0
166 184 0
166 184 0
165 182 0
165 182 0
166 185 0
163 182 0
165 184 0
201 220 203
197 216 189
201 220 206
204 222 211
202 221 206
200 219 201
206 224 224
207 225 224
202 221 212
209 227 231
206 224 220
202 220 204
209 226 228
207 225 224
205 223 223
208 226 233
209 227 233
207 225 223
206 224 224
210 227 236
207 225 227
208 226 226
209 226 233
209 226 230
209 226 230
209 227 233
209 227 234
212 229 241
208 226 233
210 227 233
208 226 233
208 226 228
212 229 241
204 222 221
204 221 223
209 226 230
209 227 233
208 226 233
208 225 226
206 223 223
204 221 211
205 223 223
207 225 227
206 224 223
206 224 227
205 223 218
210 228 238
204 222 221
205 223 221
209 227 233
208 226 230
208 225 227
205 223 220
208 226 227
205 223 220
204 221 220
206 224 221
209 225 230
209 227 231
205 223 218
209 226 227
205 223 217
211 228 234
212 228 234
210 227 236
210 227 234
206 224 220
208 225 227
210 228 234
208 225 223
206 224 217
209 226 231
208 225 223
201 218 222
197 214 233
194 212 230
176 194 224
169 188 220
176 195 228
163 182 220
168 187 224
151 172 217
151 172 215
143 165 207
133 156 207
135 157 205
116 141 195
131 154 200
104 131 189
102 129 187
94 123 183
93 121 181
90 119 184
80 111 169
77 110 174
87 117 174
75 107 168
68 102 168
76 109 169
65 100 168
72 106 172
65 101 169
75 108 168
69 104 171
65 100 164
70 104 167
68 103 167
63 98 157
74 107 166
69 103 171
63 98 162
67 101 166
62 98 166
61 97 168
61 98 166
61 97 166
61 98 166
66 101 165
60 97 161
61 97 166
61 97 163
61 98 168
61 98 165
61 98 168
62 98 167
61 97 163
60 97 163
62 98 170
61 97 161
60 96 163
61 98 167
61 97 169
61 98 160
61 98 170
62 98 170
62 98 163
62 98 169
62 98 170
61 97 166
62 99 170
62 98 166
61 98 165
61 98 168
61 97 163
62 98 164
62 98 164
62 98 160
63 99 168
62 99 168
61 97 160
63 100 171
62 99 168
63 99 169
62 98 165
62 98 162
62 98 168
61 97 162
62 98 166
62 98 161
62 98 163
62 99 167
62 98 168
62 99 166
61 97 163
61 98 163
62 98 168
61 98 160
61 97 156
62 98 164
62 98 166
61 97 158
61 97 156
61 97 158
61 98 162
61 97 161
61 97 157
62 98 157
62 98 161
62 98 162
62 98 161
61 97 161
62 98 160
60 96 154
63 99 169
62 98 165
62 98 160
61 97 153
61 98 161
62 98 158
62 98 160
61 97 156
62 98 162
62 98 162
61 97 155
62 98 162
62 97 156
62 97 157
61 97 157
62 98 162
61 97 159
61 97 159
62 98 157
61 98 161
62 97 153
62 97 153
61 97 154
62 97 156
62 98 156
62 98 157
61 98 158
62 98 159
61 97 157
61 97 155
61 96 147
61 97 150
61 97 155
61 97 160
62 97 153
62 98 164
61 97 153
62 98 155
61 97 154
62 98 156
62 98 162
61 96 152
62 98 155
61 96 150
62 98 158
62 97 151
62 97 153
61 97 151
61 97 153
62 97 155
61 97 154
61 97 153
60 96 145
62 97 156
61 96 150
61 96 145
61 96 148
62 97 153
60 96 150
60 96 144
61 96 150
62 98 155
59 94 141
61 96 148
62 97 151
60 95 145
60 95 141
60 95 143
61 95 149
60 94 143
60 95 151
59 93 132
61 96 142
61 96 152
59 93 140
61 95 146
61 95 143
60 94 142
60 89 113
85 100 93
89 99 61
96 100 8
101 101 0
115 118 0
102 105 0
102 102 0
92 93 0
96 96 14
106 107 8
97 95 8
102 98 11
93 87 0
93 89 8
98 96 0
87 86 0
105 100 11
98 96 14
94 90 8
91 88 8
89 86 14
94 91 14
88 83 0
91 89 16
85 84 8
103 97 11
96 93 1
104 101 8
105 101 16
108 106 11
99 95 0
107 104 0
104 102 22
105 101 18
109 105 21
104 100 16
105 101 19
109 106 14
102 100 14
114 109 19
108 105 18
108 105 16
121 116 19
118 114 16
122 118 11
116 112 0
126 119 16
116 113 0
121 116 11
114 109 22
120 116 30
113 111 0
130 126 19
122 118 16
115 111 11
118 112 22
125 120 19
116 114 19
116 113 28
120 115 29
126 121 14
119 114 25
122 116 22
121 115 34
122 118 25
130 125 25
121 117 22
121 117 16
129 124 22
125 121 16
123 118 25
131 126 28
118 113 19
127 122 25
121 115 19
124 118 28
126 121 22
115 110 22
126 121 28
123 119 16
121 117 25
120 116 25
117 112 22
119 114 19
128 125 28
134 131 25
132 127 28
119 116 19
125 124 32
123 124 19
136 136 19
127 130 25
138 140 11
137 139 19
138 139 22
138 141 16
144 150 16
141 144 19
145 151 11
155 162 19
150 160 16
154 164 11
150 159 0
162 174 11
149 161 0
151 162 11
157 171 0
149 160 0
161 176 0
157 170 0
165 180 0
155 170 0
161 174 0
159 175 0
159 172 0
160 175 0
160 174 0
165 181 0
162 177 0
160 173 0
164 181 0
165 179 0
161 177 0
163 181 0
164 178 0
164 179 0
166 184 0
166 182 0
164 182 0
169 187 0
162 179 0
161 180 0
166 182 0
165 183 0
163 177 0
165 183 0
162 180 0
167 184 0
205 223 217
205 223 214
202 221 214
204 223 214
203 221 214
204 222 212
207 225 223
202 221 214
205 224 220
204 222 217
206 224 223
205 223 224
210 227 234
203 221 212
207 225 221
208 226 230
207 225 224
208 226 230
210 228 240
209 227 233
209 227 233
206 224 231
210 227 233
209 227 230
208 226 228
206 224 215
211 228 238
211 228 234
206 224 218
206 224 226
207 225 227
207 225 226
205 223 217
206 225 227
201 220 207
204 222 211
203 221 217
203 221 215
204 222 214
205 223 217
209 226 233
208 225 224
205 223 220
204 222 214
205 223 220
206 224 220
201 220 207
204 223 218
208 226 227
208 225 221
204 222 218
206 224 221
206 224 220
200 218 204
203 222 217
209 226 226
205 223 215
204 222 220
209 226 230
206 224 223
206 224 218
208 226 231
209 226 231
210 227 230
209 226 236
204 221 221
209 226 226
207 224 218
205 223 218
209 226 231
207 224 221
210 228 236
211 227 238
205 222 229
197 215 229
191 209 227
179 197 223
185 202 228
179 198 230
158 178 219
151 172 215
161 181 220
151 172 213
148 169 214
145 166 211
131 155 199
120 144 194
134 157 203
120 144 200
117 142 194
106 133 193
100 128 188
96 124 183
91 120 179
75 107 175
78 110 176
80 112 173
79 111 170
72 105 174
75 108 169
65 100 167
72 106 172
64 99 159
81 112 176
70 104 172
62 98 170
72 105 167
66 100 164
67 101 167
65 100 161
65 100 163
62 98 158
61 98 167
63 99 164
64 99 166
62 98 164
62 98 164
61 97 167
61 97 160
60 97 165
63 98 159
61 97 169
61 97 164
62 98 167
60 97 166
61 97 163
61 97 164
61 97 168
61 97 163
60 96 159
60 95 159
61 97 167
61 98 166
61 97 164
61 98 164
61 98 168
61 97 157
61 98 165
60 97 162
61 97 160
61 97 161
61 97 160
62 98 162
62 98 165
61 97 160
62 98 163
61 98 172
62 98 162
61 97 161
61 97 162
62 98 164
62 98 165
62 99 168
62 99 170
61 97 161
60 96 154
62 98 165
62 98 161
62 98 165
61 97 155
61 96 152
62 98 157
62 99 168
62 99 170
63 99 169
62 99 165
62 98 161
62 98 164
62 98 160
61 97 159
61 97 163
61 98 159
61 97 159
62 98 163
61 98 162
62 98 169
62 98 163
61 98 159
62 98 161
61 98 161
62 98 162
63 99 167
61 97 157
62 98 167
62 98 161
61 97 157
61 97 158
61 97 157
60 96 155
62 98 164
61 97 152
61 97 155
62 99 164
62 98 166
62 98 163
61 96 158
62 98 159
62 98 162
62 98 156
63 99 168
63 99 161
62 98 163
62 98 161
62 98 160
61 97 154
61 98 159
62 99 163
61 97 155
62 97 154
61 96 151
61 96 151
62 97 157
62 98 164
62 98 156
60 96 149
62 98 155
62 98 156
60 96 148
61 97 154
61 97 153
62 98 158
62 98 154
62 98 156
61 97 156
63 99 164
62 98 155
60 96 150
61 97 150
62 97 156
62 98 161
62 98 158
63 98 161
61 97 150
61 97 154
61 96 149
62 97 151
62 98 157
61 96 147
61 97 150
62 98 156
62 98 157
62 98 151
61 97 150
60 96 143
61 97 153
60 95 139
60 95 150
62 97 149
60 95 145
61 96 144
62 97 154
61 95 150
61 96 144
61 97 151
61 95 147
60 94 137
60 95 139
59 93 133
60 94 137
59 93 131
59 93 140
68 97 130
79 96 104
99 103 51
104 107 33
112 114 11
96 99 0
113 115 16
91 89 11
102 102 8
107 104 16
105 102 0
97 94 0
89 85 0
98 97 8
91 86 11
98 95 11
102 100 11
92 87 11
82 82 11
91 89 0
101 97 0
86 85 8
97 94 3
101 100 16
95 90 8
106 102 8
100 97 8
102 97 23
111 107 3
106 101 11
98 94 11
104 100 11
94 91 8
96 93 16
94 92 0
108 105 12
108 104 16
102 98 8
110 106 16
113 111 11
114 110 24
104 101 18
108 103 16
120 114 22
120 116 11
115 110 19
106 104 16
115 111 19
120 115 19
111 109 0
117 114 21
109 105 18
116 111 0
108 105 11
117 114 28
116 112 11
112 106 11
115 111 29
128 123 25
114 110 16
120 115 19
129 125 28
125 119 19
123 117 11
124 118 22
123 117 28
117 113 16
124 121 16
123 119 19
121 117 11
107 102 16
122 116 25
119 115 16
118 114 16
125 119 28
125 119 16
123 119 19
133 126 30
128 124 34
123 117 22
113 109 25
116 111 19
130 126 19
136 134 28
120 117 25
134 131 19
118 116 19
127 125 16
125 124 22
131 130 22
140 140 16
132 135 28
129 132 0
130 131 16
145 149 25
138 141 0
131 137 11
143 147 19
142 149 19
148 155 11
145 156 0
149 158 11
148 158 0
155 165 11
153 162 11
153 164 0
158 169 0
150 159 0
156 167 0
157 168 0
161 175 0
160 173 0
159 172 0
160 175 0
159 171 0
164 177 0
160 173 0
163 180 0
159 173 0
157 172 0
160 173 0
160 176 0
164 180 0
162 179 0
166 183 0
158 173 0
159 175 0
165 181 0
163 180 0
166 181 0
167 184 0
169 188 0
166 182 0
162 179 0
167 184 0
165 183 0
164 181 0
169 187 0
167 185 0
200 219 204
204 222 214
204 222 212
205 223 218
202 221 204
208 226 231
209 226 227
208 226 231
205 223 218
206 223 221
206 224 220
205 223 223
210 227 230
205 223 221
211 228 237
210 227 231
207 224 231
208 225 228
210 227 234
209 227 237
208 225 230
207 225 226
205 223 218
205 223 220
207 225 227
209 226 230
205 223 215
208 225 230
205 223 220
202 220 212
203 221 209
205 223 218
203 221 218
207 225 227
204 222 217
204 222 214
197 216 194
205 223 217
201 220 209
205 223 215
202 221 206
200 218 194
201 219 206
200 218 203
201 219 204
205 223 218
207 225 224
202 221 211
202 220 207
202 221 209
199 218 207
205 222 214
203 221 207
203 222 211
205 223 215
206 224 217
206 224 221
202 220 209
205 223 220
203 221 214
204 222 214
202 220 207
212 228 236
206 224 227
207 224 224
205 223 223
208 225 228
209 226 231
207 225 226
208 226 224
207 224 228
205 223 220
208 225 226
196 214 219
180 198 227
190 208 231
179 197 223
179 198 228
175 194 228
156 177 212
152 173 212
145 167 211
152 173 214
148 169 212
134 157 205
142 164 212
120 144 201
117 142 196
102 129 192
113 138 195
94 122 188
93 121 181
103 130 191
87 117 182
82 113 176
85 115 175
96 124 183
73 106 169
77 109 174
67 102 169
69 103 170
75 108 166
72 105 165
71 104 167
69 103 167
65 100 166
68 102 171
63 99 169
62 98 168
67 101 169
64 99 166
67 102 168
61 97 165
62 98 165
65 100 167
62 98 167
60 96 166
61 98 166
63 98 162
61 97 163
66 101 167
62 98 170
61 98 167
63 98 162
61 97 161
59 95 163
61 97 166
61 98 166
61 97 163
61 97 166
61 97 161
61 97 165
62 99 172
61 97 164
63 99 166
61 97 159
60 97 165
61 97 162
61 97 165
61 97 161
61 97 158
62 98 166
61 98 169
61 97 159
62 99 170
62 98 164
62 98 168
62 98 165
62 98 162
62 98 163
62 99 171
62 99 164
61 97 161
62 98 163
62 98 166
62 99 165
61 97 161
61 96 157
61 97 157
62 98 161
62 98 162
62 97 159
62 98 163
61 97 155
62 98 164
62 98 161
62 98 159
61 97 162
62 98 160
62 98 163
62 98 160
62 98 164
62 98 160
62 98 160
62 98 160
62 98 160
62 98 161
61 97 154
62 98 162
62 98 163
62 98 156
62 98 160
62 98 166
62 97 151
62 98 159
63 99 164
61 97 159
63 99 163
62 98 161
61 97 157
61 97 157
61 97 152
62 98 163
62 98 159
61 97 157
61 98 162
61 96 154
61 97 153
62 98 159
61 97 156
62 98 156
62 98 161
62 97 154
61 97 155
61 97 153
61 96 153
63 99 167
62 98 158
62 99 165
61 97 156
60 96 153
62 98 160
63 98 158
62 98 157
62 98 160
62 98 154
61 97 154
62 98 159
62 98 162
62 97 153
62 97 156
61 96 149
61 97 151
62 97 151
62 97 158
61 97 148
61 97 155
62 98 158
62 98 154
61 96 151
61 96 147
62 98 156
61 96 151
61 97 148
61 97 150
61 96 147
61 97 153
61 97 152
62 98 152
61 97 150
60 96 140
61 97 153
61 96 149
61 96 147
61 96 139
63 98 160
60 95 140
62 98 160
61 97 153
60 94 142
61 96 143
60 94 141
61 96 141
60 94 137
60 95 142
61 96 149
60 94 140
58 92 130
59 93 130
58 92 131
60 94 146
65 94 126
84 98 91
96 105 65
101 106 18
111 112 11
97 101 0
88 88 0
96 97 14
101 102 0
112 115 0
111 111 0
103 103 11
107 104 11
95 93 0
88 86 0
95 92 0
98 96 0
98 96 8
93 87 11
98 94 0
87 85 8
88 85 0
88 83 0
97 91 0
90 86 2
90 86 0
98 94 8
88 84 0
93 90 0
96 93 8
94 89 0
107 102 8
100 95 8
101 99 0
108 104 11
107 103 11
100 98 11
98 95 16
105 103 18
109 103 14
99 95 8
105 101 0
113 107 18
92 91 0
114 110 16
115 110 16
115 111 14
109 105 11
114 110 19
111 107 16
119 114 16
119 114 25
113 110 16
111 107 0
113 108 14
124 119 21
118 113 22
112 107 16
132 127 22
113 109 19
123 118 22
116 113 0
120 116 19
123 119 22
119 116 22
111 106 16
121 116 16
121 115 19
120 116 16
130 123 25
117 111 30
118 114 16
112 108 19
120 117 11
116 110 11
110 106 0
118 112 30
121 115 25
121 118 25
123 118 19
120 115 19
120 116 11
122 117 16
124 121 25
136 133 22
134 133 25
123 124 16
134 133 28
128 128 19
127 125 19
129 131 16
135 138 16
133 135 19
139 141 22
142 145 19
134 138 0
141 148 0
144 149 11
139 147 0
147 152 11
145 150 16
154 164 16
154 165 0
159 171 0
155 168 0
154 167 0
158 170 0
161 175 0
161 172 0
155 166 0
161 174 0
166 178 0
155 166 0
158 173 0
158 171 0
159 173 0
156 168 0
160 173 0
161 177 0
163 181 0
160 176 0
163 178 0
163 178 0
163 179 0
164 181 0
167 183 0
166 182 0
165 184 0
164 181 0
163 179 0
163 178 0
162 180 0
165 180 0
163 180 0
164 182 0
165 181 0
167 184 0
167 187 0
167 188 0
203 221 209
206 225 223
205 223 218
204 223 218
207 225 221
205 223 223
203 221 211
209 227 231
206 224 221
207 225 231
212 229 237
210 227 237
212 229 238
210 227 233
209 226 231
203 221 217
206 224 220
211 227 234
209 226 228
210 227 233
206 224 226
207 225 223
207 225 228
207 225 226
207 225 228
205 223 217
206 224 224
200 219 203
206 223 215
202 220 211
201 219 204
198 217 206
199 218 198
200 219 211
202 221 209
199 217 193
195 215 181
201 219 201
201 220 206
200 219 203
200 218 204
200 219 203
196 215 191
198 217 199
196 216 184
200 220 206
200 219 212
196 216 194
200 219 201
201 219 198
203 222 207
199 217 196
200 218 199
201 220 206
202 221 207
202 221 207
199 218 198
200 219 207
202 220 204
203 222 212
203 221 204
202 221 214
207 225 223
203 222 217
207 225 220
203 221 212
202 220 206
208 225 221
205 223 223
206 224 226
206 223 220
201 219 211
202 219 224
199 217 224
184 202 220
191 208 234
177 196 216
173 192 221
161 181 218
162 183 214
157 177 214
150 171 215
141 163 207
144 166 209
138 160 207
130 153 205
128 151 201
140 162 207
119 144 199
123 147 195
115 140 194
114 139 195
98 126 189
86 116 179
98 125 186
82 113 178
91 120 181
78 110 177
73 106 177
82 113 173
67 102 173
72 105 167
77 110 177
70 104 175
75 108 171
78 110 168
70 104 176
71 105 173
68 103 169
63 98 158
67 102 160
62 97 162
61 97 167
60 96 159
62 99 169
63 98 162
61 97 165
62 98 167
62 99 167
66 100 160
61 97 165
62 98 170
60 97 161
61 96 160
61 97 162
61 97 166
62 98 161
62 98 168
63 99 169
61 97 168
61 97 166
61 97 163
60 96 160
61 97 164
61 97 164
61 97 163
61 97 167
61 98 165
61 98 163
60 97 164
62 99 173
61 98 163
61 97 161
61 98 165
61 96 160
61 98 160
62 98 165
61 97 163
62 99 170
61 97 159
62 98 166
62 99 169
63 99 167
61 97 155
62 99 170
62 98 165
62 98 161
62 98 163
62 98 160
62 98 163
62 98 160
61 97 158
61 97 160
61 97 152
62 98 160
62 98 162
61 98 162
62 98 165
61 97 159
61 97 161
61 97 160
62 98 165
61 97 157
60 96 155
62 98 163
62 98 158
62 98 164
62 98 160
62 97 160
63 99 169
61 98 164
62 98 162
62 98 162
61 96 157
62 98 158
62 98 162
61 97 155
63 98 165
62 98 163
62 98 162
62 98 160
61 97 155
62 97 164
61 97 155
62 98 157
61 97 158
61 96 154
61 97 155
62 98 160
60 96 151
62 98 161
62 98 160
61 97 156
60 96 140
62 98 165
61 97 160
62 98 159
62 98 163
61 97 154
62 97 155
61 97 154
61 97 150
62 98 158
61 97 157
62 98 155
61 97 158
62 98 154
61 97 154
62 97 152
61 97 150
61 97 153
62 97 150
61 96 150
60 96 149
61 97 155
62 97 157
62 98 157
62 98 159
63 99 163
61 97 153
61 97 151
62 98 156
62 98 154
62 98 152
61 97 154
60 95 148
62 97 156
62 97 148
61 97 153
61 96 149
61 96 147
61 96 152
61 97 152
60 95 136
60 96 141
61 96 147
60 95 140
60 94 138
60 95 143
61 96 143
61 96 145
61 96 147
60 95 147
60 95 146
59 93 138
60 95 136
61 96 147
60 93 138
59 92 134
59 92 130
61 92 130
80 101 110
92 105 85
96 103 67
104 108 0
102 104 0
100 105 0
102 102 11
105 107 11
103 102 0
106 106 0
111 111 11
90 89 0
83 80 0
112 112 0
102 103 0
101 100 0
96 93 11
98 96 11
91 87 8
92 89 0
89 84 8
82 83 3
98 95 3
97 93 8
105 101 8
90 86 0
103 98 11
102 99 3
90 85 8
100 97 0
92 90 0
103 98 8
107 103 8
96 93 0
103 100 8
102 98 0
97 94 11
107 104 8
103 100 11
103 99 11
111 108 0
112 108 11
114 109 16
112 108 19
109 105 0
113 109 8
106 103 16
117 111 21
121 116 25
115 109 0
104 100 0
125 121 16
112 107 28
119 115 19
111 107 0
115 107 19
116 110 19
115 109 22
117 113 11
118 114 22
119 112 16
116 111 25
114 110 11
120 116 22
118 113 19
113 108 11
120 115 25
122 118 11
115 110 11
109 103 11
119 114 11
118 113 16
121 116 19
118 115 25
120 114 22
123 117 30
124 119 25
126 122 28
117 114 19
128 124 25
122 120 22
130 128 28
126 124 19
130 127 11
121 119 25
131 129 16
132 131 16
123 122 19
131 130 19
122 123 16
132 132 11
138 141 22
142 145 16
140 145 16
145 149 11
143 151 0
134 141 0
149 153 19
148 155 11
149 156 19
155 160 11
145 152 11
142 151 11
160 172 0
154 167 11
155 167 0
154 165 0
163 179 0
155 166 0
161 176 0
157 172 0
153 166 0
159 172 0
164 181 0
163 178 0
166 182 0
165 180 0
163 180 0
163 178 0
163 178 0
161 177 0
162 180 0
165 183 0
164 181 0
161 178 0
164 181 0
163 179 0
170 188 0
161 176 0
169 188 0
168 185 0
169 186 0
163 180 0
166 185 0
167 183 0
165 183 0
165 183 0
169 188 0
165 184 0
200 218 198
204 223 214
206 224 215
205 223 221
208 226 227
208 225 223
208 226 234
210 227 237
208 226 233
204 223 218
210 227 234
208 226 228
207 225 226
209 226 227
207 225 227
209 226 227
205 223 224
209 226 227
204 223 220
206 223 227
207 225 226
202 220 204
207 225 221
202 220 207
202 220 211
204 222 214
201 219 199
199 218 193
202 220 204
201 220 203
202 220 207
193 213 177
200 219 201
198 218 194
197 217 196
192 212 175
196 215 186
198 217 196
195 215 186
196 216 182
197 216 184
197 216 188
195 215 186
193 213 171
188 209 159
199 217 191
197 216 184
196 215 184
196 215 191
195 215 186
192 212 173
200 218 196
197 216 193
195 215 188
197 216 191
193 214 175
200 219 201
198 217 191
201 220 206
202 221 201
198 216 199
200 219 201
196 216 194
199 218 196
202 221 212
202 221 211
202 221 201
203 221 212
204 222 211
205 223 214
206 223 222
202 219 213
193 211 213
187 206 217
183 202 226
185 203 227
176 196 222
171 190 223
161 181 218
157 177 209
143 165 203
165 184 222
143 165 207
137 160 209
138 161 207
140 162 205
137 159 203
130 153 201
128 151 198
135 157 204
106 132 191
106 133 194
100 127 186
93 122 187
103 129 188
99 127 187
85 116 181
76 108 176
87 117 178
83 114 175
80 112 175
73 105 169
72 105 170
71 105 179
71 105 169
70 104 165
67 101 168
70 103 168
64 100 169
71 104 162
64 99 165
61 97 160
61 97 164
60 97 162
63 98 159
63 99 168
61 98 165
63 99 167
62 98 168
63 99 164
61 98 171
63 99 158
63 98 163
61 96 160
61 97 162
61 97 165
61 97 164
61 97 162
61 97 166
62 98 162
62 98 158
61 97 159
62 98 167
61 97 163
61 97 163
62 98 166
62 98 160
61 97 159
61 97 163
61 96 159
61 98 167
61 97 160
61 97 165
62 98 162
61 98 163
62 98 162
61 97 158
61 97 161
62 98 168
62 98 162
62 98 158
62 98 161
62 98 164
63 99 168
62 98 160
62 98 160
61 98 164
62 99 166
61 97 157
61 97 157
62 98 162
61 97 157
61 97 156
61 97 161
61 97 149
62 98 159
62 98 158
61 97 160
61 97 158
60 96 149
60 96 151
63 98 160
61 97 158
61 97 162
62 98 161
62 98 165
62 98 160
62 98 159
62 98 160
62 98 163
62 98 157
61 97 152
62 97 159
61 98 160
62 98 154
61 97 151
62 98 162
61 98 162
62 98 162
61 96 145
62 98 167
62 98 163
63 99 166
61 97 157
62 98 162
62 98 156
62 98 162
61 97 150
62 97 163
63 99 161
61 97 157
61 97 154
62 97 155
61 97 155
61 97 159
62 97 154
61 96 151
62 98 159
61 97 154
62 98 155
61 97 160
61 97 152
61 97 152
62 98 155
62 98 159
62 98 164
61 97 155
62 98 157
61 97 151
62 98 158
61 97 154
61 97 155
62 98 155
61 96 150
61 97 156
62 98 159
62 98 156
62 98 161
62 98 153
60 96 147
61 96 151
62 97 158
61 96 151
62 98 160
63 98 151
61 96 144
61 96 152
61 97 148
61 96 145
62 97 152
61 96 150
60 95 145
61 97 151
60 94 141
60 96 145
61 97 149
61 97 145
61 96 148
61 96 145
61 95 145
59 93 134
60 94 136
60 94 135
61 95 146
61 96 139
59 94 139
60 95 136
59 93 130
59 92 133
57 90 129
58 91 121
79 99 98
89 101 84
102 107 37
121 128 25
118 123 0
116 119 0
101 100 0
106 111 0
104 105 16
99 101 0
95 94 0
103 100 0
99 98 0
87 88 0
94 93 0
105 102 11
92 92 0
92 89 0
97 97 11
92 91 0
94 95 0
90 89 0
100 99 0
107 104 0
94 91 11
102 99 0
106 102 0
98 95 0
95 90 11
95 90 0
89 85 11
112 109 0
107 101 0
93 90 0
103 99 0
97 94 0
107 103 8
105 100 14
111 104 0
101 99 0
108 102 16
99 96 0
102 97 0
99 95 0
111 107 0
106 101 16
113 109 16
106 104 11
104 98 0
111 106 16
110 105 11
120 115 11
121 114 19
115 109 8
121 117 22
123 119 19
118 114 14
109 106 0
116 111 16
115 110 0
121 115 0
115 110 19
116 112 11
118 113 19
128 122 22
127 121 25
115 110 0
114 109 11
123 119 16
126 120 30
120 114 22
120 115 19
120 117 16
114 109 25
117 113 28
113 108 11
127 121 25
119 115 16
117 114 22
123 122 22
125 122 11
120 119 19
132 129 19
132 131 16
124 124 11
124 124 11
135 135 0
133 135 22
139 142 19
143 144 19
134 136 11
145 148 11
142 149 11
142 146 11
139 143 19
147 152 16
132 136 0
146 154 11
143 152 0
148 156 16
154 166 0
157 165 11
155 165 0
159 172 0
153 162 0
162 176 0
161 172 0
160 174 0
158 172 0
153 166 0
161 173 0
158 171 0
164 180 0
166 180 0
154 167 0
159 174 0
160 172 0
158 171 0
165 182 0
162 180 0
164 179 0
164 180 0
158 173 0
163 179 0
163 179 0
163 178 0
165 182 0
164 180 0
167 183 0
162 179 0
168 187 0
167 183 0
162 180 0
167 186 0
168 185 0
164 180 0
166 183 0
165 183 0
164 182 0
204 223 212
206 225 223
207 225 221
205 223 220
207 224 220
210 227 231
207 224 223
210 227 233
207 225 227
206 225 226
203 221 211
207 224 224
209 226 226
208 225 223
203 221 214
205 222 224
206 224 224
205 223 218
203 222 215
200 219 201
196 216 193
204 222 207
200 218 196
200 219 199
197 217 193
196 216 181
200 220 211
201 219 198
196 216 181
193 213 179
198 218 194
197 216 196
196 216 184
194 214 188
192 211 175
194 214 175
195 215 181
187 208 159
194 213 181
195 214 175
192 212 163
193 213 182
192 212 167
193 213 167
192 212 167
194 214 186
191 212 159
196 215 184
194 214 181
190 210 163
191 211 165
192 212 173
196 216 198
191 212 165
190 211 159
196 216 179
195 215 179
196 215 186
198 217 191
192 213 175
200 219 196
195 214 181
192 212 175
199 218 194
198 217 189
197 216 188
197 217 188
196 215 181
198 217 199
195 213 199
196 214 207
196 214 209
196 215 220
189 207 217
175 194 212
174 194 214
166 185 219
160 180 212
162 182 211
158 179 214
160 180 214
148 169 205
140 162 203
137 160 205
141 163 202
144 165 209
119 144 198
125 149 197
129 152 202
123 147 199
119 144 195
112 137 190
102 129 189
106 133 190
104 131 190
104 131 188
86 115 178
71 105 176
92 121 187
77 109 179
76 109 177
70 104 172
77 109 171
68 102 175
68 103 169
77 108 171
70 104 169
71 104 169
71 104 164
71 104 174
63 98 162
62 98 173
64 99 165
73 105 156
62 99 170
60 96 161
62 98 160
63 99 161
61 98 167
63 98 161
65 100 161
61 97 164
63 99 172
64 99 166
61 97 166
61 97 157
62 98 168
60 96 159
61 97 161
61 97 162
61 97 167
60 97 163
61 97 161
61 98 167
61 97 159
61 97 165
61 97 156
61 98 164
61 97 164
61 97 164
61 97 165
62 98 168
62 98 163
61 97 165
61 98 161
62 98 165
62 98 163
63 99 167
63 99 167
61 98 164
61 98 165
62 98 163
63 100 171
62 97 162
62 98 165
61 97 160
62 98 163
62 98 161
63 99 165
61 97 160
63 98 159
63 99 168
61 97 154
61 97 157
62 98 164
61 97 160
62 98 161
63 100 172
62 98 164
61 97 161
62 98 162
62 98 161
61 97 152
62 98 166
61 97 159
62 98 162
62 98 160
63 99 164
62 98 159
62 98 161
62 99 164
61 96 151
62 98 159
62 98 161
62 98 162
61 97 156
63 99 167
60 96 152
61 96 158
62 98 160
62 98 160
62 98 159
63 98 158
61 96 151
62 97 158
61 96 155
62 98 157
62 99 166
61 97 150
62 98 155
62 98 158
61 97 152
61 96 148
62 98 159
60 96 145
62 98 160
62 98 154
63 99 161
62 99 165
62 98 152
61 96 150
61 97 162
61 96 147
62 98 161
62 98 162
62 98 156
61 97 155
60 96 149
62 97 152
62 98 159
62 98 160
62 98 158
62 98 157
60 96 148
62 98 156
62 97 149
62 98 153
61 97 152
62 97 154
61 97 152
61 97 147
59 94 143
62 97 148
60 95 142
62 97 151
61 96 149
61 96 147
60 96 145
62 97 156
62 97 145
62 98 159
60 94 135
62 98 152
61 96 141
59 94 135
60 95 137
61 96 141
63 98 156
61 96 153
61 96 151
60 95 137
58 92 132
61 96 148
59 93 135
60 93 139
60 95 136
60 94 137
60 94 141
59 93 134
58 91 126
62 92 123
79 99 109
98 109 75
112 118 28
112 116 0
114 119 0
112 116 11
111 115 0
110 110 0
109 112 0
103 104 0
109 112 0
106 105 11
101 102 0
96 96 0
98 97 0
95 96 8
97 97 14
98 99 0
93 90 0
93 91 0
89 88 11
87 84 0
97 93 14
96 93 14
103 99 0
95 91 0
92 88 8
103 99 8
91 85 11
88 85 8
104 100 0
92 89 0
107 103 3
97 92 0
91 87 0
110 106 0
104 100 0
110 106 3
107 103 14
98 95 0
94 91 11
98 95 0
109 104 11
105 99 0
110 105 11
111 107 0
111 106 0
100 96 0
110 107 0
112 106 0
115 110 19
108 102 0
113 110 19
114 110 16
112 108 16
119 114 11
111 106 11
121 115 16
110 105 11
111 107 0
121 116 25
103 99 11
117 114 16
120 115 16
115 109 11
112 109 0
114 108 11
124 120 0
124 121 19
126 122 22
122 120 19
125 121 19
115 113 16
125 121 19
114 110 16
119 115 19
123 121 16
114 109 22
123 121 11
124 120 16
124 120 16
124 121 11
125 124 16
120 120 11
129 125 25
128 131 11
136 138 22
129 128 22
136 139 16
135 136 19
139 142 11
138 141 19
144 149 11
137 144 16
144 151 0
141 148 19
142 149 11
149 157 0
151 160 11
152 163 11
154 168 11
151 162 0
152 162 0
157 169 0
163 174 0
153 164 0
156 166 0
150 160 0
157 169 0
158 171 0
167 180 0
160 173 0
158 173 0
159 175 0
162 177 0
161 175 0
162 177 0
165 180 0
162 175 0
160 175 0
165 179 0
159 174 0
154 170 0
163 181 0
166 182 0
165 183 0
167 183 0
170 187 0
161 176 0
160 176 0
164 180 0
169 187 0
167 181 0
160 178 0
166 185 0
166 186 0
164 184 0
159 176 0
168 186 0
205 223 212
208 226 226
207 225 224
207 225 230
208 226 231
205 223 217
209 226 233
209 227 231
211 228 236
208 226 223
207 225 223
207 225 227
210 227 227
205 223 218
201 220 211
201 220 207
203 221 215
199 218 204
207 225 221
203 221 206
201 221 207
197 217 193
195 215 181
196 216 193
195 215 179
195 215 184
191 211 169
197 217 193
192 212 179
194 214 175
193 213 173
192 213 171
190 211 163
189 210 161
191 211 167
185 205 137
193 213 169
190 210 167
191 211 165
189 210 157
186 208 151
189 210 159
187 208 147
190 211 153
190 210 163
192 211 151
189 209 151
189 209 157
193 213 173
189 209 167
193 212 167
194 214 171
188 209 165
187 208 157
187 208 151
194 214 177
194 214 173
192 212 167
191 211 163
191 211 163
193 213 179
195 214 189
190 211 175
195 214 186
194 213 177
197 216 186
195 214 186
199 218 199
196 215 189
195 214 189
183 203 180
192 211 207
182 200 217
174 194 199
177 196 220
167 186 216
174 193 219
173 193 220
153 174 209
152 173 212
155 176 213
145 167 206
150 171 208
147 169 210
129 153 201
148 169 210
128 152 198
122 146 198
119 144 192
109 135 191
103 129 188
108 134 191
113 139 191
98 126 190
95 123 184
98 126 190
93 121 181
89 119 182
89 118 182
75 108 171
76 108 176
72 105 175
74 107 172
76 109 173
65 100 171
80 111 178
71 104 168
67 101 166
61 98 171
69 104 165
63 99 166
66 101 166
61 97 161
68 101 161
61 97 173
60 97 165
63 99 165
61 98 169
61 98 166
61 97 169
60 97 162
62 98 168
61 97 162
61 97 162
61 97 162
63 98 157
60 96 154
61 98 160
61 97 162
60 97 164
61 97 166
61 97 164
61 98 166
62 98 165
60 96 155
61 98 164
62 98 166
61 97 163
61 97 162
62 98 164
61 97 165
61 97 160
61 98 165
62 99 166
61 97 161
62 98 162
61 98 164
60 96 159
63 99 170
61 98 167
63 99 167
62 98 161
62 98 163
61 97 160
61 97 159
62 98 163
61 98 160
62 99 166
62 98 163
62 99 168
61 97 151
62 98 160
60 96 157
63 99 162
62 98 162
61 98 160
61 97 154
62 98 165
62 98 161
62 97 157
61 97 156
61 97 155
62 97 157
61 97 156
62 97 159
63 99 162
62 98 159
62 98 160
61 97 153
62 98 160
61 97 158
62 97 160
62 97 157
62 98 163
62 98 168
62 98 162
62 98 163
62 98 162
62 98 159
62 98 156
61 97 152
62 98 164
62 98 159
62 98 160
61 97 162
61 97 155
62 98 160
62 98 155
62 97 153
60 96 148
62 98 156
62 98 165
60 96 149
62 98 158
61 97 158
61 96 145
62 98 160
62 97 156
62 97 157
61 96 147
62 98 156
61 97 145
61 97 151
61 97 157
60 95 150
61 97 154
62 97 154
62 97 152
62 98 155
61 97 152
62 98 157
62 98 155
62 98 164
61 96 145
62 98 157
62 98 159
61 97 157
61 97 149
61 97 153
62 98 154
62 98 157
62 97 152
62 97 151
61 96 155
61 96 147
60 95 143
61 96 148
61 96 145
62 97 152
60 95 137
62 98 154
61 96 143
61 96 147
59 94 137
61 96 143
60 95 137
60 96 148
61 96 151
61 96 145
61 96 144
60 94 141
58 91 124
61 96 140
61 96 141
61 96 136
61 96 143
60 94 134
59 93 134
59 93 135
60 93 136
70 98 110
85 104 100
95 103 60
113 117 18
120 127 0
114 114 0
117 121 11
114 116 0
113 118 0
98 101 0
94 95 0
104 104 11
104 103 11
102 105 0
105 105 0
92 93 0
99 99 0
103 101 11
86 86 0
102 100 0
97 95 0
87 84 0
100 95 0
98 97 0
91 89 0
96 94 0
105 104 11
96 91 0
93 89 0
99 95 0
98 93 0
98 93 0
86 82 8
98 93 11
97 93 0
105 100 0
102 97 0
106 103 0
103 99 0
89 85 0
102 97 0
112 109 11
95 92 0
107 102 0
105 101 0
105 102 0
111 106 0
113 108 16
98 94 11
110 107 0
103 100 11
119 114 0
101 97 0
114 109 0
123 117 0
113 108 0
108 104 11
126 119 19
103 99 11
115 111 16
108 103 0
118 112 16
122 118 11
109 105 22
118 114 0
117 113 11
114 111 19
115 110 16
106 102 0
122 119 19
110 105 11
112 108 22
118 114 19
120 115 22
116 112 11
114 108 16
121 119 22
116 114 16
119 116 11
113 112 16
124 124 16
139 137 25
130 132 11
137 138 22
124 124 0
127 124 11
125 125 19
126 129 11
136 138 11
142 144 22
135 139 0
145 153 0
144 153 0
148 152 16
146 154 16
141 148 0
149 156 16
160 167 11
146 152 0
152 162 0
159 170 0
151 162 0
153 165 0
155 167 0
155 165 0
156 167 0
160 175 0
157 168 0
156 169 0
151 163 0
164 179 0
155 167 0
159 171 0
155 166 0
156 170 0
162 178 0
162 178 0
161 174 0
159 172 0
163 179 0
166 184 0
158 172 0
162 177 0
163 181 0
166 183 0
164 181 0
163 179 0
160 178 0
166 183 0
163 182 0
159 177 0
164 179 0
163 182 0
165 179 0
168 186 0
162 179 0
166 183 0
164 185 0
160 178 0
165 185 0
207 224 224
205 223 218
208 225 230
207 225 221
209 226 231
208 226 226
206 224 223
210 228 238
206 223 217
209 227 231
204 223 217
202 221 217
204 222 209
199 218 203
204 221 207
196 215 193
197 217 194
200 219 204
197 217 193
197 216 199
197 216 189
195 215 191
193 213 177
190 211 169
194 215 188
194 214 175
192 213 167
194 214 177
193 214 179
192 213 171
190 210 167
188 208 151
192 213 171
186 207 153
190 210 159
187 208 155
189 210 155
186 208 142
193 213 175
187 208 157
185 208 147
185 207 151
190 211 163
180 202 130
187 208 151
182 204 140
182 204 127
187 208 142
182 203 127
184 205 142
191 211 159
186 207 140
185 206 149
186 208 149
186 207 130
184 206 140
192 213 169
189 210 155
187 208 133
192 212 163
191 212 169
189 209 163
192 212 163
191 211 157
192 212 161
192 212 165
197 216 189
192 212 177
193 213 182
187 207 169
181 201 188
186 205 209
178 197 217
179 198 214
170 189 209
169 188 219
165 185 221
167 187 210
142 164 200
157 178 207
143 165 208
140 162 203
147 169 207
134 157 204
141 163 207
144 166 203
129 152 198
131 154 201
124 148 196
116 141 198
118 143 198
114 139 192
103 130 187
101 129 190
109 136 194
110 135 190
91 121 189
98 125 186
85 115 181
85 115 181
74 106 174
69 103 171
71 104 174
67 102 174
73 106 168
76 109 176
66 101 165
77 109 167
69 103 165
73 106 163
61 97 169
65 100 169
67 102 169
68 103 169
64 99 163
65 101 170
64 99 162
62 98 173
62 97 161
63 98 163
66 101 165
62 98 171
64 99 165
60 96 161
61 97 170
61 98 166
61 98 168
61 97 161
61 97 164
61 98 167
62 98 169
60 96 159
61 97 161
61 97 162
61 98 164
60 97 160
61 97 158
60 96 160
61 97 158
61 97 160
61 97 161
61 97 165
61 97 159
62 99 167
61 97 162
61 97 165
62 98 163
62 98 163
61 97 160
62 98 165
61 97 159
62 98 165
63 99 170
62 98 158
62 98 160
63 98 161
62 97 161
61 97 155
61 97 157
61 97 154
61 97 160
61 97 157
61 98 164
62 99 169
62 98 165
62 98 165
62 98 163
62 98 165
63 99 162
61 96 153
62 98 161
62 98 162
61 97 157
62 98 164
61 97 157
61 97 153
62 98 160
62 98 162
61 97 157
61 97 153
62 98 163
62 98 160
61 97 156
62 98 159
62 98 159
63 99 163
62 98 161
62 97 158
61 96 154
62 98 156
61 96 151
61 97 156
62 98 156
62 97 157
61 97 156
61 97 153
62 98 161
61 96 151
61 97 156
62 98 153
61 97 150
62 97 156
62 97 154
61 97 147
62 98 156
61 97 152
62 98 158
62 97 156
62 98 161
62 98 160
61 96 147
61 96 148
61 97 155
61 97 152
61 97 153
60 96 152
62 97 152
62 97 158
63 98 156
60 95 150
61 97 155
60 95 144
61 97 153
62 98 159
61 96 151
61 97 153
62 98 154
59 95 143
61 97 153
60 96 147
61 97 152
61 96 141
61 96 147
61 97 145
61 97 150
62 97 152
61 96 143
61 96 149
61 96 147
60 96 150
61 96 144
62 97 151
61 96 150
61 96 143
61 96 142
61 96 144
59 94 133
60 95 130
60 95 139
61 96 147
61 96 142
60 94 138
61 96 151
60 94 134
59 93 135
60 95 136
59 93 133
58 92 132
60 95 134
59 93 128
66 91 107
91 106 87
98 110 67
108 113 25
119 123 11
114 119 0
104 110 0
122 126 0
114 116 0
114 118 0
110 114 0
97 102 0
113 112 11
103 104 0
107 109 11
104 102 0
109 108 0
99 98 11
100 98 0
99 100 0
93 90 0
105 104 14
86 84 11
98 94 11
99 97 0
95 93 0
85 80 0
91 87 0
98 96 8
90 88 0
109 104 0
100 97 0
96 93 0
88 84 0
99 96 0
104 101 0
105 100 8
98 96 0
99 93 0
96 90 0
107 102 0
103 99 0
103 100 0
102 97 0
106 101 0
109 107 0
108 104 0
100 94 0
102 96 0
109 106 11
114 110 16
105 100 0
110 106 11
106 101 11
112 107 16
109 104 11
110 104 16
106 103 0
115 109 11
116 112 25
114 112 0
103 99 0
114 111 0
110 105 19
109 104 11
122 119 11
110 106 16
116 112 16
106 100 16
117 113 11
110 105 0
114 112 0
122 118 16
111 108 0
128 127 11
128 123 11
118 115 25
119 115 11
117 116 11
123 121 0
128 126 11
120 117 11
140 140 19
142 145 11
132 134 19
127 128 11
132 135 16
136 139 0
134 137 16
137 142 0
145 149 11
146 151 11
142 148 0
143 151 0
150 159 19
153 165 0
148 156 16
154 165 11
148 157 0
151 161 0
158 169 0
150 158 0
162 173 0
153 163 0
154 164 0
159 171 0
149 161 0
155 168 0
160 173 0
160 170 0
154 167 0
156 169 0
160 174 0
162 177 0
158 171 0
165 179 0
162 176 0
163 176 0
156 170 0
155 169 0
165 181 0
159 177 0
166 182 0
163 177 0
161 176 0
164 180 0
166 182 0
168 186 0
166 184 0
166 183 0
165 182 0
163 179 0
162 181 0
165 182 0
167 187 0
167 185 0
168 187 0
164 181 0
167 185 0
166 184 0
206 225 223
206 224 223
206 223 218
206 224 215
205 223 218
206 224 227
206 223 220
208 225 226
205 223 212
202 221 218
199 219 201
204 223 214
194 213 182
200 218 196
197 217 188
197 217 188
196 215 186
199 218 199
196 215 184
192 213 175
192 212 173
190 210 169
197 216 182
191 212 171
189 209 151
189 209 153
192 212 165
192 213 165
190 211 167
185 206 151
186 207 149
187 208 142
185 206 144
183 205 117
184 205 135
185 206 140
185 206 153
186 208 147
182 204 137
181 203 133
183 206 144
183 205 133
186 208 144
181 202 120
184 206 137
182 204 114
181 203 135
182 204 120
182 205 125
186 208 137
179 201 122
185 207 137
181 203 120
182 204 130
179 201 102
184 206 135
184 205 144
186 207 144
182 203 127
184 205 135
190 211 161
185 207 144
184 206 133
186 208 147
187 208 151
190 211 153
190 211 157
189 210 155
184 204 161
194 213 184
185 205 177
171 192 179
175 195 197
171 191 213
158 179 203
158 178 209
149 170 205
164 184 210
156 177 203
148 170 198
155 176 212
147 169 208
128 152 197
142 164 204
139 161 203
131 154 197
105 132 185
121 145 191
102 129 189
113 139 195
124 148 197
113 138 195
116 141 197
116 141 196
111 136 194
103 130 189
102 129 188
85 115 184
98 125 186
89 118 185
95 123 178
86 116 178
71 105 175
71 104 172
66 101 169
74 107 174
83 114 175
64 100 170
60 96 166
61 97 167
75 107 166
73 106 174
67 101 160
64 99 162
69 104 159
67 101 167
67 102 171
62 98 171
64 99 166
60 96 162
62 97 160
62 98 168
61 97 163
62 98 160
64 99 164
61 97 168
61 97 165
61 97 162
62 97 155
61 97 161
61 97 157
61 97 164
61 97 164
60 97 162
62 98 166
61 97 166
61 96 157
61 97 156
61 97 160
61 97 165
61 97 163
61 97 162
61 97 163
62 98 163
62 98 169
62 98 164
62 98 169
61 97 158
62 98 168
61 96 156
60 96 155
63 99 169
63 99 166
61 97 156
62 98 167
63 99 169
62 98 159
62 98 163
61 97 153
62 98 162
62 99 168
61 97 158
61 97 159
62 98 162
62 98 160
61 97 154
62 98 161
62 98 158
61 97 157
62 98 160
62 98 161
61 97 156
61 97 159
63 99 164
62 98 161
61 97 153
62 97 159
61 97 154
63 99 165
63 98 157
62 98 158
61 97 158
62 97 154
62 98 160
62 98 156
61 97 156
62 97 155
61 96 154
61 97 153
61 97 153
62 98 159
61 97 154
61 97 155
61 97 159
62 98 159
62 99 167
61 96 150
62 97 158
61 97 153
62 97 155
61 97 153
61 96 156
62 97 158
60 95 144
61 96 140
62 97 152
59 95 139
61 96 155
62 98 155
62 98 157
62 97 151
62 98 160
62 97 149
61 97 152
61 96 149
62 97 155
62 98 158
61 97 155
61 96 152
62 97 153
62 97 150
60 95 141
61 96 149
60 96 147
61 97 147
61 97 150
62 97 149
63 99 158
61 96 145
61 97 147
62 97 147
62 98 157
59 94 141
60 95 141
60 95 141
61 97 152
61 96 142
61 96 145
62 98 154
62 97 150
61 96 142
61 96 150
61 97 148
62 97 151
59 94 139
61 96 149
60 94 139
60 95 141
60 95 139
60 95 138
60 95 148
58 93 137
59 93 129
60 94 134
60 94 139
59 93 132
59 93 130
58 91 123
57 90 120
60 90 115
70 94 111
92 106 72
106 115 60
119 125 18
120 128 0
115 121 0
120 125 0
113 118 0
111 113 0
107 113 0
100 102 0
100 100 11
86 88 0
100 104 16
112 116 11
117 120 0
100 100 0
96 95 0
102 103 0
104 104 0
108 108 0
97 96 0
97 92 0
96 94 0
96 94 0
94 94 0
98 97 16
88 86 0
100 96 0
95 93 0
104 101 0
100 97 0
93 91 0
99 95 0
96 90 0
99 97 0
103 97 0
101 96 0
101 97 0
103 100 0
105 101 0
106 103 0
110 105 0
98 92 0
99 94 0
113 108 0
108 105 0
104 101 0
103 98 0
113 109 0
108 102 0
106 101 11
103 97 16
101 95 16
104 98 0
106 99 11
101 95 0
114 110 0
103 100 0
113 107 0
117 112 0
118 113 19
114 109 11
114 108 19
112 107 11
106 101 11
122 121 11
107 102 11
112 108 11
111 108 16
111 107 11
124 118 16
128 126 11
119 116 0
117 113 11
130 127 16
126 125 0
129 129 16
121 121 11
120 118 0
130 131 0
125 127 11
127 131 0
127 128 11
129 132 0
141 143 11
131 135 0
125 129 0
133 134 0
143 149 11
139 144 16
136 139 19
150 156 0
143 150 0
145 152 11
152 161 0
150 157 0
153 161 0
149 156 0
148 158 0
155 165 0
159 170 0
154 163 0
152 163 0
154 165 0
159 169 0
156 168 0
158 170 0
153 164 0
156 167 0
154 167 0
158 171 0
157 170 0
161 177 0
159 172 0
158 173 0
161 175 0
155 166 0
161 173 0
161 178 0
158 173 0
157 172 0
161 176 0
162 177 0
158 172 0
167 184 0
163 179 0
161 175 0
160 178 0
167 183 0
160 174 0
162 178 0
165 184 0
165 181 0
164 181 0
164 182 0
166 184 0
169 187 0
169 190 0
166 183 0
206 224 223
207 224 223
206 224 220
201 220 204
201 220 203
202 220 206
205 223 215
205 223 214
203 221 211
204 222 212
198 218 203
201 220 206
195 216 188
195 215 184
196 215 181
191 211 169
195 215 182
196 216 188
192 213 177
189 210 167
193 213 169
190 211 167
192 212 165
185 206 137
186 207 153
191 211 167
185 206 149
186 208 149
185 206 122
181 203 117
189 210 155
183 205 122
183 206 130
181 203 108
179 201 142
180 202 117
183 205 125
181 204 122
178 201 84
181 204 111
180 202 127
183 205 133
179 202 95
181 203 111
181 203 114
180 202 102
176 198 102
182 205 120
182 204 114
180 201 108
180 201 117
179 201 125
179 201 125
177 199 114
181 203 125
181 203 117
186 208 133
183 205 127
184 206 130
180 202 122
182 203 120
181 204 133
188 209 149
182 204 130
188 209 144
183 205 137
187 208 149
190 210 163
177 198 150
182 203 151
182 202 180
172 192 191
162 183 195
148 169 185
147 169 193
154 175 202
150 171 202
143 165 199
151 172 203
152 173 203
133 156 199
130 154 188
132 156 197
135 158 198
134 157 198
121 145 191
129 153 200
121 146 190
128 152 201
123 147 196
112 138 191
108 134 194
108 135 188
98 126 189
97 125 187
103 130 190
103 130 188
84 114 179
99 127 186
96 125 185
84 115 182
77 109 178
68 103 174
77 109 173
72 105 167
73 106 175
74 107 171
74 106 168
73 106 167
68 102 164
66 101 167
69 103 169
67 102 160
65 100 160
78 110 168
69 102 161
64 99 165
62 98 161
61 97 164
61 97 162
60 96 163
61 97 166
60 96 159
62 98 166
60 96 167
62 99 171
61 97 163
62 98 163
61 97 160
61 97 159
64 99 163
61 97 160
60 96 158
61 97 163
62 98 163
62 98 166
60 95 156
61 97 162
61 97 157
61 97 158
60 95 155
61 97 159
61 97 165
62 98 160
60 96 159
61 97 156
61 96 157
62 98 164
61 97 160
62 98 164
60 96 152
61 98 163
62 98 161
62 98 167
62 98 163
61 97 156
61 97 155
62 98 165
61 96 155
62 98 161
62 98 160
61 97 153
62 98 161
61 97 157
62 98 154
62 98 161
62 97 157
61 97 157
62 98 165
62 98 156
62 98 160
61 97 157
63 98 161
62 98 157
62 98 165
61 96 148
62 98 163
62 98 164
61 97 158
62 98 164
62 98 166
62 98 158
62 98 161
62 98 154
62 98 164
61 97 153
62 98 156
62 98 160
62 98 160
62 98 162
62 97 152
61 96 147
60 95 147
61 97 152
62 98 157
61 96 149
61 97 154
62 97 159
61 96 152
62 98 163
62 98 161
62 97 151
63 99 163
61 96 144
63 99 160
62 98 161
61 96 149
61 97 151
60 95 141
62 97 157
61 96 153
62 98 159
60 96 148
61 96 150
61 97 149
60 96 153
62 97 154
60 95 142
62 98 158
62 97 153
61 97 145
62 97 159
61 97 151
62 97 157
62 97 150
62 98 155
61 96 147
61 97 145
60 95 139
61 96 142
60 95 140
61 97 152
61 97 155
61 96 150
60 96 147
61 95 150
61 96 149
61 97 151
59 94 141
60 95 135
61 96 144
61 96 148
61 97 149
59 94 136
60 95 140
60 95 143
61 95 139
59 93 138
60 94 147
60 95 143
60 94 141
59 94 127
60 95 145
60 94 131
59 94 136
59 93 132
58 93 134
58 92 125
57 90 127
62 91 104
88 105 95
102 115 75
116 124 18
107 113 0
119 124 0
120 126 0
110 115 0
107 110 0
100 104 16
99 105 0
105 106 0
112 116 0
113 113 0
105 105 0
95 95 11
106 105 0
100 102 0
96 96 0
112 114 11
106 104 0
86 84 0
106 106 0
103 102 0
92 92 8
102 100 0
101 99 0
108 106 0
103 102 0
98 95 0
107 105 3
102 98 0
100 97 0
108 105 0
102 97 0
84 80 0
107 103 11
94 94 0
95 90 0
108 107 0
95 92 0
105 99 0
93 87 11
95 89 0
98 96 0
90 86 0
110 103 11
100 95 0
107 103 0
105 102 0
91 85 0
111 106 0
98 95 0
112 108 11
101 95 0
114 111 0
115 111 0
108 105 0
105 101 11
114 109 0
112 110 0
119 115 16
106 101 0
102 97 0
108 105 0
112 107 0
117 113 11
112 110 0
119 116 11
111 107 11
125 121 0
131 129 11
123 121 19
121 118 0
125 123 0
122 121 16
125 123 0
119 119 0
129 127 11
119 114 16
127 126 16
127 127 0
130 132 16
134 136 19
129 129 11
132 134 11
140 143 11
133 136 0
133 137 11
136 140 0
144 149 11
144 150 11
152 159 0
148 157 0
151 159 0
143 150 11
149 156 0
153 160 0
153 161 0
147 156 0
159 168 0
150 159 0
147 157 0
149 159 0
154 165 0
157 169 0
158 169 0
163 176 0
157 169 0
159 171 0
160 171 0
162 175 0
157 169 0
159 175 0
164 178 0
160 174 0
162 176 0
165 182 0
162 178 0
158 172 0
160 177 0
163 179 0
162 175 0
158 173 0
161 176 0
162 177 0
164 181 0
163 179 0
164 178 0
166 181 0
162 178 0
164 181 0
165 180 0
166 184 0
162 178 0
162 180 0
170 188 0
165 183 0
165 183 0
166 183 0
166 184 0
203 222 212
205 223 215
205 224 221
207 224 226
207 224 223
198 217 193
205 223 211
201 220 206
200 219 199
201 219 206
186 207 163
195 214 184
193 213 177
192 213 173
196 216 186
195 215 182
192 213 173
185 205 140
188 209 155
187 209 153
191 211 163
187 208 140
186 208 149
184 206 157
188 209 147
182 203 125
181 203 127
181 204 122
180 202 117
180 202 111
181 203 108
178 200 111
181 202 102
180 202 111
178 200 105
179 202 111
174 197 95
181 203 117
176 199 80
177 200 99
179 202 108
180 202 102
179 202 108
177 201 95
177 200 99
176 200 76
175 199 99
176 199 84
177 199 99
178 200 99
176 199 88
180 203 102
175 198 95
178 201 111
180 202 102
178 200 108
177 200 99
179 201 102
183 204 108
180 203 125
177 201 108
179 202 102
180 203 117
183 205 127
186 207 130
177 199 120
185 206 127
185 207 136
182 204 149
176 197 151
176 198 162
163 185 162
147 169 188
154 175 205
142 165 188
144 165 188
145 166 195
153 175 194
136 159 194
138 160 192
136 159 202
129 152 192
140 163 190
127 151 194
112 138 188
126 150 196
109 135 186
113 138 190
112 138 192
110 136 189
123 147 194
113 139 188
117 142 194
104 130 188
99 127 186
88 118 185
103 130 188
106 133 191
93 122 185
99 126 185
81 113 182
99 126 181
89 119 185
71 105 174
80 111 179
82 113 177
66 101 166
65 100 164
79 110 174
61 98 170
67 102 165
69 103 176
61 98 169
65 100 160
60 96 162
63 98 163
63 98 160
68 102 162
71 104 166
61 97 161
61 96 161
65 101 164
63 98 152
62 98 166
66 100 163
61 97 164
63 99 162
65 100 164
61 97 159
63 98 154
61 97 162
61 97 161
61 97 166
60 96 155
61 97 163
61 98 170
62 98 162
62 98 165
62 98 159
62 98 168
62 98 163
61 97 164
60 95 156
63 99 169
61 97 161
60 96 155
62 99 167
62 98 162
61 97 156
61 97 158
62 98 164
61 97 157
61 98 163
60 96 151
61 98 164
62 99 163
61 97 157
62 98 162
61 98 159
62 98 165
63 99 167
61 97 157
62 98 165
61 97 161
61 97 157
62 98 163
61 97 161
62 99 165
62 98 162
62 97 161
61 97 153
62 98 161
61 97 158
60 96 152
62 98 165
62 97 159
62 98 162
62 97 157
62 98 160
62 98 164
62 98 162
61 97 154
62 98 162
61 97 149
62 98 155
62 98 160
62 98 159
61 97 151
62 98 157
61 97 156
61 97 153
62 98 159
62 98 158
62 98 159
62 98 155
62 98 155
61 97 154
61 97 154
61 96 145
61 96 155
62 97 153
62 98 157
61 97 153
61 97 149
61 97 155
62 97 157
62 98 155
62 97 152
60 96 148
62 98 160
59 94 135
61 96 141
61 97 147
62 97 153
61 97 154
61 97 154
61 96 147
62 97 159
61 97 153
61 97 148
62 97 153
61 96 148
60 95 141
62 97 156
61 96 156
62 97 154
60 95 137
62 97 151
61 96 145
60 96 148
62 97 153
61 97 149
61 97 151
60 95 140
60 96 148
60 96 149
61 96 142
62 98 155
61 96 147
60 94 136
60 95 135
61 96 142
60 96 137
61 96 147
60 94 135
62 98 153
61 96 142
61 96 144
59 94 131
60 95 140
61 96 146
60 94 138
60 95 136
61 95 140
61 94 140
59 93 134
60 94 134
59 94 142
61 93 134
78 102 118
93 108 86
87 96 54
112 117 25
119 124 0
119 125 0
130 137 0
118 124 0
108 113 0
107 109 0
103 107 0
100 101 0
110 114 0
109 109 0
115 117 0
106 108 0
105 108 0
107 105 0
108 110 0
94 96 0
98 100 0
96 95 0
101 100 0
93 94 0
99 102 0
102 101 11
93 89 0
93 93 0
102 102 0
115 112 0
97 95 0
96 95 0
98 98 0
88 84 0
92 90 0
93 88 0
97 93 0
102 99 0
98 95 0
99 95 11
102 100 0
113 110 0
102 98 0
104 103 0
99 95 0
93 90 0
101 98 0
105 102 0
100 95 0
103 100 0
107 103 11
106 103 0
108 103 0
118 111 11
103 99 0
111 107 19
109 104 8
116 111 11
120 116 11
101 98 0
113 108 0
112 106 0
105 97 0
123 122 0
111 105 0
116 111 11
105 101 0
119 117 0
120 117 0
117 114 0
115 117 11
120 118 11
119 118 11
123 123 11
118 116 0
123 122 0
121 118 16
119 117 0
133 134 16
131 130 16
132 134 11
136 137 19
136 138 11
143 145 0
139 141 16
133 137 0
134 139 0
141 149 0
139 144 16
142 150 11
144 152 0
145 151 0
146 155 11
148 156 0
145 152 0
146 152 0
149 156 0
152 161 0
158 168 0
150 159 0
158 166 0
149 156 0
148 155 0
154 165 0
151 162 0
154 166 0
156 170 0
158 172 0
153 164 0
160 174 0
159 171 0
157 170 0
154 168 0
160 174 0
152 164 0
157 172 0
160 175 0
163 175 0
160 174 0
155 170 0
163 180 0
163 178 0
160 174 0
159 175 0
162 179 0
161 176 0
163 179 0
160 175 0
159 175 0
166 185 0
161 177 0
166 181 0
162 178 0
160 176 0
167 185 0
168 186 0
168 187 0
169 184 0
164 180 0
164 181 0
161 180 0
206 224 215
203 221 212
204 222 209
201 220 206
197 216 203
203 222 214
196 216 191
197 216 193
196 215 196
197 216 194
196 216 196
194 214 181
193 214 173
190 211 167
191 211 159
195 214 173
192 213 175
181 203 130
188 209 142
184 205 127
186 207 144
183 204 137
185 206 135
184 205 137
182 204 117
178 200 99
183 204 122
174 199 99
184 205 127
179 202 105
178 201 108
177 201 92
179 202 99
176 200 88
176 198 88
175 198 80
177 200 108
180 203 111
180 203 117
177 200 108
177 199 84
178 200 76
174 197 84
177 200 105
176 199 99
175 198 99
175 199 99
175 197 62
172 195 72
177 200 84
174 197 92
177 200 108
176 199 105
172 195 84
175 198 80
175 198 80
176 198 88
177 199 80
176 199 84
175 198 80
180 201 102
181 203 102
174 197 99
179 202 102
181 203 122
179 202 95
180 202 122
181 203 121
177 199 143
168 190 115
162 184 155
164 187 158
138 162 168
141 164 183
132 155 187
122 146 188
147 168 196
125 150 190
131 154 188
145 167 199
118 143 182
136 159 189
120 144 185
126 150 186
118 144 187
139 162 204
103 130 182
110 136 191
114 140 186
115 140 190
104 131 186
105 132 177
106 133 192
94 123 178
95 123 180
112 137 191
98 126 187
89 119 187
98 126 187
82 113 181
77 109 180
90 119 180
77 109 176
84 114 176
84 114 178
78 110 170
65 101 173
71 105 171
74 106 173
69 103 171
72 105 170
68 102 168
76 107 164
75 106 167
66 101 161
69 103 168
69 103 168
61 98 169
61 97 157
64 99 162
63 98 157
60 96 159
61 96 156
61 97 160
61 97 156
60 96 160
61 97 163
60 96 154
60 96 163
61 96 157
61 97 164
60 96 157
61 97 166
60 96 155
61 97 164
61 97 164
62 98 164
60 95 147
61 97 158
62 98 159
61 97 159
61 97 157
61 97 163
61 97 156
61 97 163
62 98 159
62 98 163
61 97 155
61 97 157
62 98 167
62 98 167
61 97 160
61 97 157
61 97 161
63 99 162
61 97 158
61 96 153
62 98 160
62 99 163
62 98 158
62 98 163
61 97 154
62 98 166
61 97 159
61 97 156
62 98 157
62 98 157
62 98 159
62 98 167
62 98 161
61 96 152
62 98 164
62 98 162
62 98 160
62 98 156
62 98 163
62 98 161
61 97 152
62 98 158
61 97 157
61 96 149
60 96 151
61 97 157
63 99 165
63 99 170
62 98 157
62 97 151
62 98 156
62 97 152
61 97 154
62 98 164
62 98 159
62 98 158
62 98 161
62 97 151
62 98 156
61 96 145
62 97 155
62 98 160
61 96 149
61 97 148
62 98 160
62 97 161
62 98 157
60 96 149
62 98 155
62 98 156
61 97 160
61 96 147
62 98 162
60 96 145
62 98 154
62 98 160
62 98 157
62 97 156
61 97 148
62 97 148
61 97 150
61 97 150
62 97 152
61 96 147
62 97 155
61 96 148
60 96 145
62 98 154
61 96 148
61 96 145
62 97 151
62 98 151
62 97 154
62 98 153
62 98 157
62 97 152
62 97 150
62 97 151
62 97 148
61 96 142
60 95 142
60 95 144
61 96 141
61 96 145
61 96 144
61 96 145
61 97 151
61 95 136
60 95 137
60 95 143
60 95 139
60 94 132
60 95 139
60 95 136
60 96 140
59 93 141
60 94 137
60 94 135
60 94 132
59 93 137
57 90 129
59 91 117
82 104 104
93 107 81
98 110 57
124 129 0
117 123 0
120 126 0
113 119 0
119 124 0
104 105 0
119 124 0
113 117 0
107 108 0
112 116 0
111 117 0
105 107 0
107 111 0
107 108 0
110 110 0
109 110 0
105 107 0
113 113 0
89 87 0
104 105 11
106 108 0
98 96 0
100 102 0
97 99 0
94 92 0
88 85 0
95 94 0
98 95 11
103 103 0
102 101 0
92 89 8
103 98 0
96 95 0
92 88 0
104 100 0
98 96 0
97 91 0
99 95 0
99 96 0
103 102 0
105 102 0
106 105 0
109 106 0
91 90 0
96 94 0
112 108 0
104 101 0
106 103 0
107 104 0
111 108 0
111 107 0
109 106 0
114 113 16
110 108 0
109 106 11
94 89 0
114 109 0
109 106 11
111 109 0
107 104 0
101 98 11
115 110 19
114 111 0
116 113 11
117 112 11
121 117 0
127 126 0
126 127 11
106 102 0
129 129 16
118 114 11
119 118 0
127 126 16
134 135 11
127 127 0
126 124 0
131 134 11
127 130 11
129 131 0
125 128 0
136 138 0
131 135 11
132 139 0
147 151 0
134 138 11
148 156 0
146 153 0
147 155 0
149 157 11
148 153 0
149 159 0
145 154 0
148 155 0
145 154 0
150 159 0
150 160 0
153 163 0
155 164 0
155 164 0
151 162 0
151 161 0
160 172 0
153 164 0
152 163 0
159 170 0
159 173 0
156 167 0
159 172 0
161 173 0
162 178 0
162 177 0
157 171 0
161 177 0
160 173 0
162 176 0
159 171 0
161 175 0
158 174 0
164 180 0
158 171 0
161 175 0
159 174 0
165 182 0
160 176 0
161 178 0
165 183 0
157 172 0
161 177 0
169 187 0
166 181 0
165 180 0
166 182 0
165 181 0
163 181 0
166 183 0
157 173 0
166 184 0
163 180 0
203 221 207
199 218 191
198 216 193
196 215 196
201 219 206
199 217 196
197 216 191
197 217 191
190 210 175
193 213 173
192 212 165
192 212 173
186 207 149
188 209 153
184 205 137
185 206 147
181 205 137
183 205 122
186 207 135
186 208 151
184 205 137
180 202 117
180 202 122
176 199 88
179 202 108
181 204 127
180 203 108
176 199 102
180 202 105
176 199 95
176 199 76
177 200 99
171 194 62
176 199 95
174 196 62
177 200 84
176 200 88
174 197 88
176 199 76
174 197 72
172 197 92
173 197 76
176 199 62
173 196 67
173 197 62
173 196 72
174 198 92
173 196 67
172 194 44
176 199 76
172 195 62
174 197 80
175 199 80
174 197 67
177 200 92
173 196 84
172 195 72
174 198 72
179 202 95
177 200 84
172 195 62
173 196 67
177 200 76
178 200 102
175 199 84
178 201 114
176 198 88
177 199 103
173 196 110
165 188 130
164 186 139
152 174 164
135 159 181
125 150 175
144 166 194
124 148 184
138 161 191
124 148 189
138 161 190
125 148 185
125 149 181
122 147 187
115 140 180
119 143 185
122 147 185
103 130 186
103 129 180
105 132 184
112 138 185
111 137 188
110 136 191
99 128 182
108 135 190
102 129 185
100 128 181
89 119 182
94 123 186
96 124 188
85 115 181
110 136 194
90 119 183
90 120 181
81 112 178
68 102 173
71 105 177
85 115 183
73 106 172
73 106 173
65 100 171
74 107 177
67 102 171
73 106 170
69 103 164
68 102 163
74 107 167
64 98 158
65 100 160
68 102 164
60 95 154
63 99 160
64 99 165
62 97 153
65 99 158
63 98 160
65 100 159
63 98 162
63 98 157
62 97 163
61 97 159
62 98 171
62 98 161
60 96 159
63 98 158
61 96 158
61 97 163
62 98 164
61 97 158
61 97 154
62 98 163
61 97 159
62 98 160
61 96 154
61 97 159
61 98 163
61 97 163
62 98 162
61 97 162
61 97 159
61 97 161
61 97 160
62 98 160
61 97 161
62 98 161
61 97 158
60 96 151
62 98 167
61 97 158
61 97 160
62 98 161
61 97 153
61 97 159
62 97 154
62 99 166
60 95 139
62 98 159
62 98 160
62 97 155
61 97 157
62 97 154
62 98 159
63 99 166
61 97 162
61 97 153
62 98 157
62 98 156
61 97 156
61 97 154
62 98 158
62 97 150
61 97 159
62 98 156
61 97 155
62 98 157
62 97 156
63 98 162
60 96 148
61 97 154
61 97 153
62 97 156
61 97 155
61 97 154
62 97 157
61 97 155
62 98 162
62 97 158
61 97 150
61 97 156
62 98 156
62 98 156
63 99 157
62 97 155
61 97 151
61 97 158
61 97 150
62 97 152
61 97 157
61 97 155
62 97 149
61 97 155
60 95 144
62 97 150
62 97 152
62 97 153
60 95 144
62 97 153
60 95 144
61 96 148
61 97 153
61 96 148
61 96 151
61 97 151
61 96 141
61 97 151
62 98 155
61 96 142
61 97 151
60 95 143
61 96 151
61 96 148
60 95 144
61 95 141
60 96 147
60 96 141
61 97 152
60 95 141
62 97 151
60 95 149
61 96 148
62 98 150
60 95 141
60 95 136
60 95 143
61 96 140
61 96 137
60 94 133
60 95 139
59 94 139
60 95 140
59 93 131
61 95 142
58 92 117
60 94 135
59 93 134
58 91 129
59 93 131
60 94 137
57 91 118
58 91 115
63 91 121
78 100 110
108 118 66
113 123 54
117 123 0
112 118 0
114 121 0
112 120 0
118 127 0
116 120 0
104 108 0
112 119 0
109 113 0
106 108 0
108 114 0
101 102 0
106 112 0
103 105 11
101 105 0
104 105 0
107 108 0
98 101 0
102 101 0
96 97 0
108 109 11
110 111 0
109 110 0
99 95 0
101 102 0
104 103 0
102 101 0
92 93 0
106 107 0
106 106 0
102 102 0
79 72 0
104 103 0
100 96 0
112 108 0
90 85 0
93 91 0
105 101 0
107 104 0
111 108 0
86 83 0
102 100 0
117 113 0
99 93 3
101 99 0
96 94 0
109 104 0
102 98 0
108 105 0
112 110 11
113 108 0
119 116 0
120 118 11
117 116 0
109 106 0
116 113 0
109 109 0
111 109 11
112 110 0
112 109 0
107 106 0
118 116 0
115 112 0
122 121 0
108 105 0
121 122 0
123 120 16
119 117 0
131 133 0
130 129 0
126 125 0
130 131 0
122 123 0
128 130 11
130 130 11
127 128 11
123 124 0
126 131 0
133 138 0
124 124 11
140 143 11
136 135 0
141 146 0
146 152 0
143 147 11
140 145 11
142 148 0
140 148 0
139 144 0
153 161 0
146 154 0
146 154 0
148 158 0
157 168 0
157 167 0
151 158 0
155 164 0
151 162 0
159 171 0
153 163 0
156 167 0
153 164 0
146 157 0
161 174 0
158 171 0
156 168 0
150 162 0
161 172 0
159 174 0
157 169 0
164 178 0
157 170 0
158 171 0
162 177 0
160 174 0
156 169 0
162 177 0
158 173 0
157 174 0
161 175 0
160 176 0
164 180 0
160 174 0
163 177 0
161 177 0
164 180 0
164 181 0
163 180 0
165 182 0
163 182 0
158 175 0
165 182 0
165 183 0
165 182 0
165 184 0
165 184 0
161 180 0
170 189 0
197 217 193
197 217 194
200 218 194
192 212 171
198 217 189
197 216 181
194 213 181
192 213 169
191 210 163
191 211 171
190 210 157
188 209 151
193 213 163
187 208 147
183 204 130
182 203 130
183 205 127
179 201 120
185 207 147
179 202 108
178 201 99
177 199 92
179 202 108
174 197 95
179 202 95
178 202 108
177 201 99
179 202 92
175 198 95
172 194 80
176 199 95
176 200 76
176 199 67
175 198 84
175 199 57
173 197 88
174 197 62
176 199 51
176 199 99
172 196 57
174 197 76
173 198 76
174 197 72
175 199 88
174 197 62
171 195 76
175 199 88
174 198 80
174 198 80
176 200 88
172 195 57
174 198 72
178 201 92
173 197 72
175 198 92
170 193 67
172 196 62
175 199 84
174 197 62
177 200 67
175 198 95
174 197 72
174 197 99
173 197 76
177 199 72
174 197 88
175 198 94
173 196 94
161 184 120
159 182 124
151 175 131
149 173 142
140 163 163
113 139 171
106 133 172
126 151 183
120 146 181
129 152 193
122 147 181
111 137 173
118 144 181
121 145 185
121 146 191
112 137 178
110 136 171
109 135 179
113 139 188
113 139 184
106 133 175
112 138 191
104 132 183
98 126 182
95 123 180
95 123 184
87 117 181
100 128 185
93 122 180
86 117 178
97 125 189
74 107 173
83 114 176
86 116 181
96 124 188
96 124 188
86 116 181
74 107 177
71 105 176
86 116 181
62 98 172
65 100 171
66 102 170
74 106 175
71 104 169
71 104 168
69 103 167
69 103 169
75 107 165
64 99 165
62 98 164
68 102 161
61 98 166
66 101 164
63 99 164
60 96 157
61 97 164
66 100 162
61 97 160
60 95 145
66 100 155
63 99 161
60 96 158
63 98 156
61 97 151
60 96 160
62 98 163
60 96 154
62 98 164
61 97 160
61 97 160
61 96 155
60 96 155
60 96 160
60 95 158
61 96 156
61 98 158
62 98 164
61 97 155
61 97 162
61 97 161
61 98 162
61 97 162
62 98 163
61 97 157
60 96 155
62 98 163
62 98 156
61 97 154
61 97 156
62 98 161
61 96 155
61 97 156
62 97 161
60 96 149
62 98 165
62 97 157
63 99 162
62 99 166
61 97 157
61 96 147
61 97 155
61 97 155
61 97 158
62 98 161
62 98 163
62 97 154
61 97 159
61 97 153
61 97 157
61 97 155
62 98 161
63 98 160
62 98 160
61 97 156
62 98 159
61 97 155
62 98 154
62 97 158
61 97 156
63 99 164
61 97 152
62 98 155
62 98 158
61 97 157
61 96 157
62 98 158
61 97 154
61 97 157
62 97 154
62 98 163
62 98 159
61 96 155
61 97 148
61 97 157
62 97 155
61 97 150
61 96 145
63 98 157
61 97 149
61 96 154
61 97 152
62 98 158
61 97 148
61 97 148
61 97 153
61 96 150
61 97 145
62 97 159
61 96 144
61 97 153
61 96 152
61 97 151
61 97 145
59 94 139
61 97 149
61 97 154
60 95 144
61 96 150
61 96 141
61 96 145
61 97 154
61 97 154
61 96 150
61 95 139
61 97 147
60 95 134
62 97 148
61 96 149
61 96 139
62 97 152
60 94 139
61 96 144
60 95 137
60 95 139
62 97 145
59 94 139
59 94 127
60 95 130
60 94 142
61 96 140
60 94 130
60 95 139
59 94 136
61 95 140
58 92 126
58 91 124
60 94 147
61 95 142
59 93 123
78 103 108
84 103 92
93 103 55
115 124 31
115 121 0
110 117 0
117 123 0
115 119 0
109 117 0
112 117 0
104 110 0
104 109 0
120 125 0
118 120 0
112 115 0
115 120 0
107 111 0
105 108 0
115 119 0
101 102 11
106 106 0
109 113 0
110 112 0
116 117 0
90 93 0
103 106 0
115 115 0
108 109 0
94 94 0
110 108 0
107 108 0
101 100 0
103 100 0
108 106 0
108 106 0
92 89 0
115 115 0
105 104 0
100 101 0
102 97 0
100 97 0
114 110 0
110 108 0
114 112 0
104 103 0
107 106 0
108 104 0
104 100 0
116 112 0
112 107 0
116 114 0
113 110 0
110 109 0
108 102 0
106 101 0
120 121 0
119 116 0
119 116 0
99 97 11
106 106 0
116 114 0
118 117 11
124 123 11
119 116 0
115 116 0
128 128 0
126 124 0
125 121 11
124 122 11
117 114 11
123 121 0
114 113 0
123 124 11
125 124 16
119 115 16
125 124 11
129 128 11
120 121 0
135 137 11
125 129 0
135 137 11
130 134 0
133 131 0
134 139 0
146 153 0
144 148 0
137 141 0
146 151 0
139 143 0
144 151 0
146 150 0
150 155 0
146 154 0
149 156 0
144 152 0
151 158 0
154 164 0
146 154 0
151 158 0
154 164 0
148 159 0
156 166 0
156 168 0
157 169 0
166 178 0
154 165 0
154 166 0
159 172 0
159 174 0
153 163 0
159 171 0
155 165 0
160 174 0
160 173 0
149 163 0
163 178 0
160 174 0
157 170 0
159 174 0
162 176 0
160 175 0
160 175 0
163 180 0
165 181 0
159 175 0
160 178 0
160 174 0
160 174 0
160 178 0
162 181 0
165 180 0
160 177 0
162 177 0
167 187 0
165 183 0
163 177 0
165 183 0
162 179 0
164 181 0
161 178 0
163 183 0
164 182 0
194 214 182
193 213 179
196 215 177
196 216 182
194 214 173
192 212 169
189 210 165
191 211 171
184 206 137
188 209 147
182 204 155
188 210 151
185 206 144
184 206 135
182 204 117
185 206 127
180 202 108
183 204 114
176 200 111
181 203 114
172 196 80
181 203 95
175 199 76
174 197 72
178 202 117
175 199 76
168 191 76
176 199 72
176 200 92
173 196 76
174 197 76
173 197 72
173 197 57
172 197 62
173 196 62
174 198 84
173 197 62
173 197 76
172 196 80
173 197 62
171 195 62
177 200 95
174 197 76
170 194 57
172 196 67
174 196 62
173 196 72
172 195 72
175 198 72
173 197 92
175 199 76
174 198 92
175 199 84
172 195 36
175 199 72
172 195 62
172 195 57
174 197 92
173 196 84
174 198 76
171 195 57
171 195 80
171 195 62
172 195 51
169 192 57
174 198 92
174 197 76
172 196 84
161 185 90
160 184 113
144 167 124
134 159 134
112 138 156
110 137 160
105 132 168
118 144 175
109 135 179
130 154 172
117 142 175
125 149 185
126 151 178
112 138 176
106 132 178
109 135 179
103 130 171
96 124 172
103 131 175
109 136 185
111 137 184
94 123 185
104 131 187
100 128 180
89 119 176
97 126 175
90 120 183
100 128 185
96 125 179
92 121 169
93 122 180
91 120 183
80 111 173
88 118 181
87 117 183
71 105 178
79 110 178
81 113 176
80 111 174
73 107 176
70 104 170
78 110 173
71 104 172
70 104 170
65 101 169
67 102 172
64 100 166
66 100 159
65 100 163
61 97 167
62 98 165
63 97 157
67 101 166
61 97 161
63 98 163
61 97 162
63 98 158
63 98 159
62 98 163
62 98 166
62 98 165
64 99 159
61 97 160
62 98 165
63 99 161
61 97 158
61 96 152
61 96 159
61 97 157
60 96 148
61 98 161
61 97 157
62 98 169
61 97 163
61 97 153
61 97 161
60 96 156
61 97 160
61 97 157
61 97 159
61 97 152
62 99 166
61 98 161
62 98 160
62 97 159
62 98 161
62 98 160
62 98 162
61 97 158
61 98 160
60 96 159
62 98 164
61 97 154
61 97 153
61 97 153
61 97 158
61 97 154
62 98 164
62 98 163
62 98 161
61 97 154
62 98 159
62 98 160
61 97 157
61 97 160
61 96 153
61 97 155
62 97 158
62 97 158
61 97 153
61 97 158
62 98 159
61 97 152
61 96 150
60 96 144
61 96 148
61 97 158
62 98 161
63 98 162
61 96 148
62 98 157
62 98 158
61 96 152
61 97 156
61 96 152
60 95 145
61 96 149
62 98 159
62 98 160
62 97 155
61 97 153
62 98 160
62 98 154
62 97 149
61 96 152
61 97 151
62 98 157
60 96 140
62 98 155
61 97 145
62 97 152
61 97 152
62 97 156
61 96 152
60 95 149
62 97 152
62 97 151
62 98 157
61 96 148
62 97 153
61 96 142
61 96 151
61 96 143
61 96 150
60 95 141
61 96 147
61 97 155
61 96 155
62 97 151
61 96 149
60 95 134
61 96 149
61 96 142
62 97 156
61 96 144
61 96 141
61 96 144
61 96 148
61 97 148
62 97 153
61 96 145
61 96 145
60 95 139
61 97 142
61 97 142
61 96 144
61 96 149
61 96 145
61 96 143
59 94 135
59 93 137
60 94 141
59 94 132
60 95 133
61 95 142
60 94 135
59 93 131
58 92 125
59 93 131
61 93 120
63 89 116
106 123 82
96 107 49
113 120 18
114 125 0
113 120 0
115 121 0
119 126 0
114 119 0
131 136 0
116 122 0
110 115 0
119 122 0
100 104 0
106 110 0
124 130 0
104 107 0
117 120 0
118 120 0
104 110 0
110 112 0
110 112 0
81 82 0
95 99 0
88 88 0
105 105 0
101 102 0
105 104 0
115 115 0
106 107 0
109 112 0
94 95 11
110 106 11
99 100 0
99 98 0
97 97 0
98 97 0
98 97 0
98 97 0
98 96 0
113 111 0
104 102 0
109 104 0
102 100 0
94 89 0
106 105 0
94 94 0
104 100 0
103 101 0
98 93 0
107 102 0
108 106 0
117 114 0
111 108 0
110 107 0
111 107 0
116 116 0
114 114 11
113 111 11
113 110 0
109 108 0
121 120 0
108 107 0
120 116 0
113 113 0
124 122 11
128 128 0
127 124 11
126 124 11
126 127 0
117 119 0
119 119 0
136 137 0
131 130 0
122 123 11
135 138 0
122 122 0
136 137 0
127 127 0
139 140 0
138 145 0
138 139 11
139 144 11
137 141 11
143 147 0
133 136 0
142 148 0
145 150 0
138 143 0
138 146 0
148 157 0
153 159 0
147 156 0
148 155 0
156 167 0
147 155 0
154 164 0
150 159 0
148 160 0
156 165 0
154 164 0
157 171 0
159 172 0
155 166 0
158 170 0
158 168 0
158 171 0
151 163 0
157 171 0
150 162 0
162 177 0
162 175 0
153 166 0
152 163 0
159 172 0
160 174 0
160 173 0
158 170 0
158 174 0
161 177 0
164 180 0
159 175 0
161 177 0
160 174 0
159 175 0
166 184 0
163 179 0
167 184 0
159 176 0
164 181 0
166 184 0
161 177 0
157 175 0
165 183 0
166 184 0
163 180 0
160 178 0
163 180 0
164 182 0
167 185 0
161 179 0
158 177 0
193 213 165
193 213 165
190 211 169
192 212 165
195 215 181
194 214 173
187 208 151
184 205 133
185 207 144
185 206 130
181 204 127
182 204 125
178 201 99
178 200 102
181 203 122
180 202 88
175 198 72
179 201 92
175 199 88
173 197 67
176 199 95
172 196 72
168 192 62
173 196 76
173 197 67
172 196 80
170 194 62
172 196 51
174 197 57
172 196 80
174 198 76
174 198 62
174 198 72
175 199 80
175 199 95
174 196 67
176 199 92
173 196 62
175 198 80
172 195 62
173 196 72
168 192 51
173 197 92
171 195 67
174 197 72
174 198 80
174 198 72
175 198 76
175 198 76
173 196 76
170 193 57
171 194 51
174 198 88
171 194 51
175 199 67
172 196 62
174 198 84
175 198 88
171 195 76
173 196 72
174 198 76
173 197 72
173 197 72
173 196 62
173 196 72
171 194 72
175 198 80
172 196 88
168 191 74
153 177 107
153 177 115
135 160 137
119 146 157
104 132 161
113 140 170
99 127 164
124 150 168
109 136 166
119 144 182
114 140 177
126 150 176
123 148 180
109 136 172
115 141 178
116 141 180
115 141 181
92 121 171
110 136 172
107 134 175
102 130 183
101 128 178
92 121 172
107 134 182
94 123 175
95 123 170
90 118 181
87 117 177
90 119 186
80 111 175
86 117 186
90 120 184
89 119 181
83 114 176
84 114 178
73 106 174
76 109 178
70 104 175
82 113 181
73 106 170
78 110 176
71 104 174
68 102 170
69 103 172
71 104 166
67 102 172
73 106 164
69 103 171
65 101 176
68 102 169
65 100 163
64 100 164
63 98 159
64 98 150
61 97 160
64 100 163
60 95 161
61 97 158
62 98 165
61 97 164
61 96 151
60 95 156
66 100 158
60 96 158
63 98 157
62 98 167
63 99 159
61 96 154
62 98 170
61 97 165
61 97 161
62 98 159
61 97 157
62 98 165
61 97 161
62 98 165
60 96 151
61 97 158
60 95 146
62 98 162
61 97 158
60 96 157
63 99 167
62 98 162
60 96 153
60 95 150
61 97 154
62 98 158
62 97 158
62 98 159
62 98 161
62 98 158
61 96 153
62 98 160
62 98 163
62 97 161
61 98 163
62 98 156
61 97 158
62 98 163
61 96 150
62 98 156
61 96 153
60 95 144
62 98 156
61 96 153
62 97 155
61 97 160
61 96 151
61 96 152
61 96 153
61 97 149
62 98 161
61 96 152
62 97 156
60 96 148
61 96 148
62 98 161
61 97 145
62 98 156
61 96 149
60 95 137
61 97 155
61 97 152
61 97 151
62 98 155
61 97 148
60 96 147
62 98 157
61 96 150
61 97 152
61 97 158
62 98 156
61 96 150
61 96 144
61 96 149
61 96 152
62 98 156
61 96 148
61 96 143
61 97 154
62 97 151
62 98 159
61 96 150
62 97 151
62 97 155
61 97 148
62 98 154
59 95 145
61 97 149
61 97 151
60 95 144
62 98 153
60 95 140
61 96 147
61 96 143
60 96 143
61 96 149
61 97 144
60 95 144
60 96 144
59 94 137
61 96 136
61 96 143
60 95 143
60 95 141
61 96 143
60 95 133
61 95 140
62 98 154
59 94 137
61 96 148
60 94 139
60 95 141
60 95 142
60 95 135
60 95 140
59 94 123
61 96 142
60 93 133
60 94 140
61 95 141
59 93 132
59 93 127
60 95 134
59 92 121
58 92 134
59 92 120
61 91 125
73 94 99
109 119 44
114 123 36
115 123 0
112 120 0
120 127 0
111 118 0
118 124 0
116 122 0
116 123 0
123 130 0
119 124 0
115 120 0
109 114 0
103 108 0
111 115 0
112 118 0
104 106 0
113 116 0
114 116 0
102 104 0
98 103 0
115 119 0
114 116 0
110 112 0
113 119 0
118 120 0
114 113 0
110 112 0
110 112 0
114 115 11
100 99 0
97 100 0
97 96 0
104 104 0
110 111 0
108 108 0
101 100 0
118 118 0
106 106 0
97 96 0
103 101 0
108 106 0
113 111 11
109 110 0
112 114 0
97 97 0
112 111 0
98 92 0
108 104 0
105 103 0
108 107 0
111 110 0
106 105 0
113 110 0
107 106 0
106 101 0
116 112 0
126 125 0
116 114 0
126 123 0
115 111 0
124 126 11
112 110 11
111 110 0
116 114 0
119 118 11
121 121 0
128 130 11
119 117 0
128 131 0
131 133 0
125 124 0
126 127 0
126 128 0
129 131 0
127 128 16
126 128 0
134 136 0
130 134 0
139 141 16
137 140 0
131 136 0
142 146 0
142 148 0
145 153 0
147 153 0
146 154 0
146 153 0
149 158 0
151 162 0
142 149 0
145 151 0
155 166 0
150 159 0
157 166 0
150 159 0
150 160 0
155 166 0
155 167 0
153 162 0
149 160 0
150 160 0
159 169 0
152 163 0
150 160 0
151 161 0
153 161 0
157 169 0
152 165 0
161 173 0
157 171 0
160 175 0
158 170 0
162 176 0
162 178 0
154 168 0
163 177 0
159 173 0
157 169 0
157 171 0
162 179 0
161 177 0
161 175 0
160 175 0
164 178 0
162 178 0
163 179 0
166 182 0
162 176 0
163 180 0
162 175 0
166 184 0
164 182 0
168 187 0
162 177 0
165 180 0
162 180 0
168 187 0
166 184 0
167 186 0
165 183 0
192 211 165
190 211 167
189 210 155
185 206 135
187 207 151
189 210 151
187 208 149
183 205 135
184 206 133
186 207 122
177 200 92
179 201 114
178 201 108
180 202 111
179 201 99
173 195 76
178 200 95
173 196 76
177 201 105
178 201 95
177 200 92
175 199 76
174 197 84
172 197 72
171 195 62
173 197 72
173 196 72
172 195 62
175 199 92
174 198 62
175 198 62
175 199 62
173 197 84
172 194 57
175 199 88
173 197 84
172 197 72
172 196 72
176 199 67
175 198 67
172 195 62
172 195 44
173 197 88
173 196 62
174 198 84
174 198 62
174 198 80
171 194 76
173 196 51
173 196 84
170 194 80
172 195 62
173 197 72
172 195 72
174 198 72
177 200 105
171 196 57
173 196 62
174 198 76
170 194 57
174 198 72
173 196 76
174 196 72
172 195 84
175 198 95
173 196 72
176 200 99
171 195 94
165 189 74
159 183 108
141 166 133
131 156 147
117 143 155
101 130 161
102 130 177
109 137 164
99 127 165
111 138 171
105 132 172
100 128 168
100 128 173
113 140 169
108 135 176
108 135 177
97 126 171
96 125 175
103 130 168
95 124 174
100 128 169
86 116 172
106 133 170
98 126 178
100 128 173
93 123 180
98 126 172
86 117 178
91 120 177
92 121 174
95 123 177
95 124 182
90 120 180
79 111 174
79 111 176
80 111 178
92 121 182
85 115 175
72 106 176
71 105 174
73 106 174
84 114 178
68 102 168
71 104 169
70 104 168
68 102 163
73 106 167
76 108 167
69 103 163
65 100 165
66 101 168
74 106 161
63 98 159
62 98 167
64 99 165
63 98 159
60 96 154
63 97 153
64 99 159
61 97 164
62 98 158
61 97 158
60 96 154
61 97 163
64 99 156
62 98 163
61 97 162
60 96 154
63 99 159
60 96 158
61 97 164
62 99 171
62 99 166
61 96 155
61 97 159
61 97 161
61 96 156
60 96 157
61 96 153
62 98 160
62 98 158
62 98 162
61 97 156
61 97 161
61 96 151
61 97 162
62 98 162
61 97 157
62 98 160
61 97 165
62 98 163
61 97 157
61 97 156
61 97 156
62 98 158
62 98 165
62 98 161
61 97 156
62 98 163
62 97 156
62 98 158
61 97 151
61 96 150
62 98 159
61 97 150
62 98 161
62 97 155
61 96 148
62 97 159
61 97 151
62 98 158
62 98 156
61 96 151
60 95 147
61 97 155
61 97 152
61 96 150
61 97 150
62 98 154
61 97 154
62 97 154
61 96 150
60 96 149
60 96 152
62 98 157
62 97 154
62 97 143
61 96 150
61 96 141
62 97 152
62 97 153
62 97 156
61 96 139
61 96 143
61 97 150
62 97 154
62 98 157
60 95 143
60 95 140
61 96 150
61 97 147
62 98 157
61 96 148
62 97 150
61 96 144
61 96 149
61 96 141
61 97 153
61 96 144
61 96 147
61 96 144
62 98 154
61 96 142
61 96 148
61 97 147
62 97 153
61 96 145
61 96 144
60 96 151
61 97 153
61 96 143
61 97 143
59 94 130
60 96 145
61 96 144
62 97 153
61 96 148
59 93 133
61 96 147
61 96 141
61 96 143
62 97 148
61 96 138
62 97 147
60 96 147
60 95 136
60 95 131
61 96 143
60 94 133
61 95 142
60 94 139
61 96 139
60 95 132
59 94 133
60 94 134
59 93 133
58 92 136
59 92 123
60 94 136
81 105 96
86 107 104
108 118 44
103 113 36
118 127 0
114 120 0
105 114 0
109 116 0
121 129 0
115 123 0
129 137 0
112 119 0
109 115 0
121 127 0
113 119 0
116 123 0
130 137 0
102 104 0
97 100 0
115 119 0
104 107 0
103 107 0
118 121 0
101 103 0
109 110 0
102 107 0
111 117 0
109 112 0
99 99 0
96 94 0
109 110 0
111 112 0
106 108 0
95 97 0
107 108 0
109 111 0
98 95 0
104 105 0
106 105 0
109 110 0
106 107 0
100 94 0
104 104 0
115 111 0
98 98 0
109 106 0
104 104 0
116 113 0
113 113 0
105 108 0
118 119 0
108 106 0
113 109 0
108 107 0
116 116 0
117 116 0
112 109 0
115 113 0
118 117 0
111 110 0
119 116 0
117 117 0
110 110 0
114 115 0
118 119 0
120 119 0
127 126 0
129 129 0
129 129 0
122 124 0
131 134 0
122 121 0
136 138 0
133 133 11
135 138 11
123 125 11
131 135 11
134 137 0
130 134 0
126 127 0
136 142 0
130 132 11
133 135 0
143 149 0
145 148 0
145 152 0
141 148 0
147 154 0
138 139 0
149 157 0
146 153 0
149 156 0
147 155 0
149 159 0
154 165 0
146 151 0
150 159 0
153 161 0
153 164 0
155 165 0
146 154 0
153 161 0
153 162 0
155 166 0
155 167 0
151 163 0
157 170 0
153 166 0
158 169 0
160 173 0
159 172 0
151 161 0
159 172 0
153 164 0
154 165 0
161 173 0
160 176 0
154 166 0
163 178 0
157 172 0
164 180 0
159 172 0
163 179 0
162 177 0
161 174 0
163 178 0
159 174 0
159 172 0
168 185 0
162 177 0
167 185 0
161 174 0
164 180 0
165 181 0
162 179 0
165 181 0
159 177 0
167 184 0
166 182 0
160 177 0
163 179 0
164 182 0
165 183 0
192 213 161
185 206 142
186 207 149
183 205 140
185 207 127
189 210 155
182 205 122
176 199 99
179 203 111
181 203 117
180 202 111
176 199 108
178 199 92
175 198 80
178 201 92
175 197 76
176 200 95
176 199 99
176 199 67
173 196 57
172 196 72
175 198 76
176 200 92
174 198 76
176 200 84
173 197 72
172 196 62
172 196 62
174 199 92
172 196 62
169 192 57
173 197 62
170 193 57
172 196 84
174 197 80
176 199 80
175 198 76
172 197 72
174 198 62
172 196 62
171 194 62
172 196 72
174 197 44
173 197 57
172 195 72
170 194 62
171 195 44
175 199 84
172 195 72
173 198 72
175 199 72
171 195 92
174 198 67
172 195 44
170 193 62
174 197 67
170 194 67
172 194 62
170 194 62
171 194 88
169 193 57
169 192 80
173 197 80
171 195 67
175 198 88
172 196 92
175 198 72
172 195 90
163 186 100
164 188 97
153 177 111
140 165 135
121 148 150
110 137 152
102 131 157
104 132 175
105 133 159
101 129 175
107 134 161
103 131 175
105 132 160
104 132 173
109 136 172
97 125 173
103 131 175
102 129 172
105 132 167
101 129 169
86 117 167
106 134 173
90 120 181
85 117 171
85 116 177
87 117 170
96 125 175
86 116 170
99 127 180
90 120 173
93 122 175
80 112 168
87 116 176
86 116 174
78 110 174
84 114 175
79 111 172
75 108 173
76 109 177
74 107 176
73 106 169
70 103 168
76 109 175
72 105 173
64 100 174
69 103 175
71 104 172
69 103 164
60 96 161
69 103 165
67 101 159
64 100 166
63 98 159
63 99 163
63 98 165
60 95 155
64 99 161
64 100 168
63 98 162
65 100 166
64 99 157
64 100 164
63 98 158
61 97 158
61 97 154
61 97 163
62 98 165
61 97 156
63 99 161
62 98 159
61 97 158
61 96 151
62 98 161
61 97 155
61 96 154
61 97 163
61 97 157
61 97 155
61 97 158
61 96 154
61 97 154
61 97 155
61 97 157
62 98 159
61 97 156
62 98 160
62 98 165
64 100 168
61 96 151
61 97 151
61 97 156
61 97 151
61 97 154
61 97 159
61 97 157
62 97 148
62 98 159
62 97 153
61 96 155
61 97 152
61 97 158
62 97 155
62 98 157
60 96 148
62 97 150
60 96 154
62 98 163
61 97 156
62 98 160
61 97 153
63 99 163
62 98 157
61 96 149
62 97 156
62 98 151
62 97 155
61 96 148
61 96 150
61 97 158
62 97 153
61 97 151
62 97 155
60 95 143
61 96 145
61 96 148
61 97 155
62 97 150
61 96 149
62 97 152
61 97 148
61 96 151
61 96 144
61 97 150
61 96 145
61 96 149
62 97 149
61 97 148
61 97 149
61 97 150
61 96 147
61 97 151
61 97 151
62 98 156
61 97 150
60 95 147
61 97 150
61 97 148
62 97 154
61 96 152
62 97 152
60 95 145
61 96 144
59 94 136
61 97 153
60 96 140
62 97 141
62 97 153
61 96 148
61 96 154
62 97 153
61 96 148
61 96 143
60 95 134
61 96 137
61 96 141
62 97 145
61 95 145
61 95 143
61 96 148
61 95 136
60 95 137
60 94 140
60 95 135
60 95 145
60 95 145
60 95 140
60 94 134
61 96 147
60 94 141
61 96 136
59 94 135
59 93 132
59 94 134
60 93 133
60 94 140
58 91 124
58 91 126
58 92 117
66 94 118
94 114 94
99 113 74
97 110 47
121 131 0
118 125 0
102 110 0
119 131 0
127 132 0
122 129 0
125 134 0
111 117 0
110 116 0
114 120 0
114 116 0
107 113 0
113 117 0
117 121 0
117 124 0
113 120 0
113 117 0
113 117 0
104 107 0
106 109 0
107 110 0
111 115 0
116 120 0
115 119 0
106 107 0
113 116 0
113 117 0
97 101 0
107 108 0
107 108 0
112 115 0
110 112 0
113 113 0
106 107 0
105 101 0
115 119 0
115 118 0
109 110 0
114 115 0
117 117 0
116 117 0
114 113 0
108 108 0
109 111 0
110 111 0
118 120 0
102 101 0
100 99 0
111 108 0
110 109 0
117 118 0
114 113 0
119 116 0
119 122 0
116 118 0
114 116 0
115 116 0
116 116 0
120 124 0
121 123 0
124 123 0
122 124 0
123 122 0
130 132 0
123 126 11
118 119 0
139 142 0
134 134 11
129 131 11
127 129 0
133 136 0
135 136 0
132 135 0
141 145 11
128 131 0
138 140 0
137 140 0
140 145 0
146 151 0
144 148 0
142 149 0
140 143 0
141 147 0
141 150 0
144 152 0
140 144 0
151 159 0
141 148 0
152 158 0
148 155 0
147 153 0
152 159 0
151 161 0
148 154 0
150 161 0
153 164 0
150 162 0
147 154 0
148 158 0
149 160 0
149 157 0
158 171 0
153 165 0
159 170 0
155 167 0
151 159 0
155 166 0
160 173 0
150 160 0
156 169 0
160 175 0
158 173 0
161 175 0
153 164 0
160 174 0
164 180 0
153 167 0
161 174 0
161 175 0
166 181 0
160 175 0
161 176 0
165 179 0
163 176 0
163 178 0
164 179 0
166 183 0
159 173 0
166 184 0
166 183 0
163 180 0
166 186 0
161 175 0
160 174 0
163 182 0
166 180 0
162 181 0
162 180 0
167 185 0
168 185 0
184 206 153
189 210 155
188 209 151
187 208 140
180 202 114
183 204 114
179 201 105
179 201 99
177 200 102
174 198 72
175 198 84
173 196 88
177 202 111
175 199 84
173 197 67
175 198 80
175 199 67
173 196 51
174 196 72
173 197 51
169 193 57
174 198 72
174 198 72
174 198 76
174 197 88
173 196 67
174 198 57
171 194 62
172 196 67
171 195 51
172 196 84
171 195 67
174 197 62
171 195 62
170 193 67
170 195 76
175 198 57
173 197 67
175 198 67
174 197 92
173 197 76
167 191 67
173 196 92
172 196 72
173 196 80
168 192 67
173 197 51
173 197 76
171 195 99
171 195 67
171 195 67
171 194 57
171 194 44
174 197 88
175 197 67
175 199 84
172 196 72
170 193 62
174 198 57
172 196 72
169 193 88
169 193 76
171 195 80
173 197 72
171 195 76
174 197 76
174 196 76
173 197 60
167 191 84
163 186 105
150 174 105
138 163 126
127 153 158
115 143 167
108 135 174
106 133 172
101 129 171
101 129 176
103 131 170
110 138 169
107 134 167
106 134 167
99 128 175
104 131 170
85 116 169
104 131 172
89 118 160
107 135 171
102 130 169
88 119 166
87 117 159
105 132 169
92 122 172
92 121 169
98 127 175
86 116 171
96 125 172
91 121 172
79 111 170
78 110 168
79 111 174
81 113 174
81 113 179
78 109 163
78 110 177
86 116 180
67 102 173
79 111 181
71 105 175
71 105 175
68 103 175
65 100 168
75 108 171
73 106 171
62 98 172
70 102 162
67 101 168
71 105 172
76 107 166
70 103 165
64 98 159
64 99 165
64 98 167
61 97 164
61 97 166
66 101 166
61 97 159
63 98 158
63 98 158
60 95 150
62 98 167
62 97 160
63 98 154
61 98 162
62 97 164
61 97 157
60 96 157
60 96 150
60 96 159
61 97 154
61 97 163
59 95 157
61 98 160
61 97 157
61 97 157
62 98 163
61 97 160
62 98 155
62 97 158
63 99 162
61 97 155
62 98 161
62 97 159
60 96 152
61 97 154
62 97 160
61 97 153
60 96 147
61 97 154
62 97 158
61 97 153
61 97 155
60 96 150
62 98 158
62 98 163
61 97 154
61 96 154
62 98 163
62 97 158
62 98 159
61 97 156
61 97 162
61 96 144
61 97 151
62 97 154
61 97 153
61 97 160
60 95 140
61 96 147
61 96 150
61 97 154
62 98 159
61 96 151
62 98 156
61 97 152
61 97 153
61 96 153
62 97 153
62 97 150
62 97 152
61 96 144
60 96 150
61 96 151
62 97 152
61 97 151
61 96 157
60 95 143
62 97 154
62 98 160
62 98 157
62 97 153
61 97 152
60 96 143
61 97 154
62 98 155
62 97 150
61 97 151
61 97 155
61 96 139
61 97 150
61 96 151
61 97 155
61 96 151
61 96 145
62 98 155
62 97 148
62 97 153
61 97 152
61 96 142
61 96 144
61 96 142
61 97 151
61 96 148
60 95 139
60 95 144
61 96 151
60 95 140
61 96 145
61 96 147
62 97 148
61 97 147
61 96 144
60 95 143
60 96 136
61 96 143
62 97 141
59 94 127
60 95 140
59 93 130
60 95 141
62 97 142
60 94 136
60 95 131
60 95 139
59 93 133
60 94 133
59 94 125
61 95 137
60 95 135
59 94 136
60 95 144
60 93 135
58 92 125
60 94 131
58 92 128
58 91 116
57 87 113
82 99 84
104 118 71
102 113 37
110 117 0
118 126 0
116 123 0
105 115 0
113 121 0
97 104 0
112 120 0
108 115 0
109 115 0
112 119 0
108 116 0
114 119 0
122 129 0
104 111 0
98 100 0
119 123 0
104 109 0
114 118 0
108 112 0
122 127 0
101 105 0
113 117 0
110 113 0
114 117 0
112 112 0
105 109 0
98 100 0
113 114 0
117 124 0
113 116 0
101 101 0
119 123 0
122 125 0
116 120 0
118 120 0
109 110 0
106 106 0
105 109 0
107 109 0
119 122 0
117 119 0
110 110 0
109 108 0
101 102 0
117 117 0
106 104 0
106 106 0
117 116 0
122 124 0
100 101 0
120 121 0
128 130 0
109 108 0
117 117 0
121 120 0
118 118 0
124 124 0
121 119 0
129 133 0
120 121 0
119 116 0
115 114 0
121 123 0
133 136 0
122 121 0
131 134 0
131 133 0
136 141 11
136 137 0
127 129 0
133 133 0
131 134 0
144 149 0
136 139 0
137 143 0
134 140 0
140 145 0
131 134 0
138 143 0
134 138 0
144 150 0
139 144 0
140 144 0
147 152 0
137 142 0
148 156 0
144 152 0
146 153 0
143 152 0
150 157 0
151 161 0
147 155 0
150 158 0
150 159 0
152 164 0
149 158 0
149 156 0
147 157 0
160 172 0
156 168 0
157 169 0
157 168 0
156 169 0
152 162 0
160 171 0
154 164 0
151 164 0
160 176 0
165 180 0
160 173 0
154 166 0
162 176 0
159 172 0
160 175 0
159 175 0
161 176 0
162 176 0
161 176 0
163 178 0
164 178 0
160 176 0
158 173 0
162 179 0
157 171 0
162 180 0
156 171 0
163 179 0
161 177 0
160 176 0
164 180 0
160 175 0
166 182 0
167 182 0
166 183 0
163 179 0
164 182 0
167 183 0
165 184 0
165 184 0
166 187 0
180 203 117
184 206 127
185 206 125
182 203 120
181 202 114
179 201 99
177 200 92
177 200 111
172 196 72
177 200 88
179 201 84
176 199 72
173 196 57
176 200 76
174 198 92
174 198 80
174 198 44
174 198 76
174 197 67
173 196 57
174 198 88
172 196 84
172 195 51
170 194 92
171 195 62
172 196 62
177 201 95
171 195 76
170 194 67
173 197 105
175 200 92
173 196 67
170 194 51
171 195 51
171 195 84
170 195 67
172 195 51
173 196 72
176 200 92
173 197 57
170 193 62
173 197 95
172 195 67
171 194 76
176 200 84
171 194 67
171 195 51
175 198 57
175 198 80
172 196 57
172 196 72
171 196 99
171 195 92
174 198 92
172 196 67
171 195 57
172 196 67
171 195 67
172 195 72
169 193 36
173 197 72
169 193 67
171 195 62
170 193 51
174 197 76
171 194 62
173 196 72
168 191 62
171 195 99
159 182 76
158 182 99
141 166 124
134 160 127
113 139 156
95 124 158
96 125 163
93 122 167
104 132 170
103 131 163
98 127 165
94 124 172
110 137 161
103 130 172
95 124 163
84 114 165
95 124 168
96 126 170
100 128 168
103 131 175
90 120 167
102 129 156
89 118 163
96 124 169
98 127 175
97 125 168
92 122 167
95 123 174
88 117 170
79 111 167
88 118 177
84 115 166
98 126 180
88 118 178
79 111 173
88 117 176
75 108 175
75 107 171
74 107 176
68 103 171
81 112 174
68 102 169
68 103 175
77 109 171
68 102 173
65 100 170
73 105 164
64 99 168
66 100 161
69 103 166
70 103 166
67 101 154
80 110 169
64 99 157
61 97 158
69 102 162
63 99 164
63 99 160
61 97 162
59 95 155
61 97 156
61 96 157
61 97 157
60 95 159
64 99 156
60 96 153
60 96 156
60 96 159
61 96 152
59 94 149
61 97 154
62 97 158
63 99 165
60 95 148
61 96 155
60 96 157
61 96 151
61 97 157
61 96 154
62 98 158
62 98 162
61 96 149
60 96 147
62 98 159
61 96 152
61 97 153
62 98 161
62 98 161
60 95 142
61 96 155
61 97 155
62 98 161
61 97 153
61 96 153
61 98 160
61 96 149
62 98 163
62 97 153
61 96 156
61 97 159
61 96 151
60 96 148
62 98 153
61 97 156
62 98 156
61 97 154
62 98 154
62 97 154
61 97 153
61 97 153
62 98 155
61 97 154
62 97 153
62 98 161
61 97 150
62 97 154
61 97 150
60 96 150
62 97 154
61 97 154
61 96 153
62 98 161
62 98 154
61 97 157
61 97 152
60 95 144
61 96 141
62 97 156
60 95 142
61 96 143
62 98 153
61 97 149
62 97 153
60 95 136
61 96 154
61 96 139
60 95 144
62 97 152
61 96 149
61 96 136
60 95 139
62 97 150
60 96 142
62 97 155
60 95 135
61 97 145
61 96 148
61 97 145
61 97 150
62 97 155
61 96 142
61 96 148
60 95 142
61 96 149
61 97 149
62 97 147
61 97 147
61 96 143
61 96 143
60 95 145
61 96 148
61 96 145
61 96 151
61 95 137
61 96 147
60 95 131
60 95 141
60 95 137
59 94 134
60 95 139
60 95 135
59 93 129
59 93 124
59 94 141
59 93 122
60 94 137
59 94 134
60 95 139
59 94 133
58 92 125
58 92 125
59 93 130
60 94 135
58 91 121
59 93 116
61 95 135
57 90 120
73 96 97
88 103 77
104 116 45
105 117 25
117 126 0
117 126 0
116 125 0
111 117 0
109 118 0
116 123 0
120 127 0
123 132 0
104 109 0
110 116 0
111 117 0
107 116 0
122 129 0
114 119 0
118 122 0
115 123 0
106 112 0
123 132 0
112 119 0
108 113 0
107 111 0
118 125 0
111 114 0
112 115 0
106 108 0
114 118 0
111 113 0
102 107 0
97 100 0
103 101 0
115 119 0
101 102 0
102 105 0
105 108 0
112 116 0
113 116 0
122 123 0
117 116 0
109 109 0
113 115 0
104 104 0
120 122 0
107 111 0
110 110 0
111 113 0
110 110 0
109 109 0
115 114 0
120 122 0
114 116 0
122 126 0
116 119 0
117 116 0
120 121 0
121 123 0
108 109 0
123 121 0
115 117 0
125 126 0
119 121 0
130 134 0
128 129 0
124 125 0
124 128 0
128 131 0
132 137 0
134 135 0
122 124 0
132 133 0
143 146 0
134 139 0
136 141 0
131 131 0
138 142 0
136 137 0
136 142 0
145 152 0
142 149 0
134 139 0
143 151 0
134 138 0
148 154 0
145 149 0
147 155 0
146 153 0
142 149 0
152 159 0
152 158 0
150 159 0
142 150 0
156 169 0
154 163 0
159 171 0
151 161 0
156 167 0
153 163 0
148 155 0
148 158 0
151 163 0
153 162 0
153 163 0
157 171 0
151 163 0
157 171 0
153 165 0
156 168 0
159 172 0
152 165 0
153 166 0
160 174 0
155 168 0
156 169 0
156 171 0
160 173 0
163 177 0
160 171 0
162 178 0
162 177 0
158 173 0
157 172 0
161 175 0
161 180 0
156 172 0
162 175 0
161 176 0
158 171 0
166 182 0
163 181 0
159 176 0
160 176 0
163 180 0
157 173 0
155 170 0
161 178 0
161 180 0
165 182 0
156 172 0
162 180 0
165 185 0
165 183 0
187 208 140
179 202 120
181 203 125
181 203 117
177 200 108
173 196 88
174 197 76
174 197 84
176 200 95
173 197 80
175 199 88
173 196 57
173 196 62
171 196 84
173 197 51
174 197 76
173 197 67
174 198 67
167 191 67
173 196 80
172 196 51
171 194 51
174 198 72
174 196 62
174 198 88
172 195 80
174 198 72
173 197 67
176 199 84
173 197 44
170 195 72
173 197 57
175 198 76
171 195 57
174 198 67
170 195 72
171 195 72
175 198 84
170 194 67
171 196 72
172 196 67
172 195 67
172 195 67
171 195 57
171 195 72
169 194 84
168 192 76
171 194 72
172 195 80
166 190 92
173 196 62
170 194 72
173 197 88
172 196 84
171 195 84
172 195 72
171 195 95
171 193 72
170 194 80
171 195 67
172 195 76
171 195 92
173 196 76
174 198 72
174 198 72
164 188 62
167 190 76
168 192 44
174 196 80
165 188 84
159 183 86
145 170 135
127 151 142
123 149 148
101 130 167
100 128 169
107 135 172
93 123 175
90 120 174
99 127 177
104 132 163
94 123 161
93 122 160
104 131 161
98 126 171
106 133 166
99 127 162
78 110 162
94 122 161
99 127 172
87 117 167
95 125 177
88 118 172
81 112 161
98 127 175
104 132 170
83 114 168
89 119 169
105 132 177
98 126 172
83 114 173
102 130 175
84 115 173
79 110 174
78 110 177
70 104 169
71 105 168
78 110 172
75 107 174
81 112 181
67 101 168
76 108 173
64 100 170
74 107 168
70 103 165
75 107 175
64 99 161
63 99 162
61 97 165
63 99 162
62 98 166
65 100 160
63 98 164
60 96 165
63 98 162
63 97 156
63 98 161
59 94 156
62 98 157
62 98 160
61 97 151
60 96 161
60 96 154
62 98 154
62 97 156
60 95 151
62 97 151
61 96 158
63 98 153
61 96 156
61 97 156
61 96 155
61 97 161
62 97 156
61 97 156
61 97 156
62 98 161
60 95 149
61 97 159
61 96 153
60 96 154
61 96 154
61 97 156
61 96 150
60 95 153
61 97 154
62 98 162
62 98 158
63 98 157
62 97 153
61 97 155
62 98 156
61 96 158
61 97 153
61 97 159
61 97 153
62 98 155
62 98 158
62 98 160
62 98 153
61 96 143
61 96 152
61 96 148
60 96 144
62 98 153
63 99 162
62 97 154
61 97 149
61 97 157
61 97 149
62 97 154
60 95 136
62 98 157
61 96 151
62 97 158
62 97 152
60 96 145
61 96 152
62 97 153
62 97 152
62 98 156
61 97 150
60 95 148
60 95 143
61 97 155
61 96 151
61 97 148
61 96 149
61 96 150
61 97 153
62 97 156
61 96 148
60 95 140
60 95 140
61 97 152
61 96 144
61 96 145
61 97 154
61 97 152
61 97 153
62 98 155
60 96 148
61 97 148
61 97 151
61 96 147
60 95 149
61 96 147
62 98 154
61 96 147
61 95 145
60 95 144
61 96 140
61 96 149
62 97 152
59 95 141
62 97 154
60 95 142
60 95 133
61 97 149
60 95 144
62 97 151
60 94 135
60 95 143
60 95 134
60 95 140
61 96 142
61 96 142
61 96 145
61 95 139
61 96 142
61 96 144
62 97 150
58 92 118
61 96 145
59 94 136
60 94 132
60 95 140
60 94 140
60 95 139
60 94 125
59 92 126
59 93 127
59 93 128
59 92 125
58 91 114
67 95 115
84 105 102
94 107 73
104 117 40
106 115 0
107 117 0
114 124 0
119 126 0
121 125 0
123 133 0
126 135 0
117 124 0
123 130 0
106 114 0
107 114 0
120 130 0
111 119 0
116 119 0
101 106 0
108 115 0
105 112 0
119 123 0
110 114 0
116 121 0
120 125 0
109 112 0
110 113 0
121 128 0
112 115 0
114 120 0
112 117 0
108 113 0
115 116 0
112 116 0
115 119 0
113 116 0
124 130 0
119 122 0
115 118 0
124 127 0
106 105 0
119 122 0
99 101 0
120 122 0
116 119 0
109 110 0
117 121 0
112 114 0
109 112 0
116 119 0
113 115 0
125 126 0
118 118 0
115 120 0
122 126 0
126 126 0
118 119 0
124 126 0
115 116 0
120 122 0
119 120 0
114 115 0
123 123 0
120 123 0
132 135 0
123 128 0
124 128 0
126 127 0
133 137 0
131 135 0
131 134 0
126 128 0
131 132 0
140 143 0
140 144 0
137 139 0
128 129 0
141 147 0
144 151 0
136 138 0
138 146 0
144 149 0
136 139 0
147 153 0
143 150 0
142 150 0
143 148 0
142 150 0
145 152 0
148 155 0
142 151 0
141 146 0
144 154 0
151 161 0
149 158 0
154 165 0
146 155 0
152 161 0
153 162 0
149 158 0
149 158 0
154 163 0
152 163 0
152 163 0
147 156 0
152 159 0
151 163 0
146 155 0
153 164 0
160 173 0
151 164 0
155 169 0
160 174 0
157 172 0
159 172 0
161 176 0
157 171 0
156 168 0
159 173 0
163 179 0
156 169 0
161 175 0
159 172 0
154 168 0
157 172 0
164 182 0
162 179 0
162 179 0
163 181 0
159 175 0
162 180 0
167 182 0
162 179 0
167 184 0
164 180 0
159 176 0
164 182 0
165 184 0
157 175 0
164 181 0
166 184 0
163 182 0
163 181 0
161 179 0
163 180 0
181 203 108
182 203 114
174 197 80
174 196 84
175 198 95
177 200 95
172 197 95
176 200 84
174 197 62
175 199 51
175 198 72
175 199 84
175 198 62
174 198 80
176 200 88
172 197 80
176 199 95
174 198 76
171 195 67
172 196 88
174 197 67
173 197 67
172 195 72
172 196 67
174 199 95
172 195 57
174 198 88
173 197 88
173 197 62
174 199 80
173 197 84
173 197 72
170 193 67
171 195 84
172 197 72
173 196 67
172 196 84
172 195 76
173 197 76
171 195 84
172 195 72
171 195 51
171 196 51
174 198 84
176 199 80
170 193 57
171 194 67
168 192 67
172 196 84
169 193 88
172 196 76
170 194 76
173 197 80
172 195 80
170 193 80
171 194 51
172 195 57
172 195 62
171 194 88
175 199 67
169 193 80
169 192 92
166 189 88
173 197 99
172 196 88
168 192 62
168 191 67
173 196 76
168 191 62
166 189 76
164 188 110
149 173 94
147 171 111
122 148 133
114 140 153
94 124 161
102 130 174
92 121 170
98 127 162
94 124 169
105 133 163
100 128 168
100 128 171
100 128 167
101 130 160
99 127 164
96 125 167
93 122 162
94 123 173
99 127 171
90 119 161
93 123 171
93 122 171
94 122 171
87 117 160
92 121 164
87 117 174
94 123 176
87 117 167
96 125 176
99 126 171
101 129 175
108 135 172
89 119 182
78 110 169
75 108 175
81 112 169
61 98 167
79 110 171
81 112 174
81 112 175
71 104 165
82 113 169
71 104 171
65 100 168
68 102 170
75 107 176
71 104 168
62 98 171
61 96 163
66 100 159
63 98 155
70 104 166
66 100 151
70 102 159
60 95 160
62 98 161
61 97 159
63 98 157
61 97 156
62 97 152
60 96 155
62 98 155
64 99 160
62 98 160
61 97 156
61 96 154
61 97 161
61 97 157
61 97 155
61 97 154
61 97 153
61 97 149
62 97 155
61 96 157
62 98 160
60 96 158
62 98 164
61 96 157
61 96 153
60 96 152
62 98 158
60 96 147
62 98 159
61 97 150
61 96 150
62 97 155
62 97 154
61 96 152
61 97 153
61 97 160
62 98 160
61 96 154
62 98 160
61 96 150
62 98 153
61 97 155
61 97 157
61 97 155
61 96 147
62 98 158
61 97 151
61 96 150
62 98 161
61 97 151
62 98 152
61 97 150
60 96 143
61 96 150
62 97 149
61 97 155
62 97 154
62 97 152
61 97 150
61 96 152
61 96 149
62 97 155
60 96 147
61 97 153
61 97 151
62 97 149
61 96 144
60 96 149
62 98 159
61 96 144
62 97 152
61 96 144
62 97 154
61 96 148
62 98 161
61 97 152
61 97 155
61 97 150
61 96 151
60 96 147
61 96 136
62 97 150
62 97 149
60 96 142
61 96 148
62 98 157
62 98 155
61 96 144
60 95 140
60 95 147
60 95 140
61 95 145
60 95 140
60 95 148
61 96 149
60 95 140
61 96 144
59 94 129
62 97 151
61 96 144
61 96 144
61 96 145
61 96 147
60 95 137
61 95 141
61 96 135
59 94 134
60 94 139
61 96 150
61 96 143
60 95 135
59 93 133
59 94 134
61 96 143
61 95 139
60 95 140
61 96 141
60 95 136
60 96 139
60 95 139
59 93 130
59 93 136
60 94 137
59 94 136
58 92 110
60 94 132
59 93 130
58 91 121
59 92 112
56 89 108
83 105 93
88 106 77
106 121 54
107 118 36
123 131 0
107 115 0
117 128 0
116 126 0
121 127 0
118 126 0
117 124 0
118 126 0
106 114 0
114 121 0
113 120 0
121 127 0
120 125 0
120 128 0
108 117 0
117 127 0
116 124 0
114 122 0
118 124 0
107 110 0
125 131 0
111 115 0
112 119 0
126 134 0
109 113 0
113 117 0
106 113 0
123 127 0
115 120 0
113 118 0
117 119 0
118 120 0
117 122 0
125 129 0
116 118 0
111 112 0
114 119 0
121 127 0
113 114 0
121 125 0
120 125 0
120 123 0
113 117 0
119 121 0
122 124 0
119 119 0
121 125 0
115 116 0
125 130 11
118 118 0
128 129 0
113 115 0
120 122 0
114 118 0
131 134 0
121 120 0
125 125 0
127 129 0
130 133 0
130 134 0
133 134 0
124 122 0
140 145 0
138 144 0
139 145 0
139 144 0
135 140 0
128 131 0
140 146 0
130 132 0
133 138 0
136 139 0
138 142 0
139 147 0
137 141 0
138 143 0
143 150 0
143 150 0
145 154 0
143 150 0
144 152 0
140 146 0
149 156 0
148 154 0
142 148 0
152 159 0
144 150 0
155 164 0
145 153 0
155 165 0
149 158 0
146 154 0
147 158 0
150 161 0
155 165 0
155 167 0
149 157 0
150 161 0
154 164 0
159 172 0
151 164 0
158 168 0
151 162 0
159 171 0
159 173 0
156 170 0
147 157 0
160 173 0
163 179 0
158 172 0
157 170 0
162 176 0
153 167 0
154 167 0
155 168 0
159 174 0
165 180 0
159 171 0
155 170 0
162 177 0
160 174 0
161 175 0
156 171 0
161 177 0
158 175 0
165 181 0
156 170 0
160 176 0
159 175 0
162 178 0
163 179 0
163 180 0
169 187 0
164 180 0
165 182 0
164 182 0
163 181 0
164 183 0
165 182 0
162 180 0
159 179 0
174 198 92
173 196 57
179 201 105
177 200 72
175 198 84
177 201 92
175 199 92
177 200 80
176 200 84
174 198 80
173 196 51
174 198 76
175 199 80
173 197 62
176 199 72
173 196 84
171 195 62
174 197 76
172 196 72
174 198 80
172 196 67
173 196 95
173 196 72
173 197 51
173 196 62
173 197 76
173 196 51
174 197 62
173 197 76
170 194 72
173 197 72
173 196 76
172 196 72
174 198 72
172 196 80
172 196 84
171 195 62
169 193 62
172 195 84
170 194 51
170 194 51
170 194 72
169 193 67
172 195 62
173 195 44
171 195 80
171 195 76
173 197 72
172 195 67
170 195 102
168 192 67
172 196 88
170 194 76
170 192 44
170 193 72
169 193 67
171 195 84
167 191 67
170 193 51
170 194 80
168 192 67
171 193 72
167 190 72
171 194 92
170 193 51
172 196 95
167 190 67
168 191 57
174 198 92
168 191 67
167 191 82
159 184 111
144 169 125
132 157 150
121 147 146
92 122 166
92 121 169
97 126 175
98 127 169
90 120 169
100 127 161
98 126 156
99 126 160
98 126 153
95 123 163
103 131 153
98 126 167
101 129 170
100 127 162
90 120 159
104 131 159
97 125 158
94 123 163
97 125 160
93 122 170
96 125 161
90 119 168
91 120 167
95 124 176
89 119 161
92 121 175
80 112 170
96 125 178
84 115 168
80 111 178
83 114 162
88 118 177
86 116 169
74 107 173
79 110 178
65 100 169
72 105 177
75 108 176
78 109 168
68 102 170
73 106 166
72 105 167
71 105 172
73 106 166
73 106 174
70 104 171
68 101 152
64 98 161
65 100 163
67 101 166
64 100 162
61 97 161
61 96 151
66 100 155
63 99 157
65 100 162
61 96 152
61 96 158
64 99 158
64 99 161
61 97 154
61 96 155
61 96 157
61 97 160
62 97 157
60 96 152
62 98 155
60 96 157
61 96 154
60 96 148
60 96 156
59 94 141
60 95 146
62 98 157
61 96 157
61 96 154
62 98 161
61 97 154
62 97 158
60 95 154
62 97 154
60 96 148
62 98 158
61 97 157
62 98 161
60 95 152
62 97 156
61 96 151
61 97 153
61 97 151
61 97 153
61 96 144
61 97 155
62 97 152
61 96 145
62 97 158
62 98 156
62 98 154
60 95 143
62 97 150
61 97 153
61 97 151
62 97 155
62 97 153
60 95 149
62 98 156
63 99 160
61 96 149
62 98 156
62 98 156
61 96 147
62 97 156
62 98 154
61 97 145
61 97 145
61 96 153
61 97 150
61 97 150
61 96 149
61 96 148
61 96 144
62 97 152
61 96 145
62 97 152
62 97 149
61 96 149
60 95 140
61 96 145
61 96 148
61 96 143
60 95 144
61 96 142
62 97 151
61 97 152
60 95 143
62 97 149
61 96 147
60 95 140
61 96 148
61 96 144
62 97 150
59 94 137
61 97 141
61 96 153
61 96 144
61 96 145
61 96 145
60 95 137
61 96 150
60 95 133
60 96 143
61 96 147
60 94 131
61 97 149
61 96 145
62 97 152
59 93 136
61 96 141
62 97 148
61 97 144
62 96 144
60 94 131
60 96 143
59 93 133
61 96 142
62 97 152
60 94 134
61 96 146
60 94 131
59 94 134
58 91 121
58 92 125
60 94 126
59 94 139
59 92 126
58 91 122
58 92 120
60 94 135
59 92 124
63 90 102
88 108 102
94 111 70
93 107 33
115 125 25
122 134 0
124 134 0
119 128 0
116 126 0
110 118 0
116 123 0
114 124 0
121 128 0
118 125 0
123 133 0
121 128 0
113 123 0
124 132 0
109 115 0
122 131 0
125 131 0
121 127 0
122 130 0
121 128 0
118 123 0
118 125 0
118 124 0
108 114 0
115 122 0
112 119 0
111 114 0
110 117 0
114 120 0
114 117 0
114 121 0
121 128 0
124 132 0
110 111 0
120 124 0
114 116 0
113 117 0
115 119 0
118 118 0
124 131 0
123 126 0
120 125 0
115 116 0
123 124 0
121 123 0
119 120 0
120 122 0
119 122 0
130 137 0
116 121 0
129 131 0
126 127 0
117 119 0
120 127 0
124 127 0
126 130 0
129 133 0
136 139 0
127 132 0
131 135 0
122 125 0
126 130 0
125 129 0
131 136 0
124 125 0
130 133 0
133 137 0
136 142 0
122 125 0
118 117 0
133 138 0
138 145 0
135 139 0
137 143 0
127 133 0
143 148 0
136 144 0
137 144 0
146 154 0
144 149 0
146 153 0
145 151 0
131 137 0
143 150 0
143 148 0
147 154 0
146 156 0
149 159 0
148 155 0
150 158 0
147 155 0
156 168 0
146 156 0
151 162 0
148 158 0
152 163 0
153 166 0
151 161 0
152 165 0
153 167 0
149 159 0
151 161 0
157 169 0
159 171 0
156 168 0
158 172 0
152 164 0
147 158 0
159 174 0
153 165 0
157 170 0
156 171 0
160 174 0
155 167 0
159 174 0
160 175 0
162 177 0
158 170 0
156 171 0
161 175 0
157 170 0
158 175 0
160 178 0
162 175 0
159 174 0
161 177 0
162 179 0
162 178 0
160 172 0
161 180 0
157 173 0
165 180 0
162 181 0
166 182 0
165 182 0
166 184 0
161 177 0
161 179 0
169 188 0
161 177 0
164 182 0
164 182 0
177 200 92
179 202 108
171 195 88
173 196 57
177 200 92
175 198 76
175 199 84
172 195 76
176 199 76
174 198 72
169 193 57
174 197 84
172 196 72
174 197 67
175 198 51
172 196 67
170 193 67
175 198 95
173 196 76
170 193 36
173 196 51
169 194 76
173 196 72
171 196 99
169 194 76
170 194 84
172 196 62
171 195 76
172 195 84
175 199 72
170 194 62
172 196 80
171 195 76
169 192 57
174 197 92
172 197 84
174 197 72
171 195 92
171 195 62
174 198 80
174 198 99
173 197 62
170 194 57
172 196 76
175 198 72
171 196 72
172 196 80
171 196 72
171 193 44
172 195 67
173 196 80
170 194 67
171 195 72
167 191 62
173 196 57
172 195 80
170 194 76
170 193 67
167 190 62
169 194 92
172 197 105
171 195 62
168 190 51
170 194 88
168 192 62
175 198 84
170 194 67
167 191 25
167 191 80
171 195 67
168 191 65
155 179 99
156 179 107
138 162 129
125 151 148
111 139 159
110 137 170
94 123 166
83 113 163
81 113 173
107 135 183
92 121 170
102 130 170
84 114 167
101 128 150
91 120 164
105 132 168
90 119 162
107 134 166
93 122 161
93 121 156
95 124 176
94 123 166
94 123 168
91 120 159
103 130 169
95 124 165
84 114 161
91 120 173
94 122 166
91 120 172
85 116 169
76 108 170
102 129 171
85 114 171
82 113 171
88 118 170
90 119 175
72 105 169
75 108 169
76 108 172
79 111 181
84 115 174
78 110 174
79 110 173
71 104 168
68 102 169
76 108 169
64 100 162
71 105 170
68 102 167
63 98 159
68 101 162
69 103 169
68 102 163
71 104 157
61 97 163
63 98 159
60 96 155
61 97 154
68 101 161
63 98 154
62 98 163
63 98 155
61 97 161
66 100 159
60 96 149
64 99 161
61 96 157
62 98 157
62 98 157
63 98 152
60 95 151
60 95 141
61 96 154
61 96 153
61 97 160
61 96 149
60 95 151
60 95 149
62 97 155
62 98 159
62 97 155
61 97 155
61 97 157
61 97 157
60 95 150
60 96 148
61 96 154
61 97 151
60 95 143
61 96 147
62 98 152
62 97 152
62 97 158
61 97 153
61 96 152
61 96 150
61 97 153
61 97 156
61 96 151
62 98 153
62 97 153
61 97 156
61 97 156
61 96 149
61 96 151
61 96 153
61 97 149
61 96 144
61 97 150
62 97 155
62 98 155
61 97 149
61 97 149
61 96 149
61 96 145
61 97 152
60 95 140
61 96 150
62 97 148
61 96 154
61 96 150
61 97 150
61 97 155
62 97 153
61 96 148
61 97 148
59 94 139
62 97 151
61 96 141
61 96 141
62 97 154
62 97 151
61 96 145
60 95 144
61 96 148
60 95 139
61 96 137
62 98 156
62 97 151
61 96 144
60 96 143
61 96 141
60 95 141
60 95 137
62 97 149
61 96 137
61 97 145
60 94 137
59 94 134
60 94 142
60 94 137
61 97 145
61 96 149
61 96 148
61 96 147
60 95 136
61 96 139
61 96 144
61 96 141
61 95 140
60 94 130
61 96 137
61 95 140
59 93 124
60 94 134
59 94 128
59 93 134
60 95 134
59 93 126
60 95 131
60 95 140
60 95 145
61 95 138
60 94 135
60 94 131
61 96 141
60 94 130
60 95 135
59 92 122
59 92 127
59 92 118
56 88 106
80 103 92
97 115 75
103 119 62
110 119 32
114 124 0
116 127 0
117 126 0
115 124 0
113 121 0
120 131 0
114 126 0
114 123 0
111 121 0
118 125 0
120 129 0
111 120 0
110 115 0
112 121 0
109 117 0
117 125 0
122 132 0
104 110 0
103 108 0
119 128 0
121 126 0
115 120 0
119 127 0
112 118 0
112 119 0
120 126 0
123 129 0
107 112 0
112 119 0
120 126 0
113 117 0
124 127 0
110 113 0
131 137 0
110 117 0
109 112 0
120 123 0
104 109 0
127 134 0
122 127 0
120 127 0
121 127 0
120 121 0
119 123 0
130 134 0
117 121 0
129 132 0
119 124 0
113 116 0
117 122 0
116 115 0
120 125 0
123 127 0
129 132 0
135 142 0
119 123 0
131 133 0
125 130 0
131 136 0
124 127 0
127 134 0
130 134 0
131 136 0
137 144 0
126 131 0
130 133 0
130 135 0
137 142 0
139 146 0
138 144 0
137 143 0
135 140 0
148 157 0
142 148 0
136 141 0
137 143 0
134 138 0
139 144 0
137 144 0
145 150 0
144 149 0
142 148 0
150 158 0
141 149 0
154 163 0
149 156 0
142 154 0
148 158 0
147 156 0
151 161 0
144 153 0
149 158 0
148 158 0
154 164 0
155 168 0
157 168 0
158 168 0
147 158 0
151 161 0
145 154 0
154 164 0
151 161 0
156 168 0
153 164 0
158 169 0
155 169 0
154 168 0
154 168 0
149 163 0
162 175 0
156 170 0
158 170 0
159 172 0
164 181 0
154 167 0
156 170 0
159 173 0
156 169 0
157 169 0
157 171 0
158 173 0
159 173 0
162 176 0
159 173 0
163 179 0
163 181 0
162 179 0
163 180 0
158 174 0
165 184 0
160 174 0
155 170 0
162 179 0
160 173 0
162 178 0
164 180 0
165 182 0
162 176 0
165 185 0
164 181 0
163 181 0
165 184 0
172 195 57
177 200 84
176 199 84
176 199 72
171 194 67
176 200 80
174 197 76
175 199 76
173 197 67
173 197 72
175 198 80
171 195 84
172 195 62
175 198 62
174 198 76
175 199 84
177 200 84
173 197 67
176 199 67
175 198 67
174 197 76
176 200 84
173 196 44
173 196 72
172 196 72
174 198 80
171 195 80
172 197 92
170 194 62
171 194 57
173 197 76
168 192 80
174 197 84
170 194 76
171 194 72
172 195 72
168 192 67
173 197 76
169 192 72
172 196 84
169 192 67
172 195 84
167 191 62
169 192 67
174 198 72
167 191 62
169 193 80
169 193 57
169 192 62
164 188 44
174 197 72
174 198 92
169 193 67
170 193 84
170 193 57
169 193 67
170 194 72
170 193 72
171 194 80
172 195 72
171 195 67
171 196 72
171 195 80
171 194 67
168 192 72
171 194 62
170 194 76
172 195 72
166 190 92
173 196 72
167 190 80
167 190 62
155 178 97
149 172 115
135 160 144
106 134 151
93 122 154
96 125 164
90 120 162
107 135 172
89 119 172
105 133 176
96 125 178
92 121 168
92 121 165
97 125 162
92 122 168
88 118 167
99 126 160
110 136 160
95 123 160
92 121 158
98 126 161
110 136 162
87 117 160
89 119 165
77 109 165
94 123 156
97 125 176
90 120 164
97 125 166
102 129 173
82 113 166
95 123 174
87 116 172
74 107 172
78 110 169
89 119 174
82 113 174
85 115 175
81 112 169
64 100 167
76 108 169
71 104 171
70 104 171
70 104 170
65 100 173
75 107 170
73 105 161
67 102 170
68 102 169
68 101 162
68 102 169
74 106 163
66 100 156
66 100 159
71 103 154
62 97 149
60 95 153
65 100 158
64 99 159
63 99 156
61 97 161
65 100 156
60 96 151
61 97 155
61 97 148
61 97 152
62 98 162
61 96 157
62 97 157
60 96 152
62 98 162
61 97 155
60 96 151
61 97 156
62 97 154
61 97 157
61 97 156
61 96 151
62 98 160
61 96 147
62 98 163
61 97 157
60 96 146
61 96 153
62 98 155
61 97 154
61 96 154
62 98 160
62 98 155
61 97 153
60 95 139
61 97 152
61 97 152
62 97 151
61 96 147
62 98 155
62 97 156
62 98 158
63 98 161
61 97 156
61 96 143
62 97 156
60 96 150
61 96 150
62 97 155
61 97 156
60 96 145
61 97 152
61 97 155
60 95 143
61 97 151
60 95 142
61 97 150
60 96 146
62 97 156
61 96 148
60 96 149
63 98 157
62 98 161
60 95 140
61 97 148
61 96 152
60 95 136
61 96 145
62 97 149
61 96 148
61 96 151
61 97 152
61 97 145
61 96 148
60 95 141
60 95 140
61 96 140
62 98 155
59 94 134
60 94 135
60 95 136
61 96 148
61 96 152
61 96 147
62 97 150
61 96 144
62 97 150
61 96 148
60 95 140
61 97 151
61 96 142
60 95 144
62 98 153
61 96 141
62 97 153
60 95 131
60 95 141
61 96 139
61 96 145
62 97 150
61 96 145
60 94 142
59 94 142
60 96 140
60 95 133
61 97 143
60 95 134
59 93 131
58 93 133
60 94 142
61 96 142
60 95 136
60 94 134
59 93 137
60 95 136
60 94 135
60 95 141
61 95 136
58 91 124
60 94 130
58 91 119
57 90 123
59 92 129
59 93 133
58 91 114
63 95 125
79 100 100
90 108 87
117 127 32
118 129 0
117 128 0
122 130 0
110 121 0
124 133 0
109 118 0
121 129 0
113 123 0
108 117 0
120 128 0
120 128 0
119 126 0
115 123 0
116 124 0
118 126 0
115 122 0
108 116 0
118 131 0
123 131 0
118 126 0
132 140 0
126 132 0
119 125 0
122 127 0
123 131 0
110 117 0
115 122 0
114 121 0
117 123 0
122 128 0
109 117 0
109 116 0
121 126 0
119 123 0
115 120 0
125 132 0
122 126 0
109 114 0
122 129 0
122 128 0
120 124 0
132 138 0
119 125 0
118 120 0
129 133 0
125 131 0
124 127 0
121 124 0
119 123 0
125 131 0
121 123 0
136 140 0
125 128 0
127 131 0
127 132 0
132 135 0
120 123 0
133 139 0
127 129 0
133 138 0
121 126 0
137 143 0
144 149 0
133 140 0
125 130 0
128 133 0
131 137 0
135 142 0
136 142 0
151 158 0
144 149 0
140 146 0
140 148 0
145 151 0
145 151 0
142 148 0
128 137 0
142 145 0
139 146 0
133 139 0
146 153 0
148 155 0
137 145 0
147 153 0
149 158 0
146 154 0
149 158 0
154 164 0
144 153 0
150 162 0
146 155 0
149 159 0
150 159 0
156 168 0
151 157 0
153 164 0
142 149 0
156 169 0
153 161 0
152 163 0
147 158 0
154 165 0
156 169 0
155 167 0
153 164 0
156 170 0
152 164 0
161 174 0
163 176 0
153 166 0
154 166 0
158 175 0
157 171 0
158 171 0
158 173 0
165 181 0
160 176 0
161 175 0
160 172 0
161 175 0
159 175 0
162 176 0
158 175 0
160 176 0
159 174 0
160 174 0
159 175 0
162 177 0
161 177 0
160 176 0
163 182 0
164 181 0
162 181 0
165 180 0
166 184 0
163 182 0
165 184 0
169 186 0
161 178 0
165 183 0
163 182 0
165 182 0
165 184 0
174 197 51
174 198 76
175 198 72
172 196 62
173 196 92
175 199 80
171 194 72
173 197 80
176 199 67
175 199 80
174 198 84
170 193 57
174 198 80
173 197 62
173 197 80
168 191 51
175 199 102
173 197 88
167 190 51
173 197 62
170 193 67
173 197 80
170 195 88
172 197 80
168 192 72
173 197 80
173 197 84
172 196 76
171 195 51
172 195 62
170 194 72
173 198 99
174 198 80
172 195 76
172 196 67
172 195 57
172 196 76
173 196 84
171 195 88
171 196 76
171 194 72
170 194 80
172 196 92
171 195 80
171 195 76
169 193 88
169 193 62
170 194 80
169 193 72
169 192 72
171 195 88
171 195 84
171 194 72
168 192 84
170 194 67
170 193 80
164 187 67
171 194 62
170 194 67
168 191 80
169 193 72
170 192 84
165 189 62
170 194 62
167 191 62
169 193 84
170 193 76
168 191 51
170 193 72
168 191 88
168 191 76
162 185 60
166 190 107
152 176 124
137 162 131
128 154 153
97 125 156
96 125 153
100 129 163
106 134 171
94 123 164
86 117 162
100 129 180
89 119 166
78 109 166
101 128 171
94 122 161
92 121 157
99 128 163
96 125 160
86 116 168
93 122 158
101 128 169
87 116 171
101 128 163
94 123 163
101 129 163
92 120 159
96 124 162
87 116 171
89 118 157
95 123 165
85 116 167
85 115 169
91 120 170
83 114 171
96 124 162
84 114 172
96 124 168
75 107 171
82 113 168
80 111 165
80 111 172
66 101 171
67 102 166
65 101 171
75 107 171
76 108 170
78 109 173
65 100 169
68 102 171
76 108 165
68 102 164
65 100 164
64 99 155
61 97 161
70 103 156
63 98 163
64 97 150
64 98 155
63 98 158
62 97 150
63 98 158
60 96 157
61 97 159
62 97 158
61 96 151
60 95 154
62 97 154
60 95 144
60 96 154
60 95 150
62 98 163
60 95 143
61 96 157
62 97 155
62 97 157
62 98 161
61 97 161
61 97 158
61 97 153
60 96 155
62 98 156
62 97 155
61 97 156
61 96 148
61 96 154
61 97 153
61 97 154
62 98 156
61 96 145
60 96 149
61 96 147
62 97 154
61 97 151
61 96 147
61 97 154
61 96 145
63 99 165
62 97 152
59 94 147
61 96 144
60 95 149
61 97 155
62 97 154
61 96 153
62 98 160
61 97 150
61 97 151
61 97 148
61 96 148
61 96 146
61 96 144
61 96 147
62 97 151
61 97 153
61 96 148
60 95 144
62 97 153
60 95 139
62 97 151
61 96 141
60 96 145
62 98 154
60 95 145
62 97 154
61 97 150
61 96 144
62 96 145
61 96 143
62 98 158
61 96 148
59 94 134
60 95 137
61 96 147
62 98 149
61 97 152
61 97 141
61 96 150
61 96 148
62 97 148
61 97 148
60 95 141
61 95 145
61 96 145
60 95 133
62 97 150
60 94 136
62 97 158
61 97 147
60 95 141
61 96 144
60 95 140
61 96 144
60 95 139
62 98 147
60 95 133
61 96 147
61 96 141
60 95 136
61 96 144
60 95 139
61 96 142
60 94 140
60 95 141
60 94 131
61 96 137
61 96 141
61 96 143
60 95 134
61 96 140
61 95 140
59 93 117
59 93 124
60 95 134
60 94 134
59 94 134
60 95 134
59 93 127
58 92 121
60 94 123
57 90 121
59 93 123
69 97 107
102 121 80
102 119 62
117 128 18
122 135 0
101 113 0
125 138 0
113 124 0
122 133 0
116 125 0
114 125 0
111 121 0
115 123 0
117 125 0
116 126 0
116 126 0
114 123 0
116 127 0
118 126 0
118 128 0
116 124 0
126 135 0
117 125 0
124 133 0
122 129 0
124 131 0
123 130 0
122 130 0
119 128 0
112 119 0
122 128 0
114 120 0
117 121 0
114 119 0
120 127 0
112 114 0
110 113 0
126 130 0
118 124 0
126 136 0
123 129 0
128 134 0
133 139 0
119 126 0
118 123 0
117 124 0
133 139 0
125 129 0
127 131 0
126 130 0
139 143 0
126 131 0
122 126 0
125 129 0
117 122 0
127 131 0
129 134 0
127 131 0
126 131 0
125 127 0
131 136 0
124 129 0
136 139 0
132 136 0
124 127 0
129 134 0
139 145 0
136 144 0
136 144 0
139 147 0
136 142 0
126 130 0
132 137 0
137 145 0
134 141 0
144 152 0
138 145 0
135 142 0
140 149 0
143 150 0
142 150 0
145 153 0
145 151 0
143 153 0
142 152 0
147 153 0
147 158 0
144 153 0
149 160 0
152 162 0
153 165 0
146 153 0
145 152 0
136 144 0
153 162 0
150 161 0
142 150 0
152 161 0
145 154 0
151 161 0
151 164 0
157 166 0
160 173 0
158 168 0
153 165 0
154 166 0
148 159 0
157 172 0
151 161 0
155 166 0
160 175 0
156 169 0
160 174 0
157 171 0
154 169 0
159 171 0
161 174 0
151 165 0
161 176 0
158 172 0
158 173 0
162 175 0
151 164 0
158 171 0
159 174 0
158 173 0
163 180 0
158 173 0
159 177 0
160 176 0
165 182 0
166 184 0
161 176 0
160 175 0
164 181 0
162 180 0
162 180 0
169 188 0
159 174 0
159 176 0
161 179 0
167 184 0
165 182 0
166 183 0
166 184 0
166 184 0
167 186 0
175 198 62
172 196 80
173 197 62
174 197 76
174 197 76
172 196 84
174 198 76
171 194 80
173 196 57
172 196 76
171 195 67
173 196 51
174 198 57
171 194 76
172 195 67
172 196 67
174 198 62
172 195 84
171 195 57
173 197 72
171 194 62
171 195 72
170 194 72
172 196 76
171 195 72
174 197 72
173 197 105
167 191 84
171 196 72
166 190 80
173 198 105
174 197 76
168 192 80
171 194 57
175 200 80
166 191 51
171 195 57
170 194 72
172 194 92
172 196 67
171 194 44
170 194 67
169 194 84
172 196 76
174 198 84
171 194 95
172 196 84
172 195 62
174 198 80
168 191 36
172 196 76
168 191 80
172 196 92
168 192 62
170 194 51
172 196 84
167 190 72
171 194 76
171 195 51
165 188 67
171 195 80
169 192 62
171 194 88
173 196 88
171 195 99
168 191 62
168 191 99
168 192 88
172 195 67
163 186 72
166 189 62
166 189 84
163 186 67
154 178 118
142 167 118
131 156 123
112 139 150
94 124 167
98 127 168
90 119 168
92 121 163
97 126 172
97 125 165
92 121 168
85 115 160
96 125 166
98 126 164
92 121 161
90 119 160
113 139 165
96 125 150
93 122 167
94 123 163
102 128 167
86 116 154
97 124 147
91 119 157
94 122 172
96 124 170
85 114 162
88 117 164
89 119 167
95 123 165
101 127 167
91 120 172
84 114 166
73 106 164
99 127 174
85 115 175
69 103 161
92 121 173
86 116 173
72 105 170
73 106 171
74 106 166
85 115 176
72 105 171
62 98 162
71 104 164
75 107 169
74 106 167
65 100 171
64 99 160
69 103 165
64 99 156
70 103 157
66 100 156
61 97 159
69 102 157
62 97 155
60 95 148
61 97 159
63 98 158
64 99 149
61 96 151
66 101 154
61 96 154
60 96 150
63 98 150
62 97 155
62 97 155
60 96 155
62 97 150
60 95 142
62 98 159
61 96 148
62 97 156
61 97 149
60 96 148
61 97 156
61 97 154
61 96 153
61 97 149
61 97 159
62 97 157
62 98 160
60 96 151
61 96 148
62 97 156
61 97 155
62 97 157
61 97 154
62 97 157
62 97 149
61 97 153
60 95 144
62 97 157
61 97 157
61 97 155
61 97 152
61 96 149
62 98 157
62 97 151
60 96 145
61 96 145
60 95 137
61 96 150
61 96 149
60 95 153
61 96 145
61 97 149
62 97 152
61 97 148
61 96 143
61 97 155
60 95 143
62 97 152
60 96 145
61 97 150
62 97 144
61 96 147
61 96 149
60 95 147
61 96 149
61 96 140
60 96 141
61 96 148
62 98 159
61 96 140
60 96 145
61 97 150
62 97 150
60 95 140
61 96 147
62 97 149
61 97 143
62 97 147
60 95 143
62 97 148
59 94 142
61 96 141
61 96 148
60 95 142
61 96 147
60 95 143
61 96 143
62 97 150
61 96 142
61 96 141
60 95 134
60 94 136
61 96 148
60 95 143
60 95 141
60 95 140
62 97 148
59 94 142
59 94 133
60 95 141
61 95 137
61 96 141
59 94 136
60 95 135
59 93 124
60 95 140
60 95 130
58 92 115
59 92 127
58 92 125
61 96 142
58 92 117
59 94 122
60 95 136
60 95 139
58 91 130
60 94 133
58 92 121
59 93 133
58 92 120
58 92 124
56 89 120
57 90 120
70 100 118
89 112 113
94 110 65
109 121 37
130 142 0
125 135 0
123 135 0
113 124 0
122 132 0
118 130 0
109 114 0
114 126 0
108 118 0
116 126 0
119 127 0
106 113 0
111 121 0
125 135 0
109 117 0
117 127 0
127 134 0
108 115 0
115 123 0
104 111 0
113 121 0
119 127 0
119 127 0
119 125 0
115 121 0
126 134 0
136 146 0
128 134 0
127 134 0
124 131 0
119 123 0
130 139 0
122 129 0
133 142 0
125 130 0
120 127 0
135 141 0
118 123 0
121 125 0
120 128 0
124 131 0
124 128 0
123 127 0
117 124 0
122 128 0
118 125 0
112 113 0
123 130 0
121 125 0
131 138 0
127 129 0
121 129 0
135 144 0
132 138 0
125 129 0
134 136 0
138 144 0
128 133 0
124 131 0
137 141 0
130 136 0
140 146 0
127 133 0
133 139 0
139 145 0
127 135 0
134 139 0
131 136 0
138 143 0
133 139 0
134 140 0
140 146 0
146 156 0
140 149 0
144 151 0
129 134 0
133 137 0
135 143 0
140 148 0
141 150 0
142 149 0
142 150 0
141 149 0
146 154 0
147 157 0
143 153 0
146 155 0
144 151 0
144 152 0
148 155 0
149 159 0
150 161 0
156 169 0
150 161 0
149 158 0
156 168 0
141 150 0
154 164 0
155 168 0
148 162 0
153 163 0
159 173 0
150 161 0
154 165 0
157 171 0
158 169 0
159 171 0
159 172 0
153 165 0
156 167 0
155 168 0
161 176 0
152 163 0
152 166 0
162 176 0
158 175 0
153 166 0
157 172 0
160 174 0
161 177 0
161 178 0
162 179 0
159 175 0
162 179 0
163 180 0
163 179 0
162 178 0
161 177 0
158 173 0
167 185 0
161 177 0
160 176 0
157 173 0
162 180 0
161 178 0
165 182 0
166 183 0
163 181 0
167 183 0
164 181 0
162 179 0
161 180 0
166 183 0
165 182 0
171 194 67
175 199 84
169 193 67
174 197 51
171 195 57
174 198 84
168 192 36
170 194 57
172 195 72
171 194 62
174 198 57
174 198 44
172 195 76
171 196 95
172 196 76
172 196 57
172 195 72
172 196 62
169 194 67
175 198 92
174 198 57
169 193 67
171 195 72
171 195 84
173 196 72
171 194 88
170 195 80
171 195 57
172 195 80
168 192 76
172 196 80
174 197 76
173 197 72
173 196 72
171 195 84
168 192 57
168 193 80
167 191 51
171 195 84
172 197 88
169 193 67
169 192 67
169 191 51
176 199 76
170 193 76
171 193 62
170 194 76
169 192 62
171 196 88
170 194 72
171 195 84
172 195 57
169 193 80
166 189 57
165 189 72
171 195 72
168 192 72
166 191 44
169 193 67
169 193 88
164 189 80
170 193 92
171 195 76
164 188 72
166 189 76
170 194 80
168 191 72
169 193 72
167 191 72
167 190 67
169 192 88
167 190 57
165 188 80
159 183 86
148 172 102
129 154 130
122 148 140
95 124 157
90 120 163
102 130 178
90 120 169
88 118 158
98 127 175
93 123 168
97 126 173
84 114 159
99 128 153
90 120 161
92 122 171
91 120 168
99 127 170
103 130 157
98 125 145
99 126 167
87 116 165
94 123 165
89 119 159
98 126 172
95 124 165
101 128 157
101 128 160
93 122 167
89 119 166
98 126 175
85 114 163
91 120 164
93 121 167
82 113 158
81 112 166
86 116 171
72 104 167
83 114 168
82 112 166
78 109 172
76 108 174
79 110 169
70 103 166
71 105 170
65 100 166
65 100 165
68 102 167
70 103 165
62 97 160
70 103 160
64 99 165
65 98 157
66 101 161
65 99 156
62 98 159
71 103 156
70 102 153
63 98 157
61 97 151
60 95 144
61 97 153
67 101 153
61 97 154
60 95 142
61 97 151
61 97 150
62 96 144
64 99 155
62 97 156
61 96 148
61 96 141
61 96 143
60 95 145
62 97 157
61 96 148
62 97 156
61 97 150
62 97 154
60 96 144
61 96 151
60 95 144
60 95 143
62 98 158
61 96 150
62 97 157
61 96 154
62 98 156
61 97 151
62 97 154
61 96 148
61 96 145
60 96 152
62 98 156
62 97 151
62 98 157
62 97 155
61 96 145
61 96 148
61 97 150
60 95 142
60 96 142
61 96 145
61 96 148
61 97 148
61 97 154
62 97 156
62 97 152
62 97 150
62 98 157
62 97 151
62 98 159
60 96 145
61 97 149
62 97 149
61 97 149
62 97 152
61 97 150
60 95 145
62 97 152
62 97 152
62 97 150
61 96 144
61 96 148
60 95 142
61 97 151
59 94 148
61 96 139
61 96 143
59 94 127
61 97 149
61 96 142
61 97 151
60 94 136
61 97 139
62 97 155
62 97 149
61 97 149
61 97 143
60 94 130
60 95 139
61 96 144
61 96 140
60 94 136
61 96 143
59 94 137
63 98 155
60 95 130
61 96 142
59 94 135
59 93 127
60 95 141
61 96 134
59 94 129
61 97 149
61 97 144
59 94 134
61 96 145
61 96 139
60 94 133
60 95 134
60 94 137
61 96 135
60 95 131
60 95 137
58 92 124
60 94 137
60 94 133
57 91 122
60 95 133
60 95 135
60 94 135
58 92 131
59 93 126
60 94 130
57 90 127
57 90 124
60 94 130
57 89 125
76 102 108
90 112 88
99 116 72
125 139 18
111 125 0
117 126 0
110 121 0
117 127 0
113 124 0
108 118 0
124 136 0
123 132 0
127 137 0
120 132 0
118 129 0
122 133 0
120 131 0
124 131 0
112 125 0
117 124 0
126 136 0
107 114 0
135 144 0
121 130 0
125 133 0
110 119 0
113 122 0
123 135 0
113 120 0
118 125 0
119 127 0
125 130 0
128 135 0
123 131 0
125 133 0
112 120 0
128 135 0
123 132 0
119 127 0
123 132 0
136 146 0
120 127 0
131 139 0
116 122 0
116 119 0
123 132 0
130 134 0
125 131 0
129 134 0
130 134 0
122 129 0
131 140 0
130 138 0
133 141 0
122 127 0
137 142 0
134 142 0
134 137 0
126 130 0
132 138 0
135 141 0
129 135 0
134 140 0
129 133 0
129 138 0
146 152 0
136 144 0
147 155 0
143 151 0
134 141 0
142 150 0
150 162 0
132 138 0
139 148 0
137 145 0
143 150 0
141 149 0
139 145 0
148 160 0
146 158 0
149 158 0
144 151 0
148 158 0
142 148 0
145 151 0
147 158 0
145 154 0
152 162 0
149 160 0
150 159 0
157 167 0
144 153 0
155 165 0
150 162 0
153 166 0
157 167 0
156 167 0
150 160 0
149 161 0
154 167 0
151 162 0
152 163 0
154 168 0
152 164 0
154 165 0
149 161 0
147 155 0
151 161 0
151 162 0
153 164 0
153 166 0
158 172 0
159 172 0
154 169 0
150 161 0
155 170 0
155 169 0
156 167 0
152 166 0
158 170 0
159 175 0
165 180 0
161 178 0
162 174 0
155 168 0
155 169 0
164 178 0
158 173 0
155 169 0
160 177 0
162 179 0
164 180 0
164 181 0
163 180 0
161 176 0
162 179 0
163 179 0
164 181 0
162 178 0
167 184 0
164 181 0
163 180 0
163 181 0
165 183 0
163 178 0
163 178 0
161 178 0
163 181 0
171 195 67
174 197 67
173 197 80
174 198 102
175 198 62
176 199 80
172 196 84
176 199 67
174 198 88
173 196 44
172 197 76
172 196 62
172 195 88
172 195 62
174 197 67
172 196 51
171 195 76
171 195 72
172 196 57
172 196 57
173 196 62
172 196 72
172 195 67
173 197 84
172 195 80
173 196 44
170 195 72
173 196 67
173 198 72
175 198 76
171 194 57
172 195 92
171 195 76
169 193 72
168 192 72
172 196 76
168 193 72
168 192 62
169 191 51
167 191 62
166 190 57
172 197 72
166 191 72
170 193 72
172 196 80
169 191 36
167 191 76
170 194 76
168 192 44
170 194 76
175 198 80
165 189 57
165 187 57
175 198 102
167 191 76
171 193 51
170 192 84
169 192 76
172 196 62
171 195 80
170 193 76
164 187 72
166 190 76
166 189 51
166 191 80
171 195 62
169 192 62
164 187 67
169 193 62
169 193 99
165 187 76
167 191 72
166 188 57
159 182 80
163 187 120
147 172 131
128 154 135
119 145 143
92 122 158
76 107 161
94 123 166
90 119 162
103 131 173
88 118 170
110 137 175
91 121 163
104 132 172
92 120 153
94 123 157
94 122 161
93 121 153
96 124 157
89 119 165
94 122 160
94 123 164
94 121 146
99 126 163
102 129 151
97 124 171
92 120 158
102 130 160
93 122 163
99 126 170
92 120 155
96 124 164
80 110 172
98 125 164
80 111 165
72 106 166
82 113 162
92 121 170
82 112 172
68 103 171
83 114 177
75 107 164
78 109 164
77 109 170
64 99 159
78 109 166
71 104 172
71 104 166
65 100 163
61 97 162
63 98 161
72 106 162
72 105 156
68 101 152
65 99 164
68 101 158
63 98 156
62 96 149
61 96 154
66 100 156
63 98 153
64 99 157
61 96 155
61 97 161
65 100 157
66 100 146
63 98 153
61 97 148
66 100 159
60 95 150
60 95 148
61 96 150
61 97 155
60 95 148
61 96 148
61 97 147
61 96 155
61 97 150
62 97 157
61 96 148
62 98 161
61 96 151
62 97 155
62 97 159
61 96 149
62 98 161
61 96 147
61 96 147
61 97 153
61 96 154
62 98 157
62 97 155
61 97 147
60 96 150
62 97 152
61 97 153
61 96 151
61 96 145
61 97 158
62 98 155
61 97 155
62 97 152
61 96 141
61 96 150
60 95 143
61 96 145
60 95 137
62 97 153
61 96 143
60 95 141
62 97 145
61 96 145
62 98 151
61 96 143
61 97 150
61 96 144
61 96 148
61 96 148
62 97 148
61 97 151
60 95 140
61 97 143
61 96 149
60 95 137
60 95 144
61 97 148
61 96 141
61 96 145
61 96 141
61 96 141
60 96 141
60 95 147
62 97 149
61 96 147
61 96 144
60 95 140
61 96 148
60 94 134
61 96 142
60 95 137
59 94 133
61 96 143
60 94 133
61 97 144
61 96 143
62 97 142
60 95 136
61 97 145
60 94 135
60 95 135
61 96 143
60 95 134
60 95 137
61 96 143
59 94 136
60 94 129
60 95 136
60 94 140
60 95 142
61 95 139
60 95 142
61 95 127
59 94 135
61 96 143
60 95 135
59 94 131
59 94 127
60 94 130
60 94 134
60 94 126
59 93 124
59 93 124
59 93 137
60 94 138
60 94 127
59 93 126
58 92 118
59 92 132
66 94 97
73 95 79
104 122 72
119 132 36
120 128 0
127 138 0
126 138 0
115 123 0
113 123 0
118 128 0
114 126 0
115 126 0
116 127 0
110 120 0
124 134 0
119 130 0
120 130 0
126 137 0
129 140 0
128 137 0
122 133 0
125 135 0
123 133 0
129 139 0
122 130 0
125 134 0
124 135 0
124 134 0
125 135 0
119 126 0
129 137 0
123 129 0
131 138 0
127 137 0
108 113 0
118 127 0
130 138 0
124 129 0
131 140 0
122 129 0
126 134 0
130 138 0
129 135 0
129 135 0
120 127 0
128 135 0
131 139 0
135 142 0
120 125 0
126 137 0
132 140 0
117 121 0
126 133 0
134 144 0
141 148 0
130 135 0
118 123 0
124 134 0
135 142 0
127 133 0
129 135 0
118 125 0
133 137 0
129 136 0
135 142 0
128 134 0
137 144 0
133 140 0
139 148 0
140 146 0
138 146 0
143 148 0
132 140 0
144 153 0
136 142 0
138 146 0
135 140 0
139 147 0
140 145 0
147 155 0
136 143 0
135 141 0
132 140 0
147 158 0
153 162 0
153 162 0
147 155 0
141 150 0
151 162 0
148 156 0
149 161 0
145 156 0
151 162 0
142 153 0
147 157 0
152 165 0
153 164 0
146 156 0
155 167 0
155 168 0
156 168 0
156 167 0
147 158 0
157 169 0
156 169 0
158 172 0
157 169 0
152 164 0
156 169 0
160 176 0
153 166 0
160 175 0
158 172 0
155 168 0
151 164 0
160 173 0
159 172 0
152 163 0
160 176 0
158 175 0
162 177 0
158 174 0
162 177 0
159 174 0
155 169 0
163 180 0
160 176 0
158 174 0
159 174 0
158 176 0
164 181 0
160 175 0
161 177 0
158 173 0
159 178 0
164 181 0
160 178 0
156 175 0
164 183 0
162 179 0
161 177 0
167 186 0
162 180 0
161 178 0
165 183 0
160 177 0
166 181 0
169 189 0
164 181 0
171 194 51
172 196 76
173 197 76
173 196 62
171 195 80
174 198 67
175 198 67
172 196 88
171 195 62
174 198 72
170 194 88
173 196 57
171 195 67
173 197 80
173 197 72
174 198 88
173 196 80
171 195 88
170 194 76
168 193 80
173 197 72
170 194 84
166 189 80
172 196 72
173 198 95
172 196 72
173 197 76
172 196 88
173 198 84
175 198 67
170 194 80
168 192 88
168 192 72
173 198 99
170 194 72
171 195 67
170 195 72
169 192 76
172 196 84
171 195 84
170 193 57
168 192 36
169 193 67
170 193 67
173 196 62
169 194 95
170 194 67
168 192 62
171 195 92
164 188 57
169 193 76
164 188 72
167 191 76
163 188 72
165 190 67
172 196 72
166 189 76
167 190 80
168 193 67
171 194 72
166 190 72
169 192 72
165 189 92
164 187 67
166 190 84
166 190 72
171 195 95
167 191 88
164 187 44
166 189 51
169 192 95
166 189 62
167 189 99
164 188 72
154 179 86
157 181 92
141 166 111
106 133 140
107 133 157
94 122 160
93 122 173
98 127 166
84 114 161
104 131 163
93 122 164
89 119 168
104 132 168
80 112 164
85 114 164
93 122 161
95 123 163
104 131 160
105 132 154
103 131 159
107 134 161
95 124 168
97 125 160
101 128 157
86 116 158
91 120 152
94 123 160
98 126 160
96 124 167
87 116 167
92 121 162
82 113 162
85 115 158
82 113 165
81 111 169
74 106 162
80 111 166
89 118 167
85 115 167
84 114 168
73 106 171
76 108 162
83 113 175
69 103 168
72 105 170
72 104 161
73 105 164
68 102 164
68 101 163
66 100 157
66 100 160
67 101 158
62 97 150
70 102 154
65 99 151
65 100 157
61 97 157
63 97 157
62 97 156
61 97 155
59 94 148
60 96 153
60 96 145
63 97 148
60 95 153
60 95 148
62 97 148
61 97 156
61 96 153
66 100 154
62 97 151
60 95 144
61 95 152
60 95 144
60 95 141
61 96 149
62 97 155
62 98 156
61 96 150
61 96 150
61 96 151
61 97 151
61 96 150
61 97 151
61 97 152
61 96 144
60 95 150
62 97 151
62 97 151
61 97 145
62 97 149
61 97 155
61 96 149
61 97 153
63 98 155
62 98 153
61 97 152
61 96 148
59 94 134
60 95 150
61 97 151
62 98 155
61 97 147
61 97 147
61 97 152
61 96 149
60 95 145
62 98 153
61 96 147
61 96 150
60 96 151
60 95 140
60 96 142
60 96 145
61 97 150
61 96 142
61 96 152
61 96 152
60 96 144
61 96 141
61 97 152
61 96 144
61 96 147
60 94 136
60 95 145
62 98 149
61 95 151
60 95 144
62 97 150
60 95 133
60 95 145
60 95 137
60 95 149
61 96 145
61 97 148
61 96 142
61 95 145
60 95 137
60 96 141
60 95 144
60 95 135
61 95 139
61 95 136
61 96 139
61 96 136
60 94 141
60 96 141
62 97 143
60 95 135
59 94 127
60 95 134
60 95 142
60 94 134
60 95 143
60 95 141
60 94 129
61 96 137
58 93 130
59 93 140
60 94 134
60 94 136
59 94 129
61 95 136
59 93 131
58 92 120
60 94 135
57 90 117
59 93 133
59 93 127
59 93 129
60 95 127
60 94 133
59 93 134
58 91 124
57 90 116
58 90 125
59 90 115
73 98 85
91 112 77
109 125 54
115 127 18
119 129 18
122 134 0
116 124 0
122 132 0
114 127 0
120 131 0
108 118 0
126 137 0
122 132 0
120 129 0
122 134 0
118 127 0
114 125 0
128 139 0
133 144 0
118 128 0
122 130 0
127 137 0
116 124 0
114 123 0
129 140 0
125 137 0
120 131 0
129 137 0
106 112 0
123 131 0
114 122 0
126 136 0
132 141 0
132 142 0
128 138 0
127 137 0
124 132 0
124 134 0
124 132 0
117 124 0
126 134 0
121 130 0
120 127 0
126 134 0
121 127 0
121 127 0
129 135 0
132 142 0
132 139 0
123 129 0
126 130 0
125 132 0
137 142 0
126 133 0
133 142 0
131 140 0
133 144 0
133 138 0
137 144 0
133 142 0
143 152 0
140 147 0
134 143 0
132 140 0
133 142 0
131 139 0
131 137 0
135 140 0
125 132 0
130 138 0
139 145 0
138 146 0
138 145 0
139 146 0
148 158 0
145 154 0
145 152 0
140 149 0
136 145 0
143 151 0
140 152 0
148 155 0
140 149 0
148 159 0
140 149 0
145 150 0
140 146 0
148 160 0
149 160 0
156 169 0
147 157 0
152 164 0
148 161 0
145 154 0
158 172 0
151 163 0
154 163 0
153 166 0
146 158 0
157 169 0
150 162 0
154 167 0
153 164 0
156 170 0
160 172 0
157 170 0
156 168 0
154 165 0
158 170 0
153 164 0
151 166 0
155 171 0
160 175 0
161 175 0
155 169 0
155 168 0
156 170 0
156 167 0
158 172 0
153 167 0
164 179 0
160 176 0
157 172 0
158 173 0
161 176 0
162 179 0
158 173 0
159 174 0
157 171 0
160 177 0
157 173 0
161 177 0
161 181 0
168 187 0
161 177 0
162 176 0
163 179 0
161 179 0
164 182 0
161 180 0
160 176 0
168 185 0
163 180 0
164 181 0
164 181 0
163 180 0
164 182 0
161 177 0
161 179 0
170 194 57
170 193 67
172 197 72
173 197 72
171 195 88
173 197 67
177 200 72
175 198 72
169 193 80
172 196 62
174 197 80
170 194 57
171 194 57
170 193 76
171 195 88
175 199 92
170 194 67
171 195 51
173 197 62
173 197 72
171 195 84
172 195 67
172 195 72
171 195 76
172 197 92
171 195 51
168 192 84
168 193 76
170 194 92
168 193 67
170 194 72
171 195 62
167 190 62
172 196 67
169 192 44
167 192 72
173 198 84
168 192 67
170 194 62
169 192 76
168 193 76
165 190 51
168 194 105
169 193 57
169 193 80
170 193 57
171 195 72
167 191 57
165 189 76
169 193 62
168 192 80
168 192 62
169 192 51
168 192 80
167 191 92
167 190 62
169 193 84
167 190 62
170 193 67
168 192 76
170 193 67
167 190 57
166 190 80
168 192 84
165 189 67
170 193 62
160 184 62
169 193 95
166 190 67
169 191 67
170 194 76
162 186 84
162 186 84
166 190 72
164 187 67
157 180 100
138 161 95
119 144 129
115 141 140
93 122 158
90 119 159
93 122 165
96 124 162
80 111 156
87 117 154
84 115 166
103 131 180
93 123 166
93 122 171
91 120 168
100 128 168
110 135 157
92 121 160
97 125 164
100 127 163
97 124 158
95 124 161
93 122 168
107 133 163
94 123 167
86 115 148
85 116 165
86 116 160
92 121 155
97 125 167
82 113 150
99 126 173
108 134 177
93 121 171
74 106 162
97 124 169
79 110 174
82 113 168
83 112 167
71 104 167
71 104 166
76 108 161
79 109 167
74 107 166
63 98 162
71 103 161
77 108 165
66 101 166
70 103 167
72 105 168
64 98 159
65 99 163
67 100 154
64 99 163
73 105 147
62 96 155
63 97 147
62 97 147
64 99 159
63 99 155
63 98 159
64 98 152
61 96 154
61 96 147
64 99 159
60 96 151
63 98 153
61 96 151
61 97 154
62 97 154
60 95 150
61 96 148
62 97 156
59 93 143
60 96 150
61 97 156
62 97 151
61 96 150
60 95 147
61 96 148
61 96 147
61 97 151
62 98 156
61 96 145
61 96 149
60 96 144
61 97 151
61 96 151
61 96 150
62 97 151
61 97 151
62 97 150
61 96 141
62 98 154
62 98 152
62 98 154
61 96 145
61 96 147
62 97 152
60 94 142
60 95 144
62 98 154
60 95 143
62 98 157
60 95 139
61 96 144
62 98 155
60 96 149
61 96 147
61 96 148
61 95 148
61 96 148
61 96 145
62 97 147
61 96 145
62 97 155
60 95 143
61 97 152
62 97 150
61 96 144
60 95 135
61 96 142
62 97 145
62 97 150
61 97 142
60 95 140
61 96 145
59 94 136
60 96 145
61 96 142
61 97 149
62 97 149
60 95 137
62 97 149
61 96 145
61 97 151
61 96 143
62 97 142
60 95 142
61 96 140
61 96 145
61 96 142
59 94 136
60 94 130
59 93 124
61 96 144
61 96 144
61 96 139
59 94 135
60 95 134
61 95 133
61 96 140
58 92 120
59 92 131
59 94 127
60 95 139
61 96 143
60 95 131
59 94 135
60 95 139
60 94 127
60 95 136
60 95 133
59 93 124
58 91 125
60 94 126
58 92 125
59 93 132
59 92 126
59 93 126
58 91 117
59 92 123
58 91 117
57 90 120
57 89 119
74 102 111
92 111 96
105 121 54
119 133 36
121 129 0
111 123 0
113 124 0
111 122 0
103 113 0
119 132 0
115 126 0
117 126 0
119 131 0
121 132 0
130 141 0
123 134 0
121 131 0
121 134 0
120 132 0
122 133 0
127 139 0
118 129 0
114 125 0
120 129 0
126 133 0
118 129 0
120 129 0
123 135 0
131 143 0
123 133 0
127 139 0
133 143 0
110 117 0
123 131 0
127 134 0
128 136 0
119 130 0
121 129 0
125 132 0
126 134 0
129 140 0
125 134 0
113 118 0
135 145 0
124 133 0
125 133 0
125 136 0
117 123 0
121 129 0
119 125 0
132 140 0
126 131 0
131 138 0
139 145 0
131 139 0
133 141 0
137 148 0
141 148 0
137 146 0
136 144 0
139 147 0
140 147 0
124 130 0
134 140 0
136 146 0
125 128 0
146 156 0
133 142 0
136 145 0
140 147 0
138 148 0
143 154 0
143 152 0
136 143 0
130 135 0
141 150 0
142 152 0
132 141 0
146 155 0
141 152 0
145 154 0
145 154 0
137 144 0
140 148 0
149 158 0
151 161 0
141 150 0
146 157 0
155 165 0
153 165 0
151 163 0
154 164 0
145 156 0
149 159 0
154 167 0
145 156 0
155 169 0
157 170 0
146 157 0
149 159 0
152 162 0
151 162 0
151 164 0
156 167 0
158 173 0
154 166 0
152 167 0
155 168 0
157 170 0
153 167 0
161 175 0
158 170 0
164 179 0
157 173 0
159 173 0
158 170 0
155 171 0
159 173 0
165 180 0
161 179 0
157 169 0
157 172 0
161 176 0
160 177 0
156 170 0
156 171 0
159 175 0
163 179 0
164 181 0
158 171 0
161 179 0
164 180 0
161 180 0
163 179 0
157 172 0
160 178 0
155 172 0
160 178 0
163 181 0
168 187 0
164 183 0
164 180 0
163 180 0
164 182 0
167 183 0
168 186 0
167 186 0
165 182 0
160 178 0
164 182 0
172 196 72
172 197 57
171 195 80
172 196 62
168 191 62
168 193 57
173 198 84
171 195 76
169 193 62
169 193 80
173 196 88
168 193 62
172 196 76
169 193 62
172 196 72
175 199 99
168 192 67
168 192 67
173 197 67
169 192 51
174 198 84
172 196 67
172 195 62
168 192 72
170 194 67
171 195 92
171 196 72
170 194 72
170 194 72
168 193 84
169 194 88
169 193 76
169 194 80
170 195 76
169 194 72
171 195 62
172 195 76
173 197 84
171 196 84
171 194 62
171 195 62
171 195 72
165 189 76
171 195 72
168 192 57
166 189 62
172 196 95
171 194 57
167 192 84
168 193 84
169 193 88
165 189 57
160 184 62
168 191 62
170 193 67
168 192 80
169 192 67
163 187 62
170 193 67
168 192 80
161 184 72
169 192 67
169 192 108
169 192 76
168 191 51
161 183 51
169 192 72
169 193 62
169 192 67
163 187 84
167 190 76
165 188 84
164 188 67
163 186 67
167 190 57
162 184 78
159 184 105
141 165 117
131 155 110
97 124 133
100 127 143
94 122 153
99 127 158
104 131 163
86 116 151
87 117 161
85 115 153
104 131 157
92 121 168
86 116 151
101 129 160
92 121 157
96 124 157
99 126 171
101 129 162
87 116 161
85 115 153
95 124 158
89 117 155
106 132 159
96 123 153
102 129 157
87 116 157
78 109 160
89 117 149
109 135 174
82 112 161
89 118 158
94 122 156
98 125 162
86 116 174
86 116 167
79 110 166
89 118 172
69 103 165
80 112 172
79 110 166
73 105 165
71 104 167
75 107 167
76 107 160
64 98 158
66 100 161
68 101 158
77 106 161
75 106 162
61 98 164
64 99 159
75 107 162
63 98 151
63 98 157
64 99 150
59 94 144
65 100 148
60 96 148
61 97 156
63 98 145
61 96 155
62 97 145
61 96 148
62 96 149
61 96 153
60 96 149
61 96 155
64 99 154
62 98 155
61 96 145
61 97 153
60 95 134
61 97 148
62 97 152
62 97 159
62 97 158
62 97 154
62 97 157
62 98 154
61 96 148
62 97 153
61 96 149
61 97 150
61 97 155
60 95 145
61 96 152
61 96 149
60 95 141
60 95 143
61 96 145
61 96 147
63 98 157
61 96 147
60 96 145
63 99 158
61 97 150
60 95 139
62 97 147
60 94 136
61 96 145
63 98 157
60 96 150
61 96 147
61 96 149
62 97 145
61 97 156
61 96 144
62 97 151
61 96 145
60 95 142
61 97 147
60 95 144
62 97 152
62 97 150
60 95 143
62 97 151
60 95 139
61 96 145
60 95 137
60 95 135
60 95 137
61 96 140
62 97 150
61 96 137
62 98 153
62 97 144
61 96 145
61 97 142
62 97 147
62 98 151
61 96 139
61 97 147
61 96 148
60 96 142
61 96 140
60 95 137
59 95 134
62 98 152
60 95 143
59 94 129
60 95 133
60 95 141
61 95 137
59 94 124
60 95 135
61 95 143
58 93 131
59 93 133
61 96 145
62 97 151
59 94 127
60 95 134
60 95 136
61 97 150
59 94 131
59 94 130
61 95 142
59 93 129
59 93 125
60 95 137
59 94 120
59 93 130
59 93 126
58 92 118
60 94 133
60 94 135
57 91 121
60 94 134
60 94 134
58 92 125
57 90 118
58 91 121
63 93 110
86 108 92
86 102 77
103 118 44
126 140 36
112 124 0
114 125 0
125 138 0
122 133 0
120 134 0
121 133 0
133 146 0
127 141 0
119 130 0
126 137 0
115 124 0
118 127 0
128 140 0
116 126 0
121 128 0
122 133 0
128 139 0
126 135 0
128 138 0
129 140 0
126 136 0
124 133 0
130 141 0
129 139 0
131 142 0
119 130 0
126 136 0
124 135 0
136 147 0
117 127 0
129 138 0
127 137 0
128 139 0
120 131 0
123 131 0
137 147 0
121 129 0
128 140 0
130 139 0
132 142 0
132 141 0
134 143 0
130 139 0
127 135 0
134 143 0
134 142 0
130 138 0
126 136 0
141 151 0
138 146 0
131 140 0
129 138 0
127 136 0
125 132 0
129 137 0
135 142 0
135 142 0
137 147 0
140 151 0
142 150 0
130 138 0
131 138 0
124 134 0
143 152 0
135 142 0
136 146 0
139 146 0
144 154 0
135 144 0
141 150 0
146 155 0
141 149 0
144 153 0
134 141 0
141 148 0
140 150 0
139 148 0
147 160 0
147 155 0
146 155 0
144 153 0
147 154 0
146 157 0
153 164 0
141 151 0
144 152 0
149 158 0
147 159 0
149 161 0
148 161 0
145 157 0
153 163 0
150 164 0
149 162 0
151 162 0
154 165 0
161 175 0
148 162 0
152 165 0
154 164 0
154 166 0
151 165 0
152 164 0
152 166 0
155 170 0
153 167 0
155 167 0
153 168 0
156 172 0
160 175 0
155 170 0
154 168 0
156 170 0
152 166 0
161 175 0
156 170 0
153 167 0
162 179 0
163 180 0
164 180 0
159 174 0
159 174 0
157 173 0
155 170 0
157 173 0
160 176 0
166 184 0
165 181 0
166 182 0
161 178 0
161 176 0
160 175 0
162 181 0
161 176 0
163 180 0
164 181 0
162 180 0
164 182 0
159 174 0
164 183 0
167 184 0
163 181 0
162 180 0
166 185 0
163 181 0
162 179 0
172 196 67
173 197 57
173 196 62
168 192 51
174 197 57
174 198 80
172 196 72
174 198 92
171 194 51
172 196 76
170 194 67
167 192 62
173 198 72
173 197 72
171 195 67
172 196 67
167 192 51
171 194 51
170 195 80
166 191 80
170 194 51
173 197 72
168 191 67
172 195 57
168 192 57
171 194 44
170 193 57
168 192 36
168 192 84
172 197 72
174 198 92
171 194 44
172 196 88
171 195 72
169 192 67
170 195 92
174 198 76
172 196 62
171 195 51
168 192 72
166 190 67
171 195 84
165 189 80
169 193 62
168 193 80
167 192 84
167 191 92
163 187 62
165 189 57
168 192 76
169 193 72
164 187 72
165 189 72
172 196 95
167 190 92
169 193 80
171 194 92
168 193 95
169 193 80
168 191 76
169 192 76
165 190 95
169 193 51
168 192 84
166 188 44
165 188 44
165 188 80
164 187 76
167 191 62
162 186 72
165 188 72
160 182 44
165 188 72
165 189 62
157 180 62
157 181 82
158 181 60
150 175 125
140 164 115
105 131 138
101 129 145
77 108 144
99 126 147
97 125 157
99 126 155
100 127 152
97 125 162
85 114 157
97 126 167
96 124 158
107 133 162
96 124 161
95 123 163
93 120 147
85 115 160
99 126 164
91 119 156
85 113 147
97 126 158
98 125 159
97 124 155
104 130 161
100 128 156
91 120 145
96 123 158
96 124 155
95 124 162
102 129 160
89 118 164
91 120 164
93 121 172
92 121 169
91 120 171
82 111 163
68 102 165
88 117 170
77 108 161
83 113 171
69 103 161
70 103 162
60 96 156
72 105 164
70 104 162
65 98 157
72 103 157
64 99 161
67 100 157
61 96 155
62 97 154
60 95 151
63 98 152
65 98 145
63 97 149
65 98 148
60 95 147
65 99 154
62 98 154
60 96 149
64 98 153
64 98 155
60 95 143
60 95 148
60 95 142
66 100 156
62 96 154
60 94 140
59 95 143
60 94 150
62 97 156
60 95 145
62 97 151
60 96 148
62 97 153
62 97 155
60 95 144
61 96 148
61 97 151
61 97 153
61 97 150
61 97 143
61 97 152
62 98 153
60 95 141
61 97 157
60 95 145
63 98 157
61 97 148
61 96 145
62 98 154
62 97 147
61 96 144
61 96 148
61 96 145
62 97 152
60 95 139
62 97 150
60 95 143
60 95 140
61 96 140
61 97 144
59 94 133
61 96 148
62 97 148
62 97 149
61 96 154
62 97 147
61 97 144
62 97 149
59 94 133
60 95 143
59 93 133
60 95 143
60 95 142
62 97 152
60 94 130
61 96 148
62 97 145
61 96 151
60 94 137
60 95 136
62 97 150
60 95 143
62 97 151
61 96 139
61 97 143
60 95 142
61 95 141
61 96 142
60 95 142
60 94 131
61 96 137
59 94 129
60 94 127
61 96 143
59 94 131
60 95 139
59 94 121
59 93 130
59 94 135
60 95 135
60 95 139
61 95 141
60 95 136
61 96 136
61 96 145
61 96 140
58 92 131
59 94 130
60 95 142
60 94 140
59 93 130
60 95 135
59 93 130
60 95 129
60 95 130
59 93 125
60 94 130
59 93 127
59 93 130
59 93 125
59 93 125
59 93 131
57 91 118
60 94 133
59 93 124
58 92 121
58 92 118
57 90 116
59 92 118
70 95 102
95 115 91
105 122 72
114 127 31
113 126 18
119 131 0
126 139 0
121 133 0
126 138 0
128 139 0
115 125 0
114 126 0
126 139 0
122 133 0
127 141 0
113 122 0
127 138 0
120 132 0
131 143 0
114 126 0
122 134 0
110 121 0
126 137 0
128 142 0
123 132 0
119 130 0
127 138 0
133 143 0
128 139 0
133 144 0
133 143 0
124 132 0
122 133 0
134 145 0
124 133 0
130 142 0
126 139 0
131 141 0
130 141 0
125 132 0
117 126 0
130 140 0
126 133 0
130 139 0
132 143 0
128 138 0
125 133 0
137 146 0
133 145 0
133 144 0
126 133 0
135 142 0
137 146 0
134 145 0
124 129 0
124 131 0
125 130 0
142 153 0
134 142 0
126 134 0
134 141 0
124 132 0
128 133 0
139 147 0
133 143 0
131 138 0
133 141 0
135 144 0
127 138 0
146 156 0
138 149 0
142 152 0
140 147 0
138 148 0
146 156 0
140 148 0
140 150 0
147 156 0
149 158 0
145 154 0
136 144 0
143 151 0
144 154 0
153 163 0
147 159 0
137 142 0
144 152 0
144 155 0
148 158 0
139 150 0
151 163 0
153 163 0
146 158 0
147 158 0
148 160 0
145 157 0
155 169 0
152 167 0
149 160 0
155 167 0
149 160 0
160 173 0
153 164 0
157 170 0
151 162 0
159 172 0
153 167 0
149 162 0
155 167 0
155 171 0
155 171 0
160 173 0
160 173 0
156 170 0
159 172 0
151 165 0
159 173 0
157 171 0
163 179 0
164 178 0
158 175 0
162 179 0
161 176 0
160 177 0
164 182 0
161 177 0
160 176 0
158 176 0
162 176 0
160 176 0
162 176 0
163 181 0
158 175 0
161 179 0
162 181 0
163 181 0
164 182 0
165 180 0
161 179 0
164 180 0
167 186 0
160 177 0
163 181 0
162 180 0
160 177 0
165 184 0
161 179 0
168 187 0
166 184 0
163 182 0
166 183 0
170 194 88
171 195 84
172 195 72
171 195 44
172 196 76
174 199 84
174 198 84
171 195 80
174 198 80
172 196 76
173 195 57
173 196 84
172 197 51
172 196 67
173 197 62
170 193 67
172 195 67
166 190 51
171 195 62
172 196 88
172 195 62
171 195 67
175 199 88
172 194 36
171 196 72
170 195 80
168 192 84
173 196 67
175 199 84
168 193 76
174 198 95
170 193 72
171 195 76
171 196 76
169 192 51
167 191 62
167 191 76
166 191 76
166 190 92
168 192 76
170 196 99
171 195 88
171 195 84
171 195 80
171 194 80
162 186 80
163 188 67
172 196 84
172 195 72
166 189 57
167 192 84
168 191 44
169 193 92
165 188 72
164 188 62
162 186 76
170 194 88
167 191 67
166 190 76
167 190 57
165 188 76
164 188 76
161 185 44
162 186 76
164 188 62
167 189 84
166 189 67
172 196 84
167 190 62
164 188 67
163 187 72
166 189 62
160 183 62
165 189 62
161 183 44
161 184 84
159 182 102
156 179 86
142 166 94
117 141 111
97 125 135
91 120 144
87 117 152
93 122 150
92 121 155
97 125 154
89 119 162
96 124 153
100 128 165
85 114 155
93 122 168
96 125 164
95 123 162
100 128 161
105 132 165
99 127 165
93 121 169
85 116 165
85 115 150
107 134 165
106 132 166
104 130 154
98 125 163
103 130 166
93 120 154
89 118 161
94 122 164
88 117 162
96 125 165
101 127 167
87 117 163
89 117 157
87 116 161
87 117 165
80 111 161
87 116 166
75 107 166
76 108 167
64 100 165
74 106 158
80 110 164
73 106 167
68 101 155
73 105 165
68 102 161
73 105 155
66 99 159
69 101 156
68 101 160
69 101 154
73 104 159
65 99 151
65 100 164
65 99 155
68 100 146
62 95 144
64 98 156
61 96 149
61 96 149
67 101 147
64 98 140
61 96 151
62 97 151
62 96 141
62 97 152
61 96 145
60 95 144
60 95 146
61 96 147
61 96 150
61 96 149
62 97 152
61 97 151
62 97 153
61 96 145
61 96 150
61 97 150
60 95 151
61 96 144
61 96 147
62 97 156
59 94 134
61 97 157
61 96 149
60 95 145
61 97 148
62 97 142
60 96 142
61 96 151
61 96 144
61 96 145
61 96 142
62 97 144
61 96 140
61 97 145
60 95 137
63 99 158
62 97 150
60 95 147
61 96 141
62 97 149
61 96 140
61 96 147
61 96 148
63 98 154
61 96 143
61 96 147
59 93 136
61 96 144
60 95 142
60 95 141
61 96 145
60 95 140
62 97 150
62 97 147
60 95 141
60 95 142
59 93 131
62 96 143
61 96 145
60 95 140
61 96 151
61 96 139
61 96 145
62 97 151
61 96 144
60 95 127
60 94 134
61 96 142
61 97 142
59 93 131
61 96 142
60 95 137
60 95 135
61 96 141
62 97 148
60 95 137
61 96 144
59 94 131
60 94 133
59 94 130
61 95 140
60 95 135
62 97 149
61 97 147
60 95 131
60 95 134
59 93 124
59 93 126
61 95 137
61 95 136
60 94 133
60 94 134
60 95 134
59 94 130
59 93 126
59 93 122
59 93 131
58 92 125
60 95 131
59 93 135
58 92 126
59 93 127
60 93 127
57 91 113
56 88 113
56 89 108
57 91 114
72 99 100
85 107 87
103 122 74
111 128 36
115 127 0
118 129 0
115 126 0
106 119 0
126 140 0
120 133 0
116 127 0
119 130 0
122 135 0
119 131 0
120 133 0
117 130 0
126 137 0
119 129 0
124 137 0
123 133 0
120 133 0
118 126 0
127 138 0
131 143 0
126 138 0
130 142 0
142 155 0
126 138 0
124 136 0
121 134 0
125 135 0
122 131 0
121 132 0
134 144 0
132 144 0
117 127 0
124 133 0
118 128 0
109 118 0
126 136 0
131 139 0
136 147 0
121 131 0
130 140 0
132 138 0
127 138 0
129 140 0
128 137 0
133 142 0
126 136 0
138 147 0
137 145 0
131 140 0
133 138 0
134 144 0
134 144 0
144 155 0
131 139 0
127 137 0
140 149 0
141 151 0
140 150 0
133 141 0
139 152 0
133 141 0
137 145 0
143 151 0
137 147 0
147 158 0
141 150 0
136 145 0
134 142 0
138 148 0
134 140 0
144 154 0
139 149 0
138 149 0
145 154 0
147 157 0
142 149 0
145 157 0
146 158 0
139 147 0
141 150 0
149 163 0
146 160 0
142 152 0
156 167 0
149 162 0
150 162 0
149 161 0
147 156 0
150 164 0
149 159 0
145 154 0
152 162 0
143 153 0
149 159 0
149 159 0
150 161 0
152 165 0
150 163 0
156 170 0
153 165 0
153 166 0
154 168 0
153 162 0
148 161 0
157 171 0
155 168 0
155 167 0
156 170 0
158 172 0
160 175 0
158 172 0
159 175 0
158 172 0
156 168 0
159 175 0
153 167 0
158 172 0
156 172 0
160 174 0
155 169 0
150 164 0
159 173 0
160 177 0
160 177 0
157 172 0
156 173 0
161 179 0
163 181 0
162 175 0
157 175 0
162 178 0
161 178 0
162 179 0
156 171 0
156 172 0
159 177 0
165 182 0
162 179 0
166 183 0
162 181 0
162 179 0
164 180 0
165 183 0
164 182 0
166 185 0
167 185 0
165 184 0
167 185 0
172 196 80
171 196 76
173 197 67
174 198 76
173 197 67
173 196 72
172 196 84
174 197 72
172 196 67
171 194 72
173 197 95
172 197 80
172 196 80
171 195 51
169 193 57
172 196 76
169 193 67
172 196 80
171 195 92
168 193 76
173 197 72
169 193 76
172 196 88
172 196 57
170 195 95
169 193 67
168 192 72
170 193 67
172 196 72
166 190 62
166 191 84
172 197 76
163 187 44
168 193 67
169 194 67
172 196 62
169 192 76
168 192 84
168 193 76
165 189 62
170 194 67
168 193 88
169 194 76
167 191 76
169 192 67
168 191 62
166 190 67
168 193 67
169 192 76
169 193 72
165 189 57
171 196 95
173 197 67
168 192 67
168 193 72
163 187 51
169 193 99
165 188 62
162 186 44
164 188 80
165 190 44
165 189 67
162 185 62
166 190 57
167 191 67
169 193 76
164 187 62
168 192 99
162 186 84
166 189 62
163 187 76
169 192 76
172 195 80
156 180 51
162 185 44
163 187 88
165 188 82
155 178 88
145 169 103
137 162 107
107 134 118
88 117 136
94 122 148
88 116 134
75 106 148
86 116 155
94 122 155
94 122 157
91 119 160
101 127 156
94 122 165
87 116 164
99 125 160
84 115 164
94 121 150
102 130 161
92 119 154
100 126 161
93 120 149
102 130 164
95 124 159
83 113 157
87 115 137
105 132 149
92 120 146
99 126 162
93 121 160
104 131 163
97 124 164
91 119 158
92 120 153
88 117 162
91 120 164
84 113 162
86 116 165
75 106 163
79 109 161
84 114 173
73 104 155
83 112 160
77 109 162
84 113 164
62 97 158
78 109 164
80 110 164
75 106 165
76 107 156
66 99 158
64 98 154
66 101 166
70 102 149
66 100 153
61 96 154
68 102 152
62 97 155
65 98 149
65 99 160
61 96 150
63 97 141
61 96 148
60 95 139
65 98 137
60 95 145
62 97 140
61 96 148
61 97 149
63 97 135
61 96 145
62 96 154
61 96 146
61 95 142
61 96 137
61 96 148
62 97 155
61 96 147
61 97 149
61 96 150
62 97 149
61 96 151
61 96 143
62 97 150
62 97 152
61 95 141
62 98 154
61 96 142
60 95 134
62 97 148
61 97 150
61 97 145
61 97 150
61 97 151
62 97 149
61 96 147
60 96 149
61 96 152
62 97 151
60 95 148
62 97 150
60 96 147
60 94 141
61 97 143
63 98 161
61 97 152
59 94 135
62 98 154
61 95 142
61 96 142
61 96 141
60 95 141
59 94 139
61 97 147
61 96 143
60 95 139
61 96 144
60 94 141
60 95 134
61 97 147
60 96 145
61 96 142
60 95 142
60 95 135
61 96 140
62 97 144
61 96 140
59 94 130
60 95 143
60 95 141
60 95 137
60 95 143
62 97 144
61 96 147
61 96 142
59 94 130
61 95 136
58 92 118
60 96 144
60 95 137
60 94 137
61 96 139
60 95 135
60 95 135
61 95 134
59 93 131
59 93 126
60 95 137
60 95 142
61 96 131
61 96 143
60 95 134
61 96 137
57 91 126
60 95 134
61 96 141
59 93 130
59 93 131
58 91 127
58 92 122
58 92 130
59 93 122
59 92 122
59 93 124
58 92 130
57 91 122
58 92 121
57 90 113
55 88 107
57 90 120
65 95 100
78 102 89
97 117 80
116 130 47
102 114 25
116 130 0
115 128 0
125 136 0
115 127 0
129 142 0
122 136 0
114 127 0
117 128 0
121 135 0
119 132 0
116 130 0
123 133 0
122 136 0
119 130 0
120 131 0
133 145 0
130 143 0
116 128 0
132 145 0
117 126 0
132 145 0
110 120 0
122 134 0
123 134 0
118 125 0
120 131 0
131 141 0
119 130 0
120 131 0
121 134 0
133 142 0
121 130 0
125 134 0
134 144 0
122 131 0
125 137 0
129 139 0
127 139 0
138 147 0
127 139 0
123 132 0
127 137 0
133 145 0
140 150 0
132 142 0
142 152 0
132 141 0
134 145 0
131 141 0
126 135 0
127 138 0
135 142 0
134 141 0
130 140 0
132 141 0
133 143 0
140 152 0
142 150 0
136 144 0
136 146 0
141 153 0
134 144 0
143 151 0
137 146 0
144 155 0
129 139 0
137 144 0
137 148 0
144 155 0
144 154 0
147 156 0
132 143 0
143 156 0
141 154 0
139 149 0
144 154 0
140 150 0
143 152 0
140 151 0
146 154 0
132 140 0
141 151 0
139 150 0
146 159 0
153 164 0
148 159 0
152 164 0
146 158 0
146 158 0
157 168 0
157 170 0
156 169 0
149 161 0
147 157 0
149 162 0
148 161 0
156 168 0
151 164 0
154 165 0
156 170 0
158 171 0
148 161 0
153 168 0
159 172 0
154 169 0
157 174 0
155 170 0
150 165 0
156 168 0
153 166 0
158 171 0
158 171 0
160 175 0
155 170 0
158 171 0
162 176 0
159 174 0
153 168 0
162 179 0
160 174 0
162 179 0
163 178 0
153 168 0
162 177 0
155 169 0
160 177 0
159 177 0
156 172 0
156 172 0
162 180 0
162 178 0
160 175 0
159 176 0
162 179 0
161 179 0
159 174 0
167 185 0
162 178 0
165 183 0
164 182 0
158 176 0
161 180 0
163 183 0
162 181 0
164 184 0
165 184 0
165 181 0
164 184 0
172 196 76
171 195 92
174 198 62
175 198 76
171 195 67
171 194 72
172 195 67
171 195 76
173 196 67
170 195 67
169 194 72
171 194 72
170 194 72
171 195 62
170 194 72
169 194 76
172 196 88
170 194 76
171 195 80
172 197 76
169 194 44
169 195 84
173 197 80
171 195 76
171 195 72
173 197 84
172 196 76
171 195 44
171 195 72
170 194 67
168 192 51
171 195 72
166 189 67
171 196 62
168 192 67
170 194 72
165 188 51
168 192 72
172 197 88
170 194 72
165 189 72
168 191 67
165 188 84
167 191 67
167 191 88
166 190 57
169 193 51
165 189 67
166 189 62
169 192 72
169 193 76
166 189 57
165 190 62
167 190 57
164 188 72
166 190 51
167 192 76
167 191 72
164 188 76
168 192 67
166 190 88
162 186 80
161 186 92
168 191 80
165 188 80
161 185 57
168 192 95
163 187 72
162 185 72
165 189 76
165 188 80
161 184 72
157 180 51
164 187 84
167 191 76
167 190 76
167 190 76
159 182 74
142 166 90
142 165 100
125 149 110
87 115 117
97 124 143
94 123 140
89 117 137
90 119 143
93 121 149
94 122 153
92 120 151
96 124 159
105 132 150
98 126 169
91 120 168
81 111 163
92 120 157
108 134 162
93 121 157
97 125 165
101 128 152
93 120 144
95 123 156
90 119 163
96 123 163
85 115 152
98 125 152
112 137 155
95 123 151
106 132 161
90 118 161
96 124 165
90 119 170
91 119 156
78 109 159
85 115 169
79 111 167
81 112 160
93 121 161
71 104 161
94 122 171
73 105 161
77 108 158
78 109 167
71 103 160
72 104 162
71 103 158
70 102 159
62 97 158
69 100 149
67 100 161
69 101 153
66 99 162
61 97 150
65 99 163
63 97 155
66 99 153
60 94 148
70 102 152
65 98 148
60 95 150
63 96 144
62 97 151
61 96 150
64 98 145
66 101 156
66 100 143
66 100 153
60 95 147
61 96 142
61 96 147
61 97 150
61 96 148
61 96 145
61 97 154
62 97 153
62 96 145
62 97 150
61 95 142
61 96 152
61 96 147
61 96 147
62 97 155
60 96 142
61 96 150
61 97 149
62 98 149
60 95 141
61 97 150
61 96 145
61 96 143
62 97 152
61 96 144
62 97 143
60 96 143
61 96 150
61 95 140
60 95 139
62 98 154
60 95 142
62 97 143
62 97 143
61 96 144
61 96 143
61 96 141
62 98 150
61 96 142
60 95 142
62 97 144
60 95 139
61 96 141
61 96 144
61 96 145
60 95 145
61 96 143
62 97 145
60 95 136
60 94 137
62 97 144
62 97 149
61 95 142
61 96 144
61 96 137
60 95 145
60 94 140
60 95 131
60 95 140
60 95 136
60 95 134
61 96 142
59 94 130
61 96 137
60 95 140
61 95 135
60 94 130
60 94 134
60 95 142
60 96 134
60 95 133
60 94 127
60 94 122
61 96 143
59 93 134
61 95 136
60 94 143
59 93 130
59 93 130
60 94 141
59 94 130
59 94 131
59 94 125
59 93 130
58 92 121
58 92 124
60 95 129
59 94 126
59 93 130
59 93 125
59 93 127
58 92 118
58 92 122
58 91 120
58 92 126
59 93 125
59 93 127
58 92 115
58 91 126
56 88 111
59 90 110
75 102 100
82 103 70
103 118 60
112 126 36
126 141 0
119 130 0
119 129 0
115 129 0
110 123 0
126 139 0
129 143 0
110 122 0
121 134 0
123 135 0
110 123 0
119 135 0
130 144 0
129 140 0
138 152 0
126 140 0
120 133 0
126 138 0
128 140 0
116 129 0
127 136 0
116 128 0
131 141 0
127 139 0
133 145 0
124 137 0
127 138 0
129 140 0
122 132 0
126 137 0
126 137 0
122 130 0
127 137 0
128 139 0
131 143 0
129 139 0
134 144 0
133 142 0
129 139 0
126 136 0
128 141 0
133 146 0
137 148 0
127 136 0
136 149 0
129 141 0
131 139 0
133 143 0
133 142 0
142 153 0
133 143 0
133 144 0
135 148 0
137 147 0
129 137 0
128 138 0
139 147 0
140 149 0
137 146 0
138 148 0
145 157 0
133 144 0
138 147 0
147 158 0
136 143 0
139 152 0
145 156 0
139 149 0
146 157 0
144 156 0
144 153 0
148 160 0
151 160 0
144 155 0
141 153 0
153 164 0
141 154 0
144 156 0
150 162 0
153 165 0
141 151 0
144 156 0
141 155 0
143 157 0
147 159 0
148 159 0
142 152 0
149 161 0
148 158 0
152 166 0
139 149 0
149 161 0
144 155 0
153 164 0
153 165 0
150 160 0
156 166 0
154 168 0
150 160 0
149 160 0
148 161 0
153 166 0
156 169 0
150 162 0
154 167 0
157 169 0
156 172 0
158 173 0
149 163 0
156 169 0
155 171 0
149 161 0
155 171 0
158 173 0
155 169 0
162 177 0
164 180 0
159 175 0
164 181 0
152 167 0
157 173 0
155 174 0
163 180 0
155 172 0
155 171 0
159 175 0
162 178 0
164 182 0
156 173 0
161 178 0
163 180 0
165 183 0
159 177 0
160 179 0
162 181 0
161 179 0
163 181 0
165 181 0
161 177 0
165 182 0
158 176 0
163 180 0
164 183 0
166 182 0
166 187 0
168 187 0
162 179 0
164 183 0
162 180 0
174 198 84
173 197 62
170 195 95
170 194 67
171 195 92
171 196 95
167 190 57
173 198 76
174 198 72
173 197 76
171 195 102
172 196 80
170 194 62
170 194 62
171 195 51
176 200 88
170 193 72
174 198 67
172 197 92
168 192 72
175 199 76
169 193 76
172 195 76
170 194 84
170 194 57
168 191 44
170 194 51
168 192 88
165 188 76
169 194 88
167 191 88
166 189 72
170 194 84
166 191 72
168 192 67
169 192 80
168 192 84
168 192 72
171 195 84
168 192 67
168 194 80
167 191 76
166 190 51
163 186 51
170 194 67
160 184 57
170 193 76
168 192 80
167 190 67
170 195 84
169 193 80
166 190 72
161 185 84
164 188 72
166 190 62
166 189 67
165 188 72
168 191 72
165 189 76
164 186 80
164 186 72
162 187 76
164 188 72
163 187 62
168 192 67
164 187 76
165 189 95
170 194 72
155 178 62
165 188 72
163 186 62
156 179 62
164 187 84
166 189 62
162 186 76
165 188 67
163 186 76
161 185 95
155 178 60
136 160 80
135 160 105
123 147 100
94 122 133
88 116 134
92 120 148
83 112 143
94 121 143
85 115 144
95 122 154
98 125 154
110 137 162
91 119 157
96 124 157
90 118 159
93 122 161
78 109 157
88 117 166
89 117 149
99 126 174
97 125 157
91 119 160
81 111 152
99 124 151
97 124 148
85 114 151
105 132 158
107 132 151
102 129 158
98 125 153
96 124 161
86 116 159
79 110 154
88 117 160
90 119 164
86 115 162
79 109 156
75 107 156
74 106 151
73 105 151
77 108 166
81 111 171
79 110 163
70 103 165
65 97 148
70 103 162
73 106 166
73 105 165
71 103 157
64 98 150
70 103 161
65 98 148
61 96 148
70 103 150
63 98 153
68 101 156
70 101 151
68 100 147
61 96 155
63 97 151
60 95 149
64 98 149
61 96 148
62 96 148
60 94 140
60 96 147
67 101 150
62 97 147
61 96 149
60 95 140
60 96 143
61 96 145
61 96 147
61 95 150
61 95 142
63 98 149
61 95 150
61 96 152
61 96 144
62 97 151
60 95 139
60 95 130
62 98 154
61 97 153
61 96 144
60 94 143
61 97 148
61 97 151
60 94 144
61 97 154
60 95 138
59 94 136
61 97 151
60 95 142
61 96 144
60 95 143
60 95 139
60 95 134
61 95 145
62 97 150
60 94 131
59 94 134
61 96 145
61 95 147
61 97 143
62 96 146
60 94 129
61 96 142
62 97 147
61 96 143
61 96 141
62 98 145
61 97 148
60 95 141
61 96 141
60 95 133
59 94 131
61 95 140
60 95 134
61 95 135
59 94 140
61 96 147
61 96 139
60 95 135
61 96 136
61 95 136
60 95 130
60 95 137
61 96 139
61 95 133
59 93 134
60 94 136
61 95 136
59 93 130
60 95 137
59 94 133
60 95 135
60 94 131
61 96 137
60 95 144
61 96 139
60 95 135
60 95 136
60 94 130
58 92 124
60 94 133
58 92 121
58 92 127
60 94 129
60 95 126
60 94 134
59 93 129
59 93 126
60 95 130
60 95 136
60 95 140
59 93 126
58 91 121
58 91 117
58 92 122
58 92 118
56 89 97
56 87 105
58 90 120
58 92 118
57 90 120
57 91 111
72 98 104
88 111 95
97 116 63
106 120 31
113 126 0
102 113 0
126 140 0
121 136 0
115 128 0
116 129 0
116 128 0
137 150 0
127 143 0
122 133 0
128 142 0
117 129 0
124 137 0
128 141 0
122 134 0
127 141 0
118 129 0
122 135 0
116 128 0
127 137 0
123 137 0
119 130 0
127 140 0
143 156 0
124 137 0
117 128 0
117 130 0
133 147 0
132 143 0
135 147 0
130 140 0
130 143 0
131 145 0
124 136 0
130 143 0
125 137 0
133 141 0
131 143 0
133 144 0
132 143 0
138 149 0
135 145 0
135 146 0
132 143 0
133 143 0
139 150 0
126 137 0
131 143 0
140 150 0
137 150 0
130 141 0
141 152 0
131 141 0
126 135 0
132 141 0
137 148 0
138 149 0
136 148 0
128 138 0
140 151 0
134 144 0
137 147 0
140 153 0
141 151 0
146 159 0
147 159 0
145 158 0
142 153 0
145 155 0
143 153 0
148 160 0
139 150 0
147 157 0
145 155 0
147 159 0
139 152 0
146 159 0
144 157 0
147 160 0
149 161 0
146 157 0
148 156 0
141 152 0
146 156 0
152 163 0
144 157 0
154 168 0
144 157 0
152 166 0
151 165 0
150 161 0
150 162 0
156 169 0
144 156 0
157 169 0
150 164 0
156 171 0
149 161 0
153 166 0
157 171 0
149 164 0
155 166 0
161 176 0
156 170 0
156 170 0
151 166 0
156 168 0
153 167 0
152 165 0
151 164 0
154 167 0
162 176 0
161 177 0
157 174 0
157 171 0
162 177 0
155 167 0
154 168 0
160 176 0
160 174 0
156 172 0
163 179 0
155 170 0
161 178 0
163 180 0
164 180 0
163 180 0
163 181 0
163 179 0
164 182 0
158 173 0
159 177 0
164 181 0
164 182 0
159 178 0
162 179 0
164 185 0
161 179 0
164 182 0
162 180 0
166 186 0
163 180 0
164 183 0
157 175 0
164 183 0
164 182 0
159 177 0
165 182 0
165 182 0
166 186 0
170 194 67
172 196 76
171 194 76
171 194 36
171 195 72
172 196 76
172 196 76
174 197 80
171 195 92
171 195 72
168 191 51
173 198 76
172 197 80
172 196 80
172 196 76
172 197 80
165 188 44
173 196 51
172 195 67
172 197 72
169 193 67
168 191 76
168 193 62
166 190 80
170 193 62
169 194 76
171 195 80
171 195 62
172 197 67
170 194 80
168 190 67
165 189 67
172 196 67
169 193 62
160 183 44
167 192 84
168 192 44
169 193 80
168 193 84
167 191 88
168 191 51
169 192 67
165 189 51
164 187 51
166 189 51
167 191 62
167 191 72
170 195 92
168 192 80
168 193 76
169 193 72
168 191 62
166 191 57
170 194 88
164 187 80
158 182 62
166 189 80
164 187 72
167 191 57
166 190 80
169 192 76
158 183 80
166 189 76
164 188 72
167 190 80
165 189 88
164 188 80
162 186 72
163 186 67
164 187 51
166 190 76
152 176 76
168 192 102
161 185 84
157 180 80
160 183 57
162 186 67
165 188 67
158 181 72
151 174 80
147 171 97
118 143 110
120 144 129
87 115 133
101 128 147
89 118 147
101 128 147
86 114 144
85 114 145
92 120 140
91 119 161
93 121 151
87 116 159
106 131 163
103 130 167
97 124 161
106 132 158
100 127 154
86 116 158
90 118 156
101 128 157
111 136 161
92 120 159
84 113 152
89 118 152
106 132 155
98 124 156
92 121 157
91 120 157
94 123 164
96 123 154
89 117 161
96 123 160
75 106 148
81 111 157
91 119 158
78 109 165
81 111 156
74 106 161
77 108 159
81 111 168
84 112 162
83 113 167
72 104 159
74 106 161
76 108 169
73 103 150
65 100 157
82 112 169
67 101 150
70 101 140
63 97 148
66 98 140
62 96 143
67 100 153
69 101 154
70 103 148
63 97 150
66 100 152
63 97 151
65 99 143
62 97 140
61 95 149
61 96 141
62 96 137
62 97 150
61 96 145
61 97 154
60 95 148
62 97 149
61 96 145
61 96 145
59 94 142
61 96 151
60 95 147
61 96 142
61 95 143
60 95 140
61 96 145
60 95 141
61 96 145
61 96 147
62 97 150
62 98 155
61 96 148
62 97 149
61 96 142
61 97 149
60 94 138
62 97 149
62 97 148
61 97 149
60 95 142
60 95 140
61 96 145
60 95 127
62 97 147
60 95 135
61 97 148
61 95 140
61 96 140
61 96 139
62 97 157
60 96 145
61 96 141
61 96 144
60 95 140
61 96 148
61 97 146
61 96 139
61 95 143
60 95 140
61 96 142
61 95 143
60 95 131
61 95 139
61 96 147
61 96 147
61 96 147
61 95 139
61 96 139
61 95 143
61 96 147
60 95 135
62 97 145
61 96 139
61 95 133
61 95 140
60 94 137
60 95 134
60 96 137
61 95 137
59 93 124
59 94 135
60 94 133
60 95 134
59 94 130
61 96 139
61 96 144
60 94 133
58 92 129
59 93 130
59 94 140
60 94 135
59 94 133
59 93 127
61 96 133
60 94 130
59 93 124
59 93 122
60 94 127
58 92 117
58 92 126
59 93 131
58 91 114
59 94 124
59 93 122
60 94 135
58 92 118
58 92 125
59 93 115
59 93 134
57 90 114
57 91 114
58 91 120
62 92 100
68 93 88
96 115 90
106 121 40
128 145 31
125 139 0
121 134 0
117 131 0
108 121 0
126 141 0
121 135 0
121 133 0
111 124 0
130 144 0
126 139 0
109 122 0
123 138 0
117 132 0
132 145 0
122 132 0
122 134 0
121 132 0
118 129 0
132 145 0
134 145 0
120 133 0
130 144 0
116 129 0
130 140 0
131 143 0
129 142 0
127 140 0
132 145 0
130 142 0
134 148 0
123 136 0
120 132 0
133 148 0
119 130 0
136 148 0
128 140 0
138 149 0
126 138 0
134 146 0
141 155 0
130 143 0
133 144 0
134 148 0
131 146 0
132 139 0
122 131 0
142 150 0
131 142 0
143 155 0
132 144 0
138 149 0
139 152 0
136 146 0
143 155 0
131 141 0
139 151 0
138 149 0
127 136 0
141 153 0
144 155 0
135 144 0
143 155 0
142 152 0
141 154 0
138 150 0
141 154 0
131 142 0
131 140 0
142 156 0
135 145 0
139 148 0
142 158 0
139 151 0
134 147 0
144 152 0
133 142 0
151 164 0
138 149 0
149 163 0
152 164 0
155 167 0
146 156 0
150 162 0
149 162 0
146 158 0
142 155 0
146 156 0
152 165 0
151 163 0
146 159 0
148 161 0
152 164 0
146 158 0
154 166 0
155 167 0
151 165 0
155 166 0
152 165 0
157 169 0
150 163 0
159 171 0
152 163 0
150 165 0
157 172 0
157 171 0
155 167 0
160 173 0
154 170 0
163 178 0
154 166 0
155 170 0
156 172 0
157 171 0
152 165 0
158 173 0
159 173 0
155 169 0
152 165 0
162 178 0
159 173 0
155 170 0
164 182 0
156 173 0
163 179 0
154 172 0
157 174 0
160 178 0
158 176 0
163 180 0
160 178 0
164 180 0
160 177 0
160 177 0
163 181 0
163 181 0
166 185 0
157 173 0
161 178 0
165 184 0
165 183 0
159 178 0
161 179 0
165 185 0
168 187 0
165 183 0
164 183 0
165 185 0
165 184 0
167 186 0
161 180 0
174 197 67
172 196 67
172 195 57
171 193 57
170 194 62
169 193 84
171 195 62
166 190 72
172 196 76
171 196 80
168 192 88
172 196 80
169 193 84
172 197 76
173 196 72
172 196 62
169 192 84
171 195 88
172 196 84
173 198 92
171 195 84
171 195 62
171 195 80
172 196 57
168 192 62
164 189 72
173 197 76
169 193 57
166 189 57
172 196 72
170 194 72
169 193 76
170 194 72
165 190 67
167 192 84
171 196 88
166 190 72
167 191 80
169 193 62
164 188 72
166 190 72
170 194 67
165 188 51
170 193 76
169 192 57
168 192 84
167 190 88
167 191 62
166 190 57
166 189 76
167 190 67
172 196 84
165 190 72
166 190 67
162 186 62
165 189 95
168 192 95
163 188 62
160 184 67
171 194 72
166 190 76
162 187 88
166 190 80
156 180 72
167 191 88
162 186 67
165 188 84
157 180 80
164 188 67
162 187 95
163 187 84
163 186 67
163 186 62
164 187 76
163 186 57
159 182 80
159 182 62
160 183 95
159 181 62
159 183 84
149 172 70
136 159 89
118 143 113
95 122 117
89 118 137
83 112 121
84 113 129
88 116 148
100 126 141
96 123 134
100 127 150
96 122 155
89 117 156
83 112 166
83 112 151
90 118 159
93 121 163
96 124 157
103 129 160
102 128 154
102 129 161
87 116 155
98 125 161
103 130 160
93 121 157
104 129 155
94 122 156
82 112 151
100 127 158
79 109 151
86 115 147
91 119 162
92 121 155
109 135 161
90 118 166
83 112 160
90 119 165
76 107 159
85 115 163
75 106 152
67 101 164
75 105 154
71 104 161
78 107 153
68 101 160
70 102 163
68 101 162
69 101 158
68 101 158
65 100 155
64 99 151
61 95 145
73 103 147
67 100 149
77 107 152
63 98 158
61 97 154
65 98 146
63 98 154
60 95 140
67 100 141
63 98 148
62 98 152
64 98 139
62 96 141
61 95 147
62 96 143
62 96 141
62 97 152
60 95 148
61 97 151
62 98 160
61 96 151
61 96 149
61 96 150
61 95 140
62 97 151
62 97 155
61 97 147
61 96 148
61 96 145
61 96 147
61 97 152
62 98 153
61 96 145
60 95 140
61 95 141
61 96 146
61 96 143
61 96 136
59 94 130
61 96 143
60 95 148
60 96 148
61 97 147
60 95 136
61 97 149
61 96 141
61 96 143
61 96 145
60 95 139
60 95 139
61 96 143
61 96 140
58 92 130
60 95 141
62 97 151
61 96 145
61 96 145
62 97 148
62 97 144
59 94 129
60 95 135
60 95 136
61 96 141
60 94 137
61 97 145
60 95 141
61 96 148
61 96 140
60 94 126
61 96 140
60 95 139
59 94 130
60 94 131
60 95 134
60 94 141
61 96 136
59 94 133
61 96 147
60 95 127
60 95 136
60 95 142
60 95 133
59 93 136
61 96 143
61 96 142
59 93 133
60 95 127
58 92 120
59 93 125
59 93 124
58 91 122
60 94 134
62 97 145
60 94 135
59 92 124
60 94 130
60 95 129
60 94 134
60 94 125
58 91 121
59 93 130
60 95 137
59 93 125
59 93 118
59 92 127
60 94 131
58 92 114
58 91 118
59 93 135
58 92 125
57 90 110
56 88 102
62 94 111
78 104 105
96 117 76
118 134 60
115 127 25
119 133 0
121 135 0
125 138 0
111 124 0
116 129 0
121 135 0
121 137 0
124 137 0
122 130 0
133 147 0
117 131 0
115 127 0
125 138 0
124 140 0
120 135 0
120 134 0
121 134 0
130 144 0
122 134 0
127 141 0
140 153 0
126 140 0
123 137 0
121 132 0
126 138 0
128 141 0
137 149 0
122 136 0
119 127 0
128 141 0
136 148 0
129 141 0
133 147 0
134 145 0
127 137 0
128 140 0
130 143 0
132 139 0
132 144 0
141 152 0
123 131 0
126 137 0
127 137 0
144 158 0
132 145 0
135 150 0
136 146 0
138 151 0
137 149 0
139 151 0
131 139 0
140 151 0
138 148 0
138 150 0
129 139 0
146 156 0
126 139 0
143 156 0
134 144 0
132 141 0
134 146 0
143 155 0
141 152 0
138 148 0
138 149 0
147 161 0
138 149 0
140 149 0
146 158 0
141 153 0
135 148 0
141 152 0
140 151 0
139 148 0
145 158 0
143 155 0
138 153 0
147 159 0
150 160 0
149 163 0
142 152 0
144 155 0
147 159 0
158 174 0
154 169 0
142 157 0
148 161 0
146 157 0
144 156 0
148 159 0
145 157 0
149 162 0
151 163 0
156 171 0
150 164 0
151 163 0
153 167 0
151 163 0
151 165 0
148 160 0
149 163 0
152 166 0
152 165 0
158 172 0
154 170 0
153 166 0
159 173 0
152 166 0
152 165 0
161 176 0
160 177 0
156 168 0
161 176 0
151 166 0
162 178 0
157 172 0
156 170 0
160 177 0
159 174 0
158 174 0
159 173 0
157 171 0
157 173 0
164 181 0
162 178 0
160 177 0
159 176 0
155 172 0
161 179 0
155 171 0
157 172 0
152 168 0
158 175 0
162 181 0
166 184 0
168 186 0
157 173 0
160 178 0
163 181 0
166 185 0
162 178 0
162 178 0
163 178 0
167 185 0
158 176 0
161 178 0
168 188 0
163 183 0
162 179 0
161 179 0
164 184 0
168 192 57
171 195 76
172 196 95
165 189 62
173 196 62
174 198 88
173 197 72
170 194 80
171 194 84
169 193 72
169 193 62
168 192 72
169 193 62
169 193 67
171 195 76
171 195 88
172 197 72
171 195 67
165 190 57
170 196 92
171 195 80
170 194 67
172 196 88
171 196 92
172 197 92
171 196 92
167 191 72
171 194 92
167 192 88
168 193 76
170 193 84
170 195 99
165 188 67
166 189 57
167 191 67
165 190 44
168 192 88
166 190 51
163 187 80
167 191 57
170 194 57
168 193 84
168 192 80
168 192 80
169 194 88
161 184 51
165 188 44
168 192 80
167 191 99
170 194 72
169 193 76
164 188 62
165 189 67
164 189 95
167 191 51
164 187 67
163 188 88
167 192 92
165 189 44
164 189 67
170 193 67
166 190 57
160 184 51
165 190 99
166 190 88
160 184 72
160 184 80
169 192 72
162 185 51
165 189 72
161 184 67
165 189 92
163 187 76
162 185 62
158 181 62
160 183 84
158 181 72
159 183 76
160 183 92
154 177 57
154 177 70
144 167 78
146 170 129
106 132 117
92 119 120
90 118 126
83 112 124
104 130 140
86 116 136
90 119 154
90 117 145
98 124 143
90 118 150
89 117 150
85 114 141
85 114 145
89 117 143
104 131 162
92 120 146
99 126 157
101 128 160
99 126 155
91 120 162
92 118 146
102 128 169
92 120 148
97 124 149
97 124 149
92 121 147
83 113 155
83 112 144
98 126 151
98 126 159
94 122 158
90 118 159
84 113 153
93 121 169
73 105 161
78 109 150
84 112 163
82 111 154
84 112 155
82 112 161
80 110 161
65 100 154
65 99 158
69 102 160
63 98 154
66 99 151
65 98 153
73 104 156
67 99 148
65 99 149
67 100 150
64 97 137
69 101 155
65 98 140
72 103 145
61 96 142
63 98 145
64 97 146
63 97 145
64 98 139
61 97 150
62 96 136
60 95 148
64 98 147
60 95 145
59 93 135
63 98 148
61 96 139
60 95 145
61 96 145
60 95 138
61 97 151
60 94 140
61 96 145
61 96 140
59 93 136
59 94 137
60 95 131
60 95 143
61 97 148
62 98 152
61 96 142
62 97 150
60 94 144
60 94 131
61 96 143
61 96 147
61 96 143
60 95 134
61 96 147
62 97 149
61 97 142
61 96 142
61 96 147
61 97 144
61 96 142
59 93 134
59 94 130
61 96 149
62 97 144
60 95 141
60 95 139
62 97 143
61 96 136
60 95 140
61 96 147
60 95 139
61 96 147
60 95 135
61 97 147
60 95 140
59 93 124
59 94 135
61 96 141
61 97 142
60 94 136
61 96 141
61 96 134
61 97 152
61 96 142
61 96 141
60 95 135
60 95 134
61 97 143
60 95 135
61 96 144
60 95 129
60 95 137
61 96 141
61 95 143
60 95 139
59 93 136
60 94 139
59 93 126
60 95 137
61 96 148
60 95 131
61 95 135
60 95 135
60 95 137
57 91 118
59 93 120
60 95 133
59 93 122
59 93 127
57 91 115
60 94 133
60 94 135
60 94 128
58 92 124
60 94 129
59 94 124
59 93 126
59 93 122
56 89 99
58 91 114
56 89 117
57 89 111
58 91 113
58 91 118
63 94 107
64 92 102
94 112 62
101 118 68
114 127 40
104 117 0
108 118 0
120 133 0
123 137 0
127 141 0
116 131 0
119 133 0
118 129 0
123 137 0
127 142 0
121 132 0
116 130 0
125 137 0
116 130 0
121 135 0
129 141 0
135 149 0
109 121 0
130 140 0
134 148 0
132 146 0
121 134 0
137 149 0
122 137 0
137 153 0
115 127 0
123 135 0
125 136 0
133 146 0
118 130 0
124 136 0
130 145 0
130 144 0
124 136 0
125 136 0
124 135 0
133 146 0
126 141 0
133 146 0
141 153 0
138 151 0
132 145 0
120 133 0
136 148 0
138 149 0
121 132 0
138 150 0
146 158 0
146 158 0
141 154 0
138 150 0
140 154 0
134 145 0
136 148 0
142 156 0
141 152 0
147 159 0
135 145 0
151 165 0
134 146 0
136 147 0
134 146 0
134 147 0
139 151 0
138 150 0
146 158 0
140 150 0
135 146 0
148 160 0
133 146 0
144 156 0
146 158 0
142 152 0
141 154 0
152 166 0
148 160 0
151 163 0
149 160 0
143 157 0
145 157 0
145 154 0
150 164 0
139 151 0
150 164 0
144 156 0
148 162 0
144 158 0
154 167 0
145 158 0
154 166 0
151 165 0
153 168 0
149 159 0
152 163 0
151 165 0
153 166 0
155 168 0
158 174 0
150 163 0
150 163 0
148 158 0
160 175 0
147 157 0
150 162 0
148 161 0
152 167 0
156 172 0
158 172 0
159 175 0
161 178 0
153 167 0
156 172 0
156 170 0
151 166 0
148 162 0
152 168 0
153 167 0
160 177 0
161 177 0
154 168 0
160 175 0
158 174 0
161 177 0
154 169 0
161 178 0
161 178 0
159 175 0
163 180 0
165 182 0
158 174 0
162 178 0
158 176 0
165 183 0
159 174 0
161 176 0
160 177 0
163 181 0
165 183 0
162 181 0
162 179 0
163 180 0
159 175 0
165 183 0
166 182 0
165 182 0
165 182 0
161 179 0
165 182 0
164 181 0
166 184 0
167 186 0
164 185 0
171 195 76
170 194 57
171 196 80
169 194 62
174 197 72
170 194 80
172 197 88
173 197 67
169 193 80
170 193 72
171 195 51
167 190 67
171 195 67
170 194 51
169 192 62
169 193 80
173 197 72
169 194 80
172 197 92
171 195 80
167 192 92
172 195 72
173 197 51
171 196 67
168 192 72
169 194 67
172 196 92
168 193 76
169 194 80
165 189 80
166 191 95
169 194 84
171 196 88
167 191 84
169 193 80
165 190 84
168 193 84
164 189 72
168 191 62
169 193 67
168 194 95
166 191 105
161 184 62
166 190 80
167 191 67
163 188 80
167 191 80
167 193 76
165 189 72
168 192 67
163 187 80
165 188 84
164 188 76
164 189 80
168 192 72
164 188 67
167 191 76
166 190 84
161 185 72
160 183 51
160 184 67
166 190 72
169 193 76
166 190 95
162 186 67
163 187 72
165 187 72
159 182 84
166 190 92
161 185 76
154 177 76
163 187 72
156 180 51
162 186 62
158 181 72
165 189 84
154 177 60
152 175 57
157 179 76
160 182 72
157 180 62
147 169 57
139 162 88
111 136 101
107 133 122
77 107 120
88 117 131
97 124 151
91 118 128
86 115 137
95 121 135
100 126 143
87 116 145
96 122 136
95 123 160
81 110 148
99 126 153
106 132 153
91 119 153
91 118 149
97 124 152
80 110 154
101 127 155
87 116 150
90 119 154
94 121 157
97 123 149
97 125 154
88 117 155
99 126 153
92 120 145
100 126 146
96 123 155
87 116 162
90 118 150
86 115 156
89 118 150
78 108 149
86 114 163
73 105 154
82 111 162
68 101 160
72 105 155
75 106 159
74 106 149
77 108 167
72 104 152
66 100 159
67 100 155
77 107 160
69 100 141
68 101 154
72 105 165
64 98 151
63 97 153
67 99 142
66 100 153
65 99 150
61 96 144
60 95 138
64 98 140
61 97 149
64 98 145
65 99 143
64 98 139
62 97 150
63 97 151
59 93 141
63 97 144
61 96 142
61 96 154
63 98 148
62 97 149
61 95 142
61 96 142
61 96 145
60 94 139
62 97 147
60 96 144
59 94 138
59 94 135
60 95 143
62 97 143
62 97 148
61 96 150
60 95 147
61 96 156
62 97 153
61 96 139
61 97 150
60 95 140
62 97 144
59 93 126
62 97 145
61 96 145
60 95 133
60 95 140
61 96 139
59 94 130
61 96 143
60 95 135
59 94 131
60 94 136
60 95 143
61 96 141
61 96 134
59 93 129
60 95 142
60 94 136
60 95 142
62 97 150
61 96 143
60 95 135
61 95 135
61 96 141
59 93 127
60 95 140
61 96 137
61 96 143
61 96 136
62 97 143
60 95 134
61 96 137
61 96 143
59 93 131
61 96 134
60 94 134
60 95 135
59 92 126
60 95 133
59 94 129
61 96 135
61 96 139
60 94 131
60 95 135
60 94 139
59 94 121
60 95 130
59 93 134
60 95 137
60 94 136
59 93 131
60 94 129
60 94 121
62 97 144
59 94 127
58 92 131
59 94 129
59 93 133
59 93 129
59 93 124
60 94 133
59 93 125
57 90 124
58 91 121
57 90 111
59 93 133
59 93 124
57 90 114
56 88 110
59 93 121
58 91 120
56 88 100
71 99 110
87 109 86
100 117 60
104 121 36
119 133 18
121 135 0
117 132 0
122 134 0
116 129 0
122 135 0
124 138 0
130 143 0
117 129 0
121 135 0
123 134 0
132 147 0
130 147 0
123 139 0
129 143 0
129 141 0
125 138 0
113 127 0
120 133 0
125 138 0
119 133 0
132 148 0
121 135 0
125 139 0
129 144 0
126 139 0
129 145 0
128 143 0
130 142 0
129 142 0
136 150 0
127 141 0
125 138 0
131 145 0
131 145 0
134 147 0
134 149 0
139 153 0
129 143 0
140 155 0
138 149 0
131 140 0
126 137 0
143 154 0
139 154 0
130 143 0
129 142 0
124 136 0
133 143 0
133 144 0
138 152 0
130 144 0
144 156 0
133 143 0
137 150 0
137 150 0
134 145 0
137 148 0
138 151 0
144 158 0
142 155 0
135 146 0
146 159 0
135 148 0
144 157 0
147 160 0
142 154 0
143 152 0
143 156 0
140 152 0
141 154 0
147 161 0
144 156 0
147 159 0
145 154 0
146 160 0
144 157 0
149 162 0
140 149 0
140 153 0
146 158 0
142 155 0
146 159 0
150 163 0
141 155 0
146 160 0
141 152 0
147 160 0
148 160 0
154 171 0
152 165 0
147 161 0
149 161 0
148 160 0
155 170 0
148 161 0
152 165 0
157 171 0
149 160 0
153 166 0
158 176 0
153 169 0
148 158 0
159 173 0
154 168 0
153 166 0
154 169 0
160 176 0
150 164 0
155 169 0
156 173 0
157 174 0
145 159 0
157 172 0
155 171 0
161 177 0
156 172 0
153 168 0
161 178 0
153 169 0
158 173 0
160 176 0
160 178 0
163 179 0
157 173 0
161 179 0
163 179 0
157 174 0
161 177 0
160 177 0
161 179 0
156 175 0
160 177 0
159 175 0
159 176 0
160 178 0
159 178 0
163 181 0
159 176 0
164 182 0
161 179 0
159 177 0
162 178 0
163 182 0
168 185 0
163 181 0
157 174 0
161 179 0
167 187 0
163 181 0
164 183 0
162 181 0
165 184 0
174 199 88
171 195 51
174 198 88
174 198 76
171 195 67
171 195 80
170 194 72
169 193 62
169 194 76
168 192 72
167 192 62
170 194 57
171 195 80
171 194 72
171 194 80
171 195 84
172 196 62
171 195 76
162 186 76
170 195 80
171 194 80
166 191 95
172 196 76
171 195 92
172 196 88
170 193 72
172 195 72
172 197 92
165 190 62
169 192 62
166 190 62
168 191 57
170 194 67
170 194 67
169 193 57
165 190 76
169 193 76
167 191 88
170 193 80
165 189 72
166 189 80
168 192 76
166 190 88
171 195 67
165 190 99
159 182 44
169 193 72
169 194 88
165 189 51
166 190 62
163 187 72
169 194 88
161 185 67
165 189 72
167 191 67
164 189 76
165 188 44
166 189 62
164 188 88
168 192 76
164 188 80
163 187 80
164 188 76
165 188 76
161 185 62
165 188 57
167 190 36
160 184 62
152 174 70
161 185 62
166 189 67
162 184 57
161 185 67
160 184 76
150 173 67
154 177 72
164 186 62
160 183 84
150 173 51
160 183 99
156 179 72
150 174 67
152 176 82
140 163 84
124 148 123
106 133 135
89 116 123
90 117 133
81 110 127
82 111 130
80 109 138
87 114 142
102 128 160
95 121 132
80 110 149
95 122 147
97 124 158
103 129 160
94 121 149
94 121 147
99 126 157
105 129 160
90 118 153
92 120 153
103 128 161
86 115 144
94 121 146
94 121 156
105 131 146
94 121 162
102 128 155
104 130 164
83 113 161
93 121 153
93 120 155
94 120 156
104 129 159
95 122 154
84 114 155
87 116 161
72 104 161
81 111 160
74 106 160
79 108 152
75 106 161
74 105 154
73 106 161
65 99 153
68 101 157
76 107 159
69 103 162
63 98 152
63 97 146
69 101 157
64 98 151
62 96 153
62 95 143
67 100 145
64 97 132
73 104 137
64 98 153
66 100 149
59 93 134
65 98 133
62 96 145
61 96 140
63 97 139
62 97 147
60 95 140
61 95 137
60 94 140
62 97 147
61 96 149
61 95 139
62 96 141
60 95 143
60 95 134
61 96 149
61 96 141
60 95 137
60 94 140
61 96 140
61 96 147
60 95 140
61 96 141
60 95 143
60 95 139
61 96 142
62 97 144
61 96 140
61 96 145
61 96 144
63 98 153
61 97 143
61 96 147
60 94 141
61 96 139
61 95 136
61 96 143
62 97 150
61 95 139
60 94 130
61 96 142
60 95 137
60 95 135
60 95 133
61 96 140
59 93 133
60 95 141
61 96 145
61 96 141
61 96 142
60 95 137
60 94 130
60 95 135
61 96 136
60 96 137
61 95 139
59 94 130
60 94 136
60 94 135
60 95 139
61 96 139
60 94 136
60 94 130
60 94 136
60 94 131
59 93 121
60 95 131
60 94 137
60 95 134
60 94 130
59 93 127
60 95 135
61 96 140
59 94 134
60 93 129
60 95 133
60 95 126
59 94 127
59 93 127
58 92 124
58 92 121
59 93 125
59 93 124
58 92 120
60 94 135
60 94 131
59 93 126
57 90 113
60 94 127
58 92 124
59 94 114
57 91 113
58 92 118
55 87 107
58 92 117
59 93 120
58 91 120
58 91 115
58 91 115
57 90 117
71 99 110
94 114 78
101 121 70
94 111 54
115 128 31
122 135 0
110 123 0
121 133 0
120 135 0
127 143 0
113 126 0
127 142 0
111 123 0
118 133 0
123 136 0
124 139 0
129 144 0
129 144 0
117 131 0
124 139 0
124 138 0
126 142 0
120 132 0
132 148 0
125 138 0
117 131 0
126 139 0
122 136 0
130 144 0
128 144 0
129 145 0
137 152 0
134 148 0
129 141 0
136 151 0
133 146 0
126 139 0
129 141 0
128 140 0
126 137 0
116 130 0
135 147 0
130 143 0
125 140 0
140 152 0
124 137 0
127 140 0
131 144 0
137 150 0
132 145 0
138 150 0
133 143 0
132 143 0
135 152 0
138 152 0
143 157 0
141 156 0
134 145 0
145 159 0
139 153 0
127 135 0
139 152 0
134 147 0
135 147 0
136 148 0
136 149 0
138 151 0
142 154 0
139 148 0
148 163 0
138 151 0
147 160 0
134 147 0
140 149 0
145 159 0
126 135 0
144 155 0
143 155 0
151 167 0
140 152 0
145 157 0
151 166 0
144 157 0
143 154 0
152 167 0
143 155 0
142 152 0
147 160 0
151 165 0
145 155 0
148 162 0
154 167 0
154 166 0
152 165 0
140 153 0
145 159 0
148 162 0
146 160 0
152 165 0
158 172 0
149 162 0
148 163 0
154 167 0
156 173 0
151 165 0
152 166 0
157 174 0
152 167 0
158 173 0
156 171 0
155 170 0
154 167 0
156 172 0
155 171 0
154 169 0
155 170 0
158 174 0
160 173 0
157 173 0
150 165 0
150 163 0
157 170 0
153 170 0
157 170 0
159 173 0
155 171 0
159 177 0
165 182 0
160 177 0
162 177 0
156 173 0
159 175 0
160 176 0
158 177 0
161 176 0
163 181 0
160 176 0
163 181 0
158 173 0
155 170 0
162 181 0
163 179 0
162 180 0
164 183 0
164 183 0
161 178 0
162 180 0
164 183 0
163 184 0
168 188 0
165 185 0
164 182 0
166 187 0
163 181 0
160 178 0
168 187 0
163 181 0
167 185 0
171 194 95
170 193 62
170 195 84
171 194 67
169 193 84
171 194 57
174 197 80
170 194 80
171 194 76
172 195 92
170 195 84
169 193 67
171 196 80
170 194 88
169 193 62
172 196 76
171 194 67
170 194 80
168 193 80
167 191 67
171 195 84
174 198 88
169 192 51
168 192 72
169 194 80
165 190 72
173 197 76
168 192 80
170 194 80
167 192 88
167 191 76
167 192 92
167 191 62
162 186 62
167 191 72
169 194 80
170 194 88
166 190 57
170 195 67
172 197 76
169 192 72
168 192 80
167 191 62
165 189 88
165 190 80
164 188 72
166 189 67
169 192 57
162 187 76
164 188 80
168 192 51
161 185 72
167 191 67
162 187 67
162 187 57
167 190 67
169 193 67
157 181 84
165 189 44
160 184 76
160 184 72
165 188 76
160 184 51
163 186 76
166 190 72
160 183 72
160 183 44
160 184 84
166 189 67
159 183 57
160 183 72
160 184 88
158 182 76
160 184 72
160 185 72
162 184 67
155 178 84
161 183 62
152 175 62
158 181 44
163 186 84
161 185 84
153 176 65
152 176 113
132 156 94
109 135 129
92 120 129
97 123 131
88 116 122
94 121 136
88 115 134
103 129 140
95 121 140
85 114 140
82 111 144
94 122 148
88 116 148
81 111 147
79 109 147
87 115 145
105 131 164
93 121 165
100 126 161
96 123 165
96 124 153
82 111 141
115 139 152
88 115 146
105 132 151
98 125 141
108 133 171
95 122 146
92 120 157
86 115 160
85 114 158
90 119 157
87 115 149
84 113 154
85 115 149
91 119 159
85 114 158
79 110 152
79 109 161
81 110 152
74 105 159
75 105 154
75 105 149
71 104 154
68 101 156
72 102 148
72 103 151
70 102 156
65 99 155
65 98 144
65 98 145
64 99 150
62 95 139
69 102 142
64 99 153
61 97 147
60 95 143
64 98 148
64 98 143
66 99 149
61 96 137
63 97 147
65 98 139
62 96 139
63 97 137
62 96 129
59 94 133
61 96 141
61 95 143
59 94 132
60 94 130
61 96 143
61 95 137
61 96 139
61 95 137
61 96 144
59 94 141
61 96 146
62 97 144
61 96 145
60 94 136
60 95 139
59 94 131
61 96 144
61 96 142
60 95 140
62 98 150
59 93 130
61 95 136
60 94 136
61 96 144
60 94 140
61 95 136
60 95 142
60 95 131
62 97 141
61 95 135
60 94 130
60 94 133
61 97 145
60 94 140
61 96 141
62 97 152
61 95 143
61 96 144
61 96 143
61 95 137
61 96 141
60 94 127
60 94 139
61 96 142
59 93 126
61 96 142
59 94 135
59 94 126
61 96 136
60 95 139
59 94 133
60 95 135
60 95 130
61 95 136
60 94 134
60 95 139
61 96 142
62 96 144
60 95 133
60 95 140
58 93 124
59 93 124
59 93 126
60 95 134
58 92 122
60 94 130
58 92 114
59 93 125
59 93 126
61 96 136
58 92 118
60 95 135
59 93 127
59 93 131
60 94 129
57 91 108
59 93 130
57 91 114
58 92 126
57 90 114
57 91 114
58 92 121
59 93 108
59 92 114
59 93 120
57 90 121
59 93 120
58 91 113
58 91 118
58 92 121
66 94 92
78 101 78
87 106 72
103 118 57
98 113 25
111 126 0
118 132 0
116 131 0
112 125 0
116 131 0
122 135 0
125 140 0
128 142 0
120 132 0
118 133 0
127 141 0
117 130 0
127 140 0
132 147 0
116 127 0
121 135 0
118 130 0
116 129 0
126 143 0
123 136 0
127 140 0
132 148 0
132 145 0
119 133 0
136 150 0
120 133 0
116 130 0
135 150 0
127 141 0
136 149 0
138 154 0
134 149 0
124 139 0
128 142 0
126 138 0
130 144 0
136 149 0
119 133 0
131 142 0
134 148 0
131 146 0
140 154 0
132 146 0
130 144 0
131 142 0
131 147 0
135 147 0
137 151 0
143 156 0
133 148 0
134 148 0
142 156 0
140 155 0
138 151 0
132 147 0
142 153 0
147 160 0
146 159 0
144 159 0
136 147 0
136 145 0
141 155 0
129 140 0
142 155 0
145 159 0
143 157 0
144 157 0
132 144 0
142 157 0
139 150 0
152 164 0
144 157 0
143 154 0
145 158 0
148 162 0
146 160 0
146 160 0
143 155 0
141 152 0
145 159 0
142 154 0
143 153 0
155 170 0
148 162 0
151 163 0
141 156 0
146 160 0
151 164 0
148 161 0
151 166 0
151 165 0
147 160 0
149 162 0
154 168 0
152 166 0
157 173 0
154 170 0
153 168 0
156 171 0
155 170 0
156 172 0
148 160 0
148 160 0
154 168 0
156 170 0
157 173 0
161 177 0
151 165 0
154 168 0
155 169 0
153 169 0
157 173 0
158 174 0
160 177 0
161 174 0
162 179 0
155 172 0
161 178 0
157 173 0
155 171 0
159 176 0
156 172 0
160 176 0
155 175 0
162 178 0
161 176 0
159 177 0
159 174 0
159 177 0
157 176 0
159 175 0
163 179 0
156 174 0
167 185 0
162 178 0
164 181 0
162 181 0
161 179 0
161 179 0
160 177 0
163 181 0
162 180 0
160 179 0
167 186 0
161 179 0
164 182 0
165 186 0
165 184 0
164 181 0
163 180 0
164 184 0
158 176 0
163 181 0
163 181 0
175 198 92
171 195 92
172 196 76
169 193 84
171 195 76
172 195 76
169 193 67
170 194 62
170 194 95
172 196 76
170 194 57
170 194 62
173 196 62
169 194 88
168 193 99
168 192 62
170 194 76
168 192 76
169 195 84
172 197 88
168 193 80
171 196 88
166 191 84
171 195 84
167 192 88
171 194 62
171 195 80
167 192 80
169 193 76
170 194 67
169 193 51
167 192 62
170 193 88
164 188 72
167 192 44
169 192 80
164 188 80
170 193 62
166 191 80
169 192 76
164 189 72
168 192 80
166 191 76
167 192 76
164 188 80
166 191 84
166 190 84
162 186 76
167 191 80
166 190 76
163 188 67
166 190 62
161 186 62
167 191 62
164 187 62
152 175 80
163 187 72
161 185 67
168 191 57
164 188 84
163 188 88
162 186 72
160 183 57
163 187 80
162 186 80
161 184 51
163 188 80
163 187 72
166 191 102
165 188 80
157 181 57
160 184 76
162 186 88
160 183 76
161 184 76
155 178 84
160 182 76
156 178 44
158 181 95
151 174 76
160 182 84
159 182 72
158 181 72
143 164 88
131 154 108
122 147 108
91 119 120
83 111 122
92 119 136
95 122 136
92 118 129
86 114 133
94 122 141
84 113 140
90 118 140
87 117 140
99 125 144
95 122 149
89 117 145
103 129 158
96 122 153
96 123 156
86 115 153
95 122 154
92 119 145
92 120 147
98 125 157
101 126 151
88 116 147
93 121 148
95 123 161
104 130 154
95 123 131
87 116 159
86 115 153
87 116 148
93 120 158
87 116 159
75 107 157
81 111 158
86 116 154
86 114 152
76 107 153
78 109 155
82 112 154
70 102 159
75 106 154
70 103 162
85 111 157
71 103 152
90 116 162
62 97 148
66 99 147
69 100 150
72 104 156
76 105 153
67 98 132
65 98 140
69 102 150
67 100 145
60 95 139
60 95 144
59 94 136
63 96 124
60 94 129
62 96 134
62 96 139
61 96 136
68 101 139
61 96 141
60 94 138
59 93 131
58 92 125
60 95 131
59 94 129
60 95 139
62 97 148
60 95 130
61 96 145
60 94 139
60 95 139
61 96 144
59 93 137
60 95 141
62 97 147
61 96 147
60 95 140
61 95 145
60 95 143
61 95 141
61 96 134
60 95 129
61 96 139
61 96 142
60 94 140
61 96 143
61 96 143
61 96 140
60 94 131
60 95 140
61 96 140
60 94 135
61 96 141
60 95 138
61 96 143
60 94 139
58 93 124
60 94 140
61 96 140
61 95 133
61 95 144
60 94 129
60 94 122
60 95 130
60 95 144
61 96 140
58 92 125
61 96 140
59 93 120
61 95 140
60 94 136
61 96 142
60 94 139
59 93 127
62 97 147
61 95 138
59 94 134
58 92 126
60 94 130
59 93 126
61 95 133
60 94 129
59 93 118
58 92 125
59 93 122
59 94 127
59 94 135
58 92 122
58 92 125
59 93 126
60 95 130
59 94 124
58 92 121
59 93 126
59 92 126
59 93 129
57 91 117
58 93 127
60 94 127
60 94 130
58 92 130
58 91 114
57 91 118
57 90 123
58 91 120
57 90 111
59 93 120
57 89 110
58 92 120
57 90 113
57 88 103
88 112 84
87 107 74
94 112 57
107 121 31
118 133 0
116 131 0
102 115 0
124 138 0
116 128 0
125 140 0
125 139 0
118 131 0
119 130 0
117 130 0
115 130 0
109 122 0
115 129 0
115 130 0
121 134 0
122 134 0
123 138 0
127 142 0
120 136 0
129 145 0
123 137 0
132 146 0
125 138 0
131 148 0
130 146 0
129 142 0
122 137 0
129 141 0
127 138 0
123 139 0
128 142 0
129 144 0
126 140 0
133 148 0
131 146 0
132 146 0
136 152 0
134 147 0
134 148 0
136 148 0
134 148 0
133 146 0
135 148 0
131 143 0
130 144 0
140 154 0
132 145 0
139 152 0
136 148 0
140 154 0
134 149 0
128 140 0
138 153 0
141 155 0
144 158 0
131 144 0
128 140 0
144 160 0
146 162 0
133 147 0
140 154 0
140 152 0
146 160 0
141 155 0
142 155 0
143 158 0
141 156 0
147 162 0
151 166 0
144 158 0
149 163 0
145 158 0
148 162 0
144 157 0
142 154 0
155 168 0
137 148 0
150 162 0
150 164 0
151 167 0
149 164 0
145 160 0
142 157 0
153 166 0
147 161 0
151 164 0
154 167 0
148 162 0
145 160 0
144 158 0
147 160 0
156 170 0
150 165 0
154 167 0
156 170 0
153 166 0
153 165 0
158 172 0
153 168 0
152 166 0
149 161 0
156 171 0
154 169 0
150 162 0
155 171 0
156 172 0
152 168 0
155 172 0
159 176 0
157 172 0
160 176 0
159 173 0
157 174 0
165 182 0
159 174 0
165 182 0
159 175 0
158 174 0
158 174 0
160 175 0
160 177 0
155 171 0
154 171 0
161 178 0
163 183 0
161 178 0
158 177 0
154 170 0
161 179 0
158 175 0
158 173 0
162 180 0
159 176 0
160 179 0
162 179 0
160 179 0
166 183 0
160 174 0
165 182 0
163 182 0
160 178 0
162 180 0
162 179 0
163 182 0
156 176 0
165 182 0
161 180 0
164 182 0
159 178 0
167 185 0
160 178 0
165 183 0
164 184 0
167 187 0
164 185 0
172 195 84
173 197 67
168 192 44
172 195 62
170 195 72
173 197 84
169 193 62
169 193 62
171 195 80
170 195 84
171 194 80
167 190 51
170 193 62
167 192 72
171 196 88
171 195 72
170 195 92
169 193 51
169 194 80
170 193 62
166 189 80
168 193 95
170 194 62
168 193 76
167 191 57
168 192 76
166 191 80
168 192 72
170 194 80
166 191 51
169 192 62
163 187 62
168 192 67
168 192 72
168 192 80
164 188 57
169 194 62
167 191 99
164 188 92
167 190 51
162 187 57
170 194 84
165 188 44
163 187 57
165 190 88
169 193 67
164 188 72
163 187 62
163 187 67
168 193 72
165 190 76
165 189 72
163 186 62
164 188 76
167 191 76
166 190 72
166 190 92
160 183 80
160 184 72
162 186 80
159 183 57
155 179 76
161 184 88
157 180 67
158 181 88
162 186 92
164 187 76
163 186 62
162 185 51
158 181 80
156 180 95
158 181 72
158 181 76
158 180 62
162 187 88
150 174 67
154 176 62
155 178 84
161 184 88
162 184 67
155 177 72
155 178 72
152 174 67
162 185 84
149 172 62
139 162 100
100 125 107
94 121 134
86 114 122
89 117 133
79 109 114
90 118 131
94 120 129
96 123 137
90 117 133
87 114 131
107 132 141
95 123 156
106 132 155
102 128 144
94 120 149
88 115 141
98 124 140
86 114 150
97 124 153
108 134 162
100 126 150
95 120 143
98 124 149
97 123 149
102 128 161
101 128 158
91 118 147
88 117 151
81 111 139
94 121 147
91 119 152
97 124 155
86 115 160
81 111 154
84 112 142
87 116 152
88 116 153
82 112 155
80 110 152
86 113 142
67 101 163
82 111 155
71 103 161
78 106 145
82 110 154
72 101 138
60 96 147
71 102 152
76 105 150
64 97 148
68 100 147
63 97 143
74 102 133
70 101 136
64 98 144
62 96 139
63 97 124
66 98 131
62 96 129
62 96 126
60 94 137
59 94 136
64 97 133
61 95 145
60 94 134
59 93 132
60 94 130
61 96 148
61 97 148
59 94 133
59 93 123
61 97 153
60 94 131
62 97 149
59 93 137
60 94 137
60 95 136
61 96 147
60 94 129
61 96 139
61 95 135
63 97 149
61 96 141
62 97 149
60 95 135
62 96 136
60 95 142
61 96 136
61 96 136
60 95 143
62 96 141
61 96 141
60 95 131
60 96 141
61 96 141
60 95 142
61 96 141
60 94 136
61 96 142
61 96 139
60 94 141
60 95 134
60 94 133
60 94 129
60 95 135
60 95 131
59 94 134
60 95 134
59 94 131
61 96 143
60 94 129
61 96 141
59 94 129
61 96 137
60 95 135
60 94 135
58 92 126
60 95 134
60 94 126
62 97 136
59 93 130
60 95 140
59 94 120
59 94 132
59 93 122
60 94 130
60 95 135
60 95 133
58 92 130
58 92 114
59 92 125
60 94 130
59 94 131
59 94 137
59 93 124
60 94 129
58 91 115
60 95 134
61 95 134
59 93 125
61 95 131
60 95 126
58 92 121
58 92 120
58 91 126
58 92 120
58 91 114
59 92 125
58 91 114
58 92 124
58 91 120
55 88 111
56 89 95
62 94 117
81 104 94
92 112 78
105 122 40
105 120 40
121 137 18
111 125 0
114 127 0
120 135 0
118 132 0
123 138 0
115 130 0
125 140 0
115 131 0
109 122 0
117 131 0
111 125 0
125 140 0
117 132 0
117 131 0
128 143 0
122 137 0
125 139 0
121 134 0
128 139 0
128 144 0
122 136 0
126 140 0
140 155 0
127 141 0
134 148 0
133 145 0
129 143 0
133 145 0
125 141 0
129 144 0
137 151 0
126 140 0
128 143 0
123 137 0
129 146 0
128 142 0
133 146 0
131 143 0
128 141 0
146 159 0
132 143 0
134 149 0
130 142 0
141 158 0
144 158 0
133 146 0
137 152 0
138 155 0
140 155 0
132 146 0
139 153 0
140 155 0
133 145 0
134 146 0
135 148 0
137 146 0
140 152 0
139 153 0
136 149 0
138 154 0
137 151 0
141 154 0
149 162 0
146 159 0
138 151 0
141 157 0
143 157 0
140 152 0
144 161 0
141 153 0
144 158 0
140 153 0
148 160 0
146 162 0
143 156 0
144 155 0
149 166 0
142 156 0
137 153 0
139 152 0
150 163 0
151 167 0
145 160 0
150 165 0
152 169 0
148 161 0
142 157 0
154 168 0
146 160 0
146 158 0
147 159 0
149 165 0
150 165 0
152 166 0
149 164 0
155 167 0
155 171 0
155 170 0
148 161 0
158 174 0
151 166 0
153 168 0
157 174 0
146 161 0
154 168 0
151 166 0
150 166 0
160 177 0
154 170 0
155 172 0
153 168 0
157 173 0
152 169 0
161 177 0
152 167 0
162 179 0
159 176 0
160 177 0
159 176 0
158 176 0
157 175 0
151 168 0
157 174 0
154 170 0
157 173 0
162 180 0
161 178 0
159 174 0
157 175 0
162 182 0
161 180 0
163 181 0
155 173 0
163 183 0
162 180 0
161 177 0
165 183 0
165 184 0
165 180 0
156 172 0
162 180 0
160 178 0
167 184 0
166 185 0
162 180 0
164 182 0
167 186 0
161 179 0
165 185 0
161 179 0
160 177 0
165 185 0
167 187 0
165 183 0
167 186 0
173 197 67
169 194 92
172 195 76
171 195 62
171 196 62
172 195 67
171 195 57
169 193 84
170 194 67
169 192 62
166 191 84
172 196 95
171 195 76
166 190 67
168 192 67
171 195 76
169 193 67
171 195 62
168 192 72
172 196 62
169 192 36
166 191 51
169 193 84
167 191 51
172 196 72
166 191 72
167 192 67
171 196 92
169 192 51
168 192 51
169 192 76
165 190 84
168 191 67
168 192 76
168 192 72
168 192 57
164 189 76
170 193 84
170 194 92
165 189 72
165 188 67
168 192 80
163 186 57
165 190 62
170 194 76
161 185 80
165 189 76
165 190 67
164 187 51
158 183 76
160 184 76
164 187 67
163 188 92
163 187 51
164 188 67
164 188 67
160 183 57
162 185 62
166 190 84
156 181 76
161 185 88
151 174 51
159 182 67
159 183 67
155 178 76
162 186 62
171 195 99
159 182 67
157 181 80
160 183 72
167 189 67
163 187 84
166 190 84
157 179 62
162 186 108
155 178 57
157 179 36
158 181 95
155 177 80
155 177 62
154 177 72
158 181 80
154 177 68
158 182 51
143 164 40
135 158 82
133 155 76
116 141 113
90 119 130
100 127 130
91 118 123
83 110 117
90 118 118
102 128 139
86 113 118
82 110 131
98 124 135
90 117 146
94 121 140
96 123 147
87 114 128
82 111 127
93 119 138
100 125 131
98 124 138
93 119 144
95 122 155
98 124 143
97 124 152
83 113 152
100 126 154
91 119 152
82 110 149
89 116 140
106 131 152
89 117 145
95 121 162
85 114 153
85 113 148
74 105 154
80 110 152
88 116 156
83 111 152
69 101 150
90 118 153
80 107 144
89 116 166
84 113 157
73 104 156
83 110 153
76 104 145
69 101 156
70 100 145
63 96 142
68 101 155
72 103 140
77 106 155
64 97 134
71 101 141
66 99 127
67 100 138
61 94 131
60 94 138
66 98 138
60 94 129
59 94 133
62 97 144
63 97 143
62 96 131
59 93 124
60 95 143
62 95 127
58 92 120
59 93 132
62 97 141
59 93 136
59 93 127
61 95 131
60 95 134
61 95 137
59 93 137
60 94 127
60 95 144
59 94 132
61 96 139
60 95 139
61 96 144
61 96 139
61 95 143
61 96 140
62 97 148
62 96 147
60 94 133
58 93 126
59 93 128
60 95 134
59 93 128
60 94 135
61 95 140
60 95 140
60 95 136
61 96 143
60 95 141
60 94 139
60 94 127
62 97 143
61 96 144
60 95 137
61 95 144
60 95 133
60 95 133
60 94 133
60 94 129
61 96 131
61 96 139
60 94 131
60 95 133
59 93 125
59 94 130
59 93 127
60 95 139
59 94 130
60 95 133
59 93 121
60 95 134
60 95 135
61 96 137
59 93 127
59 94 122
59 93 127
59 93 126
60 95 134
59 94 130
60 94 135
60 95 133
58 92 117
58 92 126
60 95 130
59 93 117
57 91 117
59 93 121
60 94 126
59 93 131
59 93 122
59 93 121
57 90 115
59 93 126
58 91 121
59 92 124
58 92 117
57 90 114
57 91 111
59 94 121
58 91 115
58 91 121
57 90 110
59 92 113
57 90 107
59 90 105
74 100 99
83 104 74
98 116 72
118 135 31
116 130 25
118 134 0
114 128 0
112 127 0
112 125 0
114 128 0
126 142 0
116 133 0
121 135 0
125 140 0
123 138 0
124 139 0
128 145 0
121 139 0
122 139 0
110 124 0
125 140 0
124 139 0
122 136 0
130 145 0
132 148 0
112 125 0
131 145 0
125 139 0
130 144 0
133 147 0
132 147 0
125 139 0
135 149 0
132 147 0
130 145 0
130 146 0
126 140 0
134 148 0
132 145 0
133 150 0
128 142 0
135 150 0
136 150 0
140 157 0
133 148 0
133 148 0
140 155 0
138 154 0
140 154 0
136 150 0
139 155 0
135 148 0
142 156 0
137 150 0
134 148 0
147 161 0
137 149 0
139 154 0
139 155 0
133 145 0
135 147 0
143 157 0
136 148 0
136 149 0
146 159 0
140 153 0
140 156 0
137 150 0
142 155 0
149 162 0
144 157 0
142 154 0
142 156 0
139 154 0
140 152 0
139 152 0
148 160 0
145 159 0
150 165 0
151 165 0
148 160 0
141 155 0
145 157 0
153 170 0
147 163 0
142 156 0
138 154 0
144 158 0
149 165 0
150 164 0
148 163 0
151 167 0
147 160 0
148 161 0
152 167 0
158 174 0
150 166 0
153 169 0
154 168 0
153 169 0
148 160 0
151 166 0
158 174 0
151 164 0
155 169 0
146 163 0
148 162 0
155 173 0
152 167 0
150 164 0
152 166 0
162 179 0
157 172 0
149 163 0
159 176 0
158 175 0
158 173 0
161 178 0
153 168 0
158 174 0
160 179 0
149 167 0
156 174 0
168 186 0
158 176 0
157 174 0
158 175 0
160 178 0
161 179 0
161 180 0
163 181 0
159 177 0
163 181 0
158 174 0
162 177 0
162 177 0
162 179 0
162 180 0
159 178 0
168 188 0
160 177 0
162 180 0
166 184 0
161 180 0
165 184 0
165 183 0
162 180 0
164 183 0
161 179 0
162 178 0
163 183 0
166 185 0
160 179 0
167 184 0
161 180 0
165 184 0
160 178 0
167 187 0
166 183 0
162 180 0
166 187 0
164 186 62
171 195 67
164 189 67
171 196 84
172 196 67
172 196 76
170 194 76
171 195 57
173 198 84
170 194 51
168 192 84
166 191 67
169 192 80
173 197 76
171 195 72
174 198 88
172 196 88
171 196 80
171 195 80
172 196 72
168 193 95
168 192 80
169 193 76
172 196 72
172 196 84
167 192 57
170 195 76
170 195 88
169 193 67
169 192 51
168 192 44
170 194 57
168 193 67
169 193 76
166 192 105
171 195 80
169 194 95
166 189 76
161 186 44
169 192 62
164 188 88
163 187 62
168 193 72
169 193 72
166 190 44
169 192 62
162 186 84
165 188 51
166 190 92
162 185 51
154 178 67
167 191 88
163 187 80
166 191 72
163 187 80
166 190 84
165 190 72
157 180 62
161 184 67
163 186 44
157 180 72
159 183 80
158 182 62
152 175 51
160 184 80
159 184 76
159 183 88
161 184 67
162 185 76
162 185 51
150 174 76
160 182 76
160 182 62
161 183 67
156 178 67
160 184 62
153 176 72
155 177 57
153 175 36
153 175 62
160 182 76
157 179 80
153 176 84
152 174 76
153 176 72
150 172 88
141 164 78
115 140 110
98 125 120
86 114 125
92 119 121
91 118 124
91 118 124
89 117 131
98 124 126
92 119 131
87 114 129
104 129 141
89 115 129
94 121 139
78 107 136
95 121 142
93 119 145
94 121 147
101 126 140
98 123 143
102 128 151
98 124 150
100 126 147
97 123 152
109 134 158
104 130 158
91 118 143
83 112 144
90 118 138
77 107 140
107 132 163
98 124 152
76 107 152
78 109 150
85 114 149
84 113 155
81 110 157
85 114 148
85 114 163
75 106 155
80 108 151
73 103 154
73 102 146
72 103 149
68 98 142
81 108 151
66 99 145
69 101 146
63 96 146
71 102 144
71 102 149
72 104 150
68 101 149
67 100 137
60 95 133
65 97 137
59 93 131
67 98 133
64 97 129
59 91 112
60 93 120
60 93 121
60 95 133
59 92 124
61 94 124
59 93 131
59 93 132
60 95 129
58 91 120
59 94 130
61 96 140
61 96 136
59 94 134
57 90 116
60 94 134
61 96 137
61 96 151
61 95 144
60 95 139
61 96 137
60 95 133
59 94 124
62 97 142
59 93 133
61 96 141
60 94 140
60 95 137
61 95 139
61 96 143
61 96 142
60 95 135
58 92 129
61 95 139
61 96 139
60 94 140
61 95 134
60 94 133
60 94 130
60 94 131
60 94 126
61 96 142
60 95 133
58 92 127
60 94 130
60 94 131
60 94 134
61 95 139
59 93 134
61 95 139
61 96 136
60 95 131
60 94 134
59 94 126
60 95 137
59 93 118
58 93 121
61 95 139
59 93 129
60 94 127
61 95 136
59 93 124
59 94 127
58 91 120
58 92 124
59 93 121
59 94 130
59 93 117
59 94 133
60 94 131
58 92 124
60 94 131
57 91 118
58 91 125
59 93 121
57 91 120
58 92 114
60 95 137
58 92 122
58 92 117
58 92 120
58 92 120
60 94 125
58 92 120
59 93 129
59 92 111
55 87 105
58 91 118
58 91 115
58 91 114
59 92 118
55 87 110
58 89 102
77 103 97
87 108 67
105 122 40
110 128 51
113 128 0
115 128 0
110 124 0
122 136 0
123 137 0
119 134 0
119 132 0
121 136 0
128 142 0
119 135 0
117 131 0
129 143 0
132 149 0
118 133 0
120 135 0
124 141 0
121 136 0
121 137 0
126 140 0
126 141 0
124 140 0
139 155 0
128 142 0
123 139 0
129 142 0
128 142 0
134 148 0
125 143 0
129 143 0
133 150 0
135 151 0
131 148 0
134 150 0
127 140 0
131 145 0
137 154 0
131 144 0
128 143 0
133 149 0
131 147 0
128 143 0
139 155 0
129 140 0
137 151 0
138 154 0
143 159 0
141 156 0
136 151 0
139 152 0
140 157 0
133 148 0
140 155 0
139 155 0
140 154 0
134 150 0
143 158 0
136 150 0
138 152 0
139 153 0
143 158 0
138 153 0
134 148 0
142 156 0
141 155 0
143 157 0
145 159 0
145 161 0
139 153 0
148 163 0
149 165 0
145 156 0
152 166 0
145 160 0
151 166 0
138 151 0
143 158 0
142 159 0
147 162 0
148 161 0
145 160 0
148 163 0
151 165 0
145 160 0
152 167 0
145 159 0
152 168 0
144 158 0
156 171 0
150 166 0
152 167 0
158 175 0
150 168 0
149 164 0
145 157 0
151 166 0
155 168 0
151 163 0
152 166 0
145 160 0
154 169 0
155 171 0
158 173 0
160 176 0
147 162 0
153 168 0
156 172 0
153 169 0
155 172 0
151 166 0
158 172 0
160 175 0
155 170 0
161 177 0
158 175 0
151 168 0
155 172 0
159 176 0
149 163 0
160 179 0
156 171 0
156 172 0
164 181 0
161 180 0
152 167 0
158 176 0
159 177 0
158 176 0
156 173 0
163 180 0
164 182 0
162 179 0
157 173 0
167 186 0
159 175 0
162 179 0
164 180 0
159 177 0
166 183 0
157 174 0
164 184 0
161 181 0
163 179 0
160 178 0
160 180 0
155 174 0
162 179 0
164 183 0
162 181 0
165 185 0
163 180 0
160 178 0
162 180 0
167 187 0
168 190 0
161 177 0
162 181 0
169 187 0
163 182 0
168 192 67
173 196 95
169 192 51
170 195 62
174 198 92
171 195 67
169 193 80
171 195 80
167 191 67
169 192 57
173 196 76
171 195 67
169 194 67
166 190 51
166 191 72
170 194 36
169 194 80
169 193 80
170 194 76
171 195 76
162 186 72
170 195 76
166 191 92
172 196 62
169 194 72
169 193 76
173 197 84
167 190 88
163 187 62
167 191 72
164 188 72
166 191 67
167 191 72
168 192 95
167 192 76
170 195 92
160 184 67
168 192 51
162 186 62
166 190 67
164 188 88
165 188 67
169 194 57
168 193 80
168 192 88
170 194 80
168 191 62
163 187 62
170 194 62
168 192 84
156 180 57
170 193 51
167 191 76
161 185 76
167 190 76
162 187 67
161 185 67
161 185 92
160 183 57
158 183 57
158 180 36
163 187 84
162 184 44
158 181 67
159 183 62
161 184 62
159 183 72
165 188 44
158 183 72
164 187 76
157 181 72
157 180 67
153 176 72
162 186 80
152 175 76
160 183 72
160 184 92
160 183 84
158 180 72
158 181 76
161 184 76
155 177 72
154 177 72
154 177 62
152 175 67
157 179 72
142 164 76
132 155 57
110 134 94
98 123 110
96 124 130
99 125 137
83 111 129
111 136 144
82 110 115
83 110 122
104 129 137
89 116 134
80 108 131
87 115 136
95 122 144
82 111 132
99 124 149
80 108 144
109 134 149
103 127 146
83 111 145
101 126 145
96 123 151
91 118 141
106 131 158
93 120 137
102 127 154
91 117 143
111 135 150
107 131 139
98 124 152
108 133 145
102 127 157
94 121 144
82 110 141
92 119 149
74 104 156
84 114 155
75 107 160
74 105 147
82 109 149
84 111 151
76 105 156
67 99 145
79 107 153
69 102 156
68 100 147
78 107 153
65 98 146
69 100 143
65 98 143
72 103 141
68 100 134
62 95 134
74 105 143
67 98 131
70 102 133
61 94 129
63 95 118
60 94 134
60 94 127
65 97 134
59 93 121
61 95 124
60 93 129
59 93 129
58 93 122
65 97 114
63 97 129
57 91 115
59 94 127
59 93 124
60 95 131
58 93 119
60 95 131
60 94 126
59 93 130
57 91 121
60 95 139
60 95 139
60 95 136
59 94 129
60 94 130
61 96 141
61 96 139
60 95 131
60 94 130
60 94 131
60 95 136
60 94 136
61 95 139
59 93 126
60 94 131
60 94 133
60 95 134
61 96 136
58 92 126
59 92 120
59 93 129
60 95 137
60 94 133
59 93 133
59 93 129
60 95 131
60 94 126
60 94 129
59 94 125
60 94 133
60 94 126
59 94 134
60 95 136
60 94 127
60 94 129
60 94 136
61 95 140
60 94 131
60 94 130
60 94 135
59 93 125
60 94 126
58 91 118
57 91 118
57 91 121
60 94 129
58 91 114
60 94 127
60 95 130
60 94 129
59 94 125
59 94 122
58 92 120
60 95 135
58 91 120
60 94 129
57 91 113
58 92 117
58 92 120
57 90 110
59 93 122
59 93 108
57 90 120
60 94 126
59 94 121
58 92 126
59 93 118
58 92 113
57 90 108
58 91 118
56 89 118
56 89 113
57 89 105
67 93 97
81 104 82
102 121 65
110 126 44
113 129 25
108 123 0
112 127 0
104 119 0
117 135 0
109 125 0
116 131 0
122 135 0
123 138 0
124 140 0
129 144 0
115 131 0
129 144 0
124 140 0
129 145 0
116 130 0
115 129 0
117 132 0
130 145 0
130 145 0
126 140 0
127 142 0
132 148 0
123 138 0
128 143 0
117 134 0
126 139 0
135 151 0
125 140 0
127 144 0
137 153 0
135 150 0
138 154 0
121 135 0
128 143 0
136 153 0
133 147 0
138 153 0
137 155 0
144 159 0
140 157 0
125 140 0
146 161 0
128 145 0
144 158 0
139 155 0
133 148 0
151 165 0
130 145 0
133 147 0
131 144 0
145 160 0
136 149 0
138 153 0
142 156 0
140 153 0
138 155 0
136 151 0
137 153 0
145 159 0
133 146 0
143 158 0
137 153 0
143 159 0
145 161 0
140 155 0
152 165 0
141 155 0
138 154 0
142 156 0
144 158 0
137 151 0
147 162 0
141 157 0
147 164 0
138 153 0
148 165 0
149 162 0
145 161 0
149 165 0
146 158 0
152 167 0
148 163 0
147 165 0
141 158 0
147 162 0
150 165 0
148 162 0
157 172 0
152 167 0
155 171 0
150 164 0
147 164 0
152 167 0
147 160 0
149 163 0
154 172 0
149 165 0
151 166 0
151 167 0
146 162 0
155 170 0
147 162 0
158 173 0
147 160 0
148 165 0
160 176 0
157 174 0
153 169 0
152 165 0
159 177 0
151 167 0
159 175 0
153 169 0
161 178 0
158 174 0
155 173 0
158 175 0
152 166 0
158 173 0
153 170 0
157 174 0
151 169 0
159 173 0
158 176 0
158 175 0
163 181 0
159 176 0
157 174 0
161 180 0
159 175 0
161 180 0
163 182 0
164 181 0
162 183 0
162 182 0
158 178 0
165 184 0
164 184 0
161 178 0
161 180 0
163 180 0
159 177 0
166 185 0
161 179 0
164 182 0
160 178 0
164 183 0
162 180 0
161 180 0
159 179 0
166 184 0
165 183 0
165 184 0
169 188 0
167 185 0
159 179 0
163 184 0
166 185 0
172 196 80
169 193 80
171 194 72
164 188 76
170 194 67
169 192 76
170 193 72
170 194 84
168 192 67
173 197 76
172 197 88
171 195 72
167 192 88
168 192 67
169 193 67
168 192 62
168 193 84
173 197 72
166 189 62
168 192 62
172 196 76
171 195 72
167 191 67
167 192 62
167 191 62
167 190 67
164 189 84
167 190 62
164 189 57
163 188 72
169 193 72
163 187 67
166 191 80
164 189 84
165 189 67
168 192 62
173 198 92
170 194 72
162 186 72
165 189 67
165 189 57
164 188 80
170 195 80
170 195 80
165 190 62
160 184 57
166 191 92
165 189 67
164 188 76
163 187 67
167 191 57
166 191 84
163 187 67
168 192 67
160 184 67
159 184 76
162 186 80
161 186 84
160 183 62
163 187 57
164 188 51
160 184 92
157 181 84
155 178 76
160 184 57
161 184 51
159 182 62
163 186 62
158 181 44
161 184 44
165 189 80
162 186 72
153 176 57
156 178 67
158 182 51
154 177 76
157 180 76
160 183 72
144 168 76
158 180 72
147 169 80
159 182 102
150 172 67
160 183 105
153 175 72
151 173 72
147 169 78
145 168 72
131 154 94
92 117 90
88 115 115
88 115 123
88 116 127
100 126 135
86 113 122
96 122 129
91 119 127
97 123 117
89 116 125
84 112 132
85 113 117
82 110 127
83 112 135
94 120 134
95 121 140
95 121 151
96 122 140
101 127 155
93 121 147
101 127 150
98 124 149
105 131 145
94 121 150
88 116 141
92 119 132
101 126 158
96 123 145
92 120 154
89 117 148
82 110 137
88 115 139
88 115 149
88 115 146
79 109 148
94 120 160
71 103 148
85 113 151
72 104 155
74 105 150
76 105 144
64 98 150
77 104 140
79 107 154
76 104 144
78 107 152
65 99 141
68 99 143
70 100 133
72 104 146
67 99 122
65 97 137
73 104 131
61 94 134
61 94 129
64 98 137
57 91 118
61 94 136
60 93 121
61 95 129
63 96 122
58 92 117
66 98 124
59 93 128
61 94 130
60 95 137
58 92 112
58 92 127
59 93 122
59 93 122
58 92 126
58 92 117
59 93 126
59 93 125
59 93 125
59 94 137
60 94 134
59 94 136
60 95 137
60 94 125
62 97 147
59 94 127
61 95 139
59 94 130
61 95 136
60 95 132
58 92 110
59 93 124
59 93 120
60 95 139
59 94 127
61 95 133
60 94 135
60 95 140
60 94 133
61 95 139
60 94 133
59 94 121
59 93 120
58 92 120
59 94 126
60 94 133
59 93 129
60 95 135
60 94 129
60 94 131
60 94 131
59 93 121
59 93 121
60 94 121
59 92 129
58 92 121
58 93 125
59 93 130
60 95 135
57 91 121
59 93 121
59 94 135
59 93 121
58 92 117
59 93 122
59 93 124
58 92 121
58 92 125
60 95 124
56 89 114
58 92 122
59 93 125
58 91 117
59 92 120
59 92 122
58 92 122
58 91 110
58 92 120
60 94 121
57 91 110
58 92 120
59 93 129
58 91 118
58 91 118
59 93 118
59 92 124
58 91 125
57 90 102
56 89 115
57 90 111
56 86 87
64 91 82
90 111 72
103 122 67
110 127 51
103 117 18
108 122 0
114 130 0
117 133 0
115 130 0
126 141 0
110 126 0
120 137 0
123 137 0
121 136 0
126 141 0
115 129 0
118 135 0
125 141 0
121 137 0
124 140 0
123 137 0
125 142 0
121 136 0
124 140 0
125 139 0
135 150 0
128 143 0
128 143 0
129 146 0
119 133 0
133 148 0
129 143 0
125 140 0
136 149 0
138 155 0
124 139 0
128 142 0
121 133 0
142 160 0
123 135 0
133 148 0
138 153 0
138 153 0
130 144 0
145 159 0
132 148 0
130 143 0
133 147 0
139 155 0
128 142 0
133 149 0
140 152 0
143 156 0
134 151 0
131 144 0
130 144 0
142 158 0
140 155 0
127 140 0
137 151 0
145 161 0
139 156 0
135 151 0
133 148 0
129 143 0
135 148 0
138 154 0
142 154 0
151 166 0
141 155 0
141 157 0
138 153 0
153 171 0
134 150 0
144 157 0
146 158 0
132 143 0
145 159 0
148 165 0
151 165 0
142 156 0
137 152 0
145 161 0
151 167 0
141 155 0
147 163 0
149 165 0
142 153 0
147 162 0
152 168 0
149 163 0
148 163 0
149 166 0
140 155 0
143 157 0
155 171 0
145 158 0
145 160 0
146 161 0
154 169 0
157 174 0
153 168 0
149 165 0
152 166 0
154 169 0
150 164 0
149 165 0
153 169 0
153 170 0
149 163 0
153 169 0
151 167 0
158 173 0
160 177 0
154 171 0
159 177 0
158 175 0
156 171 0
159 177 0
160 177 0
158 173 0
151 168 0
155 173 0
151 165 0
161 178 0
153 170 0
152 166 0
159 176 0
163 181 0
156 173 0
163 179 0
156 174 0
154 170 0
162 179 0
160 178 0
162 181 0
152 166 0
167 185 0
164 180 0
163 181 0
160 177 0
160 179 0
164 181 0
163 182 0
160 177 0
161 178 0
162 181 0
163 183 0
163 182 0
165 183 0
158 175 0
161 179 0
164 184 0
166 187 0
163 182 0
162 180 0
166 184 0
162 182 0
158 174 0
168 188 0
165 183 0
165 184 0
165 184 0
161 179 0
169 192 57
174 198 92
171 196 84
171 196 57
170 193 67
170 193 62
172 196 80
171 194 62
169 194 72
171 196 92
169 193 51
172 196 76
170 194 76
166 190 67
169 193 57
170 195 84
169 194 57
171 196 80
168 192 67
168 193 67
164 189 76
167 191 67
166 191 67
166 190 67
170 195 84
170 195 76
168 194 80
170 195 95
164 189 72
168 192 62
166 189 51
168 192 80
168 192 62
165 188 72
169 191 67
166 190 62
168 193 80
171 196 102
164 188 57
168 192 62
164 187 72
168 192 80
171 194 76
164 188 62
168 190 44
161 185 67
161 185 67
168 193 99
167 191 111
166 190 80
166 190 92
162 185 76
163 186 80
163 187 84
163 186 62
164 188 80
167 192 92
155 179 80
160 185 76
163 186 62
156 180 62
149 172 76
153 177 76
161 185 84
163 186 57
162 186 76
161 184 88
162 185 80
158 182 62
160 184 57
151 174 67
162 185 76
150 173 62
154 177 76
155 177 57
163 187 57
149 171 54
156 179 76
152 176 67
149 171 72
148 170 62
156 178 67
159 182 76
155 178 44
144 166 76
152 174 88
153 174 72
148 171 92
129 151 74
128 151 83
112 135 113
80 108 103
92 118 118
86 113 128
91 118 127
91 118 134
81 109 120
85 112 124
88 116 124
98 124 137
92 118 132
96 121 135
89 117 142
81 108 127
93 119 142
103 128 139
85 113 145
96 121 134
80 108 135
95 122 139
102 127 151
91 119 145
92 119 146
88 116 149
89 117 152
99 125 149
93 121 155
90 118 151
89 116 147
99 125 150
90 117 151
96 122 157
98 124 149
82 110 141
81 111 154
81 110 153
81 109 155
74 105 148
80 109 140
73 101 137
82 108 145
74 104 151
76 104 147
79 105 146
67 98 141
64 98 142
70 102 147
67 98 147
74 105 151
66 99 136
72 102 134
66 98 134
71 101 134
63 96 134
64 96 129
62 96 132
62 96 134
59 94 129
62 96 137
65 97 133
61 95 128
62 96 129
62 96 126
57 91 127
59 93 126
60 95 133
58 92 127
61 96 141
57 90 110
58 92 124
60 94 130
58 93 132
59 93 129
58 93 120
58 92 133
59 93 127
60 94 133
59 93 131
58 92 118
59 93 131
59 93 124
60 94 126
60 95 131
59 93 123
60 94 130
59 94 129
58 93 125
59 94 124
59 94 135
59 93 127
59 93 127
59 93 124
59 93 124
61 96 137
59 93 129
59 93 121
60 95 127
58 92 127
60 94 127
59 93 127
58 93 126
61 96 141
60 95 133
59 93 121
57 91 121
59 94 131
58 92 118
60 94 121
59 93 122
60 94 134
59 94 127
59 93 129
60 94 117
59 93 118
58 91 114
58 92 113
58 92 114
58 92 129
59 94 130
60 94 139
59 93 124
59 93 125
58 92 121
60 94 130
57 91 110
58 92 107
60 94 120
60 95 129
58 92 117
58 91 114
60 94 120
59 93 120
58 91 118
56 89 108
58 92 113
57 91 114
56 89 102
58 91 108
56 89 105
58 91 107
56 89 107
58 91 114
56 89 105
55 88 105
59 89 99
71 97 78
96 115 70
83 103 57
96 113 36
109 124 31
114 130 0
117 130 0
117 131 0
117 130 0
114 126 0
118 131 0
123 137 0
115 131 0
107 121 0
117 132 0
124 136 0
125 141 0
132 148 0
116 130 0
124 139 0
121 135 0
123 139 0
119 133 0
115 131 0
139 156 0
126 140 0
136 152 0
136 152 0
132 148 0
133 147 0
125 139 0
131 148 0
140 157 0
136 150 0
128 143 0
128 144 0
136 154 0
131 147 0
143 157 0
125 141 0
132 149 0
140 155 0
136 152 0
132 149 0
132 147 0
134 149 0
142 158 0
128 143 0
129 142 0
132 148 0
131 144 0
140 157 0
131 144 0
142 158 0
135 151 0
137 150 0
135 151 0
134 150 0
139 158 0
134 149 0
137 153 0
142 158 0
132 147 0
143 159 0
139 155 0
134 149 0
136 151 0
144 158 0
141 156 0
137 152 0
147 163 0
138 155 0
142 156 0
146 162 0
145 160 0
145 159 0
152 169 0
149 164 0
140 154 0
140 156 0
144 157 0
143 158 0
153 170 0
147 161 0
155 173 0
154 168 0
145 159 0
141 150 0
156 172 0
144 160 0
143 157 0
161 177 0
144 157 0
151 168 0
155 168 0
153 169 0
155 170 0
151 165 0
148 163 0
156 172 0
153 169 0
153 169 0
148 163 0
153 169 0
155 171 0
151 166 0
151 166 0
150 167 0
148 164 0
155 172 0
156 173 0
148 164 0
157 172 0
155 172 0
150 168 0
158 174 0
149 163 0
157 176 0
157 174 0
153 167 0
159 175 0
156 170 0
151 168 0
164 180 0
160 178 0
155 173 0
161 178 0
161 177 0
159 177 0
158 174 0
157 175 0
157 175 0
160 177 0
156 175 0
161 179 0
159 177 0
164 182 0
163 181 0
164 182 0
161 176 0
165 183 0
159 177 0
158 175 0
165 183 0
162 181 0
165 182 0
164 182 0
164 181 0
161 180 0
157 175 0
161 178 0
161 180 0
166 184 0
166 186 0
165 184 0
156 175 0
164 182 0
166 185 0
165 186 0
164 186 0
166 185 0
167 187 0
165 186 0
163 182 0
161 179 0
170 194 57
172 196 80
171 195 36
171 194 51
171 195 76
169 193 67
172 197 84
169 194 99
172 196 67
170 195 84
172 196 80
172 196 88
173 197 76
167 191 80
169 194 88
171 196 84
172 196 76
170 194 84
169 194 80
169 194 92
169 192 67
171 195 84
171 194 62
170 194 80
168 191 76
172 197 84
167 190 72
166 191 51
166 190 76
167 191 72
164 188 44
167 192 76
168 193 84
169 192 72
166 190 76
167 191 72
171 196 80
168 191 44
169 193 88
167 189 62
166 190 88
164 189 92
164 187 84
167 191 72
166 188 62
163 188 95
167 192 72
166 191 102
165 189 51
165 189 57
160 184 67
165 189 62
165 188 51
166 189 72
160 184 67
167 191 80
162 186 84
154 179 76
149 173 51
154 178 67
162 186 92
161 185 67
158 181 76
163 186 92
161 185 67
162 186 84
158 180 67
155 178 72
163 186 95
152 175 62
162 186 76
154 177 88
159 182 95
157 179 76
158 181 88
154 178 95
161 184 102
156 179 76
163 185 76
159 181 62
154 178 88
148 170 80
157 179 67
150 172 62
154 175 72
155 178 88
150 172 72
155 176 92
146 168 80
147 168 86
113 137 95
103 128 113
96 122 122
80 107 115
82 109 115
87 115 127
102 128 132
95 122 134
90 117 134
87 114 133
98 124 127
83 110 126
88 116 125
88 116 130
86 113 126
88 115 130
83 110 124
99 125 147
91 117 133
97 123 134
89 116 131
96 123 148
94 120 145
90 118 138
96 123 130
95 124 153
108 133 155
78 108 144
91 117 147
89 117 160
86 114 132
83 112 150
83 112 147
95 122 149
99 124 156
79 107 146
89 116 150
67 99 143
80 108 137
71 101 149
79 107 142
75 104 151
77 105 142
83 109 149
79 108 147
71 101 140
68 100 148
72 103 145
82 110 136
68 100 134
66 99 142
65 96 124
66 98 124
70 102 127
64 96 128
62 95 136
66 98 130
58 92 122
59 93 120
61 94 124
59 93 129
60 94 121
64 98 129
59 93 133
59 93 121
56 90 104
58 93 117
59 93 124
59 93 125
60 94 126
59 93 127
60 94 125
60 94 131
59 94 124
58 91 125
60 95 127
59 93 117
60 95 134
59 94 127
59 93 136
59 94 125
59 94 129
59 94 129
59 93 121
59 93 131
58 93 118
57 91 111
58 92 118
58 92 121
58 92 120
60 94 133
59 93 121
60 94 135
58 93 120
59 93 125
59 94 133
58 91 107
58 93 122
59 92 117
58 93 122
58 92 124
59 93 121
60 95 129
62 96 139
59 93 126
59 93 124
58 92 118
58 92 124
59 93 126
59 93 134
58 92 129
59 92 121
58 91 126
60 94 125
61 95 134
59 93 121
58 91 118
57 91 94
60 94 127
57 91 115
58 91 122
57 90 114
58 91 121
57 91 107
58 92 114
58 92 126
58 91 111
56 89 105
57 90 118
59 93 118
58 91 115
56 89 105
59 93 124
58 92 120
58 92 110
57 90 108
58 91 114
57 90 114
55 87 103
58 91 113
57 91 107
57 91 120
55 88 103
55 86 94
74 101 84
87 108 62
102 119 60
112 128 47
105 119 36
109 123 0
108 123 0
116 132 0
129 145 0
118 133 0
122 136 0
122 137 0
112 129 0
111 126 0
123 138 0
127 143 0
114 129 0
117 131 0
113 128 0
132 147 0
133 149 0
121 135 0
126 142 0
125 139 0
118 133 0
128 143 0
122 138 0
132 148 0
132 147 0
143 159 0
125 140 0
135 149 0
138 154 0
122 137 0
144 162 0
128 146 0
119 133 0
139 155 0
126 142 0
132 149 0
142 158 0
120 134 0
138 155 0
136 153 0
142 160 0
130 143 0
144 161 0
134 150 0
140 155 0
136 152 0
137 152 0
139 152 0
132 145 0
125 142 0
150 166 0
136 152 0
137 155 0
136 153 0
142 158 0
136 151 0
140 157 0
137 152 0
139 154 0
141 157 0
141 156 0
144 159 0
143 158 0
143 158 0
149 165 0
144 160 0
144 161 0
146 162 0
141 156 0
143 155 0
151 167 0
144 161 0
145 162 0
142 156 0
151 168 0
147 164 0
143 157 0
149 164 0
148 162 0
151 168 0
155 171 0
148 163 0
151 165 0
152 170 0
149 167 0
146 163 0
155 172 0
147 162 0
149 163 0
144 161 0
152 167 0
148 166 0
148 165 0
156 174 0
160 177 0
152 167 0
155 172 0
153 170 0
150 166 0
151 167 0
151 166 0
148 164 0
152 168 0
156 172 0
157 174 0
155 172 0
151 169 0
154 172 0
152 169 0
155 172 0
153 170 0
156 171 0
153 168 0
152 166 0
158 177 0
150 168 0
163 180 0
157 173 0
157 175 0
160 177 0
158 175 0
154 171 0
156 174 0
158 172 0
164 183 0
158 174 0
160 176 0
162 180 0
160 177 0
160 178 0
157 175 0
158 174 0
160 179 0
163 179 0
163 181 0
164 182 0
159 178 0
162 180 0
155 173 0
152 170 0
163 182 0
169 187 0
161 179 0
160 176 0
160 177 0
157 175 0
160 178 0
161 181 0
162 181 0
163 181 0
165 185 0
167 187 0
160 181 0
165 184 0
162 182 0
166 185 0
166 187 0
163 183 0
159 180 0
164 182 0
163 181 0
163 183 0
169 193 51
170 194 57
173 196 76
171 195 67
170 193 57
171 195 88
170 195 88
171 195 62
167 192 80
166 189 57
173 197 67
169 192 62
170 194 67
169 194 76
168 192 57
168 192 76
168 192 62
169 194 62
167 191 62
170 193 67
169 193 80
168 192 76
167 192 76
167 191 80
168 193 95
168 192 67
165 190 72
169 193 62
169 193 76
169 193 72
163 187 92
163 187 62
163 187 80
166 190 72
163 187 62
167 190 67
169 194 88
166 191 76
167 191 57
169 194 99
167 191 62
166 190 57
169 193 92
166 190 67
165 190 92
161 185 67
170 194 84
163 187 62
163 186 76
167 191 76
160 184 72
163 187 72
161 184 57
169 193 92
163 187 84
164 187 67
155 178 76
166 190 92
163 187 67
161 184 84
160 184 80
159 183 67
162 185 84
156 180 67
161 185 67
160 184 62
157 180 88
164 188 76
160 183 67
153 176 80
164 187 92
161 184 76
157 180 67
155 179 76
154 177 80
157 180 67
154 176 51
163 186 111
159 181 72
148 171 72
147 170 76
148 171 80
141 163 67
158 179 67
153 176 88
151 173 72
153 175 72
148 170 92
150 172 80
150 173 82
122 145 67
123 146 86
100 125 121
82 108 114
94 120 118
90 118 129
97 122 122
90 115 118
81 110 117
84 113 135
89 115 126
93 119 122
90 118 131
101 126 135
85 113 119
91 117 137
97 124 137
97 122 130
87 115 126
103 128 136
102 127 137
102 127 122
101 126 129
102 126 142
98 124 139
93 121 150
104 129 156
88 115 132
90 118 141
100 124 147
90 116 144
84 112 138
97 124 145
103 127 163
80 108 142
87 115 150
76 106 151
81 110 154
72 102 142
83 111 154
67 100 152
82 108 143
83 108 144
79 106 145
73 102 140
72 101 142
73 102 137
69 100 142
62 96 142
65 97 134
70 101 141
65 97 134
63 93 123
65 97 126
61 95 129
62 95 126
63 93 114
67 99 120
58 92 128
61 96 122
61 94 115
64 96 122
63 95 107
59 94 124
59 94 124
60 93 119
57 92 118
58 92 108
58 92 124
58 92 124
59 94 133
59 93 122
58 92 126
59 93 120
58 92 123
59 93 124
58 92 126
57 91 114
59 94 129
59 94 121
59 94 125
58 92 124
58 92 126
59 93 126
58 93 111
60 95 125
57 90 110
59 93 125
60 94 126
58 91 125
59 93 133
58 92 122
58 92 124
60 94 126
59 92 117
59 94 124
60 95 133
59 93 114
58 91 121
59 93 126
59 93 115
58 92 118
59 93 122
58 92 118
57 90 114
58 92 111
60 94 133
59 93 121
58 92 115
59 93 129
60 94 129
58 92 124
61 95 133
57 91 114
58 91 120
59 93 126
58 91 122
58 92 108
60 94 135
59 93 122
59 93 118
59 93 124
59 93 121
58 91 117
59 93 114
60 95 131
60 94 127
59 93 117
57 90 107
58 91 110
57 90 114
57 90 108
57 91 111
57 91 111
57 91 115
57 91 115
57 90 105
56 88 110
55 88 105
56 89 100
55 87 99
60 93 124
55 86 94
70 97 92
85 107 65
92 109 54
95 113 47
107 122 0
110 125 0
96 112 0
119 134 0
105 118 0
112 126 0
119 135 0
128 145 0
123 139 0
115 131 0
128 143 0
126 142 0
118 133 0
127 144 0
125 142 0
116 131 0
118 132 0
127 142 0
115 133 0
126 143 0
124 140 0
134 150 0
124 138 0
124 140 0
130 146 0
127 143 0
133 148 0
131 147 0
135 153 0
132 147 0
123 139 0
129 144 0
145 161 0
135 150 0
126 139 0
134 150 0
127 143 0
138 155 0
138 152 0
142 159 0
134 148 0
135 150 0
120 137 0
134 148 0
135 153 0
129 141 0
143 158 0
133 150 0
137 151 0
142 158 0
136 153 0
140 154 0
133 147 0
144 162 0
136 150 0
139 156 0
144 159 0
142 157 0
139 155 0
142 159 0
143 158 0
143 160 0
143 158 0
147 163 0
143 159 0
143 158 0
141 159 0
148 164 0
147 163 0
147 163 0
153 168 0
152 166 0
137 152 0
148 164 0
148 164 0
154 169 0
145 162 0
146 162 0
146 162 0
150 164 0
142 157 0
141 156 0
143 156 0
145 160 0
147 163 0
150 166 0
144 159 0
148 163 0
154 171 0
148 162 0
152 168 0
153 168 0
147 164 0
155 172 0
156 174 0
141 153 0
156 175 0
162 177 0
150 165 0
154 172 0
140 155 0
157 173 0
150 167 0
154 172 0
159 176 0
147 161 0
152 169 0
153 169 0
160 178 0
156 173 0
150 167 0
158 177 0
159 176 0
157 174 0
160 176 0
150 165 0
156 174 0
152 169 0
159 176 0
162 180 0
157 174 0
159 176 0
158 175 0
160 176 0
158 178 0
163 180 0
161 178 0
163 181 0
160 179 0
164 182 0
158 177 0
156 174 0
161 178 0
154 171 0
158 177 0
163 183 0
157 176 0
159 177 0
162 179 0
164 184 0
164 184 0
161 180 0
159 177 0
165 185 0
161 179 0
156 174 0
167 186 0
160 179 0
163 182 0
162 179 0
163 182 0
164 183 0
160 180 0
164 185 0
168 190 0
162 180 0
164 183 0
166 187 0
159 178 0
165 185 0
162 181 0
168 188 0
164 185 0
172 196 76
171 195 67
172 196 72
169 194 80
169 193 95
174 198 88
170 194 57
170 194 80
169 193 62
167 191 57
167 191 62
165 189 57
169 193 72
169 192 62
166 191 80
164 188 67
168 192 84
169 193 57
173 196 57
167 192 80
170 194 67
170 195 84
168 192 84
163 188 72
168 193 72
163 186 67
170 194 76
167 191 84
164 188 57
169 193 72
167 191 62
161 186 84
169 192 72
170 195 84
166 190 84
168 192 99
164 189 44
164 188 76
169 193 72
166 190 51
170 193 84
171 195 84
167 191 84
168 192 72
166 190 84
161 185 99
169 193 88
166 189 84
163 188 80
163 188 80
163 187 76
167 190 62
161 185 88
164 188 88
160 185 80
169 193 99
159 183 84
166 190 88
162 186 76
165 189 88
161 184 62
157 180 80
165 188 76
159 182 67
161 185 95
154 178 88
163 185 72
157 179 72
164 187 84
160 183 57
161 184 92
155 178 84
162 185 92
154 176 80
156 179 84
151 174 57
154 177 70
152 175 84
163 186 99
143 166 62
150 173 62
150 172 62
150 172 40
157 179 67
152 174 57
154 177 84
154 176 57
145 166 44
138 161 44
146 167 84
143 164 85
122 144 74
119 141 97
94 120 120
90 117 120
91 118 129
85 111 116
82 110 118
85 112 121
99 124 124
95 121 118
83 109 117
88 114 136
90 117 131
100 126 122
93 118 137
96 122 120
101 126 147
95 122 148
99 123 127
91 117 129
97 123 146
97 123 139
91 119 134
104 130 147
96 123 148
97 123 128
100 125 153
100 125 137
85 112 136
83 113 148
103 127 141
94 121 151
89 117 159
82 110 140
80 110 151
87 114 141
87 114 137
67 99 134
75 103 145
82 108 147
81 108 152
88 112 138
77 105 132
74 101 142
75 105 145
76 105 145
74 101 136
65 97 139
71 101 127
82 110 137
64 97 137
62 95 127
69 100 129
61 94 129
69 101 127
67 98 125
59 93 118
60 92 114
61 94 116
62 94 115
60 93 123
57 90 113
63 95 121
61 94 122
63 97 129
62 95 120
57 90 118
58 92 121
58 92 111
59 93 123
60 94 133
58 92 123
58 93 120
58 92 114
59 93 115
59 94 132
58 92 114
60 94 125
59 93 125
58 92 111
58 92 115
58 92 130
58 93 123
58 92 120
58 92 113
60 94 126
58 93 117
58 91 115
58 92 122
59 93 115
58 92 120
58 92 117
58 92 127
61 96 137
59 94 125
58 92 113
57 91 113
57 90 114
59 93 122
59 94 122
57 91 115
58 91 120
57 90 113
58 93 121
58 92 107
60 94 129
58 92 118
60 95 126
58 92 118
58 92 122
58 92 117
59 94 125
58 91 120
56 89 105
58 92 114
58 91 125
59 93 124
60 94 125
58 91 125
59 93 120
59 93 124
59 93 115
58 92 110
58 93 121
58 92 108
59 92 122
56 89 105
56 89 110
58 92 110
57 91 113
56 89 113
57 91 102
59 92 115
57 91 115
58 92 115
55 87 108
58 92 107
55 87 103
57 90 107
55 88 97
66 95 107
79 105 81
98 118 62
90 106 45
99 116 47
114 129 25
109 122 0
125 140 0
112 127 0
122 138 0
127 142 0
116 132 0
108 122 0
132 148 0
125 138 0
121 136 0
112 127 0
111 128 0
125 141 0
119 134 0
113 129 0
129 146 0
122 138 0
119 137 0
127 140 0
130 145 0
133 150 0
124 138 0
112 128 0
136 152 0
128 144 0
136 153 0
129 143 0
121 136 0
127 143 0
124 141 0
126 140 0
127 142 0
124 139 0
141 158 0
140 156 0
139 156 0
140 158 0
143 161 0
140 157 0
133 148 0
134 150 0
137 151 0
131 146 0
146 164 0
139 157 0
143 160 0
133 149 0
142 159 0
145 160 0
141 156 0
147 162 0
147 164 0
147 164 0
139 155 0
138 153 0
152 170 0
130 145 0
138 152 0
149 165 0
144 161 0
148 165 0
147 162 0
143 162 0
136 151 0
144 159 0
146 163 0
140 155 0
149 166 0
148 166 0
139 155 0
154 171 0
139 155 0
147 162 0
144 159 0
144 161 0
148 165 0
151 166 0
137 151 0
153 171 0
150 165 0
145 160 0
147 162 0
154 170 0
145 161 0
147 164 0
148 164 0
154 171 0
147 164 0
151 166 0
147 160 0
150 165 0
150 166 0
147 162 0
148 163 0
155 171 0
151 165 0
156 173 0
157 173 0
153 169 0
150 165 0
156 171 0
155 172 0
151 168 0
154 171 0
153 170 0
148 163 0
158 177 0
157 172 0
156 174 0
161 179 0
162 180 0
154 169 0
153 170 0
162 180 0
156 173 0
163 182 0
162 177 0
154 171 0
159 176 0
159 175 0
157 176 0
157 174 0
159 177 0
153 169 0
156 171 0
159 177 0
162 178 0
155 172 0
162 180 0
162 181 0
157 171 0
158 175 0
159 177 0
159 175 0
163 182 0
155 173 0
161 179 0
158 178 0
159 178 0
160 180 0
163 182 0
161 180 0
162 182 0
159 177 0
166 184 0
161 179 0
168 188 0
163 184 0
163 182 0
163 181 0
159 178 0
164 183 0
165 185 0
164 182 0
165 184 0
167 184 0
163 183 0
168 188 0
161 180 0
163 182 0
164 183 0
165 186 0
167 189 0
172 196 67
170 194 80
171 195 84
172 197 88
168 192 76
171 194 62
172 195 72
168 192 67
173 198 88
166 190 67
165 189 76
166 190 72
168 193 72
173 198 88
168 192 57
169 194 92
171 195 84
168 192 76
173 196 67
171 195 62
168 192 72
172 196 80
168 192 76
167 191 51
166 190 51
168 192 76
163 187 72
170 193 67
167 191 72
166 191 92
171 195 84
167 191 76
165 189 57
167 191 84
165 188 80
159 184 44
166 189 76
164 188 72
173 197 99
169 193 92
162 185 62
159 183 72
163 187 72
166 191 84
166 191 84
169 193 88
169 193 102
164 188 67
165 189 99
162 186 92
161 184 72
169 193 67
166 190 76
162 186 72
167 191 99
164 187 92
164 187 72
160 184 76
165 188 80
160 184 92
159 183 80
156 179 80
161 184 99
162 186 80
159 182 88
161 184 84
155 178 92
155 178 76
160 183 80
157 180 80
158 181 76
161 184 84
162 186 80
154 176 88
151 174 67
157 180 72
153 176 84
148 171 80
149 172 62
148 170 62
153 176 92
156 177 44
150 172 76
154 177 72
145 167 72
148 169 92
153 175 80
156 177 51
160 182 84
142 163 67
149 171 80
133 154 95
128 150 88
114 138 107
89 115 108
84 111 113
90 116 102
92 118 118
91 118 124
92 118 126
80 108 124
101 127 126
109 134 139
91 118 120
94 121 133
98 123 136
98 124 137
78 106 132
96 122 133
94 119 143
107 130 136
101 126 138
105 130 148
101 126 131
94 120 133
94 120 124
96 121 133
92 119 136
88 114 137
100 125 134
99 124 141
95 121 145
81 111 141
95 122 153
91 119 151
78 107 135
96 121 153
91 117 159
79 106 142
74 106 155
81 108 139
81 108 147
87 111 141
77 104 140
82 106 132
79 104 137
66 98 135
71 102 142
73 103 131
66 98 124
65 97 129
71 103 140
73 102 121
63 95 123
70 102 131
64 96 120
69 101 120
65 96 117
69 101 121
57 91 106
69 101 129
58 91 122
59 93 112
60 93 115
56 89 103
57 91 120
61 94 126
57 91 121
57 91 115
59 93 125
58 92 121
58 93 118
56 89 107
59 93 120
57 91 113
58 92 122
58 92 126
56 89 103
59 93 121
59 93 118
59 93 133
59 94 116
57 91 117
59 93 118
58 92 122
59 93 120
59 94 122
59 93 111
60 95 126
59 93 127
56 89 102
58 92 117
60 95 136
57 90 122
58 92 127
60 94 121
58 93 122
58 92 122
58 92 120
59 93 127
58 92 121
58 93 129
59 93 121
58 92 125
60 94 125
58 92 124
57 90 110
57 90 110
59 93 114
59 93 121
59 92 127
58 92 120
57 90 115
57 91 107
59 93 120
58 91 103
57 90 105
59 93 127
60 95 129
58 91 115
57 91 111
58 91 117
57 90 115
57 90 120
58 91 103
59 94 124
58 92 115
58 92 120
58 92 108
58 91 111
58 92 120
58 92 113
57 90 113
57 90 110
57 90 102
56 89 100
58 91 115
57 90 110
54 85 97
54 86 99
59 88 94
70 94 76
100 120 72
96 114 44
100 115 31
101 116 0
116 130 0
114 128 0
116 131 0
107 122 0
116 132 0
117 133 0
115 129 0
115 131 0
122 136 0
115 130 0
132 148 0
126 142 0
112 127 0
123 140 0
118 133 0
122 138 0
127 140 0
125 140 0
116 132 0
133 150 0
127 143 0
118 133 0
121 136 0
134 148 0
125 138 0
131 148 0
125 141 0
122 138 0
131 147 0
134 153 0
138 155 0
132 148 0
120 137 0
129 143 0
134 151 0
126 143 0
138 154 0
142 159 0
131 146 0
137 153 0
143 159 0
132 149 0
139 153 0
140 156 0
133 149 0
133 148 0
130 146 0
140 156 0
142 159 0
143 163 0
135 151 0
139 156 0
137 154 0
143 159 0
136 152 0
146 163 0
143 160 0
147 163 0
140 154 0
149 162 0
151 168 0
140 156 0
147 165 0
148 165 0
145 161 0
149 166 0
144 162 0
138 154 0
139 156 0
154 171 0
146 163 0
141 157 0
146 165 0
148 165 0
145 162 0
140 156 0
147 162 0
143 158 0
153 169 0
146 161 0
146 162 0
154 170 0
148 166 0
150 166 0
150 168 0
154 171 0
149 165 0
147 163 0
152 170 0
146 163 0
154 170 0
152 168 0
147 163 0
161 177 0
153 170 0
144 158 0
151 168 0
152 169 0
156 173 0
157 174 0
153 171 0
150 166 0
152 168 0
149 167 0
157 172 0
159 177 0
150 166 0
156 172 0
154 172 0
149 167 0
160 178 0
154 169 0
162 181 0
158 175 0
157 174 0
158 175 0
158 177 0
149 164 0
156 176 0
158 175 0
154 170 0
161 178 0
161 180 0
157 174 0
157 175 0
158 175 0
163 181 0
155 171 0
162 179 0
158 176 0
160 178 0
162 181 0
159 178 0
161 180 0
162 180 0
158 177 0
157 176 0
163 182 0
159 176 0
162 182 0
157 173 0
162 181 0
160 178 0
160 179 0
154 172 0
164 184 0
167 186 0
163 181 0
163 181 0
154 171 0
163 182 0
165 182 0
163 182 0
164 183 0
170 189 0
166 187 0
166 184 0
165 183 0
159 175 0
160 179 0
162 182 0
163 185 0
164 183 0
165 184 0
170 194 67
172 196 51
170 194 84
170 195 88
170 194 80
170 194 76
170 194 72
170 195 76
169 195 88
171 194 72
172 196 76
170 193 51
163 187 44
169 193 44
169 194 72
170 194 80
163 187 67
166 190 67
169 193 80
167 192 62
167 191 72
171 196 95
170 194 57
169 194 57
170 194 67
170 194 57
169 193 62
170 194 80
164 189 62
168 193 80
171 194 76
169 193 72
173 196 92
167 191 108
170 195 92
167 191 76
165 189 51
164 187 76
171 195 88
167 191 80
168 191 76
165 189 72
170 193 67
165 189 72
164 188 57
167 192 80
163 186 80
166 189 99
161 184 67
172 196 95
160 183 76
165 189 80
167 191 72
169 192 99
166 189 84
164 187 84
163 187 80
166 190 80
156 179 105
161 185 88
166 190 80
159 183 92
162 185 95
157 179 92
168 191 84
162 185 76
152 175 57
159 182 76
156 179 67
159 183 95
156 178 88
150 173 76
163 186 76
154 178 88
155 177 67
156 178 84
155 177 84
158 181 99
154 177 80
151 173 51
148 171 62
155 177 76
154 176 72
152 173 76
146 168 72
146 167 80
142 165 80
149 170 80
134 155 84
147 169 62
147 168 57
150 172 88
123 144 57
119 140 78
102 127 97
97 123 119
88 115 129
102 127 126
88 115 107
87 113 115
86 113 123
76 104 113
89 115 122
97 122 127
88 114 127
87 114 120
89 114 133
98 124 134
103 128 134
92 116 128
102 126 142
95 121 127
99 123 133
97 122 128
88 115 132
105 129 122
88 116 153
98 123 137
109 133 149
100 125 134
99 125 148
90 116 150
87 114 132
94 120 139
84 112 139
95 119 152
87 115 150
85 111 146
98 122 152
79 106 141
77 106 145
85 112 149
84 108 141
82 108 138
85 110 144
78 105 141
82 108 137
73 101 131
78 106 141
73 103 134
69 99 125
67 98 118
75 104 110
72 101 127
67 98 126
63 96 123
65 95 106
62 95 120
64 94 106
63 96 119
63 96 110
63 96 122
61 94 115
58 92 115
58 93 118
57 91 117
58 91 107
59 92 108
59 94 127
58 92 115
59 94 126
60 94 126
57 90 110
57 91 125
57 90 105
57 91 113
58 92 114
59 93 126
59 93 123
60 94 124
58 92 107
60 94 120
57 91 114
58 92 114
58 93 120
58 92 114
58 92 120
58 92 117
57 91 126
59 93 122
57 91 108
59 93 125
59 93 134
59 93 127
59 93 121
58 92 129
57 91 110
59 94 122
58 91 115
59 94 127
59 94 122
58 92 121
58 91 120
58 91 113
58 92 115
58 91 110
59 94 129
58 91 125
59 93 121
58 91 112
59 93 124
57 90 113
58 92 115
57 91 111
58 92 118
60 94 126
57 90 110
61 95 137
57 90 107
59 94 122
58 91 111
58 92 117
58 92 117
58 91 108
58 92 124
57 90 105
59 93 118
56 89 108
56 89 114
58 91 111
58 91 110
55 88 111
55 87 107
56 89 99
56 89 92
58 91 115
58 91 114
57 90 114
59 91 108
66 94 100
80 101 82
87 107 47
101 117 44
100 114 18
102 115 18
117 132 0
120 137 0
112 126 0
113 128 0
105 120 0
117 130 0
121 135 0
124 140 0
113 128 0
119 135 0
115 132 0
117 133 0
118 135 0
120 134 0
118 133 0
128 144 0
130 146 0
116 133 0
128 145 0
122 136 0
124 138 0
117 133 0
118 135 0
136 153 0
126 143 0
125 141 0
133 151 0
119 136 0
128 144 0
127 144 0
133 149 0
129 146 0
131 146 0
124 140 0
131 148 0
138 154 0
117 130 0
140 154 0
134 149 0
133 151 0
137 154 0
137 153 0
135 153 0
140 158 0
134 153 0
132 147 0
137 153 0
128 145 0
142 159 0
131 146 0
130 147 0
142 158 0
138 153 0
151 169 0
143 163 0
138 155 0
142 161 0
141 156 0
147 164 0
146 162 0
139 156 0
141 156 0
145 161 0
144 161 0
142 157 0
147 165 0
146 163 0
134 149 0
146 162 0
135 149 0
140 155 0
146 163 0
144 161 0
141 157 0
147 163 0
144 158 0
148 164 0
146 164 0
140 155 0
152 169 0
153 170 0
148 162 0
144 160 0
152 170 0
151 168 0
145 162 0
148 165 0
156 173 0
148 166 0
150 169 0
149 164 0
151 170 0
145 161 0
148 165 0
152 168 0
155 171 0
152 167 0
156 173 0
146 162 0
149 166 0
156 175 0
157 175 0
159 177 0
149 165 0
158 177 0
152 168 0
158 174 0
143 158 0
162 178 0
150 166 0
159 176 0
158 174 0
155 171 0
152 167 0
160 177 0
161 179 0
157 174 0
156 172 0
159 176 0
160 179 0
154 169 0
161 178 0
158 175 0
159 176 0
164 183 0
160 178 0
162 179 0
156 176 0
163 181 0
157 173 0
160 178 0
163 182 0
163 181 0
164 181 0
161 180 0
162 180 0
160 180 0
163 180 0
163 183 0
166 186 0
162 180 0
163 183 0
166 185 0
162 181 0
159 179 0
162 181 0
159 177 0
162 180 0
166 186 0
160 180 0
163 181 0
162 180 0
159 177 0
167 187 0
160 179 0
165 187 0
162 182 0
163 183 0
170 191 0
164 184 0
163 183 0
165 184 0
164 185 0
162 183 0
160 178 0
173 197 80
170 194 72
173 198 95
168 193 88
169 193 80
168 192 67
165 189 62
170 194 57
163 186 57
168 193 84
171 195 80
170 194 76
168 192 84
165 189 72
168 191 80
168 192 57
168 192 62
167 192 76
168 192 51
168 192 62
169 192 51
165 189 72
167 191 72
168 193 80
167 192 84
168 193 99
167 192 95
162 186 62
167 191 72
169 193 72
172 196 92
166 190 67
169 192 88
168 192 92
164 187 84
164 188 62
172 196 102
169 193 95
163 187 51
165 189 80
168 191 108
160 183 99
162 187 99
165 189 92
172 195 88
169 192 88
169 193 88
166 190 88
167 191 67
169 192 92
166 188 84
163 187 80
163 186 95
163 187 84
166 190 88
164 189 95
165 190 88
165 189 99
163 186 92
161 182 84
156 179 80
166 189 92
162 185 88
154 176 80
159 182 76
166 189 88
165 189 99
158 181 51
157 180 80
158 181 95
158 181 76
159 182 88
160 182 92
150 172 84
158 181 67
156 179 80
163 185 88
162 185 76
158 181 88
151 173 92
155 177 76
153 176 80
141 162 67
149 171 76
153 175 62
154 176 80
152 173 80
144 166 80
145 167 80
144 166 72
144 166 62
154 175 76
136 159 72
131 152 80
122 145 97
97 122 98
89 114 113
84 111 113
89 116 124
94 119 120
89 116 126
92 118 124
88 116 127
80 108 111
91 117 134
87 114 109
94 121 133
84 112 126
103 128 142
92 117 125
98 123 133
83 110 115
96 120 137
97 122 143
91 118 131
97 124 125
105 131 143
88 115 136
92 118 124
102 127 134
97 122 150
105 130 141
96 122 146
88 117 139
90 118 150
85 113 143
87 113 140
89 117 154
86 113 142
80 108 147
86 111 145
87 112 149
81 107 130
92 114 139
87 110 141
82 107 132
76 101 125
74 105 140
75 104 132
74 103 141
69 99 117
75 104 123
71 100 127
68 99 120
67 98 126
67 97 115
66 97 107
66 97 118
67 98 115
59 92 111
61 94 118
58 92 116
60 93 113
60 93 117
58 92 118
59 92 113
58 92 111
59 93 122
58 93 115
57 91 115
58 92 120
60 94 131
58 93 118
57 90 110
57 91 113
57 91 117
59 94 133
58 92 117
58 92 117
58 92 110
57 91 118
59 93 126
58 92 114
57 91 122
58 91 115
58 93 115
60 95 131
59 93 121
59 93 117
57 91 116
59 93 122
58 92 122
57 91 122
58 92 120
58 92 117
59 93 118
58 92 113
59 93 127
59 94 127
58 92 108
58 92 117
60 95 133
58 92 103
58 92 115
58 92 118
58 92 115
58 92 117
58 92 118
59 93 117
57 91 111
58 92 115
58 93 118
60 94 126
60 93 129
57 90 113
58 91 121
57 91 120
58 92 118
58 93 121
58 91 111
57 90 107
57 91 113
57 91 114
58 92 118
57 90 111
56 89 117
58 91 117
58 91 113
56 88 100
57 91 108
57 90 107
57 90 114
55 88 97
55 87 105
56 89 102
55 88 103
56 88 111
59 90 100
71 98 94
77 98 72
100 116 70
108 124 25
97 111 31
119 134 18
116 132 0
109 123 0
120 134 0
118 134 0
102 117 0
110 125 0
121 137 0
113 130 0
110 125 0
120 137 0
116 133 0
113 129 0
113 130 0
102 117 0
115 130 0
118 133 0
139 155 0
114 129 0
127 145 0
122 139 0
124 141 0
124 143 0
133 151 0
126 142 0
129 145 0
125 142 0
122 136 0
132 148 0
129 145 0
125 141 0
125 140 0
128 143 0
134 151 0
121 138 0
127 145 0
141 158 0
134 152 0
142 159 0
136 152 0
133 149 0
138 154 0
150 167 0
137 153 0
142 158 0
135 151 0
140 154 0
136 155 0
141 157 0
141 157 0
137 153 0
142 160 0
139 156 0
136 151 0
141 157 0
136 154 0
146 165 0
141 158 0
143 162 0
134 150 0
145 161 0
139 156 0
142 159 0
144 160 0
136 152 0
149 165 0
144 162 0
153 170 0
150 167 0
148 165 0
150 165 0
140 157 0
146 164 0
144 161 0
147 162 0
148 165 0
149 165 0
152 166 0
147 163 0
149 167 0
145 164 0
147 164 0
153 171 0
152 169 0
154 174 0
152 169 0
147 162 0
148 163 0
153 168 0
152 170 0
146 162 0
151 167 0
145 163 0
154 169 0
148 164 0
150 167 0
153 170 0
149 164 0
158 176 0
152 172 0
152 166 0
154 171 0
150 167 0
151 167 0
151 169 0
152 168 0
154 171 0
159 174 0
157 175 0
156 171 0
151 169 0
160 177 0
147 165 0
152 170 0
157 173 0
160 177 0
160 178 0
154 173 0
156 173 0
157 172 0
154 173 0
152 168 0
160 178 0
161 178 0
155 174 0
161 179 0
161 179 0
158 177 0
163 183 0
164 181 0
162 181 0
162 179 0
163 184 0
160 181 0
158 174 0
160 178 0
162 180 0
164 184 0
159 177 0
156 175 0
162 180 0
161 181 0
161 181 0
164 181 0
159 177 0
161 180 0
157 179 0
159 178 0
159 176 0
160 182 0
164 182 0
160 178 0
162 180 0
162 182 0
160 181 0
161 181 0
167 188 0
167 188 0
167 188 0
165 185 0
161 179 0
163 182 0
166 186 0
165 183 0
164 186 0
166 186 0
167 187 0
167 191 72
166 190 62
171 194 67
167 191 51
170 194 67
173 197 80
171 195 72
164 188 36
169 193 67
170 194 72
170 195 76
170 193 57
166 190 57
169 193 51
171 195 44
170 194 67
168 192 67
167 192 67
167 191 67
171 196 62
168 193 72
165 189 76
167 191 72
164 187 72
168 191 36
166 191 76
168 192 80
170 193 88
165 190 57
159 184 76
167 192 62
165 189 72
166 190 84
173 198 105
167 190 76
169 194 99
170 194 72
168 191 76
167 192 84
169 193 62
172 195 99
163 187 72
167 190 84
161 184 76
168 192 76
168 190 88
162 187 95
163 187 84
169 191 88
159 183 76
167 191 95
159 183 102
171 194 114
164 188 72
163 187 84
160 184 62
161 185 88
166 189 99
164 188 78
170 194 102
162 185 95
171 194 99
163 186 88
158 182 72
158 182 95
160 182 80
161 184 76
162 185 84
154 177 76
165 188 92
159 181 67
155 178 72
160 183 99
153 174 95
161 184 88
154 176 80
157 181 80
155 178 80
146 167 67
146 168 80
151 174 88
152 174 67
157 178 88
157 179 92
155 177 88
147 169 76
151 173 95
146 167 76
147 169 84
145 167 88
148 169 80
148 169 72
145 166 76
136 157 90
128 149 78
119 140 94
104 128 88
94 119 122
94 120 114
90 116 122
86 112 120
101 127 124
103 128 144
91 117 126
92 119 134
81 108 102
97 123 114
93 119 122
84 111 122
80 109 124
75 104 115
91 117 118
98 123 131
95 121 132
98 123 133
99 125 131
98 124 121
97 123 144
99 124 126
94 121 141
93 120 140
103 129 153
82 111 127
84 113 139
79 109 145
99 123 144
104 127 152
102 125 147
86 112 143
88 114 148
96 120 158
81 107 128
94 116 135
86 110 145
79 108 141
76 104 135
82 106 126
72 100 134
69 99 135
65 96 126
71 101 133
69 100 132
68 98 113
75 105 115
72 101 98
70 102 126
63 96 117
61 94 126
65 95 120
67 97 108
62 95 120
66 97 117
61 94 109
60 93 105
61 93 105
68 100 118
57 91 103
59 93 131
57 90 114
58 92 103
57 91 111
57 91 103
57 91 111
59 93 110
59 92 117
58 91 116
60 94 122
57 90 112
59 94 122
58 92 115
58 92 115
59 94 115
58 92 124
59 94 126
59 94 134
59 93 117
58 92 118
58 92 115
59 94 127
57 91 114
57 91 110
59 92 124
60 94 127
60 94 124
57 90 112
56 89 103
58 92 114
57 91 110
59 92 125
59 93 124
59 93 133
57 90 107
55 88 105
58 91 122
59 92 121
58 92 124
58 91 107
58 92 111
56 90 110
58 92 114
56 89 108
58 92 108
58 92 115
58 92 117
55 87 100
58 91 114
57 90 111
58 91 114
57 90 110
57 91 113
57 90 113
59 93 117
56 89 105
57 90 115
57 89 113
56 89 110
55 88 113
57 90 113
58 92 114
55 87 86
54 87 103
56 90 102
54 86 97
56 88 107
56 88 100
54 86 84
62 93 97
69 95 84
81 102 70
104 120 51
97 114 47
107 122 0
112 127 0
114 129 0
120 135 0
111 126 0
116 133 0
115 129 0
110 125 0
118 134 0
108 124 0
113 128 0
118 133 0
113 130 0
113 129 0
119 137 0
127 144 0
124 140 0
124 140 0
120 134 0
112 129 0
128 144 0
120 135 0
123 140 0
125 142 0
126 141 0
130 147 0
125 140 0
137 155 0
128 145 0
136 152 0
132 147 0
127 144 0
132 149 0
138 154 0
126 141 0
132 149 0
141 159 0
132 148 0
134 153 0
132 147 0
130 147 0
140 156 0
132 151 0
136 153 0
140 157 0
139 156 0
139 154 0
136 150 0
144 163 0
136 152 0
135 151 0
135 153 0
134 151 0
144 161 0
142 159 0
138 154 0
135 154 0
137 153 0
140 158 0
143 159 0
146 163 0
140 157 0
142 160 0
145 164 0
149 166 0
137 155 0
133 149 0
140 155 0
148 165 0
130 146 0
154 173 0
145 163 0
140 156 0
148 165 0
143 158 0
145 160 0
140 157 0
144 161 0
147 165 0
145 162 0
150 169 0
142 159 0
147 163 0
153 170 0
147 163 0
140 154 0
155 171 0
149 168 0
144 161 0
150 167 0
149 167 0
148 165 0
147 165 0
145 162 0
157 175 0
149 166 0
155 171 0
157 177 0
158 175 0
155 174 0
155 171 0
157 175 0
158 175 0
148 165 0
156 172 0
154 171 0
161 181 0
157 175 0
158 176 0
159 178 0
151 168 0
152 170 0
156 176 0
155 175 0
156 173 0
158 179 0
156 172 0
161 180 0
159 177 0
153 170 0
156 175 0
158 176 0
157 176 0
161 180 0
160 181 0
149 167 0
159 177 0
158 174 0
163 182 0
160 176 0
157 176 0
161 178 0
161 180 0
154 174 0
162 183 0
161 179 0
162 182 0
162 179 0
163 182 0
162 180 0
159 177 0
154 172 0
165 183 0
160 178 0
155 173 0
157 176 0
160 179 0
160 178 0
162 181 0
162 181 0
161 179 0
168 187 0
163 182 0
163 182 0
157 174 0
165 184 0
161 179 0
160 180 0
159 177 0
167 187 0
165 186 0
167 187 0
167 186 0
160 180 0
163 182 0
163 183 0
162 182 0
167 187 0
166 185 0
169 194 67
170 194 67
169 192 84
171 194 57
167 191 57
164 188 67
168 192 62
166 191 76
171 195 57
170 194 62
172 197 108
171 195 57
168 192 57
168 192 67
160 185 76
169 193 84
170 194 84
166 191 80
172 197 108
168 192 62
172 196 72
168 192 92
170 194 57
167 191 62
171 193 67
163 187 76
168 192 67
168 192 92
166 190 62
171 195 92
169 193 102
170 194 92
171 194 92
165 188 76
165 189 95
164 188 92
166 190 111
169 193 76
164 187 92
170 194 88
159 182 72
170 193 62
166 190 80
165 189 99
168 192 111
163 187 72
167 191 92
169 192 92
161 183 76
178 201 102
163 185 84
165 189 80
163 185 84
167 189 95
166 188 57
162 184 102
165 188 88
163 185 105
152 175 80
160 183 88
163 186 95
165 189 111
159 183 92
156 180 92
163 186 84
158 180 88
163 187 92
153 175 84
154 176 84
161 183 95
163 185 105
162 185 99
158 181 84
165 187 92
160 183 92
156 178 92
155 177 72
153 174 84
153 175 62
164 186 88
151 173 84
156 177 108
158 180 88
158 180 84
151 173 84
151 173 108
149 169 72
144 165 80
145 166 72
144 166 67
148 169 67
148 170 67
142 163 51
146 167 80
128 148 54
122 143 82
121 144 111
87 112 92
81 107 107
95 121 112
95 121 129
89 116 118
84 109 100
91 116 129
107 132 134
88 115 122
94 121 134
100 125 141
91 117 120
95 120 115
86 112 126
95 119 118
97 122 139
100 125 123
104 128 146
88 115 134
110 132 132
87 115 133
87 115 134
97 122 126
98 123 140
86 112 127
94 120 139
95 121 137
96 122 149
85 112 142
92 117 135
81 109 141
84 110 138
99 121 136
83 109 133
91 114 131
75 103 124
96 116 130
83 106 131
86 108 130
85 109 136
81 106 123
76 104 136
75 102 126
60 92 118
65 98 127
65 97 117
65 96 132
75 104 115
65 96 117
72 101 99
68 99 107
69 99 120
56 89 107
56 89 118
65 96 110
59 93 114
61 94 125
62 94 111
63 95 124
58 90 90
57 91 105
54 87 79
59 93 111
59 94 124
57 91 108
59 93 121
57 91 113
58 92 113
59 93 117
59 93 117
59 93 118
59 93 125
57 90 103
57 91 118
58 92 115
59 94 129
59 94 126
60 94 129
58 92 114
58 92 121
58 91 117
59 93 118
58 92 126
58 93 120
57 91 107
59 93 118
58 91 120
57 90 102
60 94 124
59 92 120
58 92 118
59 93 122
57 91 102
60 94 129
58 92 122
58 92 115
59 92 120
59 94 118
59 92 130
59 93 124
56 89 103
58 92 117
58 92 113
58 92 114
56 90 110
57 91 126
57 90 110
55 88 102
57 91 120
58 91 114
57 91 107
57 90 103
57 91 105
60 94 121
56 89 95
57 91 108
56 89 102
59 93 114
56 89 105
58 91 110
56 89 108
58 91 103
56 89 100
56 89 95
55 88 95
56 88 92
58 91 111
56 88 117
65 93 86
78 102 84
76 95 51
90 107 57
86 103 25
92 107 31
110 124 0
118 134 0
106 122 0
111 127 0
117 131 0
113 128 0
115 131 0
114 131 0
119 134 0
113 126 0
113 128 0
118 136 0
120 134 0
127 142 0
122 137 0
111 127 0
124 141 0
116 132 0
123 137 0
124 141 0
123 140 0
124 141 0
124 140 0
119 134 0
131 148 0
127 144 0
124 141 0
138 153 0
125 142 0
120 136 0
130 146 0
125 142 0
117 132 0
129 145 0
129 147 0
129 147 0
121 139 0
144 162 0
129 145 0
134 152 0
135 152 0
138 155 0
135 153 0
136 154 0
145 162 0
130 147 0
138 155 0
135 150 0
139 154 0
138 156 0
139 157 0
136 152 0
141 159 0
139 156 0
144 163 0
144 161 0
133 151 0
145 164 0
148 165 0
140 156 0
138 154 0
139 156 0
143 160 0
147 163 0
141 159 0
145 162 0
138 156 0
142 157 0
150 167 0
137 152 0
148 163 0
148 165 0
143 160 0
144 162 0
149 166 0
148 164 0
152 171 0
148 163 0
141 158 0
149 166 0
150 168 0
147 164 0
150 167 0
151 168 0
154 171 0
144 163 0
143 159 0
150 167 0
156 173 0
150 165 0
146 162 0
146 164 0
154 172 0
145 160 0
154 169 0
158 175 0
149 166 0
156 172 0
152 170 0
149 167 0
159 174 0
154 173 0
149 167 0
153 169 0
158 175 0
157 174 0
157 175 0
156 171 0
161 180 0
158 178 0
156 174 0
150 168 0
162 180 0
156 174 0
156 175 0
156 174 0
158 177 0
161 179 0
160 179 0
154 172 0
161 179 0
154 174 0
158 177 0
157 176 0
155 174 0
160 178 0
160 179 0
157 174 0
160 176 0
160 177 0
163 183 0
157 176 0
152 171 0
157 176 0
163 184 0
155 173 0
162 181 0
164 182 0
160 179 0
163 182 0
164 184 0
160 176 0
166 186 0
160 179 0
165 184 0
156 174 0
166 184 0
160 179 0
160 180 0
156 173 0
161 181 0
165 185 0
162 181 0
160 179 0
165 186 0
158 178 0
168 188 0
166 186 0
168 186 0
166 187 0
165 184 0
164 183 0
165 185 0
164 185 0
165 184 0
167 186 0
162 182 0
168 187 0
165 185 0
170 194 36
172 196 62
171 195 62
168 193 76
169 193 84
173 197 95
169 195 84
166 189 51
167 191 67
172 196 76
170 195 72
168 193 72
168 193 88
167 190 72
166 190 25
170 194 67
169 193 67
164 188 80
171 195 76
170 194 51
172 196 80
169 193 76
170 193 62
171 193 72
172 196 95
167 191 80
168 192 72
169 193 84
165 190 88
168 191 84
170 193 80
165 189 51
166 189 80
167 191 67
166 190 76
171 194 88
165 189 88
169 193 92
170 194 102
164 188 67
169 192 92
166 190 76
170 192 84
164 188 80
170 193 102
159 182 62
170 194 99
168 191 99
161 185 84
165 188 76
164 187 92
163 186 92
166 190 102
167 190 76
168 191 99
167 190 88
158 181 84
164 186 57
169 192 107
159 181 67
164 187 111
166 189 88
166 188 105
160 182 76
153 176 80
157 179 92
168 190 102
156 179 92
162 184 92
165 189 108
159 180 80
156 179 95
154 176 84
160 181 95
153 176 99
158 181 105
154 177 72
161 183 88
152 174 72
161 183 114
160 181 108
151 173 95
159 181 102
154 176 76
147 169 92
143 164 88
156 177 88
148 170 67
147 168 62
139 161 62
148 169 76
139 159 67
151 172 72
147 167 76
145 165 72
137 158 76
122 143 74
119 141 92
90 115 99
77 104 92
98 123 126
96 121 116
91 116 114
94 119 115
94 120 126
90 115 127
92 119 123
96 122 126
100 126 126
93 120 129
82 109 114
114 137 124
78 107 122
94 120 126
103 127 118
90 115 126
100 124 131
99 125 134
97 123 131
100 125 123
87 114 140
103 128 145
97 122 130
84 112 131
94 118 137
89 115 129
89 115 132
107 129 146
100 121 135
98 121 141
102 122 134
89 111 133
90 113 127
97 119 140
87 110 132
91 114 133
92 113 119
74 103 129
79 105 127
73 101 125
80 107 116
70 102 136
72 101 131
70 100 117
73 103 120
65 96 124
65 95 97
68 99 105
63 94 118
63 94 119
59 92 110
62 94 111
67 97 109
67 98 95
59 91 104
60 94 125
62 94 105
56 90 102
60 92 105
58 92 118
58 93 102
58 92 111
58 92 120
58 92 111
57 91 110
56 89 113
57 90 108
58 92 114
59 93 114
57 91 113
58 92 114
57 90 103
58 92 111
59 93 117
60 94 124
57 91 113
56 90 116
58 91 105
59 93 124
59 93 121
57 91 115
57 91 105
56 89 103
56 89 100
58 92 107
56 89 105
57 90 110
57 91 114
59 94 125
58 91 113
56 89 105
58 91 111
58 91 129
59 93 117
59 93 117
59 93 114
58 92 118
59 93 121
58 91 105
57 90 113
57 91 113
57 91 111
57 90 114
56 89 103
57 90 105
59 93 122
58 91 107
56 88 100
58 92 111
55 87 103
57 90 111
57 90 111
56 88 105
56 89 102
57 90 111
58 91 107
55 88 100
56 89 110
56 88 94
54 86 94
55 87 100
55 88 99
57 90 108
56 86 84
70 93 76
84 106 70
84 102 57
99 118 44
109 125 31
108 124 0
117 132 0
111 126 0
113 128 0
116 131 0
110 125 0
106 120 0
118 133 0
120 135 0
110 124 0
116 131 0
115 132 0
119 136 0
112 128 0
109 127 0
126 144 0
117 133 0
129 146 0
116 131 0
122 138 0
111 126 0
128 146 0
119 136 0
111 125 0
124 140 0
132 149 0
132 148 0
135 153 0
116 132 0
125 142 0
131 148 0
125 141 0
123 141 0
134 154 0
125 142 0
142 159 0
142 160 0
122 138 0
129 145 0
137 156 0
138 154 0
136 151 0
140 155 0
138 154 0
144 163 0
133 151 0
138 156 0
135 153 0
131 146 0
143 160 0
138 154 0
136 151 0
139 155 0
146 163 0
142 159 0
145 163 0
140 158 0
135 153 0
145 161 0
141 158 0
143 163 0
141 157 0
142 158 0
139 155 0
133 149 0
146 163 0
148 165 0
145 163 0
146 162 0
146 164 0
144 160 0
152 169 0
142 158 0
142 160 0
153 169 0
145 164 0
147 166 0
148 164 0
147 162 0
149 165 0
153 172 0
146 163 0
148 164 0
152 170 0
142 160 0
148 164 0
146 163 0
147 164 0
153 170 0
156 175 0
152 170 0
154 173 0
149 166 0
154 172 0
151 170 0
149 165 0
155 173 0
155 173 0
148 166 0
153 171 0
143 161 0
150 165 0
151 170 0
145 161 0
152 169 0
145 162 0
153 171 0
152 169 0
151 168 0
146 164 0
157 173 0
153 170 0
154 172 0
157 175 0
162 181 0
158 176 0
157 177 0
160 179 0
153 171 0
161 178 0
156 174 0
154 172 0
159 175 0
161 180 0
164 182 0
152 170 0
159 177 0
159 177 0
154 173 0
159 177 0
161 180 0
161 177 0
162 180 0
154 173 0
156 175 0
166 185 0
158 177 0
152 170 0
160 178 0
162 180 0
154 171 0
163 181 0
155 173 0
165 184 0
159 176 0
161 180 0
159 176 0
162 181 0
162 181 0
164 182 0
163 183 0
162 180 0
168 187 0
170 191 0
163 184 0
163 183 0
162 181 0
171 192 0
164 183 0
164 183 0
162 182 0
163 182 0
162 180 0
166 187 0
166 187 0
160 179 0
161 179 0
160 179 0
167 188 0
162 182 0
164 186 0
170 194 57
171 194 88
171 195 76
171 195 72
172 196 72
172 196 67
171 195 72
173 197 62
168 193 62
172 195 76
168 192 84
171 196 72
166 190 57
168 192 67
169 194 80
170 194 80
170 194 80
162 187 76
168 192 67
170 195 105
168 192 57
166 190 99
172 197 108
166 189 67
169 193 72
167 191 76
173 196 95
167 191 80
171 195 80
168 192 92
170 194 72
169 193 80
173 196 62
175 199 105
168 193 102
171 195 102
168 192 84
167 191 88
173 196 111
171 195 95
169 193 80
165 188 80
160 183 84
169 191 102
167 190 84
169 192 102
164 189 88
167 190 92
163 186 95
170 194 102
163 186 88
170 193 102
161 183 80
170 193 99
163 187 105
157 179 67
164 187 72
163 185 99
160 183 99
159 182 76
166 189 88
168 191 117
165 187 76
161 184 105
164 186 88
165 187 99
157 180 95
157 179 80
163 187 102
162 186 92
159 181 92
156 179 92
164 186 92
159 181 105
158 180 80
159 182 92
155 177 111
161 183 99
150 172 72
155 177 80
159 180 99
155 177 88
153 175 67
147 169 76
148 169 80
154 176 95
148 170 76
148 168 72
141 162 84
144 165 67
151 172 88
124 145 57
144 165 76
144 163 88
144 165 88
143 163 90
128 149 54
111 132 65
115 136 97
90 114 99
82 107 108
88 114 126
85 111 121
85 112 120
82 108 114
93 120 121
96 121 122
94 119 121
104 129 140
85 111 120
97 122 124
86 113 111
100 125 131
87 112 118
101 126 130
85 113 121
87 114 121
107 130 134
98 123 125
90 117 131
110 135 125
99 123 129
84 110 132
82 111 121
84 112 142
97 123 148
95 120 139
82 107 120
83 109 129
85 110 123
89 113 128
84 109 134
78 104 127
86 111 125
85 110 131
90 111 118
86 106 128
75 99 113
78 105 134
69 99 120
71 98 123
72 100 115
78 105 119
69 100 111
65 95 115
70 99 117
65 95 115
66 99 122
63 94 105
62 93 111
64 96 103
62 93 101
66 98 118
62 95 115
65 97 110
55 87 98
61 93 118
59 94 128
58 91 107
57 91 108
57 91 115
57 91 107
57 90 116
57 90 110
57 90 119
57 91 118
57 91 97
58 92 117
57 90 111
58 91 113
56 88 114
59 92 114
57 91 110
58 92 121
58 92 110
57 90 113
56 89 114
59 93 116
57 91 107
59 93 113
57 90 99
59 92 115
59 93 108
57 91 110
60 94 129
56 89 99
58 92 125
57 91 118
58 93 115
58 91 108
59 93 120
58 91 113
59 93 122
59 93 125
57 91 118
58 91 115
56 89 103
58 91 105
58 91 118
57 91 108
57 91 117
57 90 103
57 90 111
59 92 110
57 91 113
58 92 121
58 91 108
57 90 114
56 90 111
55 87 105
57 89 113
56 89 103
56 90 110
55 87 105
58 91 114
54 86 105
56 88 99
53 85 94
54 86 97
54 87 95
54 86 94
53 86 84
60 87 78
72 94 65
88 107 74
92 109 47
93 110 36
98 113 25
109 123 0
105 120 0
118 133 0
106 121 0
99 116 0
116 131 0
109 124 0
114 130 0
112 126 0
109 125 0
109 125 0
115 132 0
123 138 0
132 150 0
111 128 0
121 136 0
113 129 0
127 143 0
123 141 0
131 149 0
117 132 0
130 146 0
128 144 0
120 138 0
118 134 0
137 154 0
129 145 0
126 142 0
123 139 0
124 141 0
123 139 0
128 144 0
131 147 0
135 154 0
120 137 0
130 147 0
130 147 0
132 150 0
131 147 0
134 151 0
140 157 0
130 147 0
141 158 0
145 164 0
139 155 0
139 156 0
135 153 0
148 166 0
137 154 0
141 159 0
141 156 0
133 151 0
138 155 0
133 151 0
137 154 0
134 150 0
131 149 0
140 157 0
138 156 0
138 156 0
146 164 0
144 162 0
140 159 0
143 161 0
144 162 0
136 152 0
142 159 0
139 157 0
144 160 0
147 167 0
134 150 0
146 165 0
149 166 0
147 165 0
147 164 0
149 168 0
139 155 0
154 172 0
150 169 0
138 156 0
156 174 0
148 168 0
147 164 0
148 166 0
154 173 0
144 160 0
157 175 0
150 167 0
157 176 0
159 176 0
145 162 0
151 166 0
160 178 0
153 168 0
154 171 0
150 166 0
152 169 0
154 172 0
151 171 0
152 170 0
158 176 0
156 172 0
153 168 0
151 170 0
143 161 0
156 172 0
154 172 0
158 178 0
148 167 0
152 169 0
153 170 0
151 170 0
155 174 0
153 171 0
156 174 0
153 169 0
150 170 0
159 179 0
155 171 0
153 170 0
157 174 0
159 176 0
156 173 0
165 183 0
154 171 0
157 175 0
158 176 0
157 176 0
155 175 0
163 182 0
159 177 0
152 169 0
161 180 0
158 175 0
152 168 0
159 177 0
159 176 0
164 184 0
158 178 0
160 179 0
160 179 0
162 180 0
168 188 0
159 176 0
162 180 0
159 177 0
163 182 0
159 178 0
155 174 0
160 178 0
157 175 0
159 177 0
165 186 0
161 181 0
167 188 0
159 177 0
162 182 0
162 182 0
162 183 0
164 183 0
165 185 0
163 182 0
162 182 0
164 184 0
162 180 0
166 186 0
162 184 0
163 184 0
167 187 0
159 180 0
170 191 0
163 183 0
173 196 57
168 191 44
170 194 62
168 192 62
171 195 84
170 193 88
168 193 67
173 196 67
171 194 51
168 193 67
164 188 57
175 199 67
163 188 44
167 192 84
167 191 76
173 196 84
167 191 72
168 192 84
166 190 76
173 197 99
171 195 84
169 192 80
169 193 88
173 196 108
169 192 102
167 191 72
168 191 92
173 196 84
167 190 67
166 190 80
174 198 111
169 193 99
163 187 72
168 192 80
170 194 99
170 194 105
174 198 102
169 193 95
169 193 92
175 198 102
165 189 72
165 189 95
165 189 72
171 195 117
161 184 99
168 191 88
168 191 102
169 192 76
166 190 114
165 189 99
171 195 105
160 183 108
154 178 76
164 186 76
158 181 80
165 189 108
164 187 105
172 193 108
159 182 95
169 192 108
155 178 88
167 189 80
161 184 95
165 186 88
161 184 84
159 182 99
163 185 76
163 186 92
155 178 99
160 182 99
166 188 105
159 181 92
159 181 99
152 174 80
154 177 80
156 177 95
150 173 80
156 178 88
154 175 80
155 177 67
155 177 102
155 177 99
154 176 105
155 177 84
151 174 105
162 183 105
160 182 105
153 174 102
139 160 80
142 163 72
143 163 62
147 168 80
139 159 62
138 158 95
132 153 44
135 155 62
138 159 80
133 154 70
120 141 80
97 121 88
101 123 98
85 112 114
80 106 112
88 114 107
94 119 124
90 116 124
73 100 103
89 116 127
94 119 124
98 123 124
88 115 106
87 114 120
92 117 120
103 128 137
99 122 132
91 117 118
99 123 135
97 122 132
97 121 115
92 118 122
103 127 125
102 127 145
89 116 134
89 115 131
89 116 131
103 127 127
88 114 131
92 117 137
74 101 121
94 117 137
85 109 125
81 107 125
77 102 124
89 111 125
95 116 129
93 113 129
84 107 102
87 111 124
74 101 131
74 100 111
71 102 125
78 105 113
75 104 120
80 108 120
69 100 115
69 99 110
70 98 101
61 93 110
66 97 99
68 98 113
63 95 109
59 91 99
67 99 118
70 101 113
58 90 99
66 97 94
58 91 108
55 87 99
62 95 114
55 89 96
59 92 120
56 90 110
58 91 120
57 90 95
57 91 115
56 90 112
57 91 108
56 90 103
59 93 115
58 92 110
58 92 113
57 91 100
59 93 118
58 91 108
57 91 113
60 94 126
57 91 103
56 89 100
58 92 111
59 94 124
58 92 110
59 93 125
58 92 122
58 92 122
59 92 118
58 91 111
57 90 105
58 92 113
57 90 103
56 89 107
58 93 126
58 92 113
57 91 114
59 93 121
55 87 86
58 91 111
57 90 107
57 90 111
58 91 111
58 91 103
57 89 105
56 89 100
58 92 113
57 91 111
53 86 94
56 88 103
57 90 108
57 90 103
57 90 113
54 86 99
54 87 92
55 87 100
57 91 105
55 88 99
57 90 100
55 87 107
57 90 114
56 88 102
55 87 99
54 86 86
61 90 84
74 96 72
72 95 72
91 110 62
98 116 36
102 118 36
94 109 31
97 112 0
100 113 0
103 117 0
110 123 0
116 132 0
106 121 0
119 133 0
119 131 0
108 124 0
122 138 0
114 130 0
113 130 0
123 138 0
113 127 0
111 127 0
114 131 0
111 128 0
113 130 0
124 140 0
121 137 0
126 143 0
129 145 0
129 146 0
124 142 0
120 135 0
125 142 0
120 137 0
129 145 0
134 152 0
136 153 0
129 146 0
133 150 0
138 155 0
138 155 0
125 143 0
131 148 0
135 155 0
129 147 0
132 147 0
136 153 0
127 145 0
130 147 0
131 149 0
137 153 0
139 157 0
123 141 0
148 166 0
137 156 0
139 155 0
141 159 0
143 161 0
136 154 0
150 168 0
139 158 0
142 160 0
140 157 0
135 153 0
144 162 0
139 157 0
135 151 0
137 153 0
146 164 0
139 156 0
140 158 0
147 164 0
143 157 0
145 162 0
141 158 0
142 160 0
144 161 0
141 160 0
144 162 0
144 160 0
151 170 0
149 167 0
143 161 0
150 168 0
144 160 0
153 170 0
143 159 0
145 161 0
151 168 0
154 171 0
148 166 0
150 166 0
156 175 0
153 171 0
152 171 0
151 167 0
150 167 0
148 165 0
155 174 0
154 172 0
145 163 0
153 171 0
152 169 0
160 178 0
151 169 0
156 174 0
159 176 0
155 171 0
146 164 0
150 166 0
147 164 0
153 171 0
161 180 0
155 170 0
150 168 0
157 176 0
150 169 0
154 170 0
156 174 0
154 171 0
153 172 0
159 180 0
150 169 0
156 175 0
151 169 0
154 172 0
158 175 0
159 177 0
156 174 0
163 182 0
153 171 0
156 175 0
160 180 0
156 175 0
157 175 0
155 175 0
158 177 0
163 183 0
152 169 0
155 175 0
162 181 0
161 181 0
159 178 0
163 183 0
160 178 0
161 180 0
162 181 0
157 177 0
162 183 0
163 182 0
167 185 0
160 179 0
160 177 0
161 182 0
154 175 0
163 183 0
162 181 0
163 183 0
162 183 0
163 184 0
162 181 0
159 179 0
160 179 0
160 181 0
164 186 0
164 184 0
166 187 0
166 189 0
167 188 0
161 179 0
161 182 0
166 186 0
166 186 0
167 187 0
163 182 0
163 182 0
163 184 0
162 181 0
162 181 0
165 185 0
168 192 72
170 194 62
169 192 76
169 193 57
174 198 80
170 194 80
169 194 84
171 195 72
169 193 72
172 196 95
171 196 92
168 192 62
165 189 36
168 192 62
168 192 72
169 194 84
165 189 84
171 195 67
166 190 88
171 195 76
170 194 92
173 197 88
169 193 88
165 188 57
170 194 95
170 194 76
167 192 76
170 194 88
174 197 92
172 194 62
174 198 105
170 194 84
169 193 95
169 192 76
166 190 88
172 196 84
169 193 80
166 190 99
171 195 95
174 196 102
167 191 92
163 187 80
171 193 99
170 193 108
162 186 76
172 195 114
166 190 108
169 191 108
165 189 88
165 189 67
161 184 105
169 192 102
168 190 92
158 181 84
166 190 80
169 192 107
160 182 80
164 187 105
167 189 108
169 191 105
158 181 99
162 183 51
162 186 102
160 184 92
165 188 92
164 187 102
162 185 88
159 182 92
155 177 92
158 180 92
152 175 88
161 183 92
155 179 76
159 181 105
156 178 92
156 178 95
161 183 105
159 181 95
148 170 80
142 164 92
151 173 80
149 170 88
145 166 62
147 169 62
143 164 92
147 168 72
144 165 67
141 162 76
151 171 88
148 169 80
148 169 67
140 160 67
138 158 92
143 164 72
138 159 76
141 161 51
132 152 67
145 165 99
120 140 62
128 148 102
108 128 90
107 130 118
101 125 110
84 109 95
79 106 101
100 125 124
95 120 127
88 113 115
78 105 109
100 125 131
96 120 130
81 108 119
105 129 129
83 110 115
100 124 119
96 120 119
89 115 125
95 120 122
106 131 129
92 117 119
86 113 135
80 110 118
84 112 127
94 118 120
91 118 125
102 125 139
89 115 136
77 103 134
99 124 144
79 104 126
102 124 134
84 108 124
97 117 110
90 111 121
90 111 123
84 106 110
88 111 118
86 109 125
83 108 117
80 106 117
72 100 115
85 109 126
77 104 112
71 99 111
73 103 121
73 103 107
67 96 105
69 100 115
64 94 105
63 94 106
69 100 101
68 98 101
70 100 100
65 96 103
57 90 100
66 96 95
60 92 114
61 93 107
60 93 94
57 90 103
58 92 114
59 92 108
56 89 103
58 91 113
58 91 113
57 91 103
56 89 103
58 92 111
58 92 110
58 91 107
56 89 97
59 93 115
57 91 103
58 91 115
57 90 108
58 92 114
59 92 117
57 91 110
56 89 97
58 92 115
57 90 108
56 89 98
57 91 108
57 91 103
59 93 118
58 91 108
58 92 118
57 91 102
57 90 111
57 91 113
60 94 120
58 91 113
58 91 118
57 91 110
59 93 121
56 89 99
56 88 108
59 94 117
56 89 108
59 93 125
56 89 103
55 88 100
58 91 113
56 89 108
54 87 103
55 88 100
56 90 107
56 90 97
56 89 110
58 91 120
56 89 114
57 90 102
57 89 102
57 90 111
55 87 97
55 87 94
54 86 95
55 87 103
68 94 67
64 91 80
74 95 70
85 105 54
93 111 54
90 107 31
107 124 25
98 113 0
103 117 0
118 136 0
108 123 0
115 132 0
102 117 0
101 115 0
102 118 0
124 141 0
123 140 0
110 126 0
113 129 0
105 119 0
118 134 0
110 127 0
122 137 0
119 133 0
118 133 0
122 139 0
128 146 0
125 144 0
117 135 0
124 142 0
130 147 0
118 134 0
131 149 0
128 144 0
121 138 0
128 146 0
118 136 0
122 139 0
134 151 0
122 140 0
134 151 0
126 143 0
123 139 0
137 153 0
136 153 0
127 144 0
133 151 0
136 154 0
139 158 0
137 154 0
135 151 0
147 164 0
137 153 0
135 154 0
144 164 0
131 148 0
138 156 0
149 167 0
148 168 0
133 149 0
136 156 0
142 161 0
144 164 0
144 163 0
146 166 0
134 151 0
139 155 0
143 161 0
141 158 0
149 167 0
136 153 0
144 162 0
135 155 0
139 158 0
133 151 0
147 163 0
152 170 0
146 165 0
153 171 0
138 155 0
141 160 0
152 169 0
141 158 0
151 168 0
142 161 0
149 167 0
142 159 0
132 149 0
150 166 0
145 161 0
147 166 0
143 159 0
149 168 0
148 162 0
153 169 0
146 165 0
145 161 0
154 173 0
152 171 0
151 168 0
146 166 0
152 169 0
152 169 0
155 173 0
157 175 0
153 172 0
153 172 0
157 175 0
151 168 0
152 169 0
159 179 0
156 175 0
152 170 0
145 161 0
150 168 0
153 170 0
156 175 0
149 165 0
154 172 0
163 180 0
160 179 0
158 176 0
157 176 0
160 179 0
153 172 0
158 175 0
156 172 0
153 169 0
158 178 0
156 174 0
156 175 0
160 179 0
155 172 0
162 181 0
161 180 0
155 173 0
157 177 0
162 180 0
158 175 0
158 176 0
157 173 0
158 176 0
158 177 0
162 184 0
160 180 0
159 176 0
161 179 0
162 182 0
164 184 0
167 188 0
166 187 0
160 180 0
155 174 0
165 185 0
163 183 0
162 182 0
163 181 0
163 183 0
163 183 0
164 186 0
156 177 0
160 179 0
158 176 0
168 187 0
158 178 0
164 184 0
160 180 0
165 185 0
165 185 0
161 181 0
166 186 0
163 183 0
166 186 0
161 181 0
164 183 0
165 183 0
165 184 0
167 188 0
166 184 0
164 183 0
162 181 0
162 181 0
169 193 62
170 194 80
170 194 84
172 196 72
167 191 67
168 192 62
175 199 72
172 195 67
173 196 80
170 195 88
168 192 57
170 195 92
170 193 80
170 194 76
173 197 80
173 198 92
171 195 99
169 192 72
169 192 102
169 193 84
169 193 72
163 187 76
170 194 80
167 190 80
168 192 99
171 195 95
167 190 76
168 192 67
174 197 114
169 192 99
166 189 67
170 193 76
167 191 88
168 191 67
168 191 102
163 187 84
167 191 108
169 193 102
170 193 92
177 199 111
164 187 99
173 196 92
164 188 99
166 190 102
167 191 84
164 187 76
176 199 108
167 190 84
166 188 105
168 192 99
166 189 95
160 183 94
164 188 120
163 187 88
162 185 95
163 185 108
159 182 88
161 184 99
169 190 102
163 186 88
164 186 92
165 188 117
167 189 108
165 187 111
155 176 92
163 185 105
164 186 92
162 185 100
167 189 117
159 182 82
164 187 135
153 176 76
161 183 102
151 174 84
160 182 88
157 179 57
155 176 80
153 174 108
156 178 88
158 179 92
159 182 92
156 178 102
148 169 105
157 178 92
147 168 88
148 169 84
146 167 92
139 160 67
151 173 95
150 171 88
144 165 72
137 157 72
140 161 80
149 169 108
134 154 76
134 154 80
141 160 72
129 147 36
130 149 80
131 150 95
120 140 94
98 118 84
100 122 113
108 130 126
92 116 114
82 108 114
84 109 101
92 117 108
95 118 120
93 119 117
82 108 113
94 119 120
96 121 122
90 116 124
88 114 124
88 114 114
94 120 126
93 118 102
95 119 124
100 124 145
105 129 122
106 131 126
100 123 124
85 111 120
102 126 138
97 122 133
92 116 121
80 107 120
94 118 124
90 113 122
93 118 133
98 119 125
95 119 134
95 118 122
91 114 129
90 115 131
87 111 117
96 119 123
89 113 109
87 111 113
72 100 112
65 95 102
79 105 111
73 102 118
82 110 110
66 96 114
67 96 115
68 98 112
74 102 102
60 91 108
64 95 114
72 100 110
66 96 100
55 88 94
58 89 99
59 91 95
62 94 120
63 94 96
58 90 88
56 89 97
58 91 107
57 90 114
58 92 112
57 90 100
59 93 113
57 91 115
57 91 103
57 90 107
58 91 115
57 91 107
57 90 102
58 92 120
57 91 105
56 89 97
58 92 114
57 91 111
55 88 102
55 87 103
57 91 102
57 91 103
56 89 100
55 87 97
58 91 120
57 91 103
59 93 113
57 90 114
58 91 118
56 89 99
57 90 114
58 91 114
58 92 108
56 89 107
57 89 113
57 90 110
59 92 124
55 88 100
55 88 113
56 89 97
55 88 105
57 90 111
57 91 105
56 89 95
55 88 103
57 90 103
55 87 110
57 90 114
54 86 103
56 89 108
58 91 103
57 90 105
56 88 94
55 88 102
56 89 107
53 85 94
56 89 99
56 88 107
59 90 99
65 93 88
84 106 74
67 90 67
84 102 51
84 102 47
101 118 31
94 110 18
93 110 0
115 131 0
111 125 0
115 131 0
106 121 0
105 118 0
108 123 0
118 133 0
108 124 0
112 130 0
111 125 0
115 131 0
111 127 0
107 123 0
119 135 0
119 135 0
123 141 0
127 143 0
112 130 0
132 149 0
125 141 0
117 132 0
126 141 0
125 142 0
125 144 0
129 146 0
120 139 0
121 137 0
135 152 0
120 138 0
124 141 0
134 151 0
132 149 0
129 144 0
131 149 0
129 147 0
138 156 0
127 146 0
132 150 0
131 150 0
144 161 0
137 155 0
134 151 0
128 146 0
137 156 0
134 150 0
132 150 0
124 140 0
131 150 0
129 147 0
142 163 0
140 156 0
135 151 0
139 154 0
137 157 0
150 168 0
143 160 0
138 156 0
139 156 0
136 152 0
138 157 0
147 164 0
143 161 0
137 157 0
139 157 0
139 159 0
144 161 0
147 165 0
148 165 0
139 157 0
145 165 0
139 158 0
150 168 0
141 160 0
141 158 0
137 151 0
142 161 0
147 165 0
143 159 0
149 167 0
154 172 0
150 169 0
147 166 0
157 176 0
149 168 0
143 160 0
153 171 0
154 175 0
155 172 0
152 171 0
146 164 0
155 173 0
147 165 0
149 166 0
140 158 0
149 168 0
152 169 0
150 167 0
157 174 0
152 170 0
150 167 0
151 170 0
160 178 0
147 166 0
155 174 0
158 178 0
157 174 0
155 174 0
152 171 0
151 169 0
157 177 0
156 175 0
160 178 0
151 170 0
162 181 0
160 179 0
153 171 0
157 176 0
159 178 0
154 173 0
154 173 0
154 173 0
160 178 0
160 179 0
153 171 0
155 174 0
167 186 0
154 173 0
155 170 0
161 179 0
155 174 0
159 178 0
162 182 0
154 173 0
159 179 0
163 183 0
161 180 0
159 179 0
163 182 0
154 172 0
162 181 0
155 175 0
163 182 0
158 179 0
162 181 0
159 180 0
161 181 0
165 183 0
161 180 0
164 182 0
159 178 0
163 182 0
161 181 0
161 180 0
155 174 0
164 184 0
163 183 0
163 184 0
164 183 0
156 173 0
162 182 0
166 185 0
170 190 0
166 186 0
161 181 0
165 184 0
165 186 0
164 184 0
167 186 0
166 186 0
161 181 0
164 185 0
165 186 0
162 184 0
167 188 0
164 184 0
169 193 67
169 193 76
169 192 72
173 197 72
172 196 51
172 196 80
170 194 67
174 197 80
170 194 62
170 194 67
171 195 80
171 195 72
169 193 102
164 188 62
168 192 95
172 197 92
172 196 88
174 197 84
168 192 88
169 192 62
169 192 84
173 197 92
170 193 80
168 191 76
170 194 99
174 197 92
172 195 88
167 190 92
166 189 84
169 193 95
172 196 92
168 191 99
170 194 84
169 192 108
164 188 88
168 191 102
172 195 120
172 193 102
170 193 88
161 186 92
168 190 105
174 198 122
168 191 95
166 189 99
168 192 105
172 195 99
170 192 105
168 190 102
173 197 122
167 191 88
164 186 111
164 188 80
161 184 72
164 187 105
165 188 111
165 188 102
167 189 84
165 188 92
169 191 120
164 187 108
162 185 80
164 186 95
169 191 95
166 188 102
154 177 82
163 185 92
158 181 92
164 185 99
170 193 111
157 179 80
163 185 114
157 179 84
160 182 105
158 181 99
157 178 99
156 179 105
159 180 102
155 178 105
160 183 84
157 179 102
159 180 108
155 176 88
156 179 108
158 180 95
161 184 105
151 173 76
158 179 92
143 163 84
139 159 80
148 169 84
152 173 92
136 157 80
147 166 72
157 176 102
150 170 92
150 170 88
135 155 60
133 152 76
135 153 72
119 137 65
143 162 88
131 151 90
108 130 92
96 119 105
93 117 106
89 113 97
94 119 109
93 117 110
97 122 124
101 125 103
78 105 117
99 123 118
63 94 110
85 111 110
97 121 133
91 116 109
93 118 120
90 117 120
92 118 127
95 121 114
106 129 129
89 115 111
106 130 128
100 124 129
88 115 124
112 134 121
83 109 115
98 120 115
98 120 122
91 113 110
100 122 117
95 119 125
94 116 115
89 113 117
94 118 122
107 127 113
94 116 111
96 118 111
103 126 103
83 105 95
87 111 109
76 103 107
71 100 103
73 102 115
70 99 114
72 100 105
66 96 100
64 94 107
69 99 95
69 99 102
64 95 106
67 97 97
67 98 103
66 98 108
66 97 118
62 94 98
63 94 108
64 94 97
54 86 95
54 86 97
56 89 107
59 93 117
56 89 86
56 88 97
58 91 110
58 92 112
56 89 108
57 90 113
56 88 95
55 88 103
57 90 107
57 90 114
57 91 118
58 92 105
56 89 94
57 90 100
56 89 94
54 87 97
56 89 99
59 94 133
56 90 103
57 89 113
57 90 102
57 90 115
57 91 105
58 92 114
57 91 115
56 89 99
57 90 100
56 90 100
57 90 100
57 90 99
57 91 110
57 90 108
55 88 105
57 90 105
57 89 99
57 90 107
55 87 103
55 88 100
55 87 103
55 88 92
56 88 102
56 89 102
55 88 107
55 87 92
56 88 100
57 89 117
57 90 107
57 89 105
56 89 100
53 85 78
54 86 90
56 88 97
56 87 92
63 92 94
58 86 88
74 95 70
78 99 70
87 103 36
90 107 31
119 136 0
102 116 0
103 118 0
114 129 0
105 120 0
105 119 0
113 127 0
110 125 0
113 129 0
106 122 0
109 124 0
102 117 0
116 132 0
111 125 0
110 129 0
109 125 0
124 139 0
121 138 0
120 136 0
119 136 0
116 132 0
129 144 0
118 135 0
133 150 0
132 150 0
124 142 0
118 135 0
127 145 0
132 150 0
125 141 0
126 143 0
128 146 0
124 140 0
130 148 0
136 154 0
135 155 0
137 154 0
133 152 0
126 144 0
123 141 0
129 146 0
134 151 0
134 150 0
135 155 0
139 156 0
138 156 0
134 151 0
143 162 0
136 155 0
133 151 0
134 147 0
141 160 0
136 153 0
137 155 0
134 152 0
136 155 0
138 156 0
135 155 0
141 160 0
142 162 0
144 160 0
138 155 0
142 160 0
136 155 0
137 154 0
145 162 0
145 162 0
141 160 0
143 161 0
147 166 0
143 160 0
136 152 0
143 161 0
144 161 0
147 165 0
142 161 0
149 167 0
154 174 0
148 168 0
144 162 0
146 165 0
154 172 0
150 168 0
149 167 0
150 169 0
148 168 0
141 158 0
153 171 0
147 164 0
145 163 0
150 168 0
155 173 0
151 167 0
151 170 0
149 165 0
151 169 0
154 171 0
148 166 0
150 169 0
154 169 0
146 162 0
149 167 0
149 167 0
147 165 0
150 170 0
147 165 0
158 179 0
153 173 0
156 174 0
158 176 0
149 168 0
158 178 0
156 176 0
154 174 0
147 164 0
152 168 0
155 173 0
159 177 0
164 185 0
159 177 0
151 171 0
151 169 0
157 176 0
158 177 0
155 173 0
158 177 0
150 169 0
162 181 0
158 175 0
162 182 0
161 181 0
161 181 0
157 174 0
156 176 0
148 167 0
158 177 0
160 178 0
158 177 0
159 179 0
159 179 0
161 179 0
161 179 0
161 182 0
162 181 0
161 180 0
157 177 0
162 180 0
165 186 0
160 178 0
164 184 0
163 182 0
163 183 0
164 185 0
163 183 0
166 186 0
164 185 0
159 177 0
162 182 0
160 181 0
167 187 0
161 180 0
164 183 0
166 187 0
166 186 0
165 186 0
161 181 0
162 181 0
164 185 0
167 187 0
159 179 0
163 183 0
156 177 0
166 187 0
166 187 0
165 184 0
164 185 0
166 186 0
162 182 0
165 186 0
171 195 67
168 192 72
172 195 88
172 195 72
165 189 80
169 193 80
167 190 80
173 196 80
173 197 62
174 198 76
170 194 88
174 198 76
171 195 92
173 196 92
167 191 72
172 195 102
168 192 80
173 196 88
169 193 88
167 191 80
174 197 102
170 193 105
170 194 88
167 191 88
173 196 80
173 196 99
169 192 99
172 195 111
172 196 95
170 194 117
174 197 111
167 189 102
166 190 84
173 197 114
173 196 108
168 191 76
175 196 102
171 194 117
165 187 80
167 191 105
166 189 72
171 195 122
166 190 84
168 191 95
164 187 99
176 198 127
171 194 102
165 189 92
161 183 76
169 193 102
170 193 102
166 190 95
170 193 88
164 188 76
166 189 88
167 190 84
160 183 95
161 183 80
157 180 92
158 180 102
157 180 99
169 192 100
169 192 95
160 183 107
169 192 99
159 182 99
164 187 105
161 184 92
169 191 111
152 175 88
160 182 99
157 179 105
156 178 92
151 173 99
160 182 108
160 182 92
160 182 99
161 183 92
150 172 92
158 180 99
152 173 92
158 178 108
156 177 114
152 173 88
147 169 88
141 162 88
140 161 88
148 169 88
149 170 80
137 158 84
149 170 99
145 165 80
147 167 95
149 169 76
148 169 92
148 167 95
142 161 84
136 155 92
130 150 51
141 160 84
135 153 74
127 146 86
117 137 95
120 141 113
104 126 104
100 122 97
91 116 103
98 122 120
88 114 110
90 116 115
102 125 121
84 111 120
87 113 118
92 118 119
94 119 118
95 119 101
100 124 140
93 118 115
105 129 120
108 131 137
93 117 118
98 123 105
96 120 122
90 116 125
88 114 110
92 117 131
100 123 132
92 117 119
95 119 131
109 131 120
104 124 118
87 110 117
98 120 125
94 115 113
97 117 103
100 123 109
93 117 110
103 124 111
99 123 97
89 112 109
86 110 102
86 111 117
88 112 108
75 102 103
74 104 109
66 95 111
70 98 80
74 102 103
69 98 100
67 98 103
59 89 78
61 93 108
64 94 100
65 95 105
70 99 100
63 94 106
58 90 99
63 96 120
57 90 100
55 88 102
56 88 99
56 88 105
57 91 102
57 90 103
55 88 102
56 89 102
58 91 110
55 88 102
55 88 99
57 91 107
58 91 111
56 90 105
56 89 103
55 88 97
57 90 97
59 92 118
58 91 105
55 88 97
58 92 111
57 90 100
56 88 111
57 90 111
56 89 100
57 90 113
56 89 103
57 91 111
56 89 78
57 90 105
56 88 94
57 90 108
56 89 107
58 92 113
56 88 103
57 90 110
56 89 111
54 87 100
56 89 105
57 90 107
54 87 100
58 92 118
55 88 92
55 87 97
55 87 95
56 88 102
55 88 97
58 91 113
53 84 95
57 90 110
56 89 114
54 86 99
51 82 94
55 88 82
60 89 76
63 90 74
67 91 78
68 92 62
75 96 51
78 95 25
103 121 31
106 122 25
102 116 18
102 115 0
104 118 0
107 123 0
101 115 0
113 127 0
99 115 0
99 115 0
107 123 0
112 128 0
119 135 0
116 132 0
119 135 0
120 137 0
119 134 0
101 118 0
120 137 0
115 132 0
112 128 0
127 144 0
123 140 0
115 132 0
134 150 0
118 137 0
126 143 0
113 129 0
123 141 0
126 143 0
120 138 0
127 144 0
123 138 0
137 155 0
137 155 0
132 149 0
136 154 0
132 149 0
132 149 0
127 144 0
137 156 0
135 154 0
138 156 0
126 143 0
131 149 0
131 149 0
134 152 0
129 146 0
126 144 0
131 147 0
129 148 0
133 151 0
139 159 0
145 165 0
129 146 0
142 161 0
136 155 0
138 155 0
138 155 0
139 158 0
143 161 0
148 166 0
144 164 0
145 163 0
141 161 0
144 164 0
143 162 0
135 153 0
141 159 0
138 155 0
136 153 0
143 161 0
143 160 0
143 160 0
141 160 0
150 167 0
150 169 0
143 159 0
138 156 0
150 169 0
153 172 0
149 168 0
144 160 0
146 165 0
146 163 0
151 168 0
147 165 0
144 162 0
144 160 0
156 173 0
141 158 0
155 173 0
150 166 0
142 158 0
147 162 0
147 166 0
156 175 0
145 163 0
147 162 0
153 170 0
151 169 0
156 176 0
158 177 0
155 174 0
157 175 0
158 176 0
147 164 0
163 180 0
152 172 0
154 172 0
156 175 0
151 169 0
152 171 0
159 177 0
159 176 0
161 179 0
160 179 0
157 175 0
154 171 0
153 172 0
148 164 0
156 172 0
159 179 0
155 172 0
157 178 0
156 172 0
159 178 0
155 176 0
158 176 0
159 178 0
161 180 0
157 176 0
160 180 0
158 179 0
161 180 0
160 180 0
157 176 0
152 171 0
157 174 0
163 184 0
160 178 0
159 180 0
163 183 0
160 177 0
162 180 0
162 181 0
154 174 0
163 183 0
165 185 0
166 184 0
160 177 0
161 183 0
157 176 0
165 186 0
163 183 0
159 178 0
161 180 0
162 180 0
163 183 0
160 182 0
158 177 0
165 185 0
158 176 0
165 185 0
163 184 0
158 179 0
165 184 0
161 181 0
163 182 0
164 183 0
161 182 0
157 177 0
168 188 0
165 186 0
166 186 0
164 185 0
163 184 0
164 185 0
166 186 0
159 178 0
165 185 0
164 184 0
168 192 95
172 196 62
172 197 76
171 195 72
173 196 67
172 195 80
169 192 80
171 194 80
171 195 95
173 197 76
168 192 80
170 195 72
167 191 88
171 194 62
167 191 80
171 195 99
171 194 88
171 194 72
168 192 99
168 191 92
176 200 102
168 192 99
174 198 95
171 194 99
171 193 99
163 187 95
173 196 117
170 193 88
172 196 108
168 191 88
167 191 108
173 195 108
173 195 80
171 194 105
170 194 111
164 188 99
168 192 62
158 182 72
169 192 92
167 190 105
172 196 105
171 194 88
162 185 102
165 189 102
169 191 99
164 188 95
169 192 120
164 188 84
164 187 88
165 189 95
165 188 108
169 193 102
163 186 99
158 180 76
166 189 92
165 188 92
159 183 76
167 191 84
164 187 92
173 195 111
165 188 99
162 185 105
159 181 99
158 180 102
164 186 117
158 181 95
164 186 111
159 181 105
160 183 108
163 186 95
168 189 105
163 185 111
155 178 76
159 182 102
161 182 99
157 180 102
152 173 105
149 169 99
148 170 95
158 180 99
144 165 72
162 183 108
157 178 99
152 173 92
156 178 99
149 169 105
156 178 108
142 163 76
158 179 84
146 166 76
140 160 67
146 167 80
155 176 92
135 155 80
140 159 88
144 164 88
141 160 99
131 150 84
133 152 57
131 151 80
130 149 76
125 143 62
121 139 70
112 131 80
99 119 74
100 122 97
101 124 107
106 129 133
82 107 114
89 114 110
102 125 111
107 130 140
87 112 108
88 113 114
89 114 108
97 122 100
102 126 129
86 112 110
93 119 129
102 126 115
100 125 129
102 125 110
101 125 126
97 121 117
94 119 122
97 123 125
101 124 122
99 124 126
104 129 126
93 117 117
104 125 102
99 121 124
99 123 107
98 119 108
91 114 101
98 119 110
102 122 95
95 119 114
105 125 108
82 108 122
72 100 111
84 109 110
85 112 114
78 104 102
85 109 88
80 107 107
72 99 88
68 98 105
71 99 90
73 100 92
64 94 88
61 92 112
64 95 92
55 87 92
68 98 99
63 93 88
58 90 94
59 91 104
60 92 102
55 87 94
60 93 110
57 90 101
56 89 92
55 87 89
56 89 102
55 88 100
56 89 108
57 90 103
56 90 95
58 91 111
56 89 95
56 89 102
55 87 92
59 93 115
56 89 97
56 90 102
56 89 95
55 88 102
56 89 88
57 91 102
58 92 115
56 88 92
57 91 100
57 90 100
55 88 108
57 90 105
56 89 107
58 91 115
56 89 113
54 86 105
56 90 94
55 88 90
57 90 99
56 88 103
57 91 108
55 87 94
56 89 103
56 89 99
54 86 102
54 86 92
56 88 100
57 89 114
56 89 100
56 88 100
56 89 105
55 88 94
53 84 86
53 84 82
54 86 92
54 86 78
55 85 90
58 88 72
68 93 84
86 107 76
81 101 65
92 109 40
91 108 44
77 92 18
105 120 0
102 118 0
108 120 0
100 114 0
114 131 0
101 116 0
108 123 0
98 111 0
106 121 0
115 132 0
111 128 0
113 129 0
116 134 0
111 128 0
110 126 0
114 129 0
114 130 0
125 141 0
117 132 0
111 126 0
107 122 0
115 133 0
116 135 0
117 134 0
126 143 0
115 133 0
127 143 0
123 139 0
129 147 0
124 142 0
136 156 0
127 145 0
124 142 0
122 139 0
131 149 0
133 150 0
130 147 0
130 147 0
127 144 0
133 150 0
140 159 0
129 147 0
132 150 0
129 146 0
128 147 0
129 147 0
135 153 0
134 152 0
125 142 0
133 152 0
124 142 0
138 156 0
146 163 0
141 159 0
140 159 0
144 164 0
136 155 0
142 161 0
141 159 0
144 163 0
141 161 0
141 158 0
144 164 0
132 148 0
139 157 0
144 161 0
144 161 0
138 156 0
141 160 0
140 160 0
140 158 0
142 159 0
146 165 0
132 149 0
148 167 0
152 170 0
145 161 0
148 166 0
153 172 0
152 171 0
152 170 0
145 164 0
151 169 0
154 173 0
143 160 0
141 159 0
152 170 0
147 165 0
155 174 0
149 165 0
155 173 0
157 175 0
147 165 0
153 171 0
150 167 0
153 171 0
148 167 0
146 165 0
151 170 0
148 165 0
157 178 0
151 168 0
152 172 0
152 170 0
147 165 0
146 165 0
147 167 0
153 172 0
153 172 0
163 182 0
158 175 0
153 172 0
153 173 0
155 177 0
155 173 0
151 169 0
152 171 0
159 176 0
159 178 0
158 176 0
157 177 0
159 178 0
158 175 0
160 178 0
161 180 0
157 176 0
158 176 0
160 179 0
152 172 0
157 176 0
160 181 0
158 176 0
160 179 0
157 176 0
160 180 0
161 181 0
161 182 0
155 174 0
161 180 0
162 182 0
163 183 0
159 179 0
160 179 0
164 185 0
165 186 0
157 175 0
160 178 0
161 179 0
164 186 0
159 178 0
163 182 0
157 177 0
163 182 0
164 185 0
166 186 0
163 184 0
159 179 0
167 186 0
155 173 0
164 184 0
164 185 0
163 184 0
162 181 0
159 178 0
160 182 0
163 183 0
164 183 0
165 186 0
157 176 0
165 186 0
164 182 0
160 180 0
163 185 0
166 186 0
164 185 0
162 182 0
163 185 0
167 189 0
161 183 0
164 186 0
165 185 0
164 184 0
166 190 62
166 189 76
172 195 62
171 195 72
170 194 76
170 194 84
174 198 80
170 194 67
172 196 84
172 196 72
167 191 92
171 196 102
175 199 117
172 196 72
167 190 92
167 190 80
168 191 67
171 195 102
174 198 95
168 192 80
171 194 88
175 199 127
167 191 99
171 194 92
170 193 95
169 192 92
170 193 88
165 188 84
168 192 99
165 189 84
169 192 95
170 194 67
173 195 99
175 199 114
168 192 102
170 192 99
164 188 95
167 190 105
170 194 117
164 187 102
171 193 92
167 190 95
167 190 99
168 190 92
168 191 88
172 195 92
165 190 108
170 193 105
166 190 88
167 190 105
165 188 88
161 185 76
165 189 90
163 185 95
169 192 99
165 188 86
163 187 92
162 184 95
162 185 105
168 192 99
156 177 72
156 179 80
161 185 113
165 188 100
167 191 88
160 184 99
162 184 84
158 180 108
160 183 95
151 173 80
161 182 102
160 182 80
161 184 114
154 176 92
158 179 95
158 179 92
157 179 76
160 181 102
156 178 108
152 174 102
158 180 95
152 173 88
146 168 84
154 176 72
157 177 102
160 182 105
138 158 84
146 167 114
148 169 62
146 166 105
140 161 80
152 173 105
135 155 84
135 155 62
141 161 92
151 170 111
134 153 80
139 158 80
128 148 44
140 158 95
137 156 84
134 152 72
136 154 67
126 145 92
119 137 99
119 138 100
110 131 108
110 132 103
89 113 98
87 111 105
75 103 96
87 113 117
90 115 114
92 116 128
95 120 117
79 106 113
90 114 111
100 124 110
94 119 117
105 129 130
103 126 127
91 116 109
98 123 111
90 115 119
95 120 114
98 120 120
95 119 107
100 122 131
91 114 113
95 117 113
103 124 117
107 127 108
108 129 111
104 127 109
100 122 114
104 127 108
99 121 99
108 129 94
99 122 88
99 121 97
84 108 110
98 121 99
86 108 103
86 111 94
77 103 102
81 107 95
67 96 97
70 99 110
63 93 98
62 93 86
67 95 100
65 96 100
63 93 85
73 102 90
63 93 85
62 93 94
56 89 97
64 94 90
54 86 87
60 91 94
55 87 90
57 88 84
53 84 82
56 89 95
55 87 102
58 91 115
57 90 107
58 92 107
56 89 99
54 86 94
54 86 90
56 88 100
56 89 97
56 88 107
55 88 99
56 88 105
55 88 94
55 87 94
55 88 103
58 92 110
56 89 103
56 89 103
55 88 95
55 87 97
57 90 103
56 88 95
58 91 108
55 87 95
55 88 100
55 87 88
57 91 105
55 87 90
57 90 102
57 91 108
54 87 94
55 88 102
56 89 100
56 89 100
53 84 82
55 87 100
57 90 94
56 88 103
53 84 92
54 86 84
54 86 94
54 86 95
51 81 72
55 87 95
57 87 88
65 90 76
85 108 62
70 95 80
79 98 57
95 114 60
96 113 18
92 106 0
99 113 18
99 114 0
103 118 0
96 112 0
103 118 0
111 127 0
105 119 0
106 120 0
119 135 0
101 118 0
106 121 0
104 122 0
118 134 0
108 125 0
104 119 0
98 114 0
118 135 0
117 133 0
109 126 0
124 142 0
127 145 0
127 145 0
119 135 0
139 157 0
124 143 0
128 144 0
112 129 0
119 136 0
116 133 0
119 136 0
117 132 0
113 128 0
130 148 0
124 141 0
123 142 0
127 145 0
127 144 0
136 155 0
128 145 0
134 152 0
135 154 0
129 146 0
132 147 0
135 153 0
137 155 0
140 160 0
129 145 0
129 147 0
130 147 0
137 155 0
144 161 0
137 156 0
139 156 0
137 157 0
144 164 0
136 154 0
144 163 0
143 160 0
133 151 0
136 153 0
138 158 0
142 161 0
141 161 0
136 155 0
132 151 0
147 166 0
145 163 0
153 171 0
139 155 0
139 157 0
135 151 0
144 162 0
144 160 0
145 163 0
151 171 0
135 153 0
149 167 0
144 162 0
147 165 0
142 159 0
143 161 0
154 173 0
144 163 0
151 171 0
151 170 0
153 173 0
149 169 0
148 167 0
152 172 0
143 162 0
149 169 0
153 173 0
151 168 0
154 173 0
152 170 0
153 173 0
152 167 0
147 165 0
157 178 0
146 164 0
154 173 0
150 168 0
153 172 0
158 179 0
153 171 0
158 178 0
153 172 0
149 167 0
155 175 0
153 172 0
153 172 0
151 170 0
162 183 0
147 163 0
154 172 0
154 172 0
155 173 0
154 173 0
157 177 0
155 176 0
163 183 0
163 183 0
154 171 0
161 180 0
157 175 0
154 172 0
157 176 0
157 177 0
151 170 0
158 178 0
155 176 0
161 180 0
162 182 0
156 174 0
158 177 0
162 184 0
157 175 0
151 169 0
157 177 0
164 184 0
161 179 0
159 177 0
160 180 0
160 179 0
158 178 0
157 176 0
156 176 0
161 180 0
161 180 0
165 185 0
157 177 0
167 188 0
157 176 0
160 180 0
161 180 0
163 182 0
162 181 0
162 182 0
162 181 0
162 182 0
160 181 0
159 179 0
166 186 0
162 182 0
161 180 0
161 181 0
166 185 0
164 182 0
162 181 0
165 185 0
160 180 0
163 182 0
165 186 0
156 175 0
159 178 0
166 186 0
163 183 0
162 183 0
168 190 0
165 185 0
164 184 0
165 187 0
168 189 0
164 186 0
170 193 76
171 196 72
169 193 76
167 191 88
171 195 57
168 191 51
171 195 51
168 192 92
167 191 80
173 197 67
170 194 88
171 195 92
171 195 99
167 190 76
170 194 92
167 191 76
169 193 95
167 190 84
174 197 95
168 192 105
171 194 84
174 197 92
170 194 92
170 193 80
172 196 102
173 196 99
170 193 111
172 195 95
176 199 102
168 192 92
167 192 95
169 192 80
168 190 84
169 192 99
167 190 95
164 186 102
164 187 95
169 192 95
169 192 105
170 192 117
163 186 88
173 196 95
167 191 105
170 193 102
165 188 88
167 190 76
165 189 102
164 185 114
158 181 92
169 193 72
166 189 102
165 188 92
165 189 92
158 181 92
158 180 76
163 186 95
167 190 88
161 184 76
157 179 92
165 188 76
166 189 99
164 187 100
164 186 99
158 181 95
162 185 80
162 185 84
161 183 95
155 177 92
166 190 92
166 189 120
159 181 92
167 189 120
157 179 84
163 185 108
154 176 108
160 183 80
157 179 102
157 178 95
157 179 102
153 174 99
158 179 88
160 181 99
156 178 76
164 185 105
155 175 105
148 169 102
156 177 92
155 176 99
153 173 114
140 161 62
142 163 76
144 163 105
148 168 95
151 171 105
149 170 88
134 155 102
138 158 72
146 165 102
142 162 92
132 151 57
142 161 88
141 159 84
141 160 84
118 136 84
130 147 95
122 140 87
111 131 78
104 126 116
85 109 95
81 105 100
103 126 133
102 125 107
94 119 121
106 129 130
97 121 117
80 106 110
102 126 119
79 106 108
104 128 113
100 124 120
87 113 103
102 125 118
94 119 119
111 133 120
87 113 107
115 137 111
93 117 95
95 119 107
105 126 120
92 117 118
92 115 110
110 130 107
97 120 105
102 124 103
100 121 113
93 115 94
106 128 92
99 120 102
105 125 92
100 122 102
90 113 84
84 108 103
84 110 95
78 105 99
84 110 102
69 98 103
83 107 88
68 97 97
73 100 92
71 100 99
71 98 84
73 101 86
73 100 89
65 94 97
72 100 84
57 88 72
58 88 86
59 91 88
59 91 86
57 89 92
59 92 99
55 88 94
55 87 78
56 89 97
58 91 118
54 87 82
57 90 107
54 87 86
56 89 102
57 91 107
55 88 84
55 87 102
55 87 99
55 88 88
55 87 97
55 88 103
55 88 97
55 87 92
56 89 102
55 87 90
55 88 102
55 87 90
56 88 103
55 87 102
56 88 107
56 88 110
58 91 108
56 88 114
56 89 100
56 89 94
52 84 82
56 90 94
54 86 88
58 91 115
56 89 95
57 90 107
53 85 90
56 89 100
53 85 80
54 86 95
53 85 90
55 88 97
55 87 97
54 86 99
53 84 80
53 85 82
55 85 90
67 92 65
67 90 51
61 85 62
79 97 40
91 108 31
78 94 36
101 117 25
99 116 25
92 108 0
93 107 0
114 130 0
104 120 0
102 119 0
112 128 0
105 119 0
113 128 0
101 117 0
113 130 0
113 130 0
115 132 0
118 135 0
116 132 0
108 125 0
115 131 0
123 140 0
115 132 0
113 129 0
120 137 0
122 138 0
120 137 0
111 128 0
110 126 0
115 131 0
109 128 0
117 135 0
124 143 0
120 138 0
122 140 0
127 145 0
131 149 0
121 139 0
127 146 0
120 135 0
137 156 0
129 145 0
137 155 0
131 150 0
125 143 0
123 140 0
133 150 0
131 148 0
126 145 0
140 158 0
138 157 0
132 152 0
139 156 0
130 148 0
140 159 0
132 150 0
147 167 0
138 155 0
141 158 0
131 149 0
144 163 0
141 158 0
139 159 0
144 163 0
140 158 0
147 167 0
141 158 0
143 162 0
144 162 0
141 160 0
145 165 0
129 147 0
148 166 0
146 163 0
139 158 0
144 162 0
147 166 0
143 162 0
144 162 0
142 162 0
152 171 0
144 164 0
155 175 0
145 163 0
158 180 0
150 168 0
146 163 0
151 170 0
153 171 0
149 168 0
144 161 0
149 167 0
148 166 0
154 175 0
151 171 0
149 168 0
155 173 0
153 172 0
152 171 0
152 170 0
153 171 0
148 165 0
146 164 0
156 177 0
155 172 0
155 175 0
148 167 0
153 173 0
150 169 0
148 166 0
153 172 0
152 171 0
160 180 0
147 167 0
153 170 0
154 174 0
153 171 0
152 171 0
160 180 0
157 176 0
150 169 0
158 176 0
157 175 0
159 179 0
149 169 0
160 180 0
159 180 0
152 170 0
157 176 0
152 170 0
161 179 0
159 177 0
156 175 0
155 174 0
155 174 0
159 179 0
162 180 0
159 178 0
159 179 0
160 180 0
157 177 0
159 177 0
166 185 0
153 171 0
159 180 0
158 179 0
164 183 0
160 181 0
163 182 0
161 180 0
160 179 0
158 178 0
160 179 0
161 183 0
162 181 0
158 178 0
164 184 0
158 177 0
155 175 0
161 181 0
160 179 0
166 185 0
163 183 0
163 182 0
160 180 0
162 182 0
164 184 0
157 176 0
163 184 0
162 180 0
162 181 0
170 191 0
160 181 0
162 182 0
165 185 0
162 182 0
163 183 0
160 181 0
161 183 0
160 180 0
162 182 0
162 183 0
164 185 0
160 181 0
166 187 0
166 186 0
165 187 0
165 185 0
164 185 0
172 192 0
170 194 67
171 194 72
172 196 84
170 194 88
169 192 72
170 193 88
169 192 67
172 196 95
165 190 88
171 195 99
169 193 88
167 191 84
172 195 102
173 196 72
169 192 92
169 193 84
172 196 102
166 191 102
173 197 88
172 195 92
169 194 99
171 195 102
171 194 80
170 194 80
169 193 80
166 189 88
173 195 102
173 196 105
170 193 84
168 191 105
169 192 102
171 194 84
168 192 111
163 187 84
170 194 95
173 195 108
166 189 84
166 189 102
162 185 92
168 191 92
172 195 108
164 188 102
164 188 95
166 190 105
168 191 92
165 188 84
165 188 88
169 191 108
170 193 105
163 186 84
163 186 92
169 191 95
168 191 114
158 181 90
161 185 92
165 188 92
165 188 95
164 187 88
158 180 88
165 187 97
164 187 105
168 190 67
164 186 88
158 181 94
167 189 102
164 186 105
163 186 90
159 183 117
160 183 76
160 182 88
162 184 99
160 182 95
158 182 80
163 185 111
157 179 88
162 184 108
159 180 84
159 180 102
159 181 102
151 173 76
151 173 92
152 173 88
154 175 102
146 168 99
152 173 84
149 170 105
154 175 95
149 170 99
146 166 95
145 165 102
150 170 88
146 166 99
149 170 95
138 157 72
142 162 114
144 163 76
142 161 76
137 156 84
136 155 67
144 162 92
134 152 84
120 139 76
134 152 80
115 132 84
147 164 92
110 128 84
113 130 80
111 130 94
112 132 92
113 134 122
97 119 104
76 103 88
85 108 97
94 118 110
93 116 108
75 101 86
91 116 107
94 119 103
80 107 99
100 125 120
94 118 107
96 120 115
96 120 109
92 118 100
99 123 108
108 128 107
103 124 115
101 123 108
105 126 90
93 116 99
107 128 111
108 126 92
110 131 86
103 125 94
113 134 90
110 132 120
114 135 86
99 121 94
107 128 95
100 121 94
98 119 95
98 120 86
83 108 95
94 116 90
85 110 94
76 101 80
79 105 92
74 100 95
72 100 85
69 97 90
69 97 94
73 100 78
62 90 78
63 91 68
68 97 80
71 99 90
62 91 94
56 87 86
62 92 97
55 87 97
58 91 92
55 87 78
55 88 95
53 85 76
54 87 97
56 88 97
57 90 99
54 86 80
55 87 100
56 89 102
58 92 107
54 87 90
57 90 94
56 88 97
55 88 99
55 87 88
57 91 113
55 88 88
54 86 97
56 88 88
56 89 100
56 89 92
54 86 88
55 87 94
55 88 92
54 85 94
56 88 103
54 87 92
56 89 99
55 88 95
54 86 97
55 87 97
57 91 100
56 88 102
55 86 99
56 88 110
53 84 86
54 86 86
56 89 105
55 87 99
54 86 82
54 85 78
52 83 94
53 83 80
69 94 72
77 100 74
65 87 70
80 100 51
91 111 65
82 98 36
82 98 18
96 112 25
96 111 0
93 109 0
97 111 0
103 118 0
106 123 0
111 126 0
115 130 0
109 125 0
107 123 0
95 109 0
116 134 0
107 125 0
109 124 0
121 137 0
109 125 0
112 129 0
110 127 0
116 131 0
117 133 0
123 139 0
118 135 0
113 131 0
126 144 0
109 127 0
110 129 0
122 138 0
128 146 0
117 134 0
111 128 0
130 148 0
123 140 0
115 132 0
135 153 0
122 137 0
126 143 0
130 149 0
133 150 0
134 153 0
138 157 0
130 148 0
130 147 0
136 152 0
129 149 0
128 147 0
128 147 0
123 140 0
127 144 0
128 146 0
140 158 0
132 150 0
132 149 0
133 152 0
137 156 0
136 153 0
133 149 0
150 169 0
132 148 0
144 164 0
140 157 0
144 163 0
139 158 0
141 160 0
144 162 0
140 160 0
141 160 0
133 153 0
135 153 0
140 159 0
141 161 0
149 168 0
140 159 0
137 155 0
144 165 0
156 174 0
142 159 0
141 160 0
150 169 0
152 173 0
146 165 0
143 161 0
151 170 0
147 165 0
146 165 0
152 172 0
150 169 0
149 166 0
153 170 0
143 163 0
156 175 0
144 161 0
154 174 0
140 159 0
152 171 0
148 167 0
150 168 0
152 172 0
155 173 0
147 166 0
151 168 0
143 162 0
156 175 0
157 176 0
152 170 0
146 164 0
156 174 0
155 173 0
157 178 0
159 178 0
155 175 0
152 173 0
151 169 0
156 174 0
148 168 0
155 174 0
156 176 0
156 175 0
152 170 0
154 174 0
153 171 0
155 171 0
161 181 0
157 177 0
155 176 0
157 178 0
155 174 0
158 178 0
155 174 0
159 177 0
158 180 0
159 178 0
162 181 0
156 175 0
154 171 0
161 180 0
156 175 0
154 173 0
156 174 0
157 176 0
162 181 0
157 176 0
158 177 0
153 172 0
164 182 0
157 177 0
162 181 0
156 176 0
165 186 0
160 179 0
161 181 0
159 178 0
162 181 0
164 184 0
157 177 0
162 182 0
163 184 0
161 181 0
157 177 0
160 181 0
162 183 0
163 183 0
166 185 0
168 187 0
165 186 0
161 179 0
170 190 0
160 180 0
161 180 0
163 185 0
164 185 0
165 185 0
159 178 0
166 187 0
164 186 0
165 184 0
164 185 0
164 184 0
164 183 0
165 186 0
165 186 0
166 188 0
166 185 0
165 185 0
166 186 0
169 192 0
169 190 0
168 189 0
168 189 0
169 190 0
174 197 88
169 192 92
172 195 80
173 197 84
174 197 84
170 193 67
169 193 76
173 196 72
168 191 72
175 199 95
171 194 105
169 193 88
172 196 92
174 197 88
170 193 72
174 197 105
167 192 92
174 197 95
164 187 62
167 189 105
174 198 122
175 198 108
169 192 95
169 194 92
173 195 114
171 194 72
168 191 92
167 190 95
168 192 105
170 193 99
166 189 95
166 190 84
164 188 102
172 196 114
170 193 95
171 195 92
166 190 114
158 181 62
164 187 95
172 195 108
165 189 99
170 194 105
167 190 114
168 192 95
171 194 95
166 189 102
166 189 88
168 191 84
166 189 105
164 188 105
168 190 92
167 190 108
166 190 92
170 193 105
168 191 103
167 189 99
162 186 99
164 187 90
164 188 105
165 187 84
168 192 102
164 188 110
155 179 88
159 181 108
165 187 108
162 185 97
158 181 108
165 187 92
158 180 80
164 185 95
158 181 105
158 181 102
149 172 94
155 177 102
158 179 88
162 184 95
154 176 92
159 180 102
161 182 114
151 172 99
152 173 95
153 174 99
160 181 102
160 182 108
151 173 99
157 179 95
153 173 92
159 180 99
147 167 92
145 166 80
145 165 99
152 172 102
146 166 76
147 167 102
141 161 76
127 145 80
137 157 80
126 146 84
139 158 80
135 154 67
127 145 62
131 149 72
127 145 76
127 144 80
129 146 76
121 139 67
117 136 78
118 136 92
123 143 103
114 135 110
93 115 99
97 120 111
86 110 113
84 110 99
90 114 110
96 120 118
90 115 107
81 106 118
107 130 122
91 115 110
93 118 107
90 117 105
97 122 120
102 126 103
103 124 92
93 118 118
106 128 106
104 127 110
88 113 103
100 119 94
118 138 97
113 132 88
112 134 99
101 121 99
117 136 94
109 131 88
115 133 78
104 127 103
113 134 80
94 115 88
99 122 97
102 120 84
96 119 88
102 123 95
90 115 76
83 108 95
88 112 79
79 106 88
72 99 92
78 105 97
70 97 93
69 97 88
63 90 67
66 95 97
69 94 76
58 88 82
60 90 97
61 90 97
63 93 92
58 89 94
54 87 90
54 86 81
56 89 100
54 86 92
52 84 67
54 86 82
55 88 92
53 85 74
54 86 97
55 87 88
53 84 84
56 90 102
55 88 94
52 83 72
55 88 108
55 87 88
55 87 108
54 86 92
54 86 88
57 90 95
57 91 99
56 88 95
53 85 94
56 88 95
55 87 94
55 87 94
56 88 103
54 86 82
54 85 92
55 87 86
54 86 90
54 85 92
55 87 95
56 89 90
52 83 80
55 87 86
54 86 95
53 84 90
56 87 84
58 88 92
59 88 80
59 87 86
69 91 67
71 93 67
59 83 67
81 102 57
75 92 51
85 101 31
91 107 25
100 115 0
90 105 0
102 117 0
90 104 0
100 115 0
111 127 0
109 126 0
96 111 0
109 124 0
108 125 0
107 123 0
113 130 0
103 119 0
112 128 0
105 120 0
115 133 0
108 125 0
114 129 0
112 129 0
112 130 0
123 139 0
130 147 0
114 131 0
112 127 0
111 128 0
126 144 0
123 141 0
120 137 0
127 145 0
123 140 0
118 136 0
128 147 0
136 154 0
123 139 0
128 145 0
126 144 0
126 144 0
131 149 0
137 155 0
132 150 0
133 150 0
123 140 0
128 147 0
125 145 0
129 147 0
135 154 0
130 147 0
127 146 0
124 144 0
132 152 0
142 162 0
137 156 0
132 151 0
130 146 0
134 153 0
139 158 0
139 158 0
132 147 0
137 154 0
131 149 0
128 146 0
142 159 0
128 146 0
144 162 0
140 158 0
139 159 0
144 163 0
149 170 0
136 155 0
137 156 0
144 164 0
140 158 0
142 161 0
142 162 0
143 162 0
137 154 0
135 155 0
143 162 0
141 161 0
151 169 0
153 174 0
153 172 0
153 173 0
144 163 0
150 169 0
143 163 0
140 158 0
153 173 0
153 172 0
148 168 0
147 166 0
144 161 0
149 169 0
144 162 0
145 162 0
154 175 0
152 172 0
154 172 0
143 162 0
149 168 0
154 174 0
153 173 0
153 172 0
152 171 0
143 162 0
154 173 0
145 163 0
155 176 0
155 175 0
146 165 0
151 169 0
145 164 0
151 170 0
155 175 0
153 172 0
153 172 0
156 175 0
155 171 0
152 173 0
153 171 0
160 179 0
162 180 0
157 176 0
163 183 0
157 173 0
150 170 0
157 177 0
156 174 0
149 168 0
164 183 0
154 171 0
160 181 0
161 180 0
159 179 0
159 179 0
159 179 0
162 185 0
156 175 0
159 178 0
161 181 0
160 179 0
158 179 0
160 181 0
160 177 0
156 173 0
159 177 0
152 170 0
159 178 0
167 188 0
156 175 0
160 178 0
158 177 0
162 181 0
164 184 0
160 180 0
167 187 0
165 185 0
158 178 0
168 188 0
163 182 0
164 183 0
163 184 0
160 180 0
163 184 0
160 179 0
165 184 0
167 186 0
158 176 0
160 180 0
161 182 0
166 188 0
159 179 0
163 184 0
160 181 0
165 185 0
162 183 0
158 178 0
169 189 0
164 185 0
163 184 0
167 189 0
166 187 0
164 184 0
165 184 0
162 181 0
167 189 0
167 188 0
160 179 0
160 181 0
166 187 0
164 184 0
172 195 80
173 196 95
169 193 80
164 187 72
174 197 99
172 195 88
172 196 84
174 197 80
168 192 76
170 194 84
170 194 99
171 195 95
167 192 80
172 195 88
175 198 102
172 195 108
176 198 105
171 196 95
168 192 105
168 191 95
170 193 95
171 194 80
164 188 92
166 189 92
172 196 108
176 199 105
164 187 95
169 193 92
170 193 95
173 197 102
177 200 105
172 196 99
166 189 92
173 196 95
165 189 108
175 197 92
170 194 99
168 191 117
167 190 92
168 191 80
170 192 105
170 194 99
176 199 99
162 185 92
169 193 84
170 194 111
164 188 105
163 187 102
172 195 103
172 195 108
161 184 84
168 191 111
164 186 99
167 189 76
164 187 82
159 182 99
166 190 117
160 184 72
159 182 80
159 182 95
166 189 92
162 185 95
165 187 99
163 185 92
162 185 105
161 183 95
159 182 84
165 188 99
160 182 99
156 178 95
153 175 95
155 178 88
155 178 105
160 181 95
156 177 108
155 178 84
156 177 84
155 177 88
152 173 92
150 172 76
160 182 117
155 176 99
166 188 114
153 174 95
155 176 95
156 176 102
148 169 72
152 173 92
146 168 84
153 173 114
158 178 99
137 157 76
147 166 84
156 177 99
147 168 95
141 162 80
139 158 80
144 163 108
133 151 72
135 154 105
117 135 57
135 154 92
130 149 84
137 154 102
138 156 76
130 147 76
116 132 76
117 133 88
127 144 108
93 112 74
102 121 90
113 133 111
97 118 120
85 108 86
101 123 105
90 114 99
96 120 114
98 121 117
92 117 95
93 118 111
105 129 108
91 115 100
98 123 94
98 122 108
112 135 116
108 130 111
100 121 105
101 123 114
100 123 82
109 131 95
102 122 86
109 131 92
110 128 94
112 134 105
107 128 100
124 142 72
114 135 82
105 125 95
109 130 72
109 128 88
106 128 90
107 126 84
87 109 94
90 111 65
88 108 72
81 107 78
81 105 77
77 101 78
81 103 78
83 106 74
76 100 88
72 99 88
67 93 90
70 97 80
82 107 76
59 87 88
67 95 84
56 86 78
58 87 82
52 83 76
60 91 84
54 85 82
53 84 90
52 84 94
54 86 86
50 81 60
54 86 97
55 87 82
56 89 105
56 89 102
55 88 92
54 86 92
54 86 86
55 87 102
52 83 86
55 88 99
55 87 99
55 87 99
54 86 92
55 87 103
53 85 82
54 87 94
53 85 92
56 88 100
52 84 88
53 85 94
53 83 84
53 84 88
54 86 90
54 85 88
56 88 105
53 84 90
52 83 80
54 86 88
53 85 80
51 82 84
57 87 78
64 93 88
67 92 74
68 92 44
71 92 60
69 92 62
75 95 54
86 103 51
73 90 40
90 107 40
85 100 31
92 107 18
98 114 0
105 121 0
100 115 0
88 103 0
95 110 0
105 121 0
103 118 0
107 123 0
99 116 0
97 114 0
113 130 0
110 126 0
112 127 0
108 126 0
114 129 0
115 133 0
105 121 0
108 126 0
113 131 0
124 142 0
119 137 0
119 137 0
115 132 0
115 133 0
115 132 0
113 130 0
120 136 0
114 131 0
121 138 0
128 146 0
116 134 0
119 136 0
120 138 0
114 132 0
129 148 0
126 144 0
119 137 0
126 145 0
126 145 0
115 132 0
126 144 0
117 133 0
132 150 0
135 154 0
132 150 0
118 136 0
139 159 0
146 165 0
134 153 0
134 153 0
126 144 0
143 162 0
134 150 0
145 164 0
131 147 0
136 154 0
129 148 0
144 164 0
136 156 0
142 162 0
138 156 0
137 154 0
134 153 0
137 155 0
135 154 0
137 155 0
139 157 0
137 157 0
144 163 0
145 163 0
141 160 0
151 169 0
137 157 0
136 154 0
140 158 0
152 172 0
144 161 0
147 166 0
145 164 0
150 169 0
147 167 0
141 158 0
148 167 0
148 167 0
139 158 0
148 167 0
151 171 0
147 164 0
152 172 0
148 167 0
150 170 0
143 162 0
137 157 0
142 160 0
149 169 0
146 166 0
150 171 0
152 172 0
147 167 0
144 163 0
153 172 0
150 171 0
148 166 0
147 167 0
154 172 0
155 174 0
158 176 0
144 163 0
155 175 0
155 176 0
146 164 0
147 167 0
152 172 0
147 166 0
154 174 0
157 176 0
164 184 0
155 174 0
150 168 0
145 164 0
159 179 0
152 171 0
152 172 0
155 173 0
153 170 0
155 173 0
156 176 0
160 179 0
160 180 0
151 171 0
153 172 0
157 177 0
162 182 0
153 173 0
162 180 0
151 172 0
159 179 0
161 181 0
163 182 0
163 182 0
158 177 0
153 174 0
159 178 0
164 182 0
162 181 0
154 175 0
159 178 0
159 177 0
162 183 0
163 184 0
162 182 0
159 179 0
153 172 0
160 178 0
162 182 0
161 179 0
161 179 0
163 183 0
165 185 0
155 173 0
164 184 0
163 184 0
166 188 0
164 184 0
162 183 0
155 175 0
162 182 0
165 186 0
162 182 0
161 183 0
166 188 0
162 181 0
166 187 0
163 184 0
164 185 0
160 179 0
159 179 0
167 188 0
164 186 0
164 184 0
163 183 0
164 184 0
160 180 0
165 185 0
163 183 0
168 190 0
165 186 0
164 186 0
165 185 0
169 192 0
166 185 0
165 186 0
174 198 88
172 196 67
171 195 84
176 199 117
172 196 92
172 195 72
176 199 95
168 192 76
173 197 102
171 195 84
169 193 108
164 188 57
178 200 114
168 191 84
172 195 114
172 196 105
169 192 105
170 193 67
173 197 99
167 191 95
170 194 92
175 198 88
170 193 95
168 190 88
168 191 84
169 192 92
170 194 105
170 195 105
171 195 84
169 192 88
165 188 99
166 190 67
171 195 84
164 187 99
172 196 102
171 194 95
171 194 95
168 192 99
162 186 76
162 185 105
169 192 84
165 189 84
168 192 92
165 187 102
167 190 88
166 190 88
166 191 99
164 188 102
170 193 108
165 188 108
164 187 82
160 184 99
169 191 95
162 184 70
166 189 105
160 182 72
160 183 99
166 188 97
161 183 95
169 192 99
159 181 82
167 189 99
169 192 114
159 182 105
157 181 90
170 194 107
162 184 107
165 188 82
155 176 80
159 182 99
160 184 67
158 181 95
161 184 105
165 187 114
153 176 92
153 175 105
151 174 88
156 177 114
162 183 108
157 178 76
162 184 114
161 182 111
152 174 99
156 178 88
152 174 102
153 174 99
143 164 88
149 169 92
151 171 102
151 171 99
144 165 80
148 168 105
140 160 80
138 157 99
144 163 99
151 171 76
138 157 72
147 165 95
137 156 80
137 157 80
134 154 62
131 150 51
132 150 67
132 151 80
131 148 84
133 152 67
137 154 80
129 146 88
124 140 78
103 120 65
119 137 99
94 115 92
109 129 103
97 119 100
85 108 99
92 116 105
95 119 114
97 121 105
95 120 113
105 129 114
108 131 105
96 121 113
92 117 117
96 120 110
90 115 99
112 132 94
101 121 95
103 126 100
112 133 101
109 128 80
109 129 90
118 137 92
116 134 88
115 135 79
110 131 82
107 127 78
108 128 86
126 144 67
118 139 76
113 133 82
109 129 79
93 116 84
102 122 84
93 116 74
82 104 80
83 107 86
85 108 95
95 118 76
84 109 80
87 109 70
87 108 82
88 109 60
77 98 65
66 92 78
73 97 62
73 98 40
67 94 76
56 86 84
58 88 86
58 88 67
51 81 80
57 88 82
53 85 90
54 85 84
52 83 67
54 87 92
52 83 80
55 87 94
54 86 84
52 84 76
54 86 95
53 85 72
54 86 94
53 84 99
54 85 94
54 86 82
55 88 97
52 83 76
53 85 92
54 86 88
55 88 94
51 82 84
54 86 86
53 85 86
55 87 92
50 81 82
55 87 103
52 83 82
54 86 90
54 86 88
52 83 86
58 87 90
57 86 76
67 93 72
58 86 84
54 81 76
73 94 60
63 85 54
91 109 51
76 95 44
96 112 36
81 100 44
96 113 31
87 102 18
85 99 0
84 99 0
106 122 0
90 105 0
104 119 0
98 114 0
99 112 0
97 112 0
93 108 0
92 107 0
110 125 0
110 127 0
97 114 0
98 114 0
92 108 0
111 126 0
110 127 0
113 130 0
104 120 0
112 129 0
111 127 0
117 135 0
114 131 0
115 131 0
121 138 0
118 135 0
120 137 0
117 136 0
125 144 0
128 146 0
115 132 0
125 144 0
120 136 0
114 132 0
131 149 0
122 139 0
122 138 0
129 148 0
125 144 0
123 140 0
130 146 0
124 141 0
132 148 0
133 150 0
129 146 0
118 136 0
136 156 0
122 139 0
133 150 0
136 153 0
129 146 0
131 150 0
130 149 0
141 161 0
137 155 0
136 155 0
141 159 0
141 160 0
147 164 0
138 155 0
142 161 0
134 154 0
140 159 0
142 160 0
137 156 0
143 162 0
142 161 0
149 168 0
146 164 0
129 146 0
140 158 0
143 161 0
146 165 0
144 162 0
140 160 0
134 153 0
132 150 0
145 164 0
136 156 0
145 164 0
148 169 0
140 158 0
144 162 0
142 161 0
143 163 0
141 160 0
148 169 0
148 166 0
142 162 0
150 170 0
140 158 0
140 158 0
151 171 0
155 175 0
152 172 0
152 171 0
147 168 0
147 168 0
157 176 0
148 166 0
147 166 0
149 169 0
155 176 0
151 167 0
152 172 0
148 168 0
148 166 0
155 174 0
161 181 0
152 172 0
157 175 0
153 173 0
155 173 0
154 174 0
150 170 0
159 178 0
149 168 0
155 174 0
157 176 0
157 177 0
149 168 0
157 177 0
153 173 0
149 168 0
156 174 0
158 177 0
159 180 0
159 180 0
156 176 0
162 181 0
153 172 0
151 171 0
155 173 0
156 177 0
154 172 0
158 178 0
160 179 0
150 168 0
165 186 0
159 179 0
162 182 0
160 177 0
160 181 0
158 177 0
157 176 0
163 181 0
162 182 0
157 173 0
157 177 0
159 178 0
156 176 0
163 183 0
158 179 0
160 178 0
160 178 0
164 183 0
167 187 0
159 180 0
163 185 0
162 184 0
164 184 0
161 178 0
162 180 0
164 182 0
165 186 0
161 183 0
159 178 0
158 177 0
162 182 0
166 188 0
163 183 0
162 181 0
166 184 0
162 181 0
164 184 0
164 184 0
160 181 0
163 184 0
166 188 0
163 183 0
163 184 0
161 183 0
162 183 0
160 177 0
164 184 0
165 186 0
164 183 0
166 188 0
166 187 0
164 186 0
162 183 0
165 187 0
160 179 0
164 183 0
168 190 0
164 185 0
173 196 76
170 193 88
174 196 88
174 197 92
168 192 76
172 195 76
172 195 92
172 196 102
173 197 108
170 193 88
169 192 99
167 190 72
172 195 105
168 192 88
169 193 51
171 195 108
168 191 99
169 193 108
175 198 105
176 199 125
168 192 102
168 191 95
168 191 99
168 191 120
170 194 117
170 193 108
173 196 120
169 193 95
172 196 105
169 192 99
165 188 76
171 193 111
170 194 105
166 189 105
171 195 105
168 191 88
166 189 102
160 184 84
165 189 84
164 188 99
169 192 105
173 196 105
167 191 99
173 197 105
170 193 107
167 190 99
166 189 84
163 185 72
166 190 95
162 186 76
161 184 92
168 191 108
165 188 105
154 177 67
161 185 84
169 193 127
165 188 114
169 191 100
163 185 95
158 180 99
163 186 84
159 182 111
161 184 84
162 185 92
160 183 90
157 179 114
166 188 95
157 179 70
163 185 102
156 178 76
154 177 110
155 178 99
161 183 103
159 181 92
156 178 86
158 180 99
156 177 99
158 180 105
151 172 88
151 174 108
158 180 92
160 180 111
150 172 88
154 177 92
151 172 117
157 178 111
155 176 92
151 172 102
153 173 99
161 181 111
152 173 95
140 161 84
149 169 92
150 170 92
139 159 88
149 169 99
153 173 80
139 159 80
140 158 80
146 165 102
144 163 92
134 152 80
135 153 92
139 158 80
137 154 99
122 140 67
128 145 80
144 162 108
129 146 72
109 126 78
134 152 100
116 132 82
107 127 94
107 128 105
86 108 78
95 118 108
96 120 108
93 116 115
97 120 104
79 105 99
87 112 117
91 117 100
82 108 97
112 135 115
107 129 103
101 122 110
102 125 97
111 131 100
107 128 99
120 141 110
95 115 86
111 131 78
118 137 92
112 133 88
117 136 76
125 144 88
120 138 92
119 139 82
120 140 84
106 124 67
110 130 72
104 124 82
96 117 74
91 115 84
95 116 67
94 116 62
96 116 60
89 112 76
97 119 67
76 99 78
97 117 57
95 117 67
74 94 62
74 94 62
91 111 55
75 97 63
79 101 72
79 101 40
76 100 67
70 94 65
62 89 78
53 82 74
57 87 78
53 84 92
53 85 76
53 85 78
52 84 72
54 84 82
54 85 88
52 83 84
53 84 86
53 85 90
53 85 84
52 83 78
53 84 84
50 81 76
50 81 73
50 80 78
54 86 92
56 89 92
53 85 92
52 84 67
53 84 94
54 84 78
54 84 82
53 83 78
54 84 74
53 83 70
54 82 60
57 83 62
75 98 82
59 85 60
67 92 74
72 93 62
78 99 44
71 91 57
78 96 47
82 99 31
91 107 25
98 113 18
99 114 25
93 108 18
86 100 0
97 113 0
93 108 0
83 98 0
110 125 0
83 99 0
109 125 0
109 125 0
97 112 0
88 105 0
88 104 0
97 113 0
110 126 0
109 125 0
104 120 0
102 118 0
112 129 0
106 123 0
113 129 0
113 131 0
108 125 0
116 131 0
112 129 0
109 125 0
118 135 0
121 139 0
117 134 0
120 137 0
121 138 0
123 141 0
128 146 0
121 138 0
120 136 0
126 142 0
110 128 0
126 144 0
129 144 0
123 141 0
119 135 0
128 146 0
128 144 0
118 137 0
132 150 0
129 147 0
132 151 0
127 145 0
124 139 0
113 130 0
134 153 0
131 149 0
123 141 0
113 131 0
132 150 0
134 151 0
125 144 0
128 146 0
133 151 0
133 151 0
137 156 0
139 157 0
133 153 0
139 158 0
143 161 0
133 152 0
134 152 0
142 161 0
139 159 0
130 149 0
139 158 0
141 160 0
137 156 0
142 162 0
149 168 0
139 157 0
150 169 0
148 166 0
148 166 0
152 172 0
141 161 0
136 155 0
148 167 0
153 173 0
143 164 0
142 162 0
147 165 0
151 171 0
148 165 0
144 162 0
146 165 0
149 170 0
139 159 0
152 170 0
149 168 0
144 162 0
151 171 0
147 165 0
152 172 0
155 176 0
150 171 0
143 162 0
153 170 0
151 172 0
152 171 0
156 175 0
153 174 0
150 170 0
149 165 0
151 171 0
152 170 0
154 175 0
151 170 0
149 170 0
148 167 0
162 182 0
155 175 0
155 173 0
149 165 0
163 184 0
153 173 0
155 176 0
157 177 0
149 167 0
156 175 0
152 173 0
159 180 0
155 175 0
161 182 0
151 172 0
155 175 0
159 175 0
160 178 0
156 176 0
160 182 0
163 182 0
161 181 0
157 178 0
161 182 0
163 183 0
160 180 0
157 177 0
163 182 0
159 178 0
164 184 0
157 175 0
163 184 0
160 180 0
160 177 0
158 177 0
160 181 0
157 177 0
159 179 0
156 174 0
159 179 0
157 177 0
157 176 0
162 182 0
155 176 0
163 183 0
161 181 0
156 173 0
158 177 0
164 184 0
158 176 0
158 178 0
163 182 0
161 182 0
160 179 0
164 185 0
161 180 0
162 184 0
167 188 0
159 182 0
157 177 0
163 182 0
164 185 0
163 184 0
162 184 0
165 186 0
166 187 0
162 183 0
166 187 0
165 183 0
165 185 0
162 182 0
164 184 0
166 187 0
160 181 0
165 186 0
162 183 0
164 185 0
165 186 0
162 183 0
169 191 0
166 187 0
167 188 0
161 181 0
165 186 0
166 187 0
170 194 57
172 196 102
171 195 88
172 195 88
173 196 80
177 200 108
171 194 95
172 195 88
170 194 80
170 193 105
169 193 95
172 196 92
172 195 95
168 191 92
174 197 99
173 196 95
173 196 108
168 193 92
171 194 108
172 196 111
168 191 111
167 190 105
172 196 102
170 193 92
168 191 84
173 196 111
171 195 108
165 188 80
166 190 95
167 190 72
171 194 95
168 192 92
168 192 95
168 191 99
166 190 92
165 188 99
168 192 84
159 182 67
169 192 92
164 188 102
168 192 99
166 189 99
170 194 108
167 190 95
163 188 99
164 187 92
167 191 88
166 188 102
162 186 72
166 189 90
161 185 86
169 191 102
160 183 108
163 186 99
164 187 88
165 188 88
163 186 99
158 181 99
164 186 62
167 190 108
163 187 95
161 184 84
152 176 88
160 182 92
166 189 99
158 182 99
156 178 99
156 179 110
156 178 92
159 181 92
160 183 100
165 187 108
158 181 92
151 173 90
163 185 102
160 182 80
162 184 95
162 185 99
162 183 111
165 186 105
159 180 105
164 185 120
151 172 95
154 175 80
153 174 92
148 169 80
147 168 88
146 166 102
146 166 114
153 172 92
154 175 92
147 167 95
146 166 95
147 166 105
152 172 95
157 178 99
144 164 105
147 168 92
154 174 99
136 155 62
143 161 76
143 162 84
146 165 111
131 149 67
130 147 99
132 150 80
125 142 72
131 149 92
130 146 72
108 125 76
126 142 80
110 127 84
118 136 92
106 124 90
104 123 95
97 117 94
88 112 94
104 127 108
86 111 100
97 121 104
89 114 92
109 131 111
102 126 111
106 128 100
106 130 108
96 118 77
111 130 105
112 133 81
114 133 95
112 131 80
112 128 80
113 132 78
114 133 67
116 133 73
122 141 70
132 152 76
116 135 70
123 142 74
113 134 70
119 141 78
114 133 70
102 122 76
106 126 62
106 123 65
89 112 74
94 114 72
102 124 72
104 125 67
90 113 65
82 104 76
90 110 67
85 106 57
89 108 47
88 108 57
70 90 54
95 113 36
81 100 54
80 99 60
75 97 44
79 98 57
85 105 57
66 86 47
82 103 54
65 89 47
64 87 67
59 85 74
64 86 60
62 89 67
49 77 65
54 80 65
51 81 70
58 85 67
59 87 76
55 84 67
55 85 67
55 84 78
58 86 74
58 86 62
58 85 72
61 88 57
58 85 72
67 93 72
68 92 62
69 92 70
71 95 67
80 102 67
67 90 80
74 95 54
72 95 74
78 98 65
87 105 40
84 101 25
78 96 31
81 96 31
94 110 44
90 104 18
95 109 0
94 109 18
88 102 0
93 108 0
97 111 0
98 114 0
94 109 0
101 115 0
100 116 0
108 125 0
94 108 0
102 119 0
101 116 0
84 101 0
94 111 0
97 115 0
100 116 0
99 115 0
91 108 0
101 117 0
111 128 0
107 122 0
115 130 0
115 132 0
119 135 0
118 135 0
109 127 0
95 112 0
118 135 0
117 135 0
116 134 0
121 139 0
113 130 0
115 133 0
115 133 0
123 142 0
126 144 0
122 142 0
131 147 0
125 142 0
118 137 0
130 148 0
136 155 0
114 132 0
125 143 0
124 142 0
132 149 0
128 148 0
139 158 0
132 151 0
129 146 0
126 144 0
133 152 0
134 152 0
141 158 0
125 142 0
132 152 0
133 152 0
138 156 0
138 156 0
136 155 0
142 161 0
140 159 0
141 160 0
140 160 0
137 155 0
134 152 0
151 171 0
137 155 0
137 156 0
137 156 0
137 156 0
141 157 0
139 158 0
149 167 0
139 158 0
147 166 0
145 164 0
139 158 0
146 166 0
144 163 0
150 170 0
141 159 0
141 159 0
144 164 0
142 162 0
139 159 0
147 167 0
137 157 0
142 161 0
144 162 0
146 165 0
150 169 0
148 168 0
147 166 0
145 166 0
152 172 0
146 166 0
149 169 0
151 171 0
155 175 0
145 163 0
144 164 0
151 172 0
151 170 0
149 169 0
155 173 0
148 165 0
152 171 0
139 157 0
157 176 0
150 168 0
159 180 0
161 180 0
149 168 0
150 169 0
160 180 0
158 179 0
155 175 0
151 171 0
156 176 0
155 174 0
157 177 0
155 173 0
159 178 0
156 176 0
152 171 0
151 170 0
161 182 0
143 161 0
154 174 0
159 177 0
156 175 0
153 173 0
153 173 0
150 169 0
163 183 0
156 175 0
161 181 0
151 169 0
161 179 0
157 177 0
156 176 0
160 181 0
160 179 0
158 178 0
160 179 0
158 177 0
155 175 0
157 178 0
159 179 0
156 176 0
156 177 0
163 182 0
162 182 0
163 183 0
161 182 0
163 183 0
164 185 0
159 179 0
165 184 0
166 188 0
162 184 0
162 182 0
160 179 0
163 181 0
158 178 0
157 177 0
162 183 0
161 182 0
161 181 0
165 185 0
165 186 0
161 182 0
160 179 0
160 181 0
158 177 0
161 178 0
163 184 0
165 186 0
165 184 0
161 181 0
162 183 0
164 183 0
164 183 0
161 182 0
159 181 0
162 184 0
165 186 0
167 188 0
168 188 0
167 188 0
162 181 0
161 183 0
169 190 0
167 188 0
164 184 0
167 190 0
163 183 0
162 183 0
164 182 0
162 183 0
160 183 0
161 182 0
175 198 92
167 191 72
172 195 76
170 193 76
172 195 76
175 198 76
170 195 76
172 195 99
171 194 84
170 194 76
167 189 72
170 192 57
171 193 80
171 194 99
176 199 127
171 195 108
174 197 111
173 196 88
171 194 105
174 196 84
173 197 92
167 189 72
174 198 105
169 193 95
172 194 80
174 197 99
171 194 92
172 196 105
171 194 95
164 187 102
170 193 95
168 192 105
167 190 88
168 192 99
170 193 105
161 184 84
169 193 102
167 191 95
169 193 102
167 191 114
160 183 105
162 185 88
163 186 92
165 188 102
164 187 88
162 186 62
163 186 88
169 192 111
162 185 82
168 191 95
159 182 99
162 186 92
163 187 92
166 189 111
162 185 103
162 185 76
164 187 107
160 183 88
164 187 99
162 186 92
163 186 90
166 189 120
159 182 105
158 181 80
155 177 84
163 186 95
163 186 84
159 182 99
161 184 88
162 185 88
157 179 114
161 182 86
164 187 94
151 174 72
159 181 92
154 177 70
157 179 102
157 178 84
160 182 99
155 176 102
150 171 95
156 177 111
164 186 102
149 170 102
150 171 84
157 179 117
154 176 80
150 170 105
144 165 95
144 165 108
145 166 108
149 170 88
144 164 80
143 163 99
153 173 108
148 167 99
149 169 88
155 174 102
151 170 84
144 163 102
135 154 99
133 152 80
131 149 57
144 163 99
134 152 80
137 155 80
135 153 80
128 145 72
127 143 76
130 147 92
109 125 57
105 122 72
105 122 72
128 146 103
101 120 90
93 113 88
94 116 67
97 119 97
93 117 95
99 121 100
96 120 108
93 116 99
87 112 86
105 130 105
96 120 90
108 130 108
94 117 78
110 131 97
103 124 90
120 140 70
109 127 74
113 134 74
115 133 70
125 143 47
120 139 86
122 139 74
120 139 74
127 145 54
116 136 57
114 135 62
115 136 65
110 130 57
111 132 62
109 131 60
101 121 57
97 118 62
86 108 67
92 116 62
86 107 57
97 117 52
89 109 57
98 117 47
94 113 47
91 109 51
97 116 51
80 98 31
89 106 44
101 118 36
93 109 25
79 95 18
88 106 40
90 107 31
89 105 36
66 85 40
81 100 31
67 87 47
77 96 47
76 95 44
82 102 51
87 107 51
76 97 47
75 96 51
70 89 51
74 92 36
71 94 57
80 100 54
63 85 44
73 94 51
71 93 54
75 95 44
69 90 51
81 99 36
71 88 44
76 94 51
64 87 47
80 97 47
77 95 25
63 81 31
75 91 25
88 102 18
77 93 31
74 89 25
79 94 0
86 101 0
93 108 0
95 110 0
93 108 0
98 113 0
89 105 0
90 105 0
96 111 0
91 107 0
103 119 0
96 112 0
101 117 0
111 128 0
101 116 0
108 123 0
104 119 0
104 122 0
107 124 0
95 112 0
108 123 0
94 111 0
99 116 0
112 129 0
106 123 0
110 128 0
105 121 0
123 140 0
113 129 0
110 127 0
118 134 0
127 144 0
109 125 0
109 126 0
100 117 0
114 132 0
118 135 0
125 143 0
122 138 0
123 141 0
122 141 0
113 131 0
120 138 0
125 143 0
121 140 0
121 140 0
121 139 0
122 139 0
132 151 0
131 148 0
133 152 0
127 146 0
126 145 0
137 155 0
130 147 0
131 148 0
124 141 0
133 151 0
139 158 0
127 147 0
137 157 0
133 151 0
126 145 0
133 151 0
131 150 0
131 149 0
138 156 0
143 163 0
135 154 0
140 159 0
128 146 0
138 159 0
139 158 0
141 160 0
132 151 0
146 166 0
128 147 0
142 162 0
141 162 0
143 162 0
152 170 0
141 159 0
139 156 0
141 158 0
142 161 0
141 159 0
150 169 0
144 164 0
149 167 0
146 167 0
148 167 0
135 155 0
149 168 0
137 158 0
140 158 0
141 159 0
147 165 0
147 166 0
155 176 0
141 159 0
149 166 0
157 178 0
150 169 0
146 167 0
150 169 0
143 163 0
150 170 0
147 167 0
148 167 0
151 170 0
152 171 0
150 168 0
154 175 0
149 169 0
152 170 0
154 172 0
160 179 0
159 178 0
148 166 0
153 172 0
151 171 0
158 177 0
151 170 0
150 170 0
159 178 0
151 170 0
158 179 0
157 177 0
153 173 0
156 176 0
160 182 0
156 175 0
156 175 0
156 176 0
151 170 0
161 181 0
152 171 0
152 171 0
159 179 0
160 180 0
159 179 0
160 179 0
158 178 0
159 178 0
160 180 0
159 179 0
161 182 0
161 181 0
163 184 0
162 183 0
153 173 0
157 177 0
159 177 0
157 177 0
161 181 0
158 178 0
160 181 0
162 181 0
161 182 0
153 173 0
163 183 0
160 179 0
158 178 0
160 179 0
159 178 0
158 178 0
164 185 0
158 179 0
164 184 0
167 187 0
162 183 0
163 183 0
160 180 0
165 186 0
168 189 0
163 183 0
163 184 0
153 173 0
161 184 0
163 185 0
166 185 0
166 187 0
163 184 0
161 183 0
166 187 0
162 185 0
164 185 0
165 185 0
165 186 0
159 179 0
168 188 0
165 185 0
160 180 0
165 186 0
163 184 0
160 178 0
163 183 0
166 185 0
165 188 0
167 187 0
164 187 0
167 187 0
166 187 0
168 190 0
168 189 0
167 188 0
164 186 0
166 187 0
171 195 72
174 197 88
171 193 67
172 196 92
172 196 92
175 198 88
178 200 111
174 197 99
177 200 108
170 194 92
175 199 114
169 192 76
174 196 105
168 192 105
171 194 92
168 192 84
175 198 111
175 198 102
168 191 92
171 194 108
173 195 92
170 194 95
174 197 92
168 191 80
169 193 76
169 192 95
173 196 114
174 197 105
166 190 95
172 195 102
166 190 84
175 198 108
171 194 99
161 183 88
169 193 76
168 191 80
166 189 84
164 188 80
167 191 95
174 197 111
165 189 76
168 192 99
167 190 88
170 194 105
165 188 108
167 191 84
161 184 99
166 189 84
171 194 99
164 187 105
163 186 80
156 179 78
158 181 99
162 185 92
164 186 102
161 183 88
158 182 82
168 192 107
163 186 102
162 186 122
160 183 105
161 184 78
160 183 105
165 188 110
157 179 100
164 185 95
150 172 72
159 181 88
160 182 102
154 177 95
160 182 97
163 186 92
161 183 97
161 183 95
157 179 99
156 178 105
152 174 92
160 180 99
162 184 111
160 182 102
152 174 92
148 168 105
163 185 117
154 175 102
149 170 92
159 180 108
150 171 111
151 172 114
147 168 62
148 169 99
152 172 95
149 169 84
150 169 88
155 174 108
148 169 95
142 161 99
147 167 84
147 167 102
154 173 114
144 162 80
136 154 105
142 159 92
146 164 108
134 153 80
144 162 80
142 160 88
135 153 67
122 140 72
124 141 62
121 137 72
114 130 67
118 135 72
126 141 84
121 137 88
130 147 100
97 112 76
115 133 94
89 110 74
96 118 84
100 121 111
94 116 80
83 108 82
113 135 118
93 116 99
96 119 102
114 135 108
110 132 88
121 141 99
123 143 95
121 139 74
121 139 80
129 148 62
132 150 74
126 145 80
127 144 70
101 121 65
120 141 47
119 140 57
128 146 60
111 131 65
121 140 54
101 120 67
112 133 62
107 126 51
119 139 67
111 131 51
94 114 47
90 111 72
92 111 57
93 114 44
95 114 51
100 120 51
94 115 44
93 111 51
103 121 36
106 124 44
98 115 25
96 113 31
78 94 18
78 94 18
107 123 18
91 106 0
79 95 25
81 97 18
94 110 18
75 90 25
83 99 31
80 96 31
76 92 31
86 102 25
65 82 31
89 105 18
71 90 31
87 103 44
86 102 18
74 91 31
90 106 31
75 92 25
83 98 25
87 103 31
79 95 36
84 99 18
73 87 25
86 101 18
93 107 25
72 87 25
85 101 0
97 112 18
75 90 0
91 106 0
88 103 0
89 103 0
80 95 0
87 102 0
97 112 0
108 124 0
81 93 0
89 104 0
95 110 0
96 110 0
93 109 0
106 122 0
98 114 0
90 106 0
96 110 0
88 103 0
95 111 0
108 124 0
97 113 0
94 111 0
112 127 0
115 131 0
106 122 0
109 126 0
111 128 0
118 135 0
100 117 0
122 141 0
107 124 0
122 137 0
126 144 0
113 130 0
110 126 0
112 129 0
122 140 0
125 144 0
121 141 0
108 127 0
122 139 0
114 131 0
118 134 0
124 142 0
130 147 0
113 131 0
118 137 0
123 141 0
121 138 0
131 150 0
124 143 0
131 149 0
132 151 0
139 158 0
121 137 0
128 146 0
124 142 0
128 145 0
123 142 0
138 158 0
132 151 0
126 145 0
136 153 0
123 141 0
151 172 0
137 156 0
130 148 0
148 168 0
140 159 0
130 150 0
142 162 0
137 157 0
146 165 0
141 160 0
136 155 0
147 166 0
137 157 0
145 163 0
143 162 0
144 163 0
143 162 0
139 159 0
144 164 0
142 160 0
142 160 0
146 166 0
144 162 0
144 163 0
143 162 0
142 160 0
143 163 0
149 169 0
148 167 0
150 169 0
145 168 0
148 168 0
150 168 0
150 170 0
142 161 0
150 171 0
150 169 0
152 171 0
146 166 0
154 172 0
147 168 0
152 172 0
147 166 0
154 173 0
148 170 0
153 172 0
153 171 0
155 174 0
155 174 0
159 177 0
147 166 0
152 171 0
156 176 0
146 165 0
148 169 0
146 166 0
153 173 0
142 162 0
154 174 0
154 176 0
147 168 0
149 169 0
151 170 0
156 175 0
156 177 0
157 177 0
149 167 0
157 177 0
156 176 0
152 173 0
152 170 0
154 175 0
161 181 0
156 178 0
160 179 0
156 176 0
159 177 0
151 171 0
152 171 0
152 172 0
156 176 0
157 179 0
158 178 0
153 173 0
152 173 0
155 175 0
157 177 0
161 181 0
162 183 0
157 175 0
155 176 0
162 182 0
164 185 0
156 175 0
158 177 0
159 180 0
157 177 0
159 178 0
162 182 0
158 178 0
162 182 0
163 183 0
164 184 0
159 180 0
156 176 0
166 186 0
160 179 0
166 185 0
160 180 0
161 181 0
165 184 0
159 180 0
156 176 0
158 178 0
162 182 0
160 180 0
156 176 0
161 183 0
162 180 0
161 180 0
162 183 0
163 184 0
159 180 0
166 188 0
159 180 0
163 185 0
165 186 0
162 182 0
164 184 0
163 183 0
162 183 0
161 182 0
167 187 0
160 180 0
164 184 0
160 180 0
164 182 0
166 189 0
164 185 0
164 185 0
162 182 0
161 182 0
167 189 0
168 188 0
168 188 0
167 189 0
167 188 0
164 185 0
171 194 62
172 195 88
168 192 76
169 193 88
174 197 84
171 194 102
174 197 99
169 192 88
176 199 105
169 193 102
175 198 88
171 195 84
171 194 76
176 199 108
165 189 76
166 190 84
167 191 105
173 195 88
174 198 117
173 196 102
171 194 92
174 197 76
174 197 108
170 193 92
172 195 92
168 190 84
163 187 99
165 188 76
170 193 92
172 195 88
173 195 102
172 196 102
169 192 84
168 191 102
161 185 76
167 191 99
163 187 92
165 188 92
170 193 99
169 192 108
162 186 99
166 188 95
167 190 92
166 190 95
170 192 92
170 192 92
165 188 102
168 191 102
165 189 111
165 187 88
164 187 105
166 188 86
162 186 100
162 185 111
166 190 105
162 186 117
167 190 92
157 179 80
165 189 94
160 183 95
160 183 92
159 181 62
161 183 92
160 183 88
152 174 90
160 183 97
159 181 102
164 187 108
154 177 76
162 185 76
156 179 90
161 184 102
162 186 105
162 184 95
158 180 95
160 181 108
159 180 92
160 182 88
158 179 84
158 179 92
158 180 105
160 181 99
154 176 105
154 175 111
162 184 108
165 185 122
145 166 72
152 172 114
168 189 117
167 187 114
156 176 99
148 168 99
146 166 76
141 161 84
150 169 92
141 160 88
152 172 92
144 163 105
137 156 80
149 167 99
144 162 88
137 156 88
138 157 92
124 143 67
139 158 88
137 154 95
127 145 76
129 146 80
120 137 76
124 141 62
133 151 76
121 138 72
111 127 62
120 136 70
107 122 51
121 139 82
94 111 60
117 135 70
114 132 97
89 109 80
87 112 97
95 117 97
104 127 92
93 116 92
107 129 88
105 127 94
108 128 70
103 125 92
105 128 70
118 137 92
115 134 67
119 138 70
128 146 67
127 147 44
125 145 57
130 148 60
128 147 47
129 147 67
125 145 54
118 136 51
111 129 36
124 143 57
105 123 72
111 132 54
108 127 54
105 125 65
101 121 67
98 118 60
106 126 40
100 121 44
106 124 36
88 107 40
89 106 31
93 111 40
101 117 25
82 99 25
95 111 0
107 123 0
108 123 18
86 102 18
91 106 0
96 111 0
102 117 0
78 92 0
84 98 0
100 114 0
90 104 0
95 110 18
92 106 18
91 108 0
89 103 0
87 101 0
87 101 18
70 84 0
94 109 36
83 98 18
82 97 18
82 96 18
99 114 0
82 96 0
87 103 0
97 112 0
89 105 25
86 99 0
93 108 0
90 105 0
84 99 0
81 96 0
93 107 0
86 101 0
92 107 0
85 100 0
88 103 0
88 103 0
94 109 0
98 115 0
92 108 0
96 111 0
89 104 0
88 103 0
95 111 0
96 111 0
95 110 0
113 130 0
109 127 0
104 121 0
105 122 0
104 119 0
118 133 0
107 123 0
99 116 0
106 123 0
113 131 0
109 125 0
105 123 0
101 117 0
107 124 0
116 133 0
114 132 0
126 144 0
109 126 0
110 129 0
111 129 0
110 130 0
110 127 0
118 137 0
114 132 0
117 135 0
113 130 0
123 142 0
125 143 0
124 142 0
133 152 0
117 133 0
127 145 0
130 149 0
118 137 0
130 147 0
124 143 0
119 137 0
128 145 0
129 149 0
141 161 0
128 147 0
136 156 0
132 150 0
129 150 0
138 157 0
139 158 0
131 149 0
145 166 0
125 144 0
134 152 0
136 154 0
140 159 0
130 147 0
141 160 0
141 159 0
139 160 0
133 152 0
134 153 0
136 155 0
144 164 0
137 158 0
137 157 0
145 164 0
139 160 0
144 163 0
138 157 0
146 167 0
143 163 0
146 167 0
145 164 0
138 159 0
145 165 0
140 158 0
144 163 0
140 159 0
150 171 0
136 155 0
144 165 0
126 146 0
147 167 0
145 166 0
154 174 0
150 168 0
149 170 0
152 172 0
145 165 0
144 165 0
148 169 0
150 169 0
150 169 0
154 175 0
148 167 0
150 170 0
140 157 0
150 171 0
151 171 0
153 173 0
147 167 0
146 164 0
152 173 0
152 173 0
153 173 0
152 174 0
154 175 0
156 175 0
151 171 0
154 171 0
150 171 0
153 174 0
160 180 0
157 177 0
151 170 0
152 171 0
156 176 0
154 172 0
155 175 0
153 173 0
151 171 0
159 180 0
152 172 0
157 179 0
158 178 0
154 175 0
157 175 0
157 176 0
161 180 0
158 177 0
157 178 0
161 181 0
153 173 0
156 177 0
159 181 0
149 168 0
160 181 0
160 180 0
162 182 0
163 182 0
156 177 0
160 180 0
157 176 0
161 182 0
160 180 0
161 182 0
161 182 0
159 180 0
158 179 0
160 178 0
164 185 0
164 184 0
163 183 0
158 178 0
158 179 0
164 185 0
159 180 0
157 175 0
159 179 0
158 179 0
165 184 0
162 181 0
162 183 0
167 188 0
162 182 0
162 183 0
153 174 0
158 179 0
164 185 0
165 187 0
165 184 0
165 185 0
162 184 0
163 183 0
163 185 0
163 183 0
162 182 0
164 184 0
157 178 0
163 184 0
161 181 0
165 184 0
160 180 0
166 186 0
165 186 0
162 182 0
162 182 0
163 182 0
166 187 0
168 188 0
164 186 0
164 185 0
163 183 0
164 184 0
167 190 0
166 186 0
166 188 0
169 190 0
165 186 0
165 187 0
173 196 111
176 199 95
175 198 102
170 194 76
170 195 80
169 193 95
177 200 111
174 197 95
171 194 88
166 190 84
173 197 95
168 191 84
172 195 99
174 197 95
170 195 122
172 195 76
172 195 95
171 194 102
172 195 105
175 198 114
168 192 72
177 200 120
165 189 72
173 196 102
167 190 102
172 196 111
168 192 84
172 196 102
166 190 105
165 188 88
168 191 88
170 194 92
165 188 80
172 196 114
167 190 92
169 192 108
170 194 108
175 199 102
169 193 99
165 188 84
163 186 84
168 191 117
167 190 95
165 188 105
167 191 111
169 192 108
167 190 88
165 189 88
168 191 105
166 191 99
165 188 95
164 187 102
165 188 84
160 183 72
165 189 100
166 188 102
167 190 113
164 186 86
159 182 88
161 184 94
161 183 88
157 179 102
166 188 117
158 180 99
158 181 111
154 177 108
157 180 115
159 182 92
165 188 108
155 177 92
167 188 105
159 182 92
157 179 84
154 176 88
149 170 92
158 180 99
160 182 92
153 175 95
160 182 95
151 173 95
154 176 88
156 178 95
162 182 108
146 166 102
161 183 95
152 173 102
156 179 92
160 180 117
149 169 95
138 159 80
151 172 95
145 165 84
155 175 105
150 171 95
154 175 114
153 173 120
155 174 105
152 171 111
144 163 92
139 157 102
138 156 102
135 153 84
148 166 102
130 149 76
140 159 92
140 159 95
121 138 76
144 161 99
133 151 84
134 152 76
138 155 95
129 147 99
121 138 80
114 129 76
103 119 72
119 134 74
110 127 51
103 119 65
112 129 88
93 112 78
106 125 78
97 118 97
91 115 84
95 115 82
103 124 90
89 112 84
97 119 86
116 138 88
126 146 86
117 136 76
119 139 67
130 150 72
115 133 67
136 155 68
127 145 47
128 146 31
127 147 40
129 147 51
120 137 47
115 133 54
123 142 31
117 136 51
105 123 57
121 138 47
98 116 44
107 127 36
109 127 36
99 118 51
110 128 0
101 119 36
106 125 36
109 127 36
107 126 31
112 130 18
107 123 0
95 112 0
94 111 18
101 116 0
91 106 0
105 121 0
108 124 0
93 107 0
89 105 0
87 103 0
86 101 0
85 99 0
92 106 0
93 108 0
87 102 0
82 96 0
81 97 0
91 104 0
96 111 0
82 96 0
105 119 0
96 111 0
92 105 0
94 108 0
102 116 0
78 93 0
90 104 0
92 105 0
81 95 0
103 117 0
98 113 0
100 114 0
90 106 0
84 99 0
92 105 0
88 103 0
94 110 0
97 112 0
88 104 0
87 102 0
88 103 0
92 108 0
113 129 0
100 116 0
102 118 0
106 123 0
97 113 0
106 122 0
115 131 0
102 118 0
91 107 0
91 107 0
99 115 0
106 122 0
95 111 0
106 123 0
103 119 0
105 122 0
117 135 0
115 132 0
112 129 0
104 121 0
109 127 0
114 132 0
109 126 0
109 126 0
113 131 0
113 130 0
118 136 0
121 139 0
120 137 0
113 130 0
116 134 0
119 138 0
120 138 0
109 127 0
123 142 0
127 145 0
113 132 0
125 144 0
131 149 0
120 137 0
120 140 0
122 140 0
115 132 0
133 151 0
128 148 0
125 142 0
131 150 0
131 148 0
133 151 0
129 147 0
133 151 0
143 163 0
134 154 0
133 153 0
132 152 0
132 151 0
139 157 0
138 159 0
126 146 0
138 156 0
135 155 0
148 168 0
131 150 0
138 158 0
142 162 0
143 161 0
143 161 0
143 162 0
136 154 0
151 172 0
123 142 0
142 159 0
140 161 0
142 162 0
144 164 0
153 174 0
147 166 0
131 150 0
139 157 0
143 162 0
146 167 0
151 172 0
144 163 0
149 170 0
141 161 0
149 170 0
141 161 0
156 176 0
142 163 0
153 173 0
145 163 0
141 161 0
139 158 0
149 169 0
149 170 0
146 165 0
157 177 0
146 167 0
153 172 0
146 166 0
151 171 0
150 170 0
155 175 0
153 174 0
146 165 0
149 169 0
157 176 0
148 166 0
142 162 0
156 176 0
155 175 0
160 179 0
150 171 0
155 176 0
159 181 0
150 168 0
155 176 0
148 168 0
149 167 0
158 179 0
156 176 0
156 175 0
158 178 0
156 175 0
155 175 0
154 172 0
153 171 0
161 179 0
160 181 0
160 180 0
157 176 0
155 174 0
158 179 0
155 176 0
156 174 0
152 173 0
154 174 0
159 178 0
156 177 0
159 180 0
160 177 0
155 175 0
157 177 0
152 171 0
154 174 0
159 179 0
152 172 0
159 179 0
159 180 0
164 183 0
158 179 0
161 180 0
160 179 0
159 180 0
163 182 0
163 183 0
162 182 0
163 183 0
165 184 0
163 184 0
164 184 0
158 178 0
159 179 0
158 179 0
163 184 0
162 183 0
156 177 0
164 184 0
160 181 0
161 182 0
163 182 0
162 184 0
165 186 0
161 180 0
158 179 0
157 177 0
162 181 0
162 182 0
166 186 0
162 182 0
170 192 0
167 188 0
164 185 0
166 187 0
166 188 0
162 182 0
168 188 0
163 183 0
160 181 0
163 183 0
165 187 0
162 182 0
166 188 0
168 188 0
170 190 0
166 187 0
168 190 0
166 187 0
160 181 0
164 186 0
165 186 0
165 185 0
165 186 0
166 187 0
180 202 120
173 196 92
167 191 95
171 194 95
175 199 102
172 196 95
175 198 80
170 194 95
171 194 84
172 195 80
179 201 102
173 196 105
164 187 95
170 194 105
167 190 72
171 194 114
172 196 102
177 200 117
167 191 102
170 194 102
167 190 88
170 193 72
173 197 111
171 194 114
172 196 95
165 188 88
166 189 114
169 193 95
171 195 99
163 187 99
175 198 102
167 190 102
166 190 84
170 193 95
166 190 99
168 192 111
171 195 102
169 193 84
169 193 105
172 196 102
165 189 92
171 194 105
169 193 108
167 190 102
165 189 105
162 185 95
168 192 120
158 182 117
166 188 92
165 189 117
161 184 102
158 181 67
162 185 97
164 187 99
163 186 102
166 189 105
166 189 105
155 178 72
159 183 108
165 187 117
158 181 95
163 186 92
158 179 80
170 193 102
158 181 121
164 187 114
163 187 99
161 183 95
165 187 102
158 181 99
159 182 102
164 187 95
161 184 84
167 190 122
160 182 108
159 182 92
158 179 95
162 184 95
162 183 130
153 174 125
156 178 108
152 174 99
159 181 111
160 181 111
149 170 88
156 177 67
157 179 105
146 167 99
161 182 114
150 172 84
154 174 84
152 173 95
154 174 84
154 173 88
145 164 92
142 163 88
145 165 88
141 160 95
148 166 105
136 155 92
142 160 88
141 161 102
143 162 80
147 167 95
133 151 92
148 166 102
136 155 76
151 168 102
137 154 80
129 147 44
116 132 84
128 145 84
127 144 62
126 143 72
128 144 84
115 133 62
111 126 67
109 124 76
116 132 67
99 116 76
96 113 80
112 131 70
102 122 100
107 126 97
106 126 65
113 132 90
96 118 76
108 129 74
114 134 70
115 132 83
124 143 47
134 153 70
133 151 47
123 141 18
134 152 44
133 151 54
131 149 36
127 146 25
117 137 57
124 141 54
122 138 31
115 132 31
120 138 25
117 136 25
119 132 36
115 131 0
115 132 25
103 121 18
117 135 18
109 125 0
107 124 0
100 115 0
112 128 0
106 123 0
105 122 0
101 117 0
108 124 0
94 110 0
97 113 0
97 113 0
102 118 0
90 105 0
99 114 0
83 98 0
88 103 0
94 109 0
89 103 0
72 87 0
102 117 0
100 117 0
81 96 0
72 87 0
99 114 0
92 106 0
103 117 0
91 106 0
96 111 0
81 97 0
95 110 0
90 105 0
85 100 0
89 105 0
82 96 0
97 111 0
97 112 0
108 123 0
95 109 0
100 116 0
84 101 0
92 106 0
96 112 0
89 104 0
107 125 0
95 110 0
105 120 0
100 116 0
107 123 0
94 109 0
100 115 0
120 136 0
104 120 0
105 120 0
108 126 0
106 122 0
113 130 0
107 125 0
100 116 0
102 120 0
105 121 0
109 126 0
111 128 0
120 137 0
100 118 0
114 130 0
108 126 0
112 131 0
102 118 0
116 133 0
111 129 0
119 136 0
113 130 0
112 128 0
116 134 0
115 133 0
117 135 0
107 124 0
134 151 0
124 143 0
132 152 0
127 146 0
117 134 0
130 148 0
123 142 0
128 147 0
120 139 0
119 138 0
132 148 0
128 148 0
124 144 0
119 138 0
125 143 0
119 139 0
137 155 0
129 148 0
133 151 0
133 152 0
129 149 0
139 157 0
130 148 0
135 153 0
134 155 0
124 142 0
139 157 0
135 154 0
134 152 0
143 163 0
131 151 0
134 153 0
144 163 0
136 156 0
132 151 0
134 154 0
135 154 0
151 172 0
140 160 0
141 161 0
142 161 0
137 157 0
136 155 0
139 159 0
136 155 0
147 165 0
143 163 0
150 171 0
148 168 0
144 164 0
151 172 0
146 167 0
146 166 0
146 165 0
143 161 0
142 162 0
150 170 0
143 163 0
151 172 0
146 166 0
155 174 0
150 170 0
149 167 0
151 170 0
153 175 0
146 162 0
156 175 0
152 173 0
149 170 0
156 176 0
154 173 0
160 181 0
147 166 0
151 171 0
152 173 0
155 175 0
152 171 0
153 173 0
145 165 0
150 172 0
154 173 0
149 168 0
151 172 0
150 170 0
154 174 0
156 175 0
155 175 0
156 176 0
147 167 0
151 169 0
151 172 0
155 176 0
161 180 0
149 168 0
160 181 0
153 174 0
156 177 0
159 179 0
155 176 0
162 183 0
162 181 0
158 179 0
155 175 0
160 182 0
156 176 0
162 183 0
156 175 0
163 184 0
159 179 0
160 181 0
158 176 0
157 178 0
154 174 0
163 185 0
158 180 0
160 180 0
163 183 0
158 178 0
157 179 0
164 185 0
161 181 0
162 184 0
161 182 0
164 185 0
160 181 0
160 181 0
162 181 0
164 184 0
164 183 0
159 178 0
156 176 0
168 189 0
160 180 0
167 189 0
162 183 0
164 184 0
162 184 0
161 183 0
164 185 0
162 182 0
160 180 0
166 188 0
163 185 0
160 181 0
163 183 0
160 180 0
165 187 0
161 181 0
165 185 0
161 183 0
165 183 0
162 183 0
166 189 0
168 191 0
159 180 0
160 181 0
163 183 0
164 184 0
161 182 0
163 184 0
168 190 0
164 185 0
167 187 0
168 190 0
165 187 0
167 187 0
162 183 0
168 189 0
168 190 0
166 187 0
166 187 0
169 190 0
167 188 0
168 189 0
173 197 80
170 193 102
177 199 105
177 200 105
173 196 105
171 195 88
171 196 92
172 195 92
172 195 92
170 193 92
174 197 111
175 198 117
172 196 95
170 193 92
168 191 84
169 193 76
174 197 95
170 193 92
171 194 88
168 191 88
168 192 102
173 196 99
170 194 76
170 194 111
170 194 84
168 192 84
170 194 92
166 189 92
173 196 105
168 191 102
166 191 88
173 197 108
170 193 80
169 192 102
163 187 99
173 197 114
168 193 95
161 184 80
171 194 99
168 191 105
165 188 80
165 189 95
171 195 95
169 192 92
166 189 99
165 189 117
169 193 111
167 191 117
168 190 80
170 193 95
164 187 105
164 187 92
164 187 80
165 188 108
160 183 80
162 185 99
166 189 111
158 181 114
156 179 95
162 185 92
168 190 95
158 182 102
162 185 99
164 187 122
159 181 74
160 183 95
164 187 99
157 179 88
158 180 78
165 188 114
164 188 95
149 171 72
165 187 114
161 183 105
159 181 105
163 186 90
150 173 99
155 177 108
165 187 105
151 172 108
150 172 95
160 182 117
156 178 95
151 172 76
154 175 88
157 178 92
157 178 88
147 167 95
150 172 111
141 162 72
151 171 105
145 166 92
152 172 99
151 170 120
147 167 95
141 161 84
161 180 114
140 161 84
147 165 114
135 153 88
140 159 84
147 166 102
145 164 84
141 160 102
131 150 80
138 156 88
125 143 72
143 161 99
134 152 72
126 143 80
132 150 72
128 144 92
133 149 84
132 148 88
117 134 76
125 142 67
113 128 67
85 100 54
121 137 70
110 125 74
107 123 82
96 113 40
104 121 74
111 128 78
113 132 57
103 124 62
120 138 60
110 130 54
120 140 67
124 141 44
127 146 60
132 150 51
146 164 51
121 140 40
133 151 0
131 149 31
133 152 18
130 150 18
131 149 25
132 151 31
131 149 25
128 144 18
108 125 0
115 131 0
125 142 0
125 141 0
113 131 0
114 130 0
111 127 0
115 132 18
110 126 0
108 125 0
93 109 0
102 119 0
118 135 0
102 119 0
102 118 0
98 115 0
107 123 0
98 113 0
95 110 0
102 117 0
103 120 0
94 110 0
102 117 0
88 104 0
95 110 0
96 110 0
88 102 0
80 96 0
90 106 0
97 111 0
82 96 0
78 92 0
88 102 0
95 111 0
90 107 0
99 114 0
104 119 0
89 105 0
96 112 0
93 107 0
95 111 0
88 104 0
98 114 0
91 107 0
96 112 0
102 117 0
103 120 0
104 121 0
100 116 0
108 124 0
100 116 0
92 108 0
114 130 0
115 132 0
100 116 0
99 115 0
93 110 0
105 122 0
101 118 0
106 122 0
106 122 0
108 126 0
112 129 0
113 131 0
108 125 0
114 132 0
112 129 0
121 138 0
114 132 0
94 111 0
107 122 0
113 131 0
118 136 0
110 128 0
115 132 0
123 140 0
113 132 0
113 130 0
109 128 0
113 130 0
115 134 0
119 137 0
125 142 0
131 151 0
116 134 0
119 137 0
124 143 0
123 142 0
122 140 0
114 133 0
120 139 0
130 150 0
134 153 0
125 145 0
130 148 0
126 145 0
135 154 0
137 159 0
131 150 0
127 145 0
133 150 0
126 147 0
129 147 0
132 149 0
134 154 0
134 153 0
138 155 0
139 160 0
136 156 0
139 158 0
135 155 0
139 158 0
140 160 0
144 162 0
139 161 0
138 156 0
139 157 0
136 155 0
133 152 0
139 158 0
141 162 0
148 166 0
145 165 0
140 160 0
142 164 0
142 161 0
137 156 0
140 158 0
139 158 0
137 156 0
143 165 0
147 167 0
143 163 0
148 169 0
138 159 0
143 162 0
143 164 0
153 172 0
146 166 0
146 164 0
142 163 0
151 171 0
149 170 0
141 162 0
148 169 0
142 163 0
152 173 0
147 166 0
154 173 0
156 176 0
146 165 0
153 175 0
150 171 0
151 172 0
148 168 0
156 176 0
156 176 0
154 175 0
150 173 0
149 169 0
149 169 0
151 171 0
155 176 0
151 170 0
156 175 0
162 183 0
154 173 0
148 167 0
154 173 0
145 165 0
156 176 0
160 182 0
154 176 0
161 182 0
160 180 0
158 178 0
160 181 0
156 176 0
161 181 0
160 180 0
156 175 0
154 175 0
153 173 0
157 177 0
153 171 0
158 178 0
157 177 0
162 180 0
161 182 0
154 176 0
158 177 0
166 186 0
151 172 0
158 179 0
164 185 0
162 182 0
154 174 0
156 176 0
156 175 0
161 180 0
158 176 0
157 179 0
155 175 0
160 181 0
162 183 0
160 179 0
156 176 0
158 179 0
162 183 0
163 182 0
161 181 0
160 180 0
162 183 0
162 183 0
161 180 0
159 177 0
166 186 0
164 187 0
161 180 0
161 182 0
162 184 0
165 186 0
162 184 0
159 180 0
161 182 0
164 186 0
161 182 0
165 186 0
163 184 0
162 181 0
163 184 0
165 186 0
162 183 0
160 181 0
165 186 0
167 188 0
168 191 0
166 187 0
164 184 0
164 185 0
165 186 0
167 189 0
162 182 0
167 189 0
164 184 0
164 186 0
166 189 0
163 185 0
165 186 0
161 183 0
162 183 0
167 189 0
167 188 0
166 187 0
162 182 0
165 186 0
166 187 0
167 188 0
178 200 120
173 196 102
171 195 99
172 196 84
171 194 95
171 194 111
172 195 99
167 190 76
172 196 99
174 196 84
173 197 111
169 192 108
176 198 92
176 200 114
172 196 122
172 195 92
175 198 102
170 193 88
168 192 95
172 195 108
168 192 84
172 195 125
170 194 105
174 197 108
174 197 95
165 188 84
170 193 80
168 191 88
174 198 95
168 191 95
173 196 84
166 189 88
172 195 127
167 191 92
167 190 95
172 195 125
166 189 92
168 192 95
168 190 95
168 192 92
170 194 88
163 186 88
163 186 80
166 189 95
162 185 88
168 191 111
165 188 95
157 181 84
165 188 88
167 190 99
163 186 108
159 183 105
165 188 76
166 189 88
165 187 90
163 187 99
166 188 72
164 187 92
159 182 103
166 189 114
160 183 95
164 186 103
165 187 114
165 187 95
164 188 114
162 184 95
153 176 92
156 180 105
162 184 108
162 184 88
159 182 92
159 182 80
154 176 102
155 178 92
159 181 99
162 184 95
155 177 84
157 180 92
162 184 88
156 177 95
162 184 111
148 170 102
157 179 111
151 172 102
156 178 102
154 175 92
151 172 108
154 174 92
143 163 105
163 183 120
156 176 111
152 172 114
144 164 72
157 177 102
144 164 84
145 165 102
142 162 95
139 158 99
140 159 95
151 169 111
139 157 102
140 158 99
147 166 105
149 167 105
137 155 76
151 170 80
141 160 84
134 152 102
134 152 76
133 150 80
130 148 88
131 148 105
118 135 67
119 136 62
121 138 44
112 128 62
116 133 67
120 135 88
116 132 72
126 141 88
111 128 44
118 135 67
110 127 57
109 127 78
101 118 74
113 130 54
114 132 62
111 128 44
119 137 36
120 139 51
123 141 57
129 147 44
130 147 47
135 153 25
140 159 18
136 154 25
132 147 18
140 157 18
138 155 0
133 151 0
121 139 0
131 148 0
129 145 0
119 136 0
124 142 0
123 141 0
118 135 0
99 113 0
126 144 0
121 139 0
112 129 0
104 121 0
108 125 0
113 129 0
100 117 0
108 126 0
104 120 0
99 116 0
97 112 0
99 115 0
94 110 0
103 119 0
104 121 0
98 114 0
108 123 0
101 116 0
92 108 0
107 123 0
106 123 0
103 119 0
104 120 0
103 120 0
98 113 0
92 108 0
106 122 0
100 116 0
106 122 0
98 113 0
94 111 0
100 116 0
107 123 0
85 102 0
99 115 0
96 112 0
95 110 0
116 132 0
107 124 0
102 117 0
103 120 0
105 122 0
103 118 0
106 122 0
106 123 0
96 113 0
113 130 0
95 112 0
100 116 0
100 118 0
101 118 0
96 111 0
97 113 0
107 124 0
101 118 0
99 116 0
104 120 0
116 133 0
109 127 0
108 125 0
101 117 0
108 127 0
109 126 0
113 130 0
112 129 0
106 123 0
115 134 0
109 128 0
113 131 0
122 140 0
125 143 0
111 130 0
110 128 0
125 142 0
118 136 0
125 143 0
121 140 0
119 136 0
122 140 0
112 131 0
119 138 0
123 143 0
126 146 0
126 144 0
124 143 0
114 133 0
130 149 0
133 151 0
129 148 0
118 136 0
128 147 0
124 141 0
132 151 0
134 152 0
120 139 0
133 153 0
136 155 0
141 161 0
129 148 0
134 154 0
134 154 0
135 155 0
147 167 0
138 157 0
142 161 0
133 151 0
137 157 0
135 157 0
139 159 0
139 157 0
135 155 0
136 156 0
139 159 0
143 164 0
137 157 0
142 162 0
143 163 0
143 163 0
137 157 0
146 166 0
141 160 0
144 164 0
143 162 0
147 167 0
140 160 0
150 170 0
144 165 0
150 169 0
137 157 0
149 169 0
149 170 0
142 162 0
141 161 0
146 165 0
139 160 0
145 163 0
136 156 0
149 169 0
147 167 0
150 169 0
154 173 0
144 167 0
144 165 0
146 166 0
144 164 0
154 175 0
155 175 0
143 163 0
147 166 0
153 173 0
150 170 0
147 166 0
154 175 0
154 174 0
147 167 0
145 164 0
148 168 0
154 174 0
153 173 0
158 178 0
161 183 0
148 169 0
148 166 0
155 174 0
153 172 0
158 180 0
159 180 0
148 169 0
157 177 0
155 176 0
157 176 0
152 172 0
161 181 0
156 176 0
156 177 0
156 177 0
157 180 0
159 180 0
159 181 0
162 183 0
164 185 0
156 177 0
157 177 0
155 176 0
156 178 0
161 180 0
160 181 0
155 175 0
162 183 0
157 178 0
155 176 0
163 185 0
159 179 0
165 186 0
160 180 0
161 182 0
162 183 0
163 184 0
161 180 0
153 173 0
158 178 0
160 180 0
161 181 0
152 171 0
158 179 0
165 186 0
151 172 0
167 189 0
167 187 0
159 179 0
160 179 0
167 187 0
163 185 0
160 179 0
159 181 0
161 182 0
167 189 0
164 185 0
157 177 0
166 188 0
164 186 0
161 183 0
160 180 0
162 182 0
158 178 0
161 181 0
165 186 0
164 184 0
165 186 0
158 180 0
163 184 0
169 190 0
166 187 0
164 186 0
165 186 0
166 185 0
164 186 0
164 184 0
167 188 0
162 184 0
164 183 0
167 188 0
163 185 0
165 186 0
164 186 0
167 187 0
164 186 0
167 189 0
166 187 0
166 188 0
165 187 0
165 186 0
169 192 95
174 198 108
172 196 95
169 192 84
175 197 117
172 195 111
168 190 84
174 198 99
173 196 95
175 198 111
171 194 99
167 191 88
173 196 88
173 195 92
175 198 105
175 198 114
167 191 84
170 194 99
175 197 99
171 194 92
170 192 102
164 188 92
170 193 92
168 192 99
166 190 114
172 195 92
167 189 92
163 186 84
167 191 95
172 195 102
165 188 102
167 191 84
166 188 99
162 185 76
167 190 76
164 187 72
165 189 92
171 195 95
161 185 80
169 192 102
171 195 80
164 187 95
165 188 67
169 192 99
172 196 105
164 187 99
156 179 76
167 190 92
167 190 84
166 190 99
167 190 95
159 182 95
160 183 102
167 190 97
162 186 92
167 191 99
163 186 99
161 184 97
167 190 117
160 184 84
159 182 72
164 187 110
169 193 122
167 189 95
161 184 84
161 183 99
162 184 115
158 180 95
159 182 88
154 176 103
150 173 86
166 188 125
161 183 105
153 176 99
156 177 92
157 178 99
158 180 88
164 187 72
160 182 92
154 174 84
157 179 108
162 183 99
153 175 105
158 180 120
151 171 99
165 186 120
152 174 88
154 176 108
153 173 105
145 165 72
159 179 95
147 168 80
155 175 99
148 168 95
150 170 102
155 175 114
147 166 76
147 167 92
141 160 88
135 155 76
137 157 84
147 166 99
147 166 88
147 166 99
141 161 76
132 150 92
144 161 88
149 167 95
139 157 88
133 151 76
117 133 67
143 159 92
126 143 67
124 141 67
115 132 57
118 136 76
111 127 51
106 122 57
109 124 57
110 126 57
117 133 47
125 142 76
108 125 47
105 121 51
108 124 36
117 134 57
120 137 60
126 144 60
125 143 54
128 145 47
130 147 40
132 150 36
132 151 25
139 157 36
134 150 18
128 144 51
139 158 25
141 159 0
139 157 0
133 150 0
133 152 0
114 131 0
132 150 0
117 135 0
133 151 0
109 126 0
124 141 0
111 128 0
118 136 0
110 128 0
117 136 0
106 123 0
101 119 0
96 113 0
107 125 0
113 128 0
107 124 0
96 112 0
116 133 0
104 120 0
101 117 0
102 118 0
113 131 0
107 124 0
91 106 0
107 122 0
114 130 0
106 123 0
92 107 0
89 105 0
101 117 0
104 120 0
90 106 0
104 121 0
103 118 0
104 121 0
107 124 0
85 102 0
106 122 0
101 117 0
99 115 0
112 128 0
92 107 0
101 117 0
114 129 0
110 127 0
101 118 0
99 116 0
101 117 0
107 123 0
99 115 0
104 120 0
96 113 0
106 124 0
99 116 0
107 122 0
113 130 0
112 129 0
107 125 0
90 106 0
118 135 0
114 131 0
97 116 0
102 119 0
105 122 0
115 133 0
114 131 0
111 127 0
109 125 0
107 124 0
104 121 0
114 132 0
112 130 0
109 127 0
106 124 0
114 132 0
111 128 0
122 138 0
121 140 0
117 135 0
124 142 0
116 134 0
129 148 0
129 148 0
111 130 0
116 133 0
120 137 0
129 148 0
123 139 0
122 140 0
123 141 0
131 150 0
128 147 0
129 149 0
134 152 0
125 144 0
126 144 0
123 142 0
133 154 0
137 156 0
133 152 0
135 154 0
134 154 0
138 157 0
138 157 0
122 140 0
140 159 0
144 165 0
136 156 0
124 142 0
135 156 0
132 151 0
140 159 0
133 152 0
132 152 0
137 156 0
138 158 0
136 155 0
141 162 0
133 151 0
138 157 0
137 157 0
143 164 0
146 166 0
140 160 0
139 159 0
145 165 0
140 160 0
144 164 0
142 162 0
144 164 0
142 162 0
141 160 0
150 169 0
152 171 0
144 164 0
142 163 0
141 161 0
148 169 0
135 154 0
138 158 0
158 178 0
148 168 0
147 167 0
150 172 0
153 174 0
152 173 0
153 172 0
158 180 0
150 171 0
154 175 0
152 174 0
147 168 0
153 173 0
155 174 0
145 166 0
150 170 0
157 176 0
151 172 0
143 162 0
148 166 0
147 165 0
153 171 0
156 177 0
152 173 0
154 175 0
150 171 0
150 169 0
161 181 0
154 174 0
155 175 0
150 169 0
145 164 0
152 174 0
161 182 0
151 172 0
159 180 0
155 174 0
160 180 0
157 176 0
154 175 0
157 178 0
160 181 0
152 174 0
158 179 0
153 173 0
165 186 0
155 175 0
160 182 0
151 173 0
162 183 0
162 181 0
157 177 0
153 174 0
157 180 0
162 182 0
159 181 0
159 180 0
158 178 0
159 179 0
159 180 0
156 176 0
164 186 0
152 173 0
162 182 0
158 177 0
159 179 0
160 181 0
163 182 0
155 176 0
165 185 0
169 189 0
162 182 0
156 176 0
157 177 0
165 183 0
165 186 0
156 175 0
162 183 0
158 178 0
166 187 0
161 182 0
157 178 0
162 184 0
156 177 0
162 182 0
159 180 0
165 187 0
163 185 0
165 187 0
160 180 0
163 184 0
159 179 0
167 189 0
162 183 0
157 178 0
161 182 0
169 190 0
166 188 0
161 182 0
167 188 0
164 182 0
161 183 0
162 183 0
162 182 0
166 187 0
165 186 0
165 187 0
163 184 0
165 184 0
168 189 0
169 191 0
166 188 0
164 187 0
167 190 0
167 189 0
166 189 0
167 187 0
168 188 0
164 184 0
173 197 92
171 194 88
173 195 95
174 197 99
169 192 99
174 196 105
180 203 114
174 198 105
170 193 102
172 196 88
174 197 120
174 197 111
175 198 120
173 196 99
170 193 92
170 194 88
167 191 84
169 192 105
168 190 111
163 186 95
172 195 76
173 197 92
172 196 99
167 191 76
172 195 88
170 194 99
171 195 95
167 191 108
169 191 114
169 193 95
166 190 95
164 187 80
166 190 108
171 195 114
170 193 99
160 184 72
165 189 92
160 183 84
164 187 99
170 194 108
161 185 80
172 194 108
169 192 92
170 193 84
170 194 102
165 188 95
165 188 105
170 193 92
158 181 95
164 188 111
161 184 88
168 191 108
168 192 100
159 182 92
165 188 94
162 185 97
166 190 108
162 185 92
163 186 102
167 191 99
163 185 90
162 184 84
164 187 111
157 179 99
160 182 92
153 175 80
154 176 80
156 179 84
156 178 84
165 188 102
163 185 99
159 182 117
159 181 84
165 188 92
163 185 125
156 179 92
154 177 88
154 176 92
155 177 92
163 184 117
154 176 84
157 178 114
158 178 102
157 179 92
160 181 92
157 179 105
146 167 76
145 166 88
155 176 102
163 184 114
157 178 95
155 175 111
148 169 99
154 174 108
144 164 76
149 169 105
154 173 88
153 173 120
140 159 95
145 163 111
158 177 117
152 171 111
151 169 120
147 165 122
137 155 84
150 169 95
145 163 92
148 166 108
139 157 67
133 152 92
138 156 84
134 152 92
127 146 57
134 153 57
120 137 72
125 142 62
123 139 67
136 153 84
128 144 80
124 140 84
128 143 67
107 124 62
108 123 44
110 127 44
126 143 67
122 140 51
134 151 62
122 140 36
129 147 44
124 142 36
124 142 36
143 161 25
139 156 25
137 154 0
136 153 25
147 165 0
139 159 0
129 146 0
133 151 25
125 144 0
125 142 0
132 148 0
135 155 0
124 142 0
118 136 0
116 134 0
130 146 0
119 136 0
109 128 0
114 132 0
114 129 0
119 136 0
106 123 0
111 127 0
104 121 0
114 131 0
108 125 0
113 129 0
105 123 0
111 129 0
116 133 0
110 127 0
117 135 0
107 124 0
105 122 0
99 116 0
90 108 0
104 119 0
97 114 0
104 120 0
117 133 0
117 135 0
99 114 0
111 127 0
97 113 0
102 119 0
102 118 0
107 124 0
109 126 0
97 114 0
106 124 0
94 110 0
97 114 0
105 120 0
100 116 0
120 136 0
101 117 0
101 117 0
100 117 0
96 114 0
99 116 0
104 121 0
102 119 0
116 133 0
104 122 0
108 125 0
117 133 0
110 127 0
117 135 0
115 132 0
103 120 0
112 131 0
120 139 0
111 130 0
113 131 0
109 128 0
116 133 0
109 128 0
117 135 0
111 128 0
112 130 0
114 131 0
117 135 0
120 139 0
114 132 0
110 128 0
120 140 0
119 137 0
129 148 0
118 136 0
122 140 0
123 141 0
123 142 0
127 147 0
126 144 0
126 145 0
130 149 0
118 138 0
125 145 0
130 148 0
132 151 0
119 137 0
119 138 0
133 152 0
133 151 0
126 147 0
131 150 0
142 161 0
137 157 0
127 147 0
135 155 0
136 155 0
137 157 0
131 150 0
133 151 0
145 165 0
134 154 0
140 160 0
136 154 0
141 161 0
138 158 0
130 149 0
134 154 0
140 161 0
144 164 0
132 151 0
145 166 0
129 148 0
128 147 0
141 160 0
137 157 0
140 161 0
139 159 0
143 164 0
145 166 0
138 158 0
138 158 0
149 167 0
139 158 0
149 169 0
142 163 0
147 167 0
142 164 0
150 170 0
146 168 0
150 170 0
148 168 0
147 168 0
151 171 0
152 171 0
144 163 0
142 162 0
143 163 0
144 165 0
155 175 0
152 173 0
154 174 0
150 169 0
156 176 0
151 172 0
149 169 0
152 172 0
148 169 0
156 176 0
155 176 0
149 170 0
151 171 0
154 174 0
143 161 0
155 175 0
154 175 0
146 167 0
154 174 0
154 175 0
155 175 0
155 176 0
154 176 0
152 174 0
150 171 0
156 178 0
152 173 0
151 170 0
158 180 0
160 180 0
157 178 0
155 175 0
154 175 0
150 168 0
159 178 0
158 180 0
159 180 0
154 173 0
157 177 0
157 176 0
154 174 0
159 181 0
164 184 0
161 181 0
153 174 0
158 179 0
154 172 0
161 182 0
152 172 0
159 179 0
160 181 0
160 181 0
158 180 0
156 175 0
150 170 0
155 176 0
165 185 0
155 176 0
152 172 0
156 178 0
164 184 0
162 184 0
154 174 0
163 183 0
162 183 0
164 187 0
165 185 0
155 176 0
166 187 0
156 176 0
162 183 0
163 186 0
158 178 0
161 181 0
162 182 0
161 180 0
160 180 0
165 186 0
164 184 0
161 182 0
160 181 0
162 184 0
163 185 0
162 182 0
161 180 0
162 183 0
162 184 0
160 182 0
153 174 0
158 179 0
162 184 0
163 185 0
165 187 0
165 187 0
162 183 0
164 185 0
156 178 0
161 181 0
162 181 0
162 183 0
164 185 0
163 183 0
167 187 0
167 190 0
167 188 0
162 183 0
165 186 0
167 187 0
169 193 0
168 190 0
162 185 0
168 190 0
165 187 0
163 185 0
165 185 0
162 183 0
178 200 105
171 194 105
176 198 105
172 196 92
176 199 105
177 200 99
168 192 88
173 195 95
166 188 92
170 195 92
175 198 105
171 195 111
175 200 102
175 197 111
168 192 88
172 195 80
177 200 105
172 195 99
174 198 111
171 194 114
166 190 120
170 194 102
171 194 80
169 193 84
169 193 102
167 190 105
167 190 76
166 189 95
166 190 95
170 193 102
174 197 84
173 197 102
170 194 120
170 194 105
167 190 108
164 187 84
169 193 102
160 183 72
167 190 84
169 193 76
168 191 76
169 193 80
166 190 84
161 184 76
166 189 72
170 194 88
164 187 88
168 191 72
167 190 92
171 195 95
165 188 92
166 190 102
168 191 108
158 181 88
160 183 95
163 187 108
164 188 108
160 183 105
163 186 102
164 187 102
167 190 105
160 182 88
160 183 88
161 185 94
157 181 95
155 177 90
164 187 99
154 176 88
162 185 110
157 181 86
161 183 99
159 181 76
165 187 114
164 187 95
166 189 125
159 180 95
163 185 95
158 179 84
157 179 84
157 178 92
158 180 105
152 174 88
158 181 102
153 174 102
154 176 92
148 169 99
150 170 84
151 172 92
166 188 117
151 172 102
148 169 102
160 180 105
151 171 114
149 170 80
155 175 92
155 175 99
153 173 102
153 172 105
155 173 111
153 172 108
141 160 92
136 155 67
145 163 88
145 164 117
148 166 99
143 161 84
152 170 117
147 165 102
135 153 72
146 164 105
127 145 88
127 146 67
127 144 99
135 152 72
130 147 72
121 139 62
116 133 57
123 140 51
120 137 51
120 136 57
112 128 44
117 134 44
110 126 44
124 141 67
120 138 44
121 138 44
112 129 25
127 145 44
138 155 36
133 151 36
129 148 44
128 147 0
134 152 36
144 164 25
138 156 0
140 158 25
128 145 0
139 158 0
137 157 0
143 162 0
135 154 0
139 158 0
126 145 0
138 156 0
126 145 0
125 141 0
131 149 0
111 130 0
117 135 0
116 134 0
107 124 0
106 123 0
123 140 0
122 140 0
112 131 0
110 127 0
100 116 0
107 124 0
109 127 0
110 127 0
107 123 0
115 130 0
115 132 0
101 117 0
103 119 0
106 124 0
109 127 0
103 119 0
116 133 0
116 132 0
100 115 0
107 124 0
87 104 0
106 123 0
102 119 0
101 118 0
108 124 0
97 113 0
101 116 0
112 128 0
111 127 0
98 115 0
97 114 0
94 111 0
97 113 0
109 127 0
107 124 0
112 129 0
116 133 0
101 119 0
105 122 0
99 114 0
111 128 0
104 121 0
112 129 0
104 120 0
127 145 0
99 118 0
120 139 0
106 124 0
100 116 0
103 121 0
110 128 0
106 124 0
107 126 0
112 129 0
119 137 0
111 129 0
111 129 0
109 128 0
119 138 0
120 137 0
117 136 0
122 140 0
122 141 0
123 142 0
121 139 0
115 133 0
124 143 0
116 135 0
114 134 0
127 146 0
115 134 0
138 158 0
127 146 0
129 150 0
121 140 0
126 146 0
128 147 0
132 153 0
131 150 0
120 139 0
121 140 0
133 151 0
131 150 0
132 151 0
130 149 0
123 141 0
134 153 0
130 148 0
138 158 0
141 161 0
137 158 0
135 156 0
135 154 0
130 148 0
136 155 0
144 164 0
139 161 0
142 161 0
134 153 0
141 161 0
142 163 0
138 157 0
137 156 0
140 161 0
127 147 0
146 167 0
135 154 0
145 164 0
145 166 0
142 161 0
143 162 0
147 168 0
142 163 0
147 167 0
151 171 0
144 164 0
148 170 0
148 167 0
148 168 0
144 162 0
150 170 0
139 158 0
148 168 0
147 168 0
146 166 0
150 172 0
149 169 0
156 175 0
146 165 0
148 169 0
155 177 0
157 178 0
150 170 0
145 166 0
147 168 0
147 167 0
151 173 0
137 158 0
152 172 0
153 173 0
155 176 0
152 174 0
152 174 0
157 178 0
148 168 0
153 176 0
155 176 0
154 173 0
158 179 0
148 168 0
161 183 0
157 176 0
142 162 0
145 164 0
154 174 0
148 169 0
150 172 0
150 171 0
152 173 0
151 173 0
152 172 0
153 174 0
141 160 0
152 172 0
151 172 0
153 173 0
160 180 0
155 175 0
157 177 0
156 176 0
161 182 0
158 180 0
162 183 0
160 182 0
158 180 0
167 187 0
158 179 0
159 180 0
164 186 0
154 173 0
163 184 0
157 178 0
161 182 0
159 179 0
159 182 0
159 181 0
159 181 0
160 180 0
165 185 0
157 177 0
163 182 0
157 177 0
158 179 0
154 174 0
156 177 0
157 177 0
161 182 0
155 176 0
160 183 0
158 179 0
157 177 0
160 181 0
155 177 0
165 187 0
159 180 0
166 187 0
155 175 0
163 181 0
162 181 0
159 181 0
160 181 0
166 188 0
159 179 0
165 186 0
162 181 0
169 189 0
167 189 0
164 187 0
165 185 0
168 190 0
166 187 0
164 185 0
167 187 0
158 178 0
160 180 0
169 189 0
161 184 0
168 189 0
164 185 0
164 185 0
164 185 0
165 185 0
164 185 0
162 183 0
168 191 0
164 184 0
163 184 0
166 188 0
166 188 0
165 188 0
165 186 0
168 191 0
164 185 0
168 190 0
168 190 0
165 186 0
170 192 0
162 184 0
168 192 76
174 197 84
176 199 95
172 195 80
173 196 88
176 198 99
168 192 84
176 199 95
175 198 99
172 195 95
172 195 88
172 195 95
172 195 88
172 195 88
171 194 80
165 188 84
171 194 92
168 191 72
168 191 102
172 195 88
166 188 76
173 196 88
169 193 102
170 193 84
169 192 88
171 194 108
172 194 95
163 187 67
166 189 88
168 192 92
170 193 95
171 195 88
164 188 92
166 188 102
166 189 102
168 192 105
169 191 105
160 184 76
171 194 92
171 193 95
168 192 99
168 191 88
163 186 84
158 182 92
163 186 84
161 183 72
166 190 102
164 187 88
167 191 92
167 190 108
165 188 108
164 188 114
163 185 102
164 187 99
159 182 88
162 186 105
161 184 95
165 188 105
158 182 114
155 178 76
161 184 78
161 183 88
159 182 114
159 182 99
163 185 92
161 184 117
164 187 92
159 181 80
165 188 111
163 186 92
165 188 111
163 185 111
163 185 80
158 180 122
157 178 88
159 182 95
161 183 108
161 183 105
155 177 117
159 180 99
156 179 95
155 177 105
157 178 92
156 178 88
157 178 102
149 169 84
147 168 80
152 173 92
160 182 114
162 183 102
136 157 72
144 164 84
156 178 95
145 165 95
147 167 80
156 176 92
151 172 92
157 176 122
143 164 84
152 171 102
149 168 88
152 172 105
145 164 111
133 150 95
154 172 102
147 166 84
141 159 88
134 153 88
140 157 80
136 155 62
139 157 67
140 158 95
136 154 99
136 154 72
130 149 67
134 152 76
130 149 57
134 152 67
120 138 57
130 146 57
132 150 72
129 146 57
116 134 36
115 133 36
112 128 51
116 133 51
121 139 25
121 139 36
118 136 25
131 149 51
136 155 0
128 147 25
139 158 25
136 154 0
142 162 0
141 160 0
149 168 36
143 161 25
139 158 0
137 155 0
137 157 0
127 145 0
142 163 0
125 142 0
128 146 0
116 135 0
127 146 0
123 140 0
112 129 0
118 137 0
119 137 0
118 136 0
109 127 0
115 133 0
125 143 0
110 129 0
109 126 0
108 126 0
111 128 0
101 117 0
110 128 0
112 130 0
103 119 0
99 116 0
108 124 0
106 124 0
108 126 0
114 131 0
105 123 0
106 122 0
102 120 0
97 111 0
112 130 0
107 124 0
104 121 0
104 120 0
106 123 0
104 120 0
106 123 0
102 119 0
93 112 0
93 109 0
101 118 0
110 127 0
100 116 0
101 118 0
93 110 0
114 130 0
96 111 0
90 108 0
105 122 0
104 120 0
112 129 0
106 125 0
101 118 0
118 136 0
108 126 0
110 127 0
114 133 0
118 136 0
105 121 0
111 129 0
116 133 0
105 123 0
117 136 0
111 129 0
117 134 0
119 138 0
118 136 0
115 133 0
139 159 0
112 129 0
116 135 0
121 140 0
114 133 0
119 137 0
123 141 0
119 137 0
126 146 0
119 139 0
129 148 0
124 144 0
126 145 0
126 146 0
116 135 0
121 140 0
130 150 0
120 138 0
130 149 0
125 144 0
123 142 0
119 138 0
132 152 0
137 156 0
136 156 0
126 145 0
136 156 0
143 162 0
126 147 0
138 157 0
135 155 0
132 152 0
141 161 0
129 148 0
141 161 0
136 153 0
134 154 0
140 160 0
139 158 0
135 155 0
133 151 0
134 153 0
137 157 0
131 149 0
135 156 0
134 154 0
137 156 0
139 161 0
137 157 0
136 155 0
137 157 0
140 159 0
135 154 0
138 160 0
139 160 0
140 159 0
141 161 0
138 156 0
146 168 0
152 171 0
136 155 0
144 164 0
143 162 0
144 165 0
144 164 0
140 160 0
155 174 0
146 165 0
147 168 0
145 166 0
148 170 0
149 170 0
152 174 0
147 168 0
146 167 0
148 167 0
151 171 0
144 165 0
157 178 0
147 165 0
147 166 0
160 182 0
154 173 0
150 171 0
150 171 0
153 175 0
153 175 0
152 172 0
152 173 0
152 172 0
146 166 0
153 175 0
149 169 0
150 170 0
154 174 0
155 175 0
151 173 0
158 178 0
155 176 0
153 173 0
157 179 0
156 175 0
154 175 0
161 182 0
155 176 0
155 176 0
156 177 0
155 176 0
151 172 0
156 176 0
156 178 0
156 177 0
158 179 0
155 175 0
154 175 0
158 179 0
155 176 0
159 180 0
156 178 0
162 184 0
158 177 0
156 178 0
158 179 0
156 177 0
160 181 0
159 180 0
158 178 0
157 178 0
160 180 0
160 180 0
165 186 0
162 183 0
167 187 0
166 187 0
161 179 0
162 182 0
160 182 0
165 187 0
161 181 0
163 183 0
164 186 0
162 184 0
167 187 0
166 186 0
158 179 0
160 181 0
162 182 0
162 183 0
162 184 0
165 186 0
160 180 0
162 183 0
165 187 0
163 184 0
167 189 0
161 184 0
165 186 0
165 187 0
162 184 0
161 181 0
165 185 0
166 188 0
164 187 0
165 185 0
168 190 0
159 180 0
163 183 0
165 186 0
162 184 0
164 184 0
162 183 0
162 182 0
166 186 0
165 187 0
164 185 0
165 187 0
162 184 0
163 184 0
169 191 0
162 182 0
161 182 0
160 180 0
161 182 0
163 183 0
166 188 0
163 185 0
166 187 0
167 189 0
166 188 0
169 190 0
173 197 95
175 198 102
167 190 76
168 192 80
173 195 102
171 194 99
167 190 76
170 193 76
174 197 117
174 197 108
169 192 84
171 195 92
168 191 72
169 193 80
174 197 108
164 188 92
169 192 105
168 190 72
167 191 80
168 191 88
164 188 80
168 192 88
169 193 92
170 193 76
169 192 99
170 194 84
169 193 102
168 191 76
172 195 105
163 187 76
170 193 72
166 190 102
167 190 102
161 184 92
171 195 108
167 190 108
163 186 62
163 186 95
166 189 105
163 186 105
166 189 88
164 188 88
161 184 88
172 196 99
167 191 62
159 183 72
159 183 72
164 188 105
163 187 99
169 191 92
160 183 92
161 184 95
164 188 95
164 187 102
159 182 88
164 187 99
159 182 92
159 181 80
161 184 92
160 182 84
164 187 95
161 184 62
156 179 80
154 176 80
161 184 80
159 182 97
159 181 102
161 184 88
166 189 99
162 185 95
168 189 92
154 176 84
169 191 95
158 181 84
154 177 92
159 181 102
160 181 80
161 184 114
163 185 105
152 173 95
161 183 92
164 185 127
155 177 92
157 178 95
153 175 102
151 172 95
158 179 108
152 173 80
151 172 88
159 179 105
150 171 99
153 173 95
154 175 92
150 170 99
155 174 102
144 163 99
148 169 105
156 176 92
156 176 111
138 158 76
160 180 108
147 168 88
138 157 76
148 167 102
142 161 84
145 164 88
141 159 76
147 166 102
140 157 95
138 156 57
133 151 95
135 154 67
145 163 92
131 149 80
133 151 67
132 150 76
135 154 51
129 148 62
123 140 62
137 155 67
126 144 36
129 146 62
121 138 44
132 150 67
114 131 62
130 146 57
113 131 25
135 153 36
125 143 44
137 156 25
132 151 51
132 152 44
135 154 0
141 161 0
125 145 0
135 153 25
140 160 0
134 152 0
130 149 0
129 150 0
122 141 0
134 153 0
131 149 0
121 140 0
119 137 0
121 141 0
121 138 0
130 149 0
111 129 0
124 142 0
114 132 0
112 132 0
113 132 0
122 138 0
128 146 0
129 147 0
107 126 0
116 133 0
111 129 0
117 134 0
100 117 0
106 124 0
106 122 0
105 122 0
100 117 0
115 132 0
111 128 0
108 123 0
114 132 0
102 119 0
112 130 0
117 135 0
107 124 0
95 112 0
102 120 0
119 137 0
106 124 0
103 120 0
103 120 0
104 121 0
112 130 0
90 108 0
104 121 0
119 137 0
108 124 0
110 128 0
105 120 0
122 139 0
100 117 0
124 142 0
106 124 0
114 131 0
110 128 0
117 136 0
107 125 0
94 112 0
109 126 0
102 121 0
110 128 0
105 125 0
106 123 0
119 137 0
131 148 0
119 137 0
120 138 0
117 136 0
121 139 0
125 143 0
113 133 0
112 131 0
122 140 0
117 136 0
119 137 0
113 130 0
124 142 0
122 140 0
128 145 0
121 138 0
126 145 0
123 142 0
123 143 0
123 141 0
129 148 0
105 123 0
130 148 0
123 142 0
119 138 0
124 142 0
130 151 0
134 154 0
125 144 0
122 139 0
124 143 0
128 148 0
125 144 0
129 150 0
131 150 0
130 149 0
136 156 0
135 156 0
123 141 0
128 147 0
140 159 0
131 149 0
140 158 0
143 163 0
125 144 0
138 157 0
127 148 0
144 166 0
140 161 0
144 165 0
137 156 0
141 161 0
134 153 0
137 158 0
134 153 0
141 163 0
141 161 0
141 161 0
141 160 0
146 165 0
145 166 0
144 166 0
147 168 0
149 169 0
151 171 0
149 170 0
145 165 0
148 167 0
144 165 0
149 170 0
147 168 0
145 164 0
149 168 0
151 171 0
147 167 0
140 160 0
150 170 0
139 158 0
142 161 0
151 171 0
144 164 0
146 166 0
145 163 0
157 177 0
158 177 0
148 169 0
150 170 0
152 173 0
150 171 0
152 173 0
152 174 0
153 175 0
148 168 0
150 171 0
153 173 0
155 175 0
155 175 0
152 172 0
147 167 0
149 169 0
152 172 0
146 165 0
150 170 0
157 179 0
158 178 0
153 174 0
148 167 0
151 173 0
157 177 0
157 179 0
147 167 0
160 179 0
153 174 0
155 175 0
151 170 0
154 176 0
156 177 0
157 177 0
159 180 0
160 180 0
161 182 0
153 172 0
157 179 0
158 179 0
152 172 0
158 179 0
153 174 0
160 182 0
160 180 0
159 181 0
158 180 0
153 173 0
163 184 0
155 175 0
156 176 0
161 182 0
159 180 0
157 177 0
162 183 0
153 175 0
157 180 0
166 187 0
162 183 0
165 186 0
157 179 0
162 183 0
163 183 0
164 186 0
162 182 0
165 185 0
163 183 0
162 184 0
161 181 0
168 189 0
162 183 0
156 176 0
168 188 0
164 184 0
158 179 0
161 182 0
165 187 0
163 183 0
167 189 0
163 183 0
166 187 0
162 183 0
165 187 0
162 184 0
161 181 0
164 187 0
166 186 0
165 186 0
164 184 0
164 185 0
158 178 0
163 183 0
163 184 0
165 188 0
162 183 0
166 188 0
165 185 0
166 186 0
166 187 0
165 187 0
165 185 0
168 189 0
166 187 0
167 189 0
162 182 0
166 187 0
167 187 0
166 188 0
167 189 0
158 180 0
165 187 0
163 183 0
172 193 0
166 189 0
176 198 120
177 200 122
171 195 88
174 197 92
179 201 120
175 198 92
167 190 67
171 194 120
172 195 111
170 194 108
174 197 102
173 196 95
177 200 102
175 198 105
174 197 92
170 194 92
175 198 114
173 196 105
174 197 99
172 196 105
167 190 92
170 193 92
167 190 102
172 195 84
170 193 102
170 193 95
168 191 105
171 193 99
168 192 95
169 192 95
169 192 84
171 194 88
166 189 105
172 195 120
167 191 111
164 187 92
166 189 99
173 197 105
162 185 95
167 190 92
167 190 99
168 190 84
165 189 95
167 190 84
167 191 99
160 183 92
163 187 95
164 187 99
169 193 114
163 185 95
164 187 99
161 184 92
162 185 80
166 189 92
163 186 105
167 190 76
154 177 92
161 183 84
159 181 80
157 179 88
165 188 125
167 190 108
165 188 102
167 190 88
159 181 72
164 187 102
161 184 99
170 192 114
163 186 102
157 180 99
154 176 76
159 182 92
163 185 99
158 180 92
158 180 92
158 179 99
163 186 120
162 184 114
154 175 80
158 180 88
160 182 108
154 175 102
151 173 92
162 183 108
157 178 92
157 178 92
156 177 76
160 181 95
154 175 95
149 170 92
151 172 76
148 169 95
155 175 80
154 174 84
147 166 76
165 185 114
138 158 92
156 176 108
156 176 99
152 171 95
148 168 95
144 163 84
153 172 114
149 167 105
154 172 120
148 167 92
141 160 76
144 162 95
144 162 84
142 161 88
138 157 84
138 157 72
144 163 92
131 149 67
143 161 80
139 156 80
135 152 80
129 148 51
138 156 76
113 130 57
129 145 72
130 148 67
126 144 51
122 140 44
121 139 0
131 149 36
126 144 36
121 138 36
135 153 57
134 154 25
142 160 51
141 160 36
140 160 36
127 148 0
144 165 25
136 156 36
139 159 25
132 152 0
142 162 0
140 159 0
147 168 0
140 159 0
129 149 0
143 163 0
124 143 0
135 155 0
133 151 0
125 143 0
128 146 0
117 135 0
117 136 0
115 132 0
125 143 0
115 133 0
124 143 0
114 133 0
114 131 0
114 132 0
110 128 0
107 126 0
117 133 0
102 120 0
110 127 0
120 138 0
101 119 0
114 131 0
115 133 0
109 127 0
120 138 0
116 134 0
124 141 0
98 115 0
117 135 0
111 128 0
112 130 0
121 139 0
96 115 0
111 127 0
113 130 0
113 131 0
109 126 0
104 123 0
113 130 0
104 123 0
121 139 0
109 125 0
111 128 0
115 133 0
113 130 0
103 120 0
107 123 0
117 134 0
113 131 0
117 136 0
99 116 0
117 135 0
108 126 0
125 145 0
117 135 0
115 134 0
113 131 0
109 128 0
106 124 0
121 140 0
101 118 0
123 142 0
123 140 0
112 131 0
116 134 0
117 134 0
124 143 0
117 135 0
115 133 0
130 149 0
121 141 0
116 135 0
123 142 0
118 136 0
122 141 0
122 141 0
122 140 0
121 139 0
125 144 0
131 151 0
127 145 0
126 145 0
128 148 0
131 151 0
129 149 0
127 147 0
137 156 0
133 151 0
138 157 0
125 145 0
129 148 0
127 148 0
139 159 0
132 152 0
139 159 0
141 161 0
137 156 0
141 162 0
130 150 0
138 158 0
139 158 0
144 163 0
132 150 0
138 157 0
140 160 0
127 147 0
138 159 0
141 162 0
135 154 0
134 154 0
133 154 0
140 161 0
138 156 0
138 159 0
143 163 0
141 160 0
150 169 0
139 158 0
142 163 0
143 163 0
145 166 0
150 170 0
144 164 0
140 159 0
134 155 0
145 167 0
142 161 0
154 175 0
148 169 0
151 170 0
141 162 0
152 172 0
142 162 0
141 162 0
155 174 0
155 175 0
149 170 0
150 170 0
145 164 0
154 175 0
150 171 0
148 169 0
144 163 0
146 166 0
149 170 0
150 170 0
145 165 0
150 170 0
149 169 0
141 160 0
149 171 0
150 170 0
150 170 0
159 179 0
151 174 0
148 169 0
157 179 0
152 174 0
151 173 0
154 174 0
152 173 0
155 175 0
157 177 0
159 180 0
154 176 0
153 174 0
156 178 0
160 182 0
155 177 0
153 172 0
156 176 0
151 171 0
157 179 0
154 174 0
158 179 0
161 184 0
155 176 0
156 175 0
160 180 0
156 177 0
157 179 0
154 174 0
160 180 0
159 178 0
155 173 0
157 177 0
165 186 0
160 181 0
157 179 0
160 180 0
160 182 0
158 179 0
159 181 0
158 180 0
157 178 0
162 183 0
158 181 0
163 186 0
158 179 0
163 184 0
162 183 0
159 181 0
160 181 0
162 184 0
153 171 0
158 179 0
156 176 0
162 183 0
165 185 0
160 179 0
163 184 0
162 184 0
164 187 0
160 180 0
167 187 0
162 183 0
160 181 0
165 186 0
164 185 0
161 182 0
161 181 0
163 183 0
156 177 0
164 186 0
165 187 0
165 188 0
161 181 0
160 182 0
164 185 0
162 183 0
161 181 0
163 184 0
170 191 0
161 181 0
162 183 0
163 185 0
159 180 0
165 185 0
163 185 0
165 186 0
163 182 0
165 187 0
165 184 0
162 183 0
168 189 0
163 185 0
166 188 0
164 184 0
165 187 0
167 188 0
165 187 0
164 186 0
169 192 0
166 189 0
164 186 0
168 190 0
175 198 111
173 196 111
170 193 80
172 195 102
171 194 88
171 193 102
169 192 92
170 193 92
165 189 84
178 201 114
169 192 99
170 194 92
167 190 99
173 195 80
174 197 120
167 189 84
171 194 117
172 195 95
165 188 72
172 196 102
173 196 111
172 197 102
173 196 111
171 195 102
174 197 80
166 189 62
170 194 95
169 192 84
169 192 95
163 186 51
167 191 108
166 190 92
169 193 99
164 188 92
168 193 99
166 190 92
167 190 111
166 190 80
165 188 102
168 191 108
165 188 92
171 195 95
166 190 80
168 190 99
164 188 76
165 189 95
163 187 99
162 185 92
160 182 92
163 187 102
169 193 95
167 190 84
165 189 99
162 185 88
158 180 92
160 184 111
160 184 92
163 186 99
157 180 102
159 183 88
162 185 108
159 182 102
157 180 114
161 184 80
165 188 95
165 188 102
160 183 92
166 188 72
168 190 111
159 181 95
162 184 92
161 183 100
159 181 92
164 186 80
161 184 95
159 182 99
161 183 105
157 179 84
152 174 84
163 185 99
147 170 76
160 181 99
154 176 108
155 176 99
152 173 88
159 179 105
156 177 111
155 176 92
152 174 88
159 180 105
153 175 92
155 175 102
154 174 102
152 172 92
151 171 92
151 172 102
146 166 84
158 178 108
149 167 102
154 172 102
144 164 80
137 157 88
145 164 108
152 172 111
147 166 88
144 164 76
146 165 72
141 160 84
134 153 76
134 153 67
160 178 114
143 162 67
131 150 51
130 148 72
140 159 88
143 161 84
128 147 62
138 157 67
130 147 62
136 153 80
129 147 51
131 150 36
125 143 36
123 142 44
117 136 44
130 150 36
140 159 44
131 151 44
132 152 36
133 151 57
137 157 25
132 152 25
144 165 36
141 161 25
135 154 25
133 151 0
149 167 25
144 165 0
134 153 0
144 163 0
134 153 0
142 162 0
134 154 0
132 151 0
135 154 0
127 146 0
131 150 0
134 154 0
119 136 0
122 141 0
124 143 0
125 145 0
129 148 0
118 136 0
107 126 0
125 143 0
114 133 0
132 151 0
108 125 0
114 133 0
125 143 0
125 143 0
117 135 0
119 137 0
123 142 0
111 128 0
123 142 0
117 133 0
121 138 0
126 144 0
97 113 0
113 132 0
124 142 0
106 125 0
111 129 0
110 127 0
113 131 0
96 115 0
119 136 0
107 124 0
105 122 0
118 136 0
121 139 0
112 130 0
102 119 0
125 143 0
108 126 0
121 139 0
119 138 0
112 130 0
112 129 0
92 109 0
117 135 0
116 134 0
111 127 0
115 133 0
105 123 0
104 122 0
123 140 0
115 133 0
117 136 0
125 143 0
117 135 0
115 134 0
121 139 0
123 141 0
113 131 0
122 140 0
124 144 0
127 146 0
116 135 0
114 133 0
133 152 0
127 146 0
114 131 0
120 140 0
131 150 0
136 155 0
117 138 0
131 149 0
116 134 0
129 148 0
127 146 0
118 137 0
118 139 0
124 144 0
130 149 0
127 147 0
131 149 0
130 150 0
131 150 0
130 151 0
130 151 0
129 149 0
140 161 0
133 153 0
137 157 0
136 156 0
127 147 0
135 155 0
132 151 0
144 164 0
137 156 0
135 154 0
139 160 0
146 166 0
134 154 0
137 158 0
139 159 0
141 162 0
144 164 0
144 165 0
141 158 0
134 154 0
137 158 0
141 160 0
133 152 0
144 164 0
148 169 0
144 165 0
148 170 0
133 153 0
139 159 0
145 167 0
140 159 0
143 164 0
143 164 0
144 164 0
139 161 0
142 163 0
144 163 0
150 172 0
148 169 0
156 176 0
142 163 0
147 168 0
153 173 0
143 164 0
143 163 0
145 165 0
151 172 0
150 170 0
146 167 0
145 165 0
155 176 0
144 163 0
152 172 0
149 170 0
151 172 0
149 170 0
153 173 0
156 177 0
160 180 0
145 166 0
153 174 0
152 172 0
147 165 0
158 179 0
152 172 0
153 174 0
152 173 0
149 167 0
153 175 0
155 174 0
150 169 0
153 175 0
161 182 0
152 175 0
160 178 0
151 172 0
157 177 0
158 179 0
156 174 0
154 176 0
151 172 0
159 179 0
159 182 0
157 178 0
157 178 0
157 178 0
160 181 0
158 179 0
159 179 0
154 176 0
156 177 0
156 176 0
158 178 0
149 169 0
161 183 0
155 177 0
157 179 0
154 176 0
157 176 0
154 174 0
157 178 0
156 176 0
161 181 0
160 181 0
158 179 0
159 181 0
159 179 0
159 181 0
162 185 0
159 180 0
159 180 0
155 177 0
157 178 0
160 180 0
162 184 0
157 177 0
159 180 0
162 183 0
161 182 0
151 172 0
163 185 0
161 183 0
164 186 0
161 182 0
164 187 0
159 181 0
159 180 0
163 183 0
162 183 0
162 180 0
161 182 0
165 186 0
161 181 0
165 186 0
163 185 0
165 183 0
161 182 0
165 184 0
165 187 0
165 187 0
164 186 0
158 179 0
158 178 0
164 187 0
163 185 0
160 181 0
165 184 0
160 180 0
166 187 0
158 179 0
167 187 0
161 183 0
162 181 0
166 188 0
166 187 0
162 183 0
164 184 0
164 185 0
166 188 0
169 192 0
164 187 0
166 187 0
167 189 0
165 186 0
169 190 0
169 191 0
175 197 99
170 192 99
175 198 99
172 195 84
168 190 92
168 192 92
168 191 88
175 197 95
172 196 72
175 197 105
175 198 108
174 197 125
168 191 92
173 196 105
168 192 62
168 192 99
167 191 88
173 197 99
175 198 108
170 194 102
173 197 111
169 192 99
171 193 99
172 195 99
166 190 99
173 196 88
170 193 105
167 190 114
170 193 102
170 193 84
169 192 88
167 191 95
162 185 88
166 189 105
170 194 108
164 187 84
167 190 92
164 187 88
168 191 80
166 190 80
164 187 92
164 186 92
167 190 108
171 193 99
167 190 105
165 189 99
167 191 92
161 185 88
162 185 99
167 191 102
166 190 80
164 187 76
163 186 120
154 177 67
165 188 95
161 184 95
160 184 92
162 185 95
160 183 84
161 184 92
162 185 92
163 187 105
166 189 114
164 187 84
159 181 92
166 188 105
165 188 102
159 182 76
166 189 108
163 186 95
165 187 95
154 176 74
155 176 92
152 175 95
164 187 105
166 189 105
166 189 111
155 176 114
164 186 80
155 176 99
161 183 102
159 181 114
162 183 92
156 177 88
157 178 92
162 183 108
160 181 84
153 174 84
156 179 99
147 168 76
149 169 80
147 167 84
160 181 99
154 175 76
145 165 102
149 170 76
155 176 95
167 186 127
154 173 108
149 168 105
153 173 117
149 168 105
148 166 99
152 170 99
150 169 111
145 163 108
143 162 95
140 158 95
151 169 88
143 162 84
142 161 92
138 157 67
158 177 108
137 156 76
137 155 72
140 159 51
138 156 76
123 142 44
126 145 44
133 152 80
129 149 67
136 153 84
129 148 25
131 149 62
130 150 0
133 152 0
152 171 67
137 157 44
124 143 44
134 155 36
140 158 36
141 162 25
142 162 36
142 162 44
141 159 0
132 152 0
144 165 0
142 161 0
138 158 0
148 168 0
130 149 0
131 152 0
134 154 0
134 153 0
137 156 0
132 150 0
134 155 0
130 148 0
132 151 0
114 133 0
125 144 0
115 134 0
123 140 0
119 136 0
108 126 0
127 146 0
129 147 0
107 126 0
115 132 0
118 136 0
119 137 0
127 146 0
110 128 0
119 136 0
108 125 0
121 139 0
120 138 0
110 130 0
124 142 0
120 137 0
118 136 0
125 142 0
107 124 0
116 135 0
119 137 0
103 121 0
117 135 0
111 130 0
120 138 0
116 134 0
111 129 0
114 133 0
116 135 0
103 123 0
113 131 0
98 117 0
105 124 0
113 131 0
116 134 0
115 134 0
115 134 0
116 134 0
115 133 0
123 141 0
123 142 0
112 129 0
120 138 0
120 139 0
106 124 0
116 134 0
126 146 0
130 150 0
123 142 0
121 140 0
122 141 0
122 140 0
121 141 0
114 134 0
121 141 0
114 133 0
117 136 0
126 146 0
127 146 0
133 152 0
131 150 0
120 140 0
122 141 0
137 157 0
124 143 0
126 145 0
132 150 0
125 144 0
136 156 0
129 147 0
131 151 0
120 139 0
127 147 0
128 147 0
137 155 0
127 146 0
138 157 0
138 160 0
136 156 0
124 142 0
133 153 0
136 156 0
142 164 0
134 153 0
132 152 0
140 159 0
139 159 0
141 162 0
134 153 0
141 160 0
126 146 0
146 166 0
136 158 0
134 155 0
134 155 0
134 154 0
134 153 0
145 166 0
143 164 0
130 149 0
137 157 0
136 158 0
142 162 0
137 157 0
138 158 0
144 165 0
142 161 0
150 171 0
142 163 0
135 155 0
152 173 0
146 166 0
151 172 0
143 163 0
142 162 0
143 164 0
147 167 0
152 173 0
141 162 0
152 173 0
154 176 0
143 163 0
150 170 0
148 169 0
148 169 0
151 171 0
152 173 0
146 166 0
150 172 0
152 173 0
150 170 0
152 172 0
152 173 0
152 171 0
154 174 0
152 171 0
155 176 0
154 176 0
153 172 0
155 177 0
156 175 0
137 158 0
163 184 0
160 182 0
156 178 0
151 171 0
160 180 0
152 173 0
150 171 0
155 176 0
147 168 0
158 178 0
156 177 0
155 175 0
158 179 0
154 175 0
158 178 0
153 174 0
159 180 0
153 173 0
159 181 0
156 176 0
150 172 0
149 168 0
159 182 0
157 178 0
154 175 0
156 176 0
154 175 0
150 170 0
158 180 0
155 177 0
154 175 0
159 179 0
161 181 0
152 173 0
153 174 0
160 181 0
165 188 0
154 174 0
161 183 0
163 186 0
158 180 0
162 183 0
162 184 0
159 181 0
161 182 0
163 183 0
166 186 0
162 182 0
162 184 0
167 189 0
163 185 0
158 177 0
161 183 0
165 187 0
159 180 0
164 186 0
161 181 0
162 182 0
158 179 0
156 177 0
165 187 0
162 183 0
162 182 0
161 183 0
160 182 0
161 182 0
162 184 0
159 181 0
160 183 0
162 183 0
160 181 0
166 187 0
163 184 0
162 182 0
165 186 0
167 188 0
166 187 0
165 189 0
161 182 0
165 187 0
168 188 0
166 188 0
167 187 0
168 190 0
166 187 0
167 188 0
164 187 0
164 185 0
168 189 0
168 188 0
165 186 0
169 191 0
166 187 0
159 181 0
162 183 0
169 191 0
166 187 0
165 188 0
168 190 0
165 186 0
168 190 0
164 186 0
167 189 0
164 189 0
173 196 99
174 197 76
174 198 114
173 196 99
171 194 72
175 198 111
177 200 127
172 196 105
174 197 99
172 195 95
171 194 111
169 193 76
175 198 111
174 198 111
172 196 111
169 192 88
168 191 88
177 199 102
161 185 76
169 192 76
174 197 99
173 196 95
166 190 108
169 193 84
167 190 99
164 188 80
166 189 95
167 190 99
169 193 99
170 194 108
167 191 84
173 196 84
169 192 88
173 196 88
163 186 80
157 180 84
163 186 84
167 190 92
168 192 99
166 190 117
168 191 99
159 182 72
167 191 99
169 192 117
167 190 102
169 193 111
170 193 120
161 185 111
168 192 99
169 192 120
167 191 99
162 185 92
165 188 95
167 191 111
167 190 122
160 184 92
168 191 92
167 190 105
168 191 108
167 190 108
168 191 102
166 188 102
163 186 102
166 188 105
160 182 88
161 183 92
158 181 102
156 179 95
161 183 88
162 184 99
155 177 95
159 182 102
156 178 88
158 181 88
170 192 99
163 186 111
155 177 99
154 177 99
157 178 95
156 177 88
149 170 99
155 177 84
163 183 80
160 182 99
156 177 122
159 181 88
156 177 114
153 173 88
158 178 111
155 176 120
164 186 84
160 182 99
163 184 105
157 178 99
154 175 84
146 167 80
153 174 95
147 168 84
154 174 99
140 159 95
144 164 92
155 175 108
145 164 88
144 163 80
155 175 88
143 163 88
140 159 84
147 166 80
149 168 76
144 162 84
145 164 88
149 168 80
138 157 92
132 151 76
141 160 67
144 163 51
130 148 57
129 148 51
143 161 62
135 154 72
137 156 44
136 156 51
128 146 36
131 149 44
136 155 25
130 149 44
139 158 57
136 153 44
131 150 25
140 159 36
136 156 25
143 163 36
144 164 36
145 165 25
148 168 25
141 161 0
143 164 0
141 161 0
140 162 0
137 157 0
136 156 0
135 155 0
138 158 0
128 148 0
130 147 0
118 138 0
124 141 0
131 150 0
124 142 0
123 143 0
131 150 0
126 145 0
122 141 0
116 135 0
131 150 0
123 142 0
117 136 0
115 134 0
125 144 0
112 129 0
122 141 0
114 132 0
115 133 0
113 133 0
120 139 0
115 132 0
107 125 0
120 138 0
122 140 0
110 127 0
106 125 0
117 137 0
110 128 0
115 133 0
125 143 0
115 132 0
110 128 0
122 141 0
106 126 0
118 137 0
100 117 0
109 127 0
112 130 0
122 141 0
119 136 0
117 135 0
108 126 0
118 136 0
118 137 0
125 142 0
104 123 0
118 136 0
116 134 0
120 139 0
120 139 0
128 147 0
115 134 0
118 136 0
126 146 0
118 137 0
114 133 0
109 129 0
117 136 0
133 151 0
131 150 0
123 141 0
130 149 0
125 144 0
132 151 0
132 151 0
119 137 0
136 156 0
124 143 0
114 135 0
128 147 0
137 156 0
121 140 0
136 155 0
126 145 0
132 152 0
124 143 0
128 147 0
135 155 0
129 149 0
136 156 0
121 141 0
133 154 0
121 141 0
133 152 0
131 152 0
127 147 0
142 162 0
125 145 0
131 151 0
128 147 0
138 159 0
127 144 0
139 159 0
131 151 0
142 163 0
147 168 0
136 156 0
139 159 0
139 159 0
137 156 0
125 144 0
137 157 0
145 165 0
142 160 0
136 157 0
140 159 0
131 149 0
140 161 0
145 167 0
144 166 0
141 161 0
137 157 0
137 158 0
148 169 0
145 166 0
145 166 0
148 170 0
140 160 0
144 164 0
149 171 0
150 170 0
150 170 0
153 174 0
146 166 0
146 165 0
147 168 0
141 160 0
143 163 0
153 174 0
148 170 0
155 174 0
147 167 0
155 177 0
152 172 0
145 166 0
146 166 0
148 169 0
157 178 0
148 169 0
147 167 0
151 173 0
151 171 0
153 173 0
144 165 0
152 171 0
154 176 0
151 172 0
150 170 0
145 166 0
153 173 0
155 176 0
156 178 0
150 171 0
150 170 0
146 168 0
155 176 0
157 179 0
156 177 0
156 177 0
151 172 0
156 176 0
154 174 0
157 178 0
162 184 0
158 178 0
154 175 0
157 177 0
157 178 0
155 175 0
158 179 0
154 175 0
158 179 0
152 173 0
157 179 0
158 177 0
159 179 0
160 181 0
158 178 0
161 183 0
154 174 0
159 179 0
163 184 0
156 175 0
160 182 0
154 174 0
154 174 0
154 174 0
160 180 0
162 182 0
157 179 0
156 178 0
160 181 0
158 178 0
159 180 0
158 179 0
161 182 0
162 184 0
165 187 0
157 180 0
162 182 0
162 183 0
164 187 0
165 185 0
162 182 0
164 186 0
159 179 0
160 180 0
166 187 0
163 183 0
162 182 0
164 186 0
158 180 0
161 181 0
162 184 0
161 182 0
160 180 0
166 188 0
162 185 0
164 185 0
163 184 0
162 183 0
162 182 0
163 185 0
162 184 0
163 186 0
168 190 0
162 183 0
164 184 0
164 185 0
165 187 0
164 186 0
166 187 0
169 191 0
166 188 0
168 189 0
165 186 0
163 183 0
164 186 0
163 184 0
167 189 0
163 184 0
167 189 0
162 183 0
166 187 0
163 185 0
164 185 0
167 190 0
166 187 0
169 189 0
162 183 0
168 188 0
167 189 0
165 185 0
164 186 0
167 188 0
177 199 99
172 196 92
165 189 84
174 196 105
172 194 95
172 195 84
172 194 99
176 199 95
173 197 105
172 195 105
175 197 111
173 197 67
169 193 92
173 196 99
172 195 102
170 194 99
168 191 84
166 189 92
176 200 117
160 184 103
175 198 111
168 192 95
165 188 80
170 193 102
170 194 111
167 190 111
173 196 99
174 197 102
158 181 80
166 190 92
171 195 99
165 189 72
174 198 117
167 190 92
170 194 99
167 191 105
170 193 102
167 191 72
169 192 111
168 191 102
169 193 105
166 190 102
167 191 95
168 191 105
165 189 105
171 195 105
158 182 62
160 183 92
165 189 102
157 181 88
165 188 92
168 191 114
167 190 99
166 190 88
163 186 92
163 186 130
162 185 108
166 188 95
166 189 99
160 183 117
169 192 92
166 189 102
167 189 95
161 184 80
159 182 92
164 186 99
162 185 76
156 179 84
161 184 80
154 176 80
155 179 88
155 177 99
161 183 117
156 179 99
161 183 117
159 181 95
155 177 105
151 173 84
158 180 95
169 191 117
154 175 92
147 168 84
157 178 88
155 176 80
160 181 102
158 179 88
152 172 95
161 182 111
143 163 99
152 174 102
147 167 99
157 178 92
154 175 92
161 181 105
156 175 99
150 170 80
150 169 99
156 177 102
149 168 102
149 169 84
156 176 95
155 175 80
160 180 105
145 165 88
153 172 114
146 165 99
155 174 99
143 162 76
139 158 80
148 167 99
147 165 99
146 166 57
130 150 57
149 169 88
137 156 51
138 157 62
140 159 51
142 162 44
135 153 57
136 155 76
138 156 67
135 154 44
133 151 62
132 149 57
132 150 62
126 145 25
126 145 51
149 168 51
147 167 36
147 167 25
140 160 25
138 157 44
138 157 0
145 165 25
141 161 25
141 162 0
147 167 0
135 155 0
145 167 0
147 168 0
135 155 0
138 160 0
141 161 0
136 156 0
122 142 0
135 156 0
130 149 0
139 160 0
138 157 0
130 150 0
139 158 0
106 125 0
124 143 0
119 138 0
123 142 0
129 149 0
123 142 0
115 133 0
111 130 0
113 132 0
112 130 0
120 137 0
119 139 0
107 126 0
116 134 0
125 143 0
114 133 0
112 132 0
122 140 0
120 138 0
118 136 0
112 130 0
124 143 0
125 143 0
123 141 0
123 142 0
118 137 0
116 134 0
126 144 0
128 147 0
118 135 0
116 134 0
106 126 0
119 139 0
115 134 0
123 141 0
112 131 0
123 142 0
121 139 0
122 140 0
114 134 0
124 143 0
110 129 0
123 143 0
120 139 0
116 134 0
127 146 0
125 143 0
122 140 0
123 141 0
132 152 0
126 145 0
111 131 0
119 138 0
123 142 0
119 138 0
128 147 0
125 144 0
127 145 0
125 144 0
132 152 0
128 146 0
128 148 0
125 144 0
125 144 0
134 154 0
130 149 0
128 148 0
130 150 0
129 149 0
131 151 0
128 148 0
127 148 0
139 159 0
138 157 0
122 142 0
135 155 0
133 153 0
132 151 0
134 153 0
132 153 0
124 143 0
135 154 0
136 156 0
131 152 0
138 157 0
140 160 0
136 156 0
122 143 0
141 162 0
152 172 0
136 157 0
135 154 0
127 146 0
146 167 0
151 172 0
140 160 0
149 169 0
147 166 0
141 161 0
140 161 0
132 154 0
142 161 0
136 155 0
145 166 0
136 157 0
146 166 0
145 165 0
138 159 0
141 160 0
142 160 0
145 166 0
151 172 0
153 174 0
153 174 0
141 161 0
145 167 0
140 160 0
149 170 0
147 168 0
151 172 0
145 165 0
149 171 0
146 166 0
146 166 0
138 158 0
147 168 0
151 172 0
155 176 0
149 169 0
151 171 0
150 171 0
149 170 0
149 170 0
153 173 0
155 174 0
147 168 0
155 174 0
151 172 0
152 172 0
150 170 0
159 181 0
148 169 0
160 181 0
156 177 0
157 177 0
148 170 0
159 181 0
150 170 0
156 178 0
152 173 0
155 177 0
151 173 0
148 169 0
158 178 0
159 179 0
153 174 0
155 176 0
152 174 0
153 174 0
147 168 0
156 178 0
152 173 0
159 181 0
158 181 0
147 167 0
159 181 0
163 184 0
156 177 0
165 187 0
148 167 0
156 177 0
156 178 0
160 181 0
155 178 0
160 182 0
161 182 0
159 180 0
153 172 0
156 178 0
159 181 0
156 177 0
153 173 0
164 186 0
163 184 0
159 181 0
161 182 0
161 180 0
159 177 0
161 184 0
159 182 0
162 184 0
164 187 0
161 182 0
165 186 0
158 178 0
165 188 0
165 186 0
162 184 0
162 182 0
160 180 0
159 180 0
159 181 0
163 183 0
162 182 0
159 181 0
165 186 0
159 180 0
165 186 0
164 186 0
164 186 0
165 187 0
165 186 0
164 184 0
164 185 0
161 182 0
167 188 0
167 188 0
165 186 0
166 188 0
163 185 0
163 186 0
166 190 0
161 182 0
167 189 0
165 185 0
166 187 0
164 186 0
160 182 0
163 185 0
165 186 0
163 185 0
165 184 0
161 181 0
165 185 0
168 192 0
161 184 0
165 186 0
163 184 0
166 189 0
169 191 0
162 183 0
169 191 0
169 189 0
162 181 0
164 186 0
167 187 0
171 192 0
165 186 0
168 189 0
172 194 95
170 193 92
164 187 95
173 197 84
173 196 92
174 198 92
172 196 80
170 193 111
172 195 99
174 198 84
176 199 108
175 198 84
169 191 95
176 200 108
173 196 84
175 199 122
173 196 105
170 194 95
172 195 102
173 197 114
168 192 102
172 196 117
171 195 105
168 191 80
169 193 99
166 190 84
173 196 102
169 192 108
169 192 99
163 186 62
169 193 95
167 189 92
163 186 76
166 189 92
171 194 99
163 187 111
170 194 108
169 192 88
164 188 88
169 193 127
169 193 125
163 187 88
170 192 80
166 189 84
170 193 95
165 188 92
167 191 92
163 186 76
162 184 99
166 189 95
165 188 102
163 187 80
165 188 108
172 195 122
158 180 76
165 188 111
152 175 92
162 185 105
156 178 92
161 183 92
161 184 108
165 187 95
160 183 92
166 188 88
160 183 108
161 183 67
157 180 99
155 177 76
162 185 99
156 179 88
155 178 99
163 186 84
159 182 102
160 182 88
157 180 88
150 172 80
162 184 80
158 179 92
162 183 111
165 186 92
151 173 99
158 179 84
159 181 92
160 181 102
159 180 80
168 189 120
159 179 102
157 178 102
155 177 108
158 179 84
153 174 95
160 180 111
153 174 95
142 162 84
152 172 102
158 179 102
158 178 99
153 173 108
154 174 92
157 177 105
154 174 95
154 175 102
153 173 99
147 167 88
161 181 105
149 169 99
144 163 88
154 172 105
143 161 84
150 169 88
142 161 72
144 163 92
142 161 80
148 167 84
137 156 51
144 165 67
142 162 57
155 175 76
136 154 44
141 160 62
132 150 36
140 160 51
121 140 25
130 149 0
127 146 36
127 144 36
133 152 36
126 146 25
144 164 51
145 165 51
144 165 44
144 165 0
150 171 25
137 158 0
146 167 0
144 165 0
151 173 0
146 167 0
143 162 0
145 166 0
141 163 0
146 167 0
136 157 0
137 157 0
131 151 0
127 147 0
137 156 0
125 146 0
125 144 0
131 150 0
123 142 0
131 149 0
128 146 0
130 149 0
135 154 0
123 142 0
124 143 0
134 154 0
123 141 0
127 146 0
120 140 0
124 144 0
119 139 0
119 138 0
119 138 0
126 146 0
107 125 0
129 147 0
123 142 0
112 131 0
121 138 0
116 135 0
118 137 0
121 138 0
113 131 0
110 128 0
110 130 0
119 137 0
115 132 0
124 143 0
117 136 0
122 142 0
109 128 0
112 130 0
120 139 0
120 138 0
120 140 0
118 137 0
122 141 0
123 143 0
123 142 0
115 134 0
114 134 0
125 144 0
129 148 0
136 155 0
111 131 0
121 140 0
126 146 0
120 139 0
121 139 0
121 141 0
130 149 0
141 160 0
130 150 0
127 147 0
131 151 0
114 133 0
120 139 0
120 139 0
130 150 0
128 147 0
119 138 0
130 151 0
129 148 0
131 150 0
128 147 0
124 143 0
120 140 0
120 140 0
134 153 0
129 148 0
128 148 0
143 163 0
134 155 0
130 149 0
144 164 0
132 152 0
125 145 0
135 156 0
128 148 0
127 147 0
137 156 0
132 152 0
139 160 0
135 155 0
133 154 0
136 157 0
150 171 0
133 152 0
131 151 0
136 157 0
138 159 0
130 149 0
141 162 0
136 156 0
140 159 0
137 158 0
149 169 0
152 173 0
143 164 0
142 163 0
139 160 0
138 158 0
145 164 0
148 169 0
137 159 0
140 160 0
147 169 0
142 163 0
145 165 0
144 164 0
143 164 0
142 161 0
154 174 0
146 167 0
149 171 0
153 172 0
142 164 0
149 169 0
142 163 0
144 164 0
141 162 0
145 166 0
145 164 0
148 168 0
153 174 0
150 169 0
147 169 0
155 177 0
150 171 0
144 165 0
152 174 0
155 178 0
149 170 0
150 173 0
144 164 0
153 175 0
159 181 0
147 170 0
149 169 0
152 172 0
150 170 0
150 173 0
151 173 0
157 180 0
151 172 0
157 178 0
158 180 0
149 170 0
152 174 0
153 174 0
151 171 0
152 173 0
162 184 0
157 178 0
148 169 0
152 172 0
159 179 0
154 176 0
155 175 0
156 176 0
158 180 0
160 180 0
159 180 0
164 186 0
158 180 0
154 174 0
153 174 0
154 174 0
154 176 0
155 174 0
163 183 0
160 180 0
157 178 0
157 179 0
163 185 0
165 186 0
164 185 0
159 180 0
155 175 0
162 184 0
156 176 0
161 184 0
162 185 0
162 183 0
160 180 0
164 185 0
158 178 0
159 180 0
167 188 0
159 180 0
162 184 0
156 177 0
160 181 0
168 190 0
160 180 0
162 182 0
163 185 0
159 180 0
166 184 0
160 182 0
162 184 0
161 182 0
164 186 0
164 185 0
159 180 0
164 186 0
165 185 0
156 178 0
161 182 0
162 185 0
162 184 0
167 189 0
161 183 0
165 187 0
162 184 0
164 185 0
164 187 0
166 188 0
163 185 0
166 187 0
162 183 0
168 187 0
165 186 0
162 184 0
166 187 0
167 189 0
165 187 0
166 189 0
165 187 0
162 183 0
169 190 0
166 188 0
166 189 0
166 188 0
168 189 0
163 184 0
161 184 0
165 187 0
165 187 0
165 188 0
165 186 0
165 187 0
162 183 0
161 182 0
165 186 0
168 191 0
166 189 0
170 192 0
170 192 108
172 195 105
168 191 84
171 195 95
177 200 125
173 196 99
166 189 80
177 199 102
170 193 72
172 194 95
174 197 114
175 198 108
172 195 84
173 197 88
170 193 67
169 192 102
171 194 80
167 191 92
169 193 111
167 190 95
170 193 108
172 195 117
167 191 105
166 189 72
174 197 122
170 193 105
168 192 95
171 194 88
165 189 76
168 192 102
166 190 92
168 192 92
169 192 84
169 193 95
162 185 99
171 194 92
167 192 99
168 192 92
170 193 92
158 181 88
167 190 114
162 186 99
167 190 88
159 182 80
161 184 102
163 187 108
167 190 84
164 187 102
163 187 95
161 184 108
160 182 80
160 183 88
163 186 102
170 194 102
170 193 102
165 188 72
159 182 95
161 183 95
166 189 92
156 179 76
164 187 95
164 187 92
154 177 92
158 181 111
162 183 95
165 187 99
160 182 105
158 181 108
164 186 111
164 186 62
155 177 102
154 176 105
152 174 92
163 185 105
160 182 72
155 176 76
168 190 99
158 180 99
159 182 102
156 179 88
161 182 111
163 185 105
160 182 111
157 179 95
156 177 57
153 174 92
157 179 105
159 179 105
160 182 102
157 178 105
149 170 95
158 179 99
160 180 108
149 170 92
152 174 76
149 170 84
156 176 114
150 171 99
159 179 111
157 178 84
158 178 102
160 179 117
153 173 84
158 177 99
153 173 95
141 161 95
156 175 111
157 177 95
154 173 95
140 159 88
151 170 92
154 172 92
150 170 67
138 158 51
151 170 72
147 166 62
143 163 57
128 147 36
133 152 57
146 165 72
143 163 57
128 148 25
123 142 51
126 144 25
132 152 51
130 149 36
130 149 44
146 165 36
147 165 44
144 165 0
138 158 25
145 165 25
143 163 25
143 163 0
143 162 0
147 167 0
141 161 0
144 165 0
148 168 0
143 163 0
139 160 0
144 165 0
126 146 0
144 164 0
128 146 0
132 152 0
131 152 0
130 151 0
132 153 0
138 158 0
124 144 0
116 136 0
126 145 0
133 152 0
131 150 0
114 133 0
119 137 0
126 145 0
133 152 0
134 153 0
121 139 0
119 138 0
120 138 0
120 140 0
131 150 0
130 149 0
121 140 0
119 138 0
121 139 0
120 139 0
121 140 0
119 138 0
128 147 0
124 143 0
127 146 0
119 139 0
122 142 0
111 130 0
124 144 0
111 129 0
118 136 0
128 146 0
117 136 0
122 141 0
116 136 0
111 130 0
126 145 0
121 140 0
122 141 0
123 141 0
118 136 0
133 151 0
119 139 0
127 145 0
125 145 0
130 150 0
116 135 0
123 142 0
127 147 0
113 132 0
116 134 0
134 154 0
111 129 0
120 138 0
125 144 0
123 142 0
119 137 0
128 145 0
132 152 0
122 140 0
133 153 0
117 137 0
126 146 0
136 156 0
127 146 0
131 152 0
132 151 0
128 148 0
124 143 0
137 157 0
134 153 0
135 155 0
128 148 0
140 161 0
133 153 0
136 157 0
136 156 0
130 150 0
134 153 0
137 156 0
139 159 0
139 159 0
128 148 0
131 151 0
135 156 0
138 158 0
142 161 0
139 159 0
143 162 0
149 170 0
139 160 0
139 159 0
130 151 0
131 150 0
139 159 0
145 165 0
140 161 0
153 173 0
147 166 0
140 161 0
148 170 0
145 164 0
145 166 0
138 157 0
138 157 0
147 168 0
137 158 0
151 172 0
143 164 0
144 164 0
143 164 0
143 164 0
150 171 0
140 160 0
139 159 0
153 174 0
152 171 0
146 166 0
152 173 0
150 171 0
152 173 0
145 166 0
150 171 0
154 175 0
155 177 0
153 172 0
147 168 0
153 174 0
144 165 0
150 170 0
152 175 0
143 164 0
157 180 0
151 172 0
155 176 0
155 176 0
150 171 0
154 176 0
149 170 0
156 177 0
150 170 0
150 171 0
158 179 0
155 175 0
150 172 0
151 173 0
154 176 0
148 169 0
156 176 0
158 179 0
151 170 0
154 174 0
158 179 0
149 171 0
151 171 0
153 174 0
152 174 0
153 174 0
153 174 0
160 180 0
155 177 0
162 185 0
162 186 0
157 179 0
154 176 0
150 171 0
159 181 0
161 181 0
158 180 0
157 179 0
157 177 0
163 183 0
164 186 0
160 182 0
161 183 0
164 187 0
162 185 0
156 176 0
162 184 0
158 179 0
153 173 0
160 180 0
160 181 0
153 173 0
164 186 0
156 179 0
163 186 0
160 180 0
162 184 0
156 177 0
158 180 0
164 185 0
157 178 0
164 186 0
158 179 0
160 183 0
165 186 0
164 183 0
158 180 0
162 184 0
163 184 0
163 184 0
161 183 0
160 182 0
161 181 0
163 186 0
166 188 0
163 184 0
164 184 0
166 188 0
161 183 0
166 187 0
166 188 0
164 185 0
165 186 0
162 184 0
162 182 0
163 185 0
164 185 0
164 186 0
159 181 0
163 187 0
167 189 0
164 186 0
164 187 0
163 185 0
166 187 0
158 177 0
159 181 0
165 186 0
166 188 0
164 184 0
168 191 0
165 186 0
166 188 0
161 181 0
165 187 0
165 187 0
163 186 0
168 190 0
162 184 0
167 189 0
163 184 0
166 188 0
163 185 0
167 188 0
166 188 0
166 187 0
170 192 0
165 187 0
178 201 114
174 197 84
175 198 102
176 198 105
171 194 80
172 195 102
175 198 95
169 191 76
176 198 102
173 196 102
173 197 95
170 193 95
171 194 99
169 193 92
163 187 76
173 196 108
168 191 99
170 193 80
169 192 84
171 194 108
170 193 76
168 191 84
167 191 88
172 195 92
167 190 84
168 191 99
171 193 111
169 193 88
167 190 88
168 191 80
165 189 80
170 192 84
172 195 99
166 189 88
167 191 105
171 194 88
170 193 99
168 192 108
167 190 102
169 192 111
169 192 114
167 191 108
165 189 95
160 184 108
165 189 102
171 194 111
162 186 108
165 188 117
170 193 99
159 182 76
167 191 95
166 190 99
155 177 95
170 193 114
161 183 122
162 184 105
161 183 105
163 186 102
164 186 88
166 189 108
157 181 108
159 181 92
159 182 84
161 184 108
164 187 95
153 175 76
162 184 92
163 186 76
162 184 111
164 187 102
160 182 80
152 174 95
165 186 105
160 181 92
163 186 105
157 179 80
160 182 102
147 168 95
162 183 105
160 182 105
147 168 88
158 180 92
156 177 99
159 180 99
158 180 80
166 188 105
158 180 95
148 170 95
162 182 99
159 179 111
156 177 99
158 179 95
156 177 80
166 188 120
160 181 88
150 170 84
154 174 117
152 173 105
162 182 117
153 173 114
151 171 84
144 163 99
162 182 92
155 175 92
141 161 76
152 173 92
155 175 105
153 171 105
145 165 84
152 171 102
148 168 80
134 153 67
140 159 76
141 159 76
146 166 80
142 162 80
140 159 67
139 159 76
142 161 67
148 167 57
137 156 67
132 152 57
130 149 44
136 155 57
134 153 44
136 156 44
136 156 25
141 161 44
143 164 44
136 156 25
143 164 0
141 162 0
141 160 0
146 168 25
145 167 0
147 167 0
147 167 0
146 167 0
145 167 0
147 168 0
142 163 0
145 165 0
135 157 0
144 164 0
126 146 0
136 157 0
134 155 0
134 154 0
128 146 0
134 153 0
131 151 0
136 156 0
133 152 0
136 156 0
117 135 0
126 144 0
138 157 0
132 151 0
128 147 0
137 158 0
129 148 0
128 148 0
120 139 0
116 135 0
123 142 0
116 135 0
133 152 0
139 159 0
127 145 0
116 134 0
113 133 0
132 152 0
124 143 0
127 148 0
127 147 0
128 146 0
106 126 0
116 135 0
135 155 0
117 136 0
130 149 0
115 135 0
117 136 0
126 145 0
124 143 0
118 138 0
125 145 0
121 141 0
117 136 0
134 154 0
124 143 0
123 143 0
117 137 0
126 144 0
132 152 0
118 138 0
126 144 0
128 148 0
116 134 0
118 137 0
123 142 0
117 135 0
123 142 0
127 147 0
119 139 0
120 140 0
120 140 0
126 146 0
135 155 0
122 140 0
125 145 0
120 138 0
135 156 0
125 145 0
126 145 0
133 154 0
129 150 0
131 153 0
133 152 0
134 153 0
133 153 0
135 155 0
140 161 0
139 158 0
135 155 0
132 153 0
132 151 0
138 156 0
134 155 0
137 158 0
133 154 0
141 162 0
135 155 0
130 152 0
136 155 0
138 160 0
142 163 0
141 163 0
141 161 0
139 159 0
140 161 0
139 160 0
130 151 0
144 164 0
142 162 0
140 161 0
135 155 0
147 168 0
144 164 0
148 169 0
139 159 0
136 157 0
139 158 0
141 161 0
139 160 0
146 167 0
144 163 0
141 162 0
145 166 0
145 165 0
140 161 0
145 166 0
145 165 0
148 169 0
146 167 0
143 162 0
146 166 0
147 166 0
151 172 0
149 169 0
154 175 0
145 167 0
149 169 0
151 172 0
150 173 0
140 160 0
152 174 0
152 173 0
153 174 0
151 173 0
145 166 0
155 177 0
146 166 0
150 171 0
156 178 0
152 173 0
148 169 0
156 176 0
153 174 0
154 175 0
157 177 0
156 176 0
148 169 0
157 178 0
157 178 0
159 180 0
152 174 0
154 175 0
157 178 0
160 180 0
151 171 0
158 179 0
155 177 0
157 178 0
161 183 0
153 175 0
154 177 0
157 179 0
147 169 0
161 183 0
154 174 0
153 173 0
152 174 0
155 177 0
162 183 0
160 183 0
152 174 0
152 173 0
153 174 0
158 180 0
154 175 0
165 187 0
161 182 0
160 181 0
155 176 0
158 178 0
162 183 0
162 184 0
159 180 0
161 185 0
161 183 0
159 180 0
155 176 0
158 180 0
159 180 0
161 183 0
161 183 0
164 187 0
166 187 0
168 188 0
162 185 0
164 186 0
161 183 0
159 179 0
153 175 0
164 185 0
162 184 0
160 180 0
159 181 0
164 187 0
165 186 0
156 177 0
166 188 0
160 182 0
159 180 0
156 175 0
163 185 0
162 183 0
164 184 0
160 182 0
158 180 0
170 192 0
162 184 0
164 185 0
165 186 0
165 187 0
163 184 0
162 185 0
162 185 0
163 184 0
166 187 0
169 191 0
163 185 0
164 186 0
166 186 0
168 190 0
165 188 0
164 186 0
164 185 0
168 191 0
164 185 0
162 183 0
166 188 0
160 182 0
168 189 0
165 188 0
165 186 0
161 184 0
163 185 0
170 192 0
166 186 0
164 185 0
166 187 0
167 189 0
170 192 0
166 187 0
169 191 0
165 186 0
165 186 0
168 189 0
174 197 76
171 194 88
171 195 84
175 198 99
171 194 92
167 189 84
175 198 105
171 195 102
172 194 108
172 196 102
175 197 105
172 195 102
178 202 114
169 193 84
167 190 80
171 195 95
174 197 99
170 193 92
168 191 95
170 192 95
171 194 92
170 193 92
166 189 102
167 191 99
165 188 84
169 191 99
171 195 92
166 190 84
167 191 76
168 192 88
164 187 72
170 193 111
168 191 99
172 195 88
167 191 111
165 189 84
166 189 92
164 187 111
170 193 99
168 192 111
170 194 125
160 183 84
157 180 67
167 190 84
164 186 88
161 185 108
161 184 84
168 192 95
161 185 95
168 191 105
157 179 76
158 181 108
166 189 92
168 191 108
166 189 88
165 188 102
166 189 105
168 190 99
162 185 92
165 189 108
166 189 76
164 188 92
168 192 92
161 184 80
156 178 95
157 179 108
166 189 99
159 181 80
159 182 88
160 182 88
164 185 99
159 181 76
156 179 92
156 179 92
165 187 102
156 178 76
163 184 102
162 184 95
162 183 111
155 176 76
156 176 111
163 184 95
157 179 92
164 185 114
164 186 114
160 182 92
162 183 102
160 180 99
160 181 117
152 173 80
156 177 99
166 186 117
151 172 92
154 175 108
158 179 102
154 175 102
157 178 95
152 172 88
153 173 95
157 177 102
148 168 108
157 176 102
150 170 88
148 168 80
153 174 102
158 178 99
154 173 99
158 176 105
147 166 88
152 172 76
151 170 76
157 178 76
149 168 72
143 162 80
146 166 67
131 150 57
144 164 25
139 159 36
140 160 51
136 156 72
138 157 36
138 158 51
135 155 51
136 156 25
139 159 36
137 157 44
142 163 36
144 165 36
142 163 25
136 159 0
134 154 25
148 170 0
141 161 0
137 158 0
148 168 36
141 161 0
152 173 0
145 166 0
137 157 25
148 168 0
141 161 0
143 164 0
137 157 0
141 161 0
139 159 0
142 162 0
145 166 0
131 151 0
147 166 0
130 150 0
131 151 0
128 148 0
135 154 0
135 155 0
120 140 0
127 146 0
135 155 0
134 154 0
126 144 0
116 136 0
119 138 0
135 155 0
121 140 0
123 141 0
118 137 0
132 152 0
124 144 0
128 148 0
107 127 0
116 134 0
125 145 0
138 157 0
129 147 0
117 137 0
118 137 0
118 136 0
125 145 0
120 139 0
124 143 0
128 148 0
114 133 0
118 137 0
128 148 0
128 148 0
122 141 0
124 144 0
115 134 0
124 144 0
130 150 0
127 147 0
124 142 0
120 139 0
118 137 0
128 147 0
126 145 0
128 147 0
130 150 0
127 147 0
130 149 0
130 150 0
129 149 0
134 154 0
138 157 0
135 154 0
132 152 0
129 148 0
126 145 0
139 160 0
132 151 0
118 138 0
127 147 0
128 148 0
132 150 0
126 147 0
129 149 0
125 146 0
123 143 0
134 154 0
126 145 0
129 148 0
128 148 0
128 148 0
125 146 0
130 150 0
137 157 0
133 153 0
130 148 0
132 153 0
134 155 0
135 156 0
140 158 0
142 163 0
126 147 0
139 160 0
130 151 0
143 163 0
143 164 0
139 159 0
142 162 0
143 164 0
140 159 0
140 161 0
144 163 0
134 154 0
129 149 0
146 167 0
144 165 0
143 164 0
150 171 0
141 162 0
143 164 0
141 162 0
136 155 0
144 164 0
148 170 0
142 162 0
143 163 0
143 161 0
141 161 0
143 162 0
143 164 0
148 171 0
155 177 0
148 167 0
145 166 0
151 171 0
144 166 0
147 168 0
139 159 0
151 174 0
147 167 0
150 171 0
154 175 0
155 176 0
146 166 0
148 168 0
151 172 0
151 171 0
144 165 0
152 174 0
151 171 0
157 178 0
152 174 0
156 178 0
155 177 0
155 176 0
145 165 0
151 173 0
160 181 0
161 181 0
151 171 0
149 170 0
156 179 0
151 174 0
150 172 0
145 166 0
151 170 0
158 179 0
157 177 0
154 176 0
154 175 0
150 171 0
158 179 0
157 178 0
154 174 0
156 179 0
154 175 0
154 173 0
159 180 0
154 176 0
156 177 0
157 180 0
163 184 0
156 177 0
155 177 0
164 185 0
155 175 0
161 182 0
159 180 0
160 181 0
154 176 0
160 182 0
158 181 0
160 182 0
157 178 0
158 179 0
159 181 0
157 179 0
149 169 0
159 182 0
162 184 0
155 177 0
161 183 0
159 180 0
156 177 0
161 181 0
155 175 0
159 181 0
156 177 0
157 178 0
157 179 0
162 184 0
166 187 0
162 184 0
166 188 0
159 179 0
161 182 0
165 186 0
165 186 0
164 185 0
159 180 0
163 186 0
162 183 0
164 185 0
158 180 0
168 188 0
164 186 0
166 187 0
163 184 0
162 183 0
166 186 0
164 187 0
164 187 0
158 179 0
164 185 0
162 181 0
160 182 0
163 186 0
167 187 0
164 184 0
166 189 0
165 186 0
169 190 0
164 185 0
163 185 0
165 188 0
169 190 0
164 186 0
161 183 0
166 187 0
163 185 0
164 185 0
167 189 0
165 186 0
162 183 0
165 186 0
165 187 0
164 184 0
166 187 0
166 187 0
166 187 0
166 187 0
163 186 0
166 188 0
167 189 0
170 192 0
165 187 0
162 183 0
164 187 0
165 187 0
173 196 102
172 195 95
169 191 72
171 194 99
178 201 122
175 197 92
174 197 105
174 197 99
171 194 92
176 199 92
173 196 72
171 194 99
170 193 88
172 194 99
170 193 105
174 197 84
171 194 102
167 191 72
172 195 84
168 191 84
173 196 108
170 194 92
172 195 99
172 196 99
173 196 108
171 194 111
167 191 114
165 188 95
169 193 102
166 190 108
165 189 95
166 190 99
173 195 108
173 196 117
168 191 95
162 185 76
165 188 88
166 190 102
165 187 72
166 189 88
169 192 114
163 186 67
167 191 114
163 186 67
160 183 99
167 191 84
158 182 76
160 182 84
169 192 99
171 193 92
167 189 88
164 187 95
165 187 102
163 187 88
168 192 105
167 190 92
160 183 99
159 181 95
164 187 108
161 184 80
162 185 102
168 189 84
165 188 99
163 186 102
160 182 80
161 182 99
151 173 62
163 185 84
161 183 105
164 187 99
162 185 92
156 178 105
166 188 102
161 183 88
163 185 114
161 183 102
157 179 72
159 180 88
163 186 95
158 180 95
163 185 102
155 176 92
164 186 114
160 181 92
155 177 95
161 183 95
164 185 114
168 188 117
156 176 99
162 183 88
159 179 88
141 162 80
159 180 95
154 174 92
149 170 80
160 180 111
160 181 92
158 179 102
157 178 99
152 172 80
154 175 84
150 170 84
143 163 80
136 156 72
148 168 76
154 174 99
149 169 80
152 172 99
147 168 76
158 177 95
146 165 80
143 163 62
144 164 80
146 166 62
149 168 92
140 161 62
150 170 36
136 156 57
145 165 72
141 162 25
133 153 44
136 157 36
133 153 51
141 161 44
143 163 44
147 166 44
143 164 36
146 166 57
144 163 0
135 156 25
143 164 0
146 166 25
145 165 25
138 159 25
150 170 0
144 165 0
151 171 0
144 165 0
146 166 0
143 163 0
139 161 0
138 160 0
142 162 0
142 162 0
146 168 0
140 160 0
136 155 0
141 162 0
134 155 0
134 153 0
131 150 0
141 160 0
132 152 0
132 152 0
132 151 0
128 149 0
130 151 0
122 142 0
125 146 0
128 148 0
128 148 0
117 137 0
121 140 0
120 138 0
124 144 0
127 148 0
128 148 0
113 132 0
125 145 0
125 144 0
128 148 0
110 130 0
127 148 0
123 142 0
118 139 0
122 141 0
131 151 0
110 129 0
118 138 0
117 136 0
127 145 0
122 140 0
124 145 0
127 147 0
125 144 0
123 142 0
128 147 0
127 148 0
126 146 0
125 145 0
131 150 0
122 142 0
123 143 0
128 148 0
122 142 0
129 148 0
124 144 0
125 145 0
124 143 0
131 150 0
126 146 0
129 148 0
136 154 0
129 150 0
127 147 0
124 144 0
122 142 0
139 160 0
122 142 0
140 161 0
123 142 0
132 153 0
125 145 0
129 148 0
133 153 0
136 157 0
128 147 0
133 153 0
133 154 0
144 165 0
138 159 0
139 160 0
129 149 0
140 160 0
127 149 0
131 152 0
130 150 0
136 155 0
135 155 0
139 160 0
138 159 0
141 162 0
134 156 0
129 149 0
135 156 0
141 161 0
144 165 0
140 160 0
139 160 0
146 167 0
135 156 0
142 163 0
131 151 0
143 163 0
134 153 0
140 160 0
138 158 0
140 160 0
140 161 0
143 163 0
138 158 0
147 169 0
138 158 0
132 152 0
146 167 0
133 153 0
155 176 0
145 165 0
149 170 0
141 161 0
138 159 0
146 169 0
146 166 0
149 170 0
142 163 0
137 159 0
145 166 0
146 167 0
151 172 0
152 174 0
150 171 0
149 171 0
146 167 0
152 174 0
143 164 0
150 171 0
149 169 0
153 174 0
151 172 0
153 175 0
150 172 0
150 171 0
150 171 0
148 170 0
150 171 0
156 178 0
155 176 0
151 171 0
151 172 0
148 169 0
152 173 0
143 163 0
158 179 0
149 170 0
156 177 0
152 174 0
150 171 0
154 175 0
155 177 0
157 179 0
155 177 0
157 179 0
156 176 0
155 177 0
153 173 0
150 171 0
153 174 0
161 183 0
162 184 0
158 180 0
154 176 0
158 179 0
157 178 0
158 179 0
153 175 0
155 177 0
158 179 0
157 179 0
158 180 0
152 174 0
154 175 0
160 181 0
158 181 0
159 180 0
160 181 0
158 179 0
163 185 0
156 179 0
161 182 0
161 183 0
163 184 0
163 185 0
160 181 0
161 182 0
161 183 0
155 175 0
162 184 0
158 178 0
151 174 0
163 183 0
164 187 0
163 184 0
165 187 0
161 183 0
158 180 0
161 181 0
161 183 0
156 179 0
162 183 0
166 186 0
166 187 0
162 184 0
164 184 0
163 184 0
161 184 0
164 185 0
162 184 0
168 188 0
158 178 0
159 182 0
165 187 0
164 184 0
164 185 0
164 186 0
167 189 0
164 185 0
166 187 0
161 182 0
165 188 0
168 189 0
162 185 0
162 184 0
164 185 0
169 190 0
161 182 0
165 187 0
166 188 0
162 184 0
167 190 0
161 184 0
166 188 0
163 185 0
163 184 0
165 186 0
169 192 0
164 187 0
168 189 0
166 188 0
164 186 0
169 191 0
165 185 0
165 187 0
167 189 0
170 192 0
172 193 0
164 186 0
166 188 0
165 186 0
168 190 0
166 190 0
174 197 105
176 199 88
175 199 108
171 194 105
177 200 120
175 198 84
172 195 111
173 197 102
171 194 105
171 195 76
174 197 105
178 200 108
172 195 99
175 199 117
169 192 102
171 195 95
172 196 105
174 197 92
170 192 76
172 195 88
170 194 95
172 195 108
168 191 92
169 193 111
166 189 80
171 194 105
169 192 102
162 185 76
172 195 92
167 190 76
171 195 102
165 188 84
169 193 117
170 194 108
167 190 80
171 194 108
172 195 102
171 193 102
168 191 111
164 188 88
164 188 95
165 189 80
166 190 111
159 182 72
167 190 99
167 191 92
171 194 117
171 194 88
164 187 92
161 184 72
164 187 102
165 187 105
159 182 95
165 187 88
165 189 108
164 187 108
164 186 92
167 189 84
167 190 95
158 180 76
161 184 84
165 187 92
160 182 95
169 191 88
160 182 80
166 189 102
161 184 117
157 178 72
168 191 92
163 185 76
160 181 99
166 187 127
159 182 92
156 177 88
156 179 84
161 183 76
168 189 120
162 183 84
159 181 88
156 177 88
160 183 95
162 182 102
148 169 67
154 176 84
160 181 108
153 174 67
163 184 122
157 177 99
154 175 92
164 186 105
159 180 105
150 171 105
151 171 92
164 184 111
160 181 99
149 170 92
158 178 105
151 171 95
147 168 67
159 179 99
153 174 84
150 169 105
163 184 92
153 173 84
154 174 80
158 178 88
153 172 105
143 162 80
140 161 62
146 166 67
144 163 62
150 169 92
147 167 44
139 158 72
144 164 44
153 173 62
139 159 62
145 165 57
144 165 44
137 158 44
146 167 57
148 168 57
150 170 57
143 165 25
135 156 25
132 153 44
147 167 51
134 155 25
145 165 51
138 159 25
149 169 36
140 161 0
134 155 0
147 167 25
142 163 0
152 174 0
146 168 25
148 169 0
150 171 0
137 158 0
134 155 0
145 167 0
134 155 0
149 169 0
147 167 0
141 162 0
140 161 0
134 154 0
139 157 0
128 148 0
141 162 0
142 163 0
137 158 0
131 150 0
122 142 0
130 151 0
135 155 0
133 154 0
122 141 0
117 137 0
136 157 0
124 143 0
129 148 0
133 153 0
130 150 0
131 150 0
119 140 0
119 138 0
127 147 0
126 147 0
132 151 0
130 149 0
127 147 0
126 146 0
128 147 0
119 138 0
125 146 0
131 151 0
124 144 0
130 150 0
134 153 0
122 141 0
123 142 0
128 147 0
124 144 0
131 151 0
133 154 0
129 150 0
132 152 0
132 152 0
127 146 0
128 147 0
132 152 0
128 148 0
127 146 0
127 146 0
132 151 0
129 148 0
127 146 0
137 157 0
125 146 0
126 145 0
127 148 0
134 154 0
128 148 0
130 150 0
134 154 0
126 145 0
128 148 0
136 156 0
120 139 0
131 151 0
137 156 0
126 147 0
130 150 0
130 151 0
127 148 0
140 160 0
136 156 0
129 149 0
145 166 0
135 156 0
133 152 0
134 153 0
131 150 0
136 157 0
135 155 0
133 152 0
137 156 0
140 161 0
120 139 0
136 157 0
143 166 0
145 165 0
143 164 0
136 157 0
141 160 0
140 162 0
139 159 0
148 169 0
133 153 0
136 157 0
135 156 0
143 164 0
137 157 0
155 176 0
150 170 0
142 163 0
136 157 0
146 166 0
144 164 0
146 167 0
146 167 0
146 167 0
148 170 0
147 168 0
146 167 0
147 168 0
149 171 0
148 169 0
154 176 0
144 165 0
147 167 0
139 160 0
150 171 0
156 177 0
147 167 0
144 163 0
155 177 0
152 173 0
149 171 0
139 161 0
146 167 0
148 169 0
153 174 0
154 176 0
153 174 0
156 178 0
152 171 0
157 181 0
152 174 0
150 171 0
155 175 0
145 164 0
146 168 0
153 174 0
156 178 0
148 169 0
151 171 0
151 172 0
152 174 0
159 181 0
156 177 0
150 172 0
157 177 0
150 172 0
155 176 0
157 178 0
159 181 0
158 179 0
157 178 0
154 176 0
157 178 0
152 173 0
154 177 0
160 184 0
155 177 0
158 182 0
158 178 0
166 187 0
155 177 0
159 181 0
159 181 0
158 180 0
163 183 0
161 182 0
158 179 0
160 181 0
161 183 0
165 187 0
160 181 0
161 181 0
157 179 0
164 185 0
163 185 0
160 182 0
160 182 0
159 182 0
160 181 0
162 184 0
162 184 0
161 183 0
156 176 0
161 182 0
160 182 0
159 182 0
166 186 0
159 179 0
159 181 0
157 180 0
156 175 0
160 181 0
152 174 0
161 182 0
159 181 0
161 182 0
158 180 0
160 182 0
160 182 0
168 190 0
162 183 0
163 184 0
162 182 0
163 184 0
163 184 0
158 179 0
163 185 0
163 185 0
161 183 0
166 187 0
163 185 0
161 184 0
163 184 0
159 181 0
161 182 0
166 188 0
168 191 0
164 185 0
165 186 0
169 192 0
166 187 0
165 187 0
164 186 0
165 187 0
161 183 0
169 190 0
165 185 0
166 188 0
168 189 0
165 187 0
161 181 0
164 185 0
167 188 0
164 185 0
167 189 0
163 184 0
167 190 0
170 192 0
165 187 0
162 183 0
166 188 0
168 189 0
168 190 0
165 188 0
169 192 0
167 190 0
165 187 0
168 191 0
170 192 0
165 187 0
168 191 84
172 195 95
174 196 108
174 197 88
173 195 80
173 196 88
174 197 99
170 193 99
173 196 99
175 199 102
171 193 95
172 195 108
169 192 80
173 195 92
169 192 92
169 191 99
172 195 108
166 188 80
170 194 92
172 196 84
171 195 102
171 193 111
168 191 80
168 191 92
169 192 105
174 197 80
167 191 76
167 190 111
172 194 99
169 192 99
161 185 95
167 190 84
165 187 108
166 188 92
167 190 67
170 193 95
170 193 99
168 191 105
167 190 108
167 191 102
165 189 80
162 185 95
166 189 95
154 178 76
165 188 88
161 183 99
159 182 92
164 188 84
165 188 95
164 187 92
160 183 88
166 189 114
171 193 84
165 189 88
168 191 102
162 185 92
165 188 92
167 190 111
160 183 72
161 184 84
167 191 102
169 191 108
163 185 99
158 180 108
165 187 92
162 184 99
162 184 102
159 181 88
169 192 120
162 184 111
163 185 102
164 187 99
174 196 117
159 180 84
162 185 111
163 184 92
160 182 95
161 181 95
154 176 76
164 187 92
151 173 76
164 186 102
151 174 67
159 181 95
160 183 95
160 180 88
161 182 102
163 184 102
154 175 88
157 177 99
157 178 99
154 175 95
155 176 88
160 182 80
147 168 67
159 179 92
150 170 95
155 175 84
156 177 95
146 167 84
155 175 95
148 169 88
154 175 95
161 181 120
151 170 108
155 174 105
156 176 92
154 172 102
149 168 80
154 174 76
149 168 76
147 167 62
148 168 62
155 176 80
148 169 88
136 156 57
149 169 62
138 157 57
145 165 25
146 168 57
141 161 51
139 159 44
146 167 36
142 162 62
142 162 0
149 169 51
128 149 36
137 158 44
142 163 36
152 172 36
148 168 44
153 175 36
136 157 25
148 170 0
146 167 0
149 169 0
143 165 0
150 173 0
145 166 0
147 168 0
135 157 0
135 155 0
146 169 0
149 169 0
142 163 0
137 158 0
136 157 0
129 149 0
134 154 0
136 156 0
134 154 0
133 153 0
141 161 0
137 157 25
136 156 0
133 153 0
127 147 0
129 150 0
130 151 0
119 140 0
124 142 0
128 147 0
119 139 0
125 146 0
126 145 0
120 139 0
137 156 0
127 147 0
129 148 0
130 149 0
126 145 0
127 147 0
121 142 0
122 140 0
136 155 0
126 146 0
120 140 0
133 153 0
123 143 0
136 156 0
135 154 0
136 156 0
133 153 0
118 137 0
127 147 0
132 151 0
133 152 0
114 135 0
121 139 0
120 140 0
129 149 0
122 141 0
121 139 0
123 143 0
137 157 0
124 144 0
139 159 0
130 149 0
133 152 0
135 154 0
134 156 0
135 155 0
134 153 0
130 151 0
120 141 0
128 150 0
135 155 0
131 151 0
132 152 0
128 149 0
123 143 0
130 150 0
141 162 0
131 152 0
135 154 0
130 150 0
134 154 0
129 150 0
134 153 0
133 153 0
135 156 0
138 160 0
133 152 0
130 149 0
131 151 0
138 158 0
145 166 0
141 162 0
138 158 0
136 157 0
135 155 0
146 166 0
137 158 0
143 165 0
133 152 0
141 163 0
139 160 0
140 160 0
143 162 0
135 156 0
139 160 0
144 165 0
144 164 0
142 163 0
148 169 0
143 164 0
144 163 0
150 171 0
139 159 0
145 165 0
138 159 0
150 172 0
143 163 0
144 164 0
152 174 0
144 165 0
143 163 0
149 171 0
150 172 0
151 173 0
147 167 0
152 174 0
160 182 0
144 163 0
142 163 0
147 167 0
149 170 0
149 171 0
149 170 0
146 167 0
147 168 0
148 169 0
151 171 0
150 171 0
137 159 0
153 174 0
156 178 0
154 175 0
155 177 0
152 173 0
147 170 0
153 175 0
155 175 0
153 175 0
154 174 0
153 175 0
154 176 0
152 173 0
160 180 0
161 182 0
154 177 0
155 177 0
150 172 0
148 170 0
148 168 0
156 177 0
155 176 0
154 176 0
159 180 0
155 176 0
156 177 0
162 183 0
159 179 0
148 168 0
159 179 0
156 178 0
156 177 0
159 180 0
158 180 0
159 181 0
161 183 0
154 176 0
158 180 0
160 181 0
160 183 0
159 181 0
156 178 0
160 180 0
156 178 0
162 185 0
157 176 0
159 182 0
161 182 0
163 184 0
152 173 0
163 184 0
159 180 0
163 184 0
162 184 0
159 179 0
153 172 0
163 185 0
162 184 0
162 185 0
163 185 0
156 176 0
162 184 0
163 186 0
164 186 0
164 186 0
161 181 0
165 187 0
159 180 0
159 180 0
163 184 0
165 187 0
160 182 0
164 186 0
161 182 0
165 186 0
164 185 0
161 182 0
164 187 0
163 186 0
160 183 0
161 182 0
166 188 0
165 189 0
164 185 0
163 184 0
160 182 0
159 180 0
161 184 0
163 185 0
165 186 0
167 190 0
164 186 0
163 183 0
164 185 0
164 186 0
164 186 0
165 185 0
160 180 0
169 191 0
160 179 0
162 184 0
167 189 0
166 188 0
169 190 0
165 186 0
171 192 0
166 189 0
165 187 0
163 185 0
167 189 0
163 185 0
167 189 0
166 188 0
163 183 0
162 184 0
166 187 0
164 184 0
162 183 0
159 181 0
165 187 0
169 191 0
167 188 0
165 188 0
164 186 0
165 187 0
170 193 88
175 198 95
171 193 108
170 193 76
168 191 88
171 195 80
176 199 92
174 197 95
173 196 120
174 197 102
173 197 102
173 196 92
170 193 67
171 194 95
171 193 92
170 192 88
168 191 102
172 195 72
167 191 88
169 192 92
173 197 102
168 192 95
172 196 97
169 192 114
172 195 99
168 191 105
171 194 92
170 193 120
167 191 88
173 196 122
173 197 99
161 185 88
165 188 99
167 191 105
157 180 102
175 198 105
163 186 92
170 193 99
169 192 102
168 191 108
167 191 95
167 190 92
160 183 92
167 190 99
168 191 99
169 191 72
159 182 84
166 189 105
169 192 92
166 189 105
163 186 92
164 187 99
161 184 102
169 192 95
158 181 95
166 189 108
161 185 108
156 180 95
163 186 108
166 188 99
161 183 105
164 186 88
160 183 102
165 187 105
157 179 80
160 183 95
155 177 88
159 182 84
169 191 117
164 187 84
162 184 99
167 190 84
162 184 84
158 179 99
157 179 95
164 187 108
159 180 76
159 181 80
164 186 102
151 173 84
153 173 102
151 174 88
160 181 88
167 189 102
155 177 92
160 181 84
154 175 88
163 185 88
159 181 108
166 187 114
160 181 99
154 175 84
163 185 88
155 176 88
153 174 95
148 169 62
150 170 72
163 184 99
163 182 111
157 177 95
163 183 120
158 178 99
160 179 102
155 175 102
158 177 92
145 165 92
148 169 67
147 168 72
157 177 105
148 168 80
149 168 88
144 165 76
150 171 72
154 173 95
147 168 67
153 174 76
153 173 62
145 166 62
145 165 62
134 155 36
141 162 44
148 168 57
140 161 0
140 160 57
138 159 0
151 172 44
141 161 51
146 168 0
143 163 25
145 166 25
151 172 25
153 174 36
142 164 25
147 168 25
149 171 0
149 171 0
149 171 0
147 168 0
146 166 0
146 168 0
141 163 0
147 168 0
154 175 0
136 157 0
143 164 0
146 167 0
143 164 0
143 164 0
133 154 0
147 168 0
139 161 0
128 148 0
139 160 0
141 162 0
140 160 0
128 149 0
138 158 0
129 150 0
133 154 0
135 156 0
132 152 0
129 149 0
134 154 0
130 151 0
131 149 0
132 151 0
141 162 0
125 144 0
123 143 0
125 143 0
135 154 0
129 149 0
120 139 0
118 138 0
129 150 0
128 148 0
128 147 0
131 151 0
125 146 0
125 145 0
130 149 0
124 143 0
136 156 0
136 156 0
125 145 0
135 154 0
137 157 0
133 153 0
136 156 0
117 138 0
129 148 0
123 142 0
126 145 0
127 145 0
145 166 0
136 156 0
122 142 0
128 147 0
132 153 0
137 157 0
142 162 0
127 147 0
133 154 0
143 163 0
139 161 0
119 138 0
128 149 0
130 149 0
131 152 0
130 151 0
142 162 0
127 146 0
129 150 0
130 150 0
127 147 0
133 155 0
142 162 0
129 149 0
135 156 0
131 151 0
126 146 0
138 158 0
139 159 0
138 158 0
134 154 0
141 161 0
138 158 0
140 159 0
141 162 0
145 165 0
128 149 0
147 167 0
141 160 0
145 166 0
151 170 0
142 162 0
131 151 0
132 153 0
148 169 0
145 166 0
140 160 0
146 168 0
148 168 0
136 156 0
146 166 0
144 164 0
151 172 0
133 154 0
149 169 0
146 168 0
145 166 0
153 174 0
145 167 0
147 170 0
145 167 0
147 169 0
154 176 0
154 175 0
141 162 0
155 176 0
145 165 0
146 165 0
143 164 0
148 168 0
151 172 0
158 180 0
148 168 0
144 164 0
146 168 0
148 168 0
151 171 0
149 172 0
137 158 0
153 175 0
154 177 0
155 177 0
143 163 0
147 169 0
150 174 0
149 170 0
149 170 0
154 175 0
156 179 0
154 176 0
152 173 0
148 169 0
158 180 0
155 177 0
151 173 0
151 173 0
154 175 0
153 175 0
150 172 0
149 171 0
153 175 0
152 174 0
155 177 0
157 178 0
156 178 0
149 167 0
153 176 0
154 176 0
150 171 0
162 184 0
160 181 0
151 172 0
159 180 0
164 183 0
160 182 0
160 182 0
160 181 0
157 179 0
160 182 0
163 185 0
159 181 0
160 182 0
162 185 0
157 178 0
164 187 0
162 184 0
158 179 0
161 182 0
162 183 0
154 174 0
163 185 0
162 184 0
162 184 0
164 186 0
156 179 0
158 179 0
159 180 0
163 185 0
160 182 0
159 183 0
161 183 0
160 182 0
158 181 0
162 184 0
154 176 0
162 184 0
161 183 0
162 184 0
160 181 0
159 180 0
158 179 0
162 183 0
165 187 0
163 184 0
154 174 0
160 180 0
161 181 0
165 186 0
164 185 0
166 188 0
163 184 0
166 188 0
164 184 0
163 183 0
166 188 0
165 185 0
161 184 0
167 190 0
167 188 0
166 187 0
167 188 0
163 185 0
166 186 0
166 188 0
163 185 0
165 187 0
164 187 0
170 191 0
163 186 0
163 184 0
166 189 0
162 183 0
164 186 0
164 187 0
170 192 0
163 183 0
167 190 0
164 185 0
162 184 0
166 188 0
166 188 0
168 189 0
167 189 0
157 180 0
167 190 0
163 184 0
167 189 0
166 189 0
169 190 0
167 189 0
168 190 0
168 190 0
165 188 0
171 195 0
164 185 0
167 189 0
174 197 108
173 195 105
172 195 105
169 193 88
170 193 95
172 195 99
174 197 102
175 198 122
174 197 105
177 200 105
173 196 114
174 197 120
170 193 88
172 195 105
172 195 88
172 196 99
172 196 114
176 200 120
169 192 95
172 194 92
170 195 114
167 191 88
166 189 88
170 194 108
171 194 108
168 192 88
164 188 99
166 189 76
165 188 95
169 192 102
170 193 95
169 193 88
166 189 88
170 194 95
169 192 105
165 188 88
167 190 95
161 184 88
160 183 84
164 187 95
166 189 92
167 190 111
167 190 95
166 189 102
167 190 105
169 192 102
168 191 105
168 191 88
169 192 114
167 190 105
157 180 99
162 185 92
168 192 114
164 187 95
159 182 102
163 187 105
167 189 84
168 191 105
167 190 105
160 183 84
159 182 84
158 181 95
158 181 102
162 184 80
166 188 114
168 190 111
162 184 102
165 187 102
156 178 88
161 183 80
171 193 117
163 185 108
161 182 102
159 181 95
159 180 84
164 186 76
160 182 88
161 183 84
162 184 120
166 188 102
157 180 80
165 187 99
157 179 88
162 184 102
161 182 95
161 182 105
150 171 76
165 187 95
161 182 102
163 185 102
158 179 105
156 176 99
151 171 84
159 180 99
158 179 108
163 183 105
153 173 88
155 175 88
156 176 92
148 168 99
158 179 95
159 180 99
150 170 88
158 178 99
153 174 88
157 177 88
150 169 88
147 167 72
149 169 72
153 173 92
155 175 84
156 177 84
146 166 76
141 160 62
151 170 72
147 167 67
146 166 57
145 166 62
152 174 36
154 173 72
145 165 25
141 161 44
142 162 36
151 172 44
147 168 36
144 165 36
146 168 25
155 176 51
151 173 0
152 174 25
149 170 44
146 167 36
141 162 0
148 169 36
147 168 25
153 175 0
142 164 0
147 169 25
139 160 0
144 165 0
146 166 0
142 163 0
149 171 0
148 169 0
151 171 0
139 160 0
146 167 0
136 156 0
139 160 0
131 152 0
139 158 0
131 153 0
134 154 0
130 150 0
137 158 0
139 159 0
128 148 0
132 151 0
139 159 0
134 154 0
132 152 0
138 158 0
126 148 0
128 148 0
130 150 0
132 152 0
125 146 0
130 150 0
118 138 0
135 155 0
125 144 0
134 154 0
122 142 0
144 165 0
129 149 0
139 160 0
126 147 0
126 146 0
132 151 0
125 145 0
133 153 0
134 154 0
121 140 0
124 143 0
126 146 0
134 154 0
126 146 0
135 156 0
129 149 0
130 150 0
137 157 0
133 154 0
135 154 0
137 158 0
137 157 0
132 151 0
125 144 0
141 161 0
132 153 0
132 154 0
133 153 0
136 157 0
125 145 0
135 156 0
132 152 0
135 156 0
119 139 0
137 158 0
141 160 0
136 157 0
134 156 0
136 157 0
133 154 0
135 155 0
141 161 0
135 156 0
137 158 0
131 151 0
134 153 0
136 156 0
142 162 0
140 160 0
140 162 0
135 155 0
141 162 0
140 161 0
135 153 0
140 161 0
140 161 0
142 163 0
135 156 0
148 168 0
134 155 0
137 157 0
146 167 0
135 155 0
145 166 0
139 160 0
140 162 0
150 170 0
138 160 0
149 171 0
156 177 0
141 162 0
145 165 0
149 171 0
139 159 0
148 168 0
145 166 0
144 165 0
147 168 0
145 166 0
137 157 0
149 172 0
154 176 0
148 170 0
142 164 0
146 166 0
146 166 0
149 170 0
142 163 0
149 169 0
150 172 0
141 161 0
149 169 0
141 163 0
147 167 0
142 162 0
156 177 0
153 173 0
147 168 0
152 175 0
147 170 0
144 166 0
155 176 0
141 161 0
156 177 0
149 170 0
152 172 0
160 183 0
153 175 0
156 177 0
152 175 0
155 178 0
153 174 0
153 176 0
153 175 0
155 178 0
153 174 0
156 178 0
154 176 0
150 172 0
157 178 0
152 174 0
159 180 0
156 178 0
151 172 0
152 174 0
154 176 0
155 176 0
153 173 0
157 181 0
156 178 0
151 173 0
159 181 0
155 175 0
159 181 0
159 180 0
159 180 0
162 184 0
153 173 0
158 179 0
163 185 0
161 182 0
157 180 0
161 184 0
159 181 0
157 178 0
155 177 0
162 183 0
158 178 0
163 185 0
165 188 0
158 178 0
157 178 0
160 182 0
157 179 0
156 177 0
162 183 0
162 184 0
162 183 0
161 182 0
162 185 0
159 180 0
162 184 0
158 181 0
168 190 0
160 182 0
163 185 0
159 180 0
159 182 0
162 184 0
161 183 0
157 178 0
158 180 0
161 182 0
167 187 0
160 183 0
162 185 0
170 193 0
159 180 0
166 186 0
164 186 0
163 185 0
160 180 0
164 186 0
160 178 0
161 183 0
158 179 0
162 183 0
161 182 0
166 188 0
161 183 0
161 183 0
164 187 0
166 187 0
165 186 0
163 185 0
165 188 0
167 190 0
167 188 0
166 188 0
161 182 0
164 186 0
165 186 0
166 188 0
166 189 0
164 186 0
165 188 0
166 188 0
167 189 0
165 186 0
163 185 0
162 185 0
164 186 0
166 188 0
165 188 0
169 192 0
167 188 0
169 190 0
165 186 0
168 191 0
168 191 0
168 191 0
163 185 0
164 186 0
166 187 0
170 191 0
170 193 0
165 186 0
169 191 84
174 197 111
172 195 102
178 201 111
171 195 92
174 196 92
180 203 117
171 194 95
173 196 95
175 198 99
167 189 84
172 194 111
173 196 102
175 198 117
173 196 105
174 196 92
172 195 67
172 195 99
166 188 67
164 188 84
173 196 108
175 198 105
168 191 88
168 190 80
173 196 102
168 190 84
166 189 72
164 187 80
168 191 72
169 192 99
166 189 88
170 194 117
171 194 108
169 192 95
166 189 80
171 194 114
169 192 99
170 194 95
168 191 88
166 189 99
167 189 76
167 189 84
160 183 108
172 195 108
164 186 105
161 183 80
172 195 114
165 188 99
164 187 95
166 190 80
164 186 84
159 182 80
166 189 80
167 189 111
162 184 88
162 185 88
166 188 108
160 183 99
161 184 84
167 190 92
172 195 92
161 184 92
160 183 95
167 189 117
164 186 92
151 174 80
165 187 92
161 183 84
155 177 84
168 191 88
164 186 108
162 184 88
158 180 108
161 183 105
165 187 122
166 189 108
164 186 88
165 186 111
165 186 80
162 184 92
162 183 95
163 184 114
157 179 95
159 180 88
158 179 76
156 177 84
150 171 92
156 177 102
160 181 62
156 177 84
161 181 105
151 172 76
157 178 84
158 179 80
154 176 99
162 183 102
161 182 99
158 179 92
161 181 92
153 173 80
157 178 102
145 165 80
159 179 84
145 166 80
156 176 80
157 177 99
159 179 84
152 172 105
143 163 80
161 181 114
150 170 76
157 178 72
161 180 95
157 176 76
147 167 51
141 162 36
135 155 51
142 164 57
146 165 72
138 159 51
149 170 44
140 161 36
150 171 44
147 169 36
146 167 44
140 161 44
147 168 0
140 162 0
153 175 36
144 165 0
145 167 0
151 174 25
145 167 25
148 170 0
152 173 0
152 172 0
146 168 25
149 170 0
148 169 0
144 165 0
148 168 0
152 174 0
140 162 0
142 161 0
149 170 0
145 168 0
148 170 0
148 168 0
147 167 0
128 148 0
145 165 0
130 150 0
131 151 0
147 167 0
141 161 0
131 151 0
139 159 0
139 159 0
136 156 0
139 160 0
132 152 0
133 152 0
136 156 0
131 151 0
130 149 0
119 138 0
129 148 0
132 151 0
134 154 0
132 151 0
124 144 0
129 149 0
134 155 0
128 149 0
126 145 0
134 154 0
143 163 0
124 145 0
135 156 0
139 159 0
126 147 0
140 160 0
129 150 0
119 139 0
128 147 0
131 151 0
120 140 0
127 147 0
135 155 0
138 157 0
135 155 0
133 154 0
127 147 0
123 144 0
124 145 0
128 147 0
137 157 0
131 151 0
134 154 0
127 148 0
133 155 0
134 156 0
127 147 0
136 157 0
136 156 0
137 158 0
134 154 0
137 156 0
133 154 0
135 154 0
137 155 0
139 159 0
143 164 0
136 156 0
139 161 0
138 159 0
139 160 0
133 155 0
146 167 0
136 156 0
141 161 0
142 163 0
141 162 0
143 165 0
134 153 0
134 155 0
136 158 0
133 155 0
128 148 0
142 163 0
133 154 0
140 161 0
150 172 0
148 170 0
138 160 0
134 152 0
149 170 0
143 164 0
147 170 0
141 162 0
142 163 0
148 169 0
144 166 0
145 168 0
146 167 0
138 159 0
149 170 0
147 169 0
143 164 0
151 173 0
143 164 0
144 165 0
147 168 0
143 164 0
145 165 0
138 157 0
143 165 0
147 168 0
156 177 0
151 172 0
142 163 0
147 169 0
152 174 0
141 163 0
147 167 0
149 169 0
152 172 0
149 169 0
150 173 0
159 182 0
144 165 0
154 175 0
155 176 0
142 164 0
154 175 0
141 162 0
145 166 0
143 164 0
151 173 0
150 170 0
154 176 0
156 178 0
160 182 0
158 180 0
149 170 0
164 186 0
152 174 0
155 176 0
159 180 0
149 171 0
151 172 0
153 176 0
154 175 0
157 177 0
156 177 0
158 180 0
161 182 0
154 175 0
153 175 0
162 185 0
160 182 0
161 182 0
160 182 0
156 178 0
160 181 0
158 181 0
159 181 0
160 181 0
159 182 0
159 180 0
167 188 0
159 180 0
156 177 0
161 184 0
157 179 0
159 181 0
164 185 0
154 175 0
156 178 0
159 181 0
154 176 0
159 181 0
160 181 0
159 180 0
159 180 0
158 180 0
161 183 0
165 186 0
159 179 0
160 181 0
157 180 0
156 177 0
159 178 0
163 185 0
156 178 0
160 182 0
161 183 0
163 187 0
163 183 0
158 179 0
161 181 0
170 192 0
158 180 0
163 184 0
154 177 0
163 184 0
164 185 0
164 186 0
163 185 0
164 185 0
162 183 0
166 188 0
163 186 0
161 183 0
163 184 0
164 187 0
163 185 0
160 182 0
165 188 0
162 185 0
165 187 0
161 182 0
158 179 0
162 183 0
164 185 0
163 185 0
165 185 0
163 186 0
166 188 0
164 188 0
166 188 0
162 185 0
163 185 0
163 185 0
165 186 0
161 181 0
167 190 0
164 185 0
167 189 0
161 183 0
158 180 0
167 189 0
165 187 0
163 186 0
165 186 0
166 188 0
160 182 0
164 186 0
167 189 0
166 186 0
161 186 0
164 186 0
164 186 0
166 187 0
169 192 0
164 186 0
164 185 0
167 188 0
173 195 0
167 189 0
170 193 72
170 194 99
174 197 99
172 194 99
173 196 111
178 200 120
177 199 108
174 197 108
175 199 117
173 195 114
177 200 114
172 195 88
175 198 102
170 194 92
171 194 84
175 198 105
170 193 99
167 190 95
166 190 99
170 193 88
175 198 117
171 194 105
168 192 95
172 195 108
172 195 111
171 194 84
167 191 99
168 191 108
171 194 80
168 191 92
166 189 105
166 190 111
173 195 92
165 189 80
165 189 92
167 189 76
162 186 99
166 189 92
163 186 105
166 189 92
166 190 102
167 191 105
160 183 80
167 190 105
157 180 72
168 191 105
164 187 72
167 190 72
155 178 84
152 175 76
161 183 99
165 188 105
164 187 111
166 189 105
169 191 80
158 181 105
165 187 84
169 191 95
158 181 95
162 186 95
167 189 84
158 180 88
171 194 108
170 192 111
161 184 99
165 187 84
154 177 114
168 191 102
157 179 99
167 189 95
158 180 102
161 184 95
156 178 84
164 185 84
159 181 95
158 181 95
167 189 95
160 182 92
158 180 88
161 183 99
157 179 80
161 183 99
159 180 99
156 178 88
163 185 99
163 184 80
163 183 84
161 183 95
164 187 99
160 180 95
150 171 102
161 183 99
159 179 114
166 186 108
161 181 99
151 172 95
150 171 84
153 174 92
160 180 102
157 178 92
157 177 102
155 176 88
158 179 92
160 179 105
151 171 76
160 180 102
155 175 88
154 174 84
160 180 108
158 179 80
154 174 76
163 183 76
152 172 92
144 165 44
149 170 57
150 171 57
155 177 62
154 174 57
149 170 44
137 157 51
140 161 51
144 166 36
142 163 36
154 175 57
156 178 36
146 167 25
144 165 25
147 169 25
145 167 0
149 171 25
146 168 0
143 165 25
157 178 0
148 168 25
148 170 0
153 173 0
151 173 0
144 164 0
156 178 0
151 172 0
138 159 0
141 162 0
139 159 0
147 169 0
143 165 0
143 164 0
140 161 0
139 160 0
142 162 0
129 150 0
139 160 0
146 167 0
149 171 0
131 152 0
127 148 0
134 155 0
137 157 0
130 151 0
138 159 0
134 154 0
132 153 0
140 160 0
134 155 0
139 159 0
136 156 0
135 157 0
135 156 0
137 157 0
137 156 0
131 152 0
134 154 0
132 152 0
126 146 0
125 146 0
133 153 0
133 153 0
144 165 0
138 158 0
130 151 0
135 155 0
139 159 0
132 151 0
119 140 0
141 162 0
135 156 0
129 150 0
140 161 0
133 153 0
145 166 0
136 157 0
139 159 0
143 165 0
126 145 0
137 158 0
143 164 0
138 159 0
127 148 0
137 157 0
132 153 0
135 155 0
132 151 0
146 166 0
127 147 0
143 164 0
140 160 0
130 151 0
134 154 0
135 155 0
136 157 0
128 148 0
134 155 0
137 159 0
132 153 0
136 157 0
136 157 0
136 157 0
139 160 0
143 165 0
141 163 0
142 162 0
135 156 0
141 163 0
140 160 0
134 155 0
140 162 0
146 167 0
145 167 0
130 152 0
141 163 0
139 160 0
145 166 0
137 158 0
140 161 0
138 160 0
145 166 0
135 157 0
135 156 0
140 160 0
143 165 0
142 164 0
144 165 0
148 170 0
145 165 0
149 171 0
141 163 0
149 168 0
144 164 0
141 162 0
151 172 0
152 174 0
145 167 0
150 173 0
146 168 0
149 170 0
145 166 0
145 166 0
152 172 0
145 168 0
146 168 0
155 177 0
150 173 0
151 172 0
149 170 0
152 172 0
142 163 0
151 171 0
152 174 0
156 178 0
157 178 0
145 167 0
152 173 0
145 167 0
147 169 0
153 174 0
151 173 0
156 177 0
150 171 0
152 173 0
155 176 0
150 171 0
153 175 0
158 179 0
151 172 0
144 163 0
151 174 0
150 172 0
151 172 0
148 170 0
155 176 0
158 181 0
151 172 0
160 182 0
157 178 0
158 179 0
162 184 0
154 176 0
159 181 0
153 174 0
155 176 0
155 176 0
157 179 0
155 175 0
154 175 0
156 178 0
160 183 0
154 176 0
159 180 0
161 181 0
158 180 0
155 177 0
154 175 0
156 177 0
158 180 0
164 185 0
163 183 0
156 177 0
161 181 0
165 188 0
164 186 0
157 178 0
156 178 0
161 184 0
160 183 0
159 181 0
152 173 0
161 181 0
160 184 0
154 176 0
156 177 0
163 184 0
162 184 0
153 174 0
161 183 0
165 186 0
158 180 0
162 183 0
164 186 0
167 189 0
160 182 0
164 185 0
166 189 0
161 183 0
161 184 0
166 187 0
156 177 0
164 186 0
163 185 0
165 186 0
161 183 0
158 179 0
163 184 0
162 183 0
161 183 0
160 181 0
156 177 0
158 177 0
159 179 0
161 184 0
163 184 0
160 181 0
164 187 0
166 187 0
161 183 0
164 186 0
160 182 0
163 186 0
163 185 0
168 189 0
166 188 0
161 183 0
167 189 0
162 182 0
158 179 0
166 188 0
164 186 0
164 185 0
169 191 0
166 189 0
164 186 0
163 184 0
160 181 0
167 188 0
169 192 0
163 185 0
170 193 0
165 188 0
165 186 0
167 190 0
161 183 0
167 191 0
172 194 0
165 187 0
169 191 0
166 187 0
166 187 0
165 187 0
164 185 0
168 188 0
166 186 0
169 192 0
173 196 99
175 198 114
173 196 99
171 194 120
172 195 84
174 197 84
172 195 88
173 196 114
173 196 95
168 191 88
173 195 99
172 195 95
170 193 111
171 195 92
176 198 88
170 193 99
173 196 114
173 196 102
170 193 92
171 194 111
169 191 102
175 198 130
174 197 105
171 194 102
169 192 84
166 191 80
167 190 88
169 192 95
171 194 76
164 188 99
166 188 76
167 189 80
168 191 92
167 189 76
162 185 84
165 189 105
166 189 88
170 193 102
163 186 92
167 190 102
166 189 84
167 190 99
163 186 99
169 192 84
169 191 95
168 191 92
161 183 99
164 187 88
164 187 88
167 190 105
167 189 99
159 181 99
163 186 92
163 186 92
165 187 92
162 185 95
166 189 102
163 184 84
166 189 102
163 186 84
164 186 84
160 182 95
159 181 76
165 186 84
168 190 111
160 183 80
163 186 105
162 185 105
166 187 88
163 185 102
159 181 88
169 191 120
152 174 80
164 186 99
166 188 111
158 179 84
157 178 80
174 195 133
159 181 80
160 181 95
161 181 95
168 189 117
165 187 95
161 183 102
156 177 92
159 180 95
161 181 57
161 182 111
161 182 92
154 175 72
154 175 76
166 187 120
159 180 108
163 183 111
153 175 80
156 177 62
155 175 72
156 178 84
160 179 114
154 175 80
154 175 67
157 177 99
158 179 95
166 187 114
163 183 84
154 174 84
153 173 84
150 170 67
152 172 72
150 170 72
147 167 57
159 180 76
149 170 67
147 167 57
146 168 57
155 176 67
151 171 57
141 162 36
144 165 36
141 162 36
142 163 36
143 163 44
152 173 57
152 173 0
139 159 0
147 168 25
157 178 36
154 174 25
153 175 0
146 168 25
157 180 25
146 169 0
150 172 0
144 166 0
152 173 25
140 162 0
150 171 0
152 173 0
147 169 0
150 172 0
142 162 0
149 171 0
149 170 0
154 175 0
143 165 0
142 162 0
138 160 0
142 162 0
142 163 0
141 162 0
127 147 0
137 158 0
142 163 0
136 156 0
137 157 0
142 163 0
134 154 0
127 147 0
138 159 0
138 158 0
133 154 0
127 147 0
134 154 0
135 156 0
126 147 0
135 156 0
132 152 0
142 163 0
134 156 0
135 155 0
133 153 0
133 153 0
126 146 0
132 152 0
131 150 0
131 151 0
137 159 0
134 155 0
136 154 0
136 156 0
128 149 0
131 151 0
136 155 0
129 149 0
130 151 0
126 146 0
132 152 0
141 162 0
134 154 0
130 151 0
127 147 0
135 156 0
133 153 0
137 157 0
136 158 0
147 168 0
136 157 0
130 151 0
141 162 0
133 154 0
135 155 0
125 145 0
132 152 0
132 154 0
139 161 0
131 153 0
136 157 0
140 161 0
135 155 0
135 156 0
132 152 0
138 159 0
132 153 0
138 159 0
141 162 0
136 157 0
139 160 0
147 168 0
139 160 0
137 157 0
140 160 0
143 164 0
127 147 0
143 164 0
144 165 0
141 162 0
147 168 0
143 165 0
137 158 0
145 166 0
145 166 0
144 165 0
143 164 0
146 168 0
142 162 0
148 169 0
148 171 0
147 169 0
128 148 0
141 163 0
152 173 0
149 170 0
149 169 0
143 163 0
146 168 0
141 162 0
146 168 0
146 167 0
151 172 0
145 166 0
148 170 0
143 165 0
149 170 0
151 172 0
153 176 0
148 168 0
152 172 0
144 165 0
157 178 0
146 169 0
154 177 0
151 172 0
153 175 0
152 175 0
148 169 0
151 172 0
149 171 0
144 167 0
149 171 0
146 167 0
155 177 0
148 168 0
153 174 0
158 178 0
149 171 0
156 177 0
150 173 0
138 158 0
156 177 0
148 168 0
156 177 0
155 178 0
153 175 0
153 174 0
154 175 0
154 175 0
155 175 0
147 170 0
151 173 0
157 180 0
157 179 0
154 174 0
152 172 0
157 179 0
152 173 0
162 184 0
158 179 0
154 175 0
153 174 0
153 174 0
161 181 0
157 179 0
157 179 0
149 170 0
157 179 0
154 176 0
160 182 0
160 182 0
161 182 0
158 178 0
157 177 0
148 168 0
149 169 0
154 177 0
160 183 0
163 184 0
158 180 0
161 183 0
159 179 0
163 185 0
160 181 0
154 177 0
163 185 0
162 185 0
163 185 0
160 182 0
160 181 0
156 177 0
158 178 0
159 181 0
164 183 0
160 181 0
162 184 0
162 183 0
159 181 0
163 186 0
161 181 0
157 180 0
163 184 0
158 180 0
162 186 0
161 183 0
163 183 0
160 180 0
161 183 0
158 179 0
163 186 0
165 186 0
160 182 0
162 185 0
165 186 0
159 180 0
164 185 0
160 182 0
163 184 0
162 184 0
161 183 0
166 188 0
164 185 0
163 185 0
165 187 0
166 188 0
157 180 0
168 191 0
164 186 0
165 188 0
164 185 0
164 186 0
162 184 0
161 183 0
167 188 0
160 183 0
165 187 0
165 186 0
168 191 0
163 186 0
161 184 0
164 186 0
166 188 0
166 187 0
163 185 0
165 189 0
167 188 0
166 188 0
165 186 0
167 189 0
164 187 0
169 192 0
167 190 0
164 187 0
170 192 0
164 186 0
165 187 0
167 190 0
167 188 0
165 186 0
164 185 0
168 188 0
166 189 0
165 187 0
171 194 84
168 191 72
173 196 122
170 194 95
175 198 120
173 195 95
173 196 105
170 194 88
173 196 88
174 197 102
171 194 92
172 195 92
172 196 99
169 193 99
166 189 92
166 189 76
168 192 102
169 192 92
170 193 76
173 196 102
172 195 108
165 189 95
169 193 99
169 193 95
170 193 92
167 191 95
168 191 117
167 191 95
165 188 105
170 193 102
167 190 95
169 192 105
169 192 111
166 189 92
167 190 88
163 186 76
166 190 80
170 194 95
170 193 92
164 188 88
162 185 108
163 186 88
169 192 117
160 183 92
169 192 99
166 188 88
167 189 84
163 186 92
169 192 95
158 182 80
161 183 72
160 182 84
165 188 92
165 188 108
166 188 76
158 181 95
165 187 95
162 184 84
163 186 102
158 181 92
163 186 92
168 191 111
160 182 92
166 188 111
161 184 92
160 182 76
164 187 111
159 182 84
160 182 95
164 186 67
159 181 102
163 185 99
167 189 105
166 187 76
160 181 99
163 185 99
167 188 95
166 189 117
158 179 88
155 176 99
165 187 105
165 187 105
159 179 84
171 192 102
170 191 99
163 183 95
158 180 99
159 181 84
163 184 102
161 183 95
154 176 99
161 182 120
161 182 102
159 180 92
150 171 88
168 188 130
156 176 105
158 179 92
161 182 108
163 183 105
155 175 92
154 175 88
167 187 80
153 174 67
158 179 84
155 174 95
159 179 76
154 175 80
150 172 51
155 175 76
143 163 72
148 168 76
147 168 62
157 177 72
154 175 62
154 176 76
143 164 25
149 170 57
146 168 0
148 169 36
150 171 36
142 163 44
152 172 62
148 169 44
142 163 0
149 170 25
149 170 0
149 171 36
156 178 36
148 171 0
154 177 0
153 175 0
153 176 36
152 173 0
151 174 0
146 167 0
152 173 0
148 171 0
144 166 0
154 176 0
150 172 0
153 175 0
144 166 0
148 169 0
140 162 0
144 165 0
144 166 0
141 162 0
143 166 0
144 165 0
138 159 0
138 159 0
135 156 0
140 160 0
141 161 0
135 156 0
135 156 0
132 153 0
129 149 0
135 154 0
138 158 0
142 162 0
144 165 0
131 151 0
131 151 0
131 152 0
134 154 0
135 155 0
136 157 0
139 161 0
128 150 0
132 153 0
129 150 0
130 151 0
133 154 0
139 160 0
132 153 0
138 158 0
134 154 0
133 153 0
133 154 0
135 156 0
133 154 0
128 148 0
126 147 0
135 155 0
116 137 0
139 159 0
142 163 0
139 160 0
133 154 0
124 145 0
138 159 0
130 149 0
131 153 0
127 149 0
139 159 0
141 161 0
127 147 0
142 163 0
134 155 0
135 155 0
135 155 0
138 159 0
127 148 0
133 154 0
135 156 0
141 163 0
131 152 0
133 152 0
140 162 0
129 149 0
142 164 0
133 154 0
137 159 0
141 160 0
139 161 0
140 161 0
132 153 0
136 158 0
142 163 0
143 163 0
142 164 0
138 160 0
138 157 0
140 160 0
148 169 0
144 165 0
148 170 0
134 155 0
140 163 0
142 163 0
144 166 0
148 170 0
143 164 0
149 171 0
147 168 0
144 165 0
144 165 0
144 164 0
137 159 0
145 165 0
142 163 0
147 168 0
145 165 0
145 167 0
143 163 0
147 168 0
149 170 0
150 171 0
145 167 0
151 173 0
157 179 0
141 162 0
148 169 0
147 169 0
150 171 0
149 172 0
148 170 0
154 175 0
148 171 0
148 171 0
150 171 0
156 177 0
151 173 0
153 174 0
153 176 0
149 170 0
152 173 0
155 176 0
148 171 0
148 169 0
155 176 0
154 175 0
154 174 0
152 174 0
156 178 0
153 175 0
151 171 0
148 170 0
157 179 0
154 176 0
155 176 0
153 175 0
161 183 0
153 176 0
157 180 0
160 180 0
151 173 0
154 176 0
156 178 0
155 176 0
157 179 0
156 177 0
159 181 0
158 181 0
157 178 0
156 180 0
152 174 0
162 183 0
159 180 0
152 174 0
161 184 0
161 182 0
161 184 0
159 180 0
163 184 0
162 184 0
159 181 0
158 180 0
164 186 0
157 178 0
156 176 0
158 180 0
154 176 0
157 177 0
157 178 0
163 184 0
161 184 0
161 182 0
150 170 0
159 180 0
164 187 0
163 187 0
162 184 0
156 176 0
160 181 0
165 187 0
160 182 0
158 181 0
159 179 0
158 179 0
164 186 0
160 180 0
159 180 0
159 181 0
155 177 0
163 186 0
158 179 0
164 185 0
170 192 0
160 181 0
160 182 0
164 186 0
165 187 0
164 187 0
164 186 0
161 183 0
162 183 0
161 183 0
160 182 0
164 186 0
164 184 0
162 183 0
157 179 0
165 186 0
161 182 0
160 181 0
163 184 0
166 188 0
165 187 0
162 185 0
167 189 0
162 184 0
166 187 0
159 180 0
163 183 0
167 189 0
160 180 0
164 186 0
160 182 0
166 188 0
167 189 0
164 186 0
165 186 0
160 182 0
166 189 0
162 184 0
164 186 0
165 187 0
162 184 0
164 185 0
168 190 0
163 185 0
168 191 0
167 189 0
163 185 0
170 192 0
169 191 0
165 186 0
169 191 0
164 185 0
168 191 0
165 187 0
169 191 0
169 191 0
168 190 0
164 186 0
168 191 0
170 192 0
167 191 92
174 197 95
174 198 88
171 194 88
175 196 102
171 194 88
168 191 62
174 197 108
177 199 95
176 199 105
175 198 102
171 192 88
174 196 102
174 197 99
173 196 95
172 195 102
172 195 84
170 193 92
170 193 102
173 196 111
165 188 95
171 194 84
172 196 108
172 194 84
172 195 95
164 187 95
171 194 102
169 192 92
170 193 108
169 192 80
170 194 92
168 190 102
174 197 102
173 196 105
171 195 88
168 191 108
164 188 95
167 191 92
169 193 105
167 190 88
172 195 117
163 186 92
159 183 105
167 191 99
165 189 111
168 191 102
165 188 99
162 185 111
167 190 108
163 186 88
171 192 114
164 187 95
169 191 99
168 191 80
164 187 84
171 193 84
171 193 99
164 187 111
169 192 105
160 183 95
166 189 102
164 186 105
170 192 80
163 185 92
167 190 99
162 184 108
164 186 84
156 178 84
162 185 80
161 183 108
164 186 88
168 190 108
163 185 114
166 187 95
164 186 84
164 186 95
162 183 84
162 184 105
169 189 84
167 189 108
156 178 92
163 184 95
160 182 105
158 180 92
166 188 92
155 176 92
158 179 84
161 182 95
157 179 92
157 178 99
167 187 92
160 181 92
161 182 108
155 175 95
159 180 84
158 179 88
153 173 88
152 173 76
156 176 72
160 180 105
156 177 72
155 176 88
161 182 80
157 178 114
150 170 80
155 176 80
144 164 84
167 187 102
158 179 67
147 167 62
155 175 76
156 176 72
149 171 44
154 175 88
154 174 67
143 164 57
147 168 57
159 181 62
147 168 51
152 172 51
151 173 36
144 166 36
150 172 25
143 163 44
147 169 44
157 177 36
148 170 25
145 167 44
150 170 0
144 164 44
145 167 25
158 179 0
155 178 0
146 168 0
155 177 0
154 176 0
153 175 0
154 177 0
136 157 0
154 176 0
149 172 0
153 174 0
146 167 0
130 151 0
142 163 0
144 166 0
147 169 0
132 153 0
144 165 0
138 159 0
147 168 0
143 165 0
137 157 0
133 154 0
145 166 0
136 156 0
139 160 0
143 163 0
137 157 0
141 162 0
140 160 0
146 167 0
136 157 0
132 153 0
135 155 0
137 158 0
143 163 0
137 157 0
145 166 0
138 158 0
126 148 0
137 158 0
138 159 0
135 156 0
134 155 0
121 141 0
146 166 0
129 150 0
138 159 0
137 158 0
128 149 0
133 155 0
139 160 0
134 154 0
140 162 0
133 154 0
134 155 0
146 167 0
130 151 0
139 160 0
137 157 0
132 152 0
137 156 0
127 148 0
139 158 0
132 152 0
139 161 0
127 146 0
139 160 0
134 156 0
137 158 0
136 157 0
140 161 0
135 155 0
139 160 0
144 165 0
140 160 0
138 159 0
137 158 0
147 168 0
141 162 0
132 152 0
133 153 0
130 150 0
139 160 0
139 160 0
141 162 0
143 164 0
148 168 0
144 166 0
138 160 0
133 153 0
133 154 0
143 166 0
139 161 0
142 163 0
149 171 0
149 170 0
151 172 0
139 160 0
148 169 0
136 156 0
144 166 0
137 158 0
151 172 0
147 167 0
145 166 0
144 166 0
144 166 0
143 164 0
138 159 0
149 172 0
140 161 0
145 166 0
146 168 0
148 170 0
152 174 0
146 167 0
151 173 0
143 164 0
144 165 0
151 173 0
149 171 0
145 166 0
151 173 0
152 174 0
143 166 0
145 167 0
154 176 0
153 175 0
146 168 0
147 169 0
142 164 0
145 167 0
150 171 0
146 167 0
148 170 0
151 174 0
152 173 0
154 177 0
150 171 0
159 181 0
154 177 0
147 169 0
156 178 0
150 171 0
158 180 0
150 171 0
156 177 0
154 175 0
153 176 0
158 181 0
151 172 0
154 176 0
156 179 0
162 185 0
156 178 0
157 177 0
159 181 0
155 176 0
159 180 0
155 177 0
160 182 0
158 180 0
154 177 0
161 183 0
151 171 0
162 184 0
160 180 0
161 182 0
155 178 0
161 183 0
152 174 0
163 186 0
155 177 0
158 181 0
158 180 0
156 179 0
157 178 0
152 175 0
156 177 0
159 182 0
163 185 0
156 178 0
157 177 0
155 177 0
164 187 0
157 178 0
157 178 0
158 180 0
160 181 0
155 177 0
157 179 0
160 181 0
160 182 0
156 178 0
159 180 0
166 188 0
165 187 0
153 173 0
161 183 0
158 180 0
160 183 0
158 179 0
163 185 0
153 174 0
161 183 0
162 183 0
157 179 0
164 187 0
161 182 0
164 185 0
163 185 0
165 187 0
160 181 0
165 187 0
162 185 0
161 181 0
161 183 0
162 184 0
161 183 0
161 184 0
163 185 0
167 190 0
165 188 0
161 183 0
160 181 0
161 184 0
163 183 0
167 189 0
167 189 0
165 187 0
161 181 0
160 182 0
157 178 0
166 189 0
163 184 0
163 184 0
163 185 0
165 189 0
167 189 0
163 182 0
168 189 0
159 180 0
167 189 0
165 187 0
169 192 0
167 189 0
162 184 0
163 184 0
165 187 0
167 189 0
166 187 0
166 188 0
168 190 0
167 190 0
168 190 0
167 189 0
165 188 0
166 188 0
167 190 0
163 185 0
169 190 0
169 191 0
168 189 0
164 188 0
169 192 0
166 187 0
169 190 0
169 191 0
173 196 114
175 198 102
172 195 102
177 200 99
173 195 84
170 194 88
179 201 117
172 195 92
175 198 111
170 193 88
171 194 84
176 199 95
174 198 92
169 192 76
169 192 105
173 197 84
173 196 99
170 194 92
169 191 80
170 192 120
170 193 95
171 195 88
172 195 95
171 194 95
173 196 114
166 188 80
171 194 92
172 195 95
168 191 92
176 198 95
166 189 76
171 195 120
168 191 92
163 186 76
165 188 84
168 191 80
166 189 95
168 191 108
163 187 67
168 191 99
171 195 105
160 181 62
161 184 95
163 186 88
169 193 105
167 190 111
164 187 76
166 189 108
167 188 84
167 190 88
161 184 76
159 181 84
168 191 108
163 185 102
168 191 105
164 187 84
165 188 99
159 181 102
165 187 102
159 181 95
165 187 102
164 186 76
165 187 99
161 183 92
163 186 95
156 178 88
167 188 122
155 177 92
163 186 99
165 187 114
163 185 133
160 182 92
166 187 102
163 185 114
159 181 102
164 186 117
161 182 102
168 189 99
160 181 92
158 179 102
160 182 120
155 176 88
162 183 99
156 176 102
165 187 84
162 183 114
162 183 102
169 190 114
157 179 92
166 187 114
159 180 111
160 181 95
155 176 88
164 184 88
163 183 99
163 183 102
159 179 102
163 184 99
159 180 80
156 177 80
155 176 84
158 178 99
152 173 88
152 173 76
153 174 92
152 173 92
160 181 76
154 174 84
153 173 62
140 160 57
156 176 76
154 176 67
151 172 76
154 175 62
150 170 57
150 171 51
154 175 44
152 173 57
145 166 36
147 168 25
147 169 51
142 163 25
155 176 25
155 177 51
136 156 25
150 171 0
148 170 25
153 175 25
153 175 36
157 178 0
150 171 0
142 164 0
147 169 0
151 174 0
153 174 25
152 175 0
152 175 0
152 173 0
159 181 0
142 164 0
146 168 0
144 166 0
143 165 0
151 173 0
143 165 0
139 160 0
147 169 0
150 170 0
135 156 0
140 161 0
138 157 0
144 165 0
139 160 0
141 162 0
150 171 0
138 159 0
143 164 0
136 156 0
142 163 0
130 149 0
145 166 0
138 159 0
141 162 0
132 153 0
134 155 0
131 152 0
135 155 0
128 149 0
145 166 0
128 148 0
125 146 0
145 166 0
132 152 0
135 155 0
127 147 0
129 149 0
148 169 0
131 151 0
136 157 0
133 154 0
135 156 0
141 162 0
144 164 0
127 148 0
143 165 0
133 153 0
140 161 0
131 153 0
132 151 0
136 157 0
130 151 0
146 167 0
143 163 0
131 152 0
141 163 0
142 163 0
137 158 0
139 160 0
141 161 0
136 157 0
136 156 0
146 168 0
139 160 0
148 169 0
143 164 0
133 153 0
141 163 0
143 164 0
145 167 0
143 163 0
133 153 0
153 174 0
136 157 0
145 167 0
138 159 0
143 163 0
138 159 0
135 156 0
139 161 0
140 161 0
140 162 0
145 168 0
148 170 0
144 165 0
139 160 0
149 170 0
145 167 0
139 161 0
145 167 0
142 163 0
141 162 0
150 173 0
149 171 0
131 151 0
140 162 0
145 166 0
150 172 0
148 169 0
142 163 0
134 156 0
150 171 0
151 173 0
144 164 0
139 161 0
150 172 0
150 171 0
151 173 0
155 177 0
147 168 0
147 168 0
148 170 0
148 170 0
150 172 0
141 163 0
154 176 0
155 177 0
155 176 0
155 177 0
152 173 0
152 174 0
153 175 0
149 171 0
153 174 0
156 177 0
145 167 0
154 175 0
153 175 0
154 176 0
151 173 0
154 175 0
152 174 0
149 171 0
149 170 0
148 169 0
148 170 0
156 178 0
154 176 0
151 174 0
158 180 0
157 180 0
155 177 0
153 174 0
149 170 0
152 174 0
159 181 0
155 179 0
160 181 0
152 173 0
154 175 0
159 181 0
156 178 0
157 178 0
159 180 0
157 180 0
156 178 0
156 178 0
155 178 0
154 178 0
158 179 0
161 184 0
158 180 0
160 182 0
165 187 0
163 185 0
160 181 0
156 177 0
155 176 0
159 181 0
155 178 0
161 183 0
158 179 0
158 179 0
151 172 0
156 178 0
162 184 0
160 181 0
165 186 0
159 182 0
162 185 0
161 182 0
163 186 0
161 183 0
162 184 0
163 184 0
158 178 0
164 187 0
165 186 0
162 183 0
167 189 0
161 183 0
165 188 0
163 185 0
164 184 0
163 185 0
162 185 0
158 179 0
159 181 0
160 184 0
164 186 0
160 181 0
163 185 0
162 184 0
164 186 0
160 182 0
163 185 0
159 182 0
165 185 0
161 182 0
165 187 0
160 182 0
163 186 0
160 182 0
167 191 0
163 185 0
165 187 0
166 189 0
161 182 0
164 185 0
162 184 0
164 186 0
166 189 0
167 190 0
162 183 0
162 183 0
166 188 0
163 186 0
164 185 0
166 188 0
165 187 0
168 190 0
166 188 0
162 184 0
161 184 0
165 187 0
161 184 0
158 179 0
169 192 0
164 187 0
164 186 0
164 187 0
163 185 0
166 188 0
169 191 0
163 186 0
167 189 0
169 192 0
164 185 0
168 191 0
163 185 0
170 192 0
165 186 0
166 188 0
165 187 0
162 184 0
171 192 0
165 186 0
167 189 0
167 191 0
160 181 0
166 189 0
175 197 102
176 199 102
169 192 80
172 194 80
168 191 76
175 199 102
171 193 84
173 196 106
176 198 108
170 193 80
172 195 80
173 196 76
175 198 114
174 198 99
174 197 92
166 189 84
167 190 84
170 193 108
174 197 92
170 194 88
168 192 80
174 197 114
175 199 102
171 194 102
174 196 88
173 196 108
166 189 102
173 196 84
165 188 95
172 195 95
168 191 76
167 189 105
172 194 108
162 185 57
168 190 80
168 190 99
169 191 99
162 186 92
165 187 76
169 192 92
166 189 80
166 189 105
168 191 99
172 194 105
164 187 92
172 195 84
165 188 88
166 189 92
166 188 80
170 191 114
168 190 108
163 186 99
167 189 102
165 187 92
162 184 80
163 186 72
159 181 105
160 183 88
164 186 92
168 191 95
162 185 95
169 192 88
166 189 108
163 185 84
162 183 88
170 191 108
167 189 102
172 193 95
162 183 99
164 186 99
164 184 84
164 186 111
166 188 125
161 184 117
163 185 67
159 180 95
158 179 99
157 178 84
162 184 88
160 182 99
161 183 88
166 188 105
158 180 95
163 184 95
156 176 80
162 184 84
157 177 95
155 176 80
161 183 88
161 181 88
159 180 84
165 186 102
154 175 84
160 181 102
168 189 102
159 179 76
160 181 88
161 181 92
158 179 80
155 176 92
163 184 92
154 174 72
157 177 76
158 178 76
154 175 76
161 181 84
154 174 80
158 177 76
139 159 67
161 180 99
151 173 67
153 174 57
158 180 57
153 174 57
146 166 36
154 176 62
156 177 44
155 176 36
147 169 51
148 168 25
152 173 36
148 168 36
148 170 25
152 173 36
146 169 0
146 166 0
153 175 25
155 176 0
149 171 0
155 177 25
150 170 36
154 176 25
153 174 0
156 178 0
153 175 0
145 167 0
150 172 0
155 177 0
146 169 0
146 167 0
153 175 0
150 170 0
151 174 0
154 177 0
150 173 0
143 164 0
148 169 0
149 171 0
155 176 25
149 169 0
138 160 0
138 158 0
135 155 0
140 161 0
150 172 0
134 155 0
135 155 0
149 170 0
144 164 0
137 159 0
134 156 0
140 160 0
139 160 0
142 162 0
143 164 0
134 154 0
124 144 0
133 153 0
142 163 0
141 163 0
131 152 0
121 140 0
139 160 0
137 159 0
133 154 0
140 161 0
131 151 0
139 160 0
132 153 0
133 154 0
139 159 0
135 156 0
138 158 0
138 159 0
141 163 0
137 158 0
131 153 0
138 160 0
140 162 0
147 168 0
126 147 0
138 159 0
145 167 0
138 159 0
134 155 0
146 166 0
135 156 0
134 154 0
140 161 0
147 169 0
142 162 0
139 161 0
146 167 0
145 167 0
138 159 0
146 167 0
143 164 0
136 157 0
140 160 0
143 165 0
139 159 0
140 160 0
139 160 0
139 160 0
144 164 0
133 155 0
142 162 0
139 159 0
148 169 0
145 167 0
141 162 0
144 165 0
144 166 0
138 158 0
141 162 0
144 165 0
138 160 0
141 163 0
144 166 0
136 158 0
148 169 0
147 169 0
150 173 0
138 158 0
140 162 0
142 164 0
140 161 0
144 165 0
142 163 0
148 170 0
144 165 0
146 167 0
151 173 0
148 169 0
159 182 0
150 173 0
149 170 0
149 171 0
152 174 0
156 177 0
145 166 0
146 168 0
148 171 0
146 167 0
153 173 0
148 168 0
144 165 0
150 173 0
151 172 0
143 165 0
151 172 0
142 163 0
146 169 0
154 177 0
147 168 0
149 172 0
152 171 0
141 162 0
136 157 0
152 175 0
156 179 0
152 175 0
145 167 0
156 179 0
159 181 0
150 170 0
156 177 0
158 180 0
152 174 0
149 169 0
158 179 0
151 173 0
154 176 0
155 175 0
153 176 0
151 172 0
156 178 0
154 176 0
157 179 0
158 179 0
159 181 0
155 178 0
155 177 0
160 181 0
152 174 0
153 175 0
149 170 0
154 174 0
154 175 0
162 183 0
152 175 0
160 182 0
161 183 0
157 181 0
160 183 0
155 176 0
160 180 0
153 175 0
160 181 0
160 182 0
157 179 0
159 181 0
156 178 0
154 175 0
164 185 0
158 179 0
160 182 0
160 180 0
164 186 0
161 183 0
164 184 0
166 187 0
158 180 0
159 181 0
162 184 0
164 186 0
162 185 0
164 186 0
154 176 0
162 185 0
158 179 0
161 180 0
160 183 0
161 184 0
163 185 0
166 188 0
159 182 0
164 186 0
156 175 0
161 183 0
156 177 0
166 189 0
164 185 0
165 187 0
169 193 0
163 185 0
165 189 0
164 186 0
164 184 0
164 186 0
164 185 0
166 188 0
160 182 0
166 188 0
164 186 0
165 187 0
163 185 0
166 187 0
163 186 0
164 187 0
158 179 0
164 187 0
163 186 0
166 189 0
165 186 0
166 188 0
165 187 0
161 182 0
168 188 0
160 183 0
168 190 0
163 186 0
161 184 0
168 190 0
169 192 0
168 191 0
166 187 0
167 189 0
166 188 0
163 184 0
160 181 0
161 183 0
166 188 0
166 188 0
167 190 0
169 191 0
167 189 0
167 189 0
165 187 0
165 186 0
164 186 0
164 186 0
168 191 0
171 192 0
171 193 0
168 190 0
167 190 0
168 190 0
165 188 0
167 190 0
176 199 107
172 194 95
177 200 117
168 191 80
176 199 99
170 193 88
171 194 88
173 195 105
171 193 84
176 199 117
167 190 102
173 197 105
170 194 84
175 198 111
166 188 62
167 190 88
169 191 84
168 191 84
169 193 97
165 188 84
163 186 84
170 193 94
168 191 92
172 194 99
170 193 92
170 192 99
166 189 84
169 191 99
169 192 84
170 193 92
171 194 122
166 189 84
165 188 80
166 190 95
167 190 92
168 191 99
169 191 92
171 194 99
172 194 99
170 193 92
167 189 99
168 191 95
172 196 72
164 188 84
172 195 114
165 188 95
165 187 88
173 195 105
161 183 84
168 190 114
161 185 102
166 189 105
162 185 105
161 182 80
170 192 88
165 187 105
165 187 95
168 190 102
168 190 102
162 184 67
163 185 88
164 186 95
162 183 120
159 183 120
165 187 84
161 182 92
161 182 88
165 187 99
165 187 99
162 183 76
159 180 92
160 180 95
155 177 80
163 185 95
159 180 76
164 185 108
160 182 102
161 182 92
155 178 99
164 185 105
159 181 80
161 182 99
170 191 102
153 175 67
169 190 105
163 184 102
163 185 108
162 182 108
161 182 92
163 184 99
163 185 88
163 184 108
165 186 111
162 184 80
160 180 84
154 175 72
162 184 95
158 178 92
157 178 67
155 176 84
152 172 95
157 178 80
166 187 105
160 181 72
153 173 72
156 177 84
156 177 67
154 175 84
158 179 88
149 170 88
164 184 92
156 177 67
156 177 57
155 176 62
148 169 25
149 170 57
148 169 67
150 172 51
156 176 67
153 174 36
147 168 36
149 170 44
143 165 0
148 170 25
153 175 36
139 161 36
148 169 0
153 174 0
154 176 25
148 171 25
149 171 25
154 177 0
163 184 25
152 174 0
157 179 0
159 182 25
154 177 0
148 171 0
149 171 0
153 174 0
147 168 0
149 171 0
146 167 0
142 164 0
153 176 0
152 173 0
149 171 0
147 168 0
147 168 0
143 164 0
135 155 0
139 160 0
143 164 0
135 156 0
132 152 0
137 158 0
135 156 0
141 162 0
135 157 0
141 161 0
130 150 0
137 159 0
137 158 0
134 156 0
138 159 0
142 162 0
139 159 0
145 166 0
144 165 0
144 166 0
137 158 0
133 156 0
131 153 0
135 155 0
148 169 0
147 169 0
129 150 0
139 159 0
137 158 0
141 162 0
144 165 0
133 153 0
130 151 0
138 160 0
136 156 0
136 156 0
147 168 0
140 161 0
143 164 0
147 169 0
143 163 0
149 171 0
139 161 0
139 160 0
138 159 0
136 157 0
134 154 0
140 162 0
148 170 0
148 169 0
139 160 0
140 162 0
150 171 0
145 166 0
145 166 0
134 156 0
138 159 0
140 162 0
133 153 0
141 162 0
140 161 0
140 161 0
143 165 0
141 162 0
145 166 0
152 174 0
141 163 0
141 163 0
140 161 0
141 162 0
142 163 0
133 155 0
144 166 0
141 163 0
147 169 0
138 159 0
151 172 0
140 161 0
139 160 0
154 174 0
153 172 0
148 169 0
140 162 0
146 167 0
145 166 0
149 172 0
153 175 0
142 164 0
150 171 0
151 172 0
151 172 0
147 167 0
150 171 0
151 173 0
150 173 0
143 162 0
146 167 0
140 161 0
154 176 0
147 169 0
152 174 0
151 172 0
149 171 0
143 163 0
156 178 0
149 170 0
152 173 0
149 171 0
147 167 0
159 180 0
155 176 0
154 176 0
146 167 0
151 173 0
153 174 0
146 168 0
159 180 0
154 175 0
152 172 0
153 176 0
152 174 0
162 184 0
156 178 0
154 177 0
159 181 0
143 164 0
151 172 0
147 169 0
145 165 0
154 178 0
150 172 0
154 177 0
167 188 0
156 178 0
151 173 0
157 179 0
162 184 0
156 178 0
158 181 0
154 176 0
157 178 0
148 169 0
154 176 0
149 170 0
156 177 0
161 184 0
159 180 0
153 175 0
155 177 0
165 187 0
157 179 0
162 186 0
162 183 0
155 177 0
164 187 0
155 177 0
157 180 0
155 178 0
159 182 0
157 178 0
164 186 0
156 177 0
157 180 0
155 175 0
157 178 0
163 184 0
161 184 0
160 181 0
155 178 0
160 181 0
161 182 0
158 180 0
160 183 0
159 181 0
159 181 0
165 188 0
161 184 0
158 181 0
162 184 0
161 181 0
159 180 0
164 187 0
161 182 0
163 185 0
162 183 0
160 181 0
163 185 0
161 182 0
163 185 0
161 183 0
165 187 0
161 184 0
164 183 0
167 189 0
164 187 0
162 184 0
167 189 0
165 188 0
161 184 0
160 180 0
168 191 0
161 183 0
165 186 0
160 182 0
165 188 0
168 190 0
166 188 0
165 188 0
170 192 0
164 186 0
166 189 0
166 187 0
164 187 0
163 187 0
163 185 0
166 187 0
165 186 0
164 186 0
165 188 0
165 186 0
171 192 0
166 188 0
169 191 0
169 192 0
167 190 0
163 185 0
166 188 0
169 191 0
168 191 0
157 178 0
168 189 0
167 190 0
163 183 0
169 192 0
164 187 0
168 189 0
168 190 0
166 187 0
168 190 0
168 191 0
168 191 0
163 186 0
166 189 0
164 185 0
164 185 0
164 186 0
166 189 0
166 189 0
166 187 0
170 192 0
173 196 84
173 196 95
171 194 76
172 194 76
173 196 105
175 197 105
171 193 76
177 199 114
177 199 114
168 191 102
169 192 102
176 200 84
177 199 111
171 193 88
166 189 88
171 193 76
176 200 114
171 194 111
173 196 99
177 199 108
170 193 84
168 191 76
172 194 99
169 192 84
171 194 92
173 196 80
172 195 84
167 190 95
172 194 111
170 193 105
168 191 76
176 199 127
171 193 102
168 190 92
168 191 95
163 185 84
169 191 92
167 190 80
170 192 88
168 191 92
171 193 88
170 193 95
170 192 92
163 185 72
168 190 92
161 184 99
172 195 99
170 193 108
165 188 95
167 190 95
170 193 108
167 190 95
163 186 84
160 182 88
168 191 84
166 189 99
166 188 105
166 187 88
156 178 62
162 184 76
173 195 95
165 186 108
160 181 88
162 183 84
161 183 92
164 187 108
164 185 88
157 179 80
165 187 95
171 194 108
165 187 99
161 184 92
159 180 95
168 188 122
165 186 92
159 182 88
169 190 111
160 183 80
156 177 108
159 181 72
160 181 95
162 183 92
161 183 88
160 181 84
168 189 111
153 175 105
160 181 92
161 182 76
158 178 99
160 182 92
163 184 88
160 181 72
154 174 95
159 180 92
163 183 84
166 188 99
155 175 72
149 170 67
142 163 76
164 184 88
168 189 95
155 175 80
157 178 76
152 172 84
158 179 67
165 185 95
156 177 76
152 173 80
166 187 72
161 181 84
155 176 80
161 182 80
154 175 72
165 186 76
146 168 36
148 170 44
152 173 51
142 164 44
149 170 36
158 179 36
141 162 51
155 177 44
149 170 25
156 176 25
147 169 36
156 178 36
155 176 36
147 168 0
151 174 0
151 173 25
155 178 25
159 180 25
154 176 0
154 176 0
155 178 25
156 178 0
157 180 0
155 177 0
153 175 25
151 173 0
153 176 0
152 174 0
150 173 0
148 169 0
157 179 0
146 167 0
141 163 0
141 162 0
141 162 0
140 161 0
148 169 0
140 162 0
139 160 0
135 156 0
144 164 0
139 161 0
141 162 0
129 150 0
133 154 0
137 158 0
132 153 0
135 156 0
114 134 0
137 159 0
146 167 0
149 170 0
141 162 0
139 161 0
133 154 0
142 163 0
148 168 0
145 165 0
138 159 0
136 157 0
135 155 0
132 151 0
130 151 0
136 156 0
134 155 0
135 155 0
142 162 0
150 172 0
143 164 0
149 170 0
138 160 0
141 162 0
142 164 0
147 169 0
143 164 0
139 160 0
145 166 0
137 159 0
140 162 0
142 164 0
140 162 0
132 153 0
140 162 0
133 154 0
145 166 0
131 152 0
134 155 0
140 162 0
145 167 0
150 171 0
140 162 0
137 160 0
139 160 0
141 162 0
145 166 0
136 158 0
143 164 0
142 162 0
139 161 0
148 170 0
147 168 0
149 171 0
143 163 0
138 160 0
140 161 0
139 161 0
148 169 0
153 174 0
148 170 0
145 166 0
143 165 0
148 170 0
138 159 0
142 164 0
150 171 0
149 171 0
142 164 0
146 167 0
137 158 0
146 168 0
153 174 0
148 169 0
146 168 0
143 165 0
140 159 0
136 157 0
145 166 0
145 166 0
149 171 0
146 167 0
154 175 0
149 170 0
145 166 0
145 167 0
146 168 0
146 167 0
155 176 0
151 173 0
152 174 0
141 162 0
151 174 0
143 165 0
155 177 0
149 170 0
152 174 0
148 170 0
150 172 0
158 180 0
158 181 0
142 163 0
152 174 0
157 177 0
144 165 0
153 175 0
159 181 0
150 170 0
154 176 0
151 171 0
148 171 0
163 185 0
152 172 0
152 174 0
153 175 0
157 179 0
160 183 0
155 177 0
152 174 0
152 174 0
161 184 0
156 178 0
157 179 0
153 176 0
161 183 0
160 181 0
154 174 0
146 168 0
162 184 0
155 177 0
158 181 0
158 179 0
159 180 0
156 178 0
159 182 0
158 179 0
158 180 0
158 180 0
155 178 0
161 183 0
155 174 0
157 179 0
157 178 0
156 178 0
163 184 0
159 181 0
157 179 0
153 174 0
162 183 0
160 182 0
157 180 0
161 183 0
159 179 0
162 185 0
159 180 0
163 185 0
161 183 0
160 183 0
161 182 0
164 186 0
165 186 0
164 186 0
154 177 0
162 184 0
159 180 0
161 183 0
163 182 0
163 184 0
160 182 0
161 183 0
161 181 0
162 185 0
162 184 0
160 182 0
162 184 0
162 185 0
164 186 0
163 184 0
162 184 0
165 187 0
168 190 0
161 182 0
166 189 0
168 190 0
161 182 0
163 185 0
160 182 0
163 186 0
166 188 0
161 183 0
161 183 0
162 184 0
166 189 0
165 188 0
164 185 0
165 186 0
165 186 0
167 190 0
161 183 0
165 188 0
170 192 0
158 180 0
165 186 0
166 188 0
165 185 0
165 188 0
164 187 0
164 185 0
168 189 0
164 186 0
164 186 0
165 185 0
168 190 0
167 189 0
169 190 0
165 187 0
165 186 0
165 187 0
168 190 0
170 192 0
167 190 0
168 190 0
167 190 0
166 189 0
165 186 0
169 192 0
166 188 0
167 190 0
166 190 0
168 192 0
166 186 0
165 187 0
166 188 0
169 191 0
166 188 0
166 189 0
173 194 0
167 190 0
162 186 82
171 193 92
174 196 88
175 197 95
173 195 80
172 194 80
172 196 117
172 195 88
171 193 102
167 189 88
172 195 111
173 196 88
168 192 99
178 200 102
172 195 72
176 199 111
175 197 84
171 194 88
167 190 84
170 192 76
168 192 92
166 190 67
171 195 99
169 193 88
166 190 95
162 184 76
168 192 92
167 190 95
166 189 84
172 195 105
170 192 105
166 189 88
176 199 127
172 195 88
165 188 92
170 193 99
167 190 92
169 192 99
168 192 99
165 187 88
164 187 92
163 186 102
167 190 105
163 186 105
164 188 99
166 189 108
168 192 120
164 188 95
167 190 105
165 188 92
170 193 117
166 188 80
166 189 95
164 186 84
163 185 72
166 189 95
174 197 108
169 192 84
164 185 102
163 185 111
163 186 102
164 185 92
166 189 111
166 188 105
163 186 102
161 183 99
160 182 99
159 181 84
161 182 80
161 182 99
165 188 92
164 186 105
163 185 92
159 180 88
164 186 102
159 181 92
167 188 102
164 185 92
163 185 99
159 181 88
164 186 92
167 189 84
162 183 84
162 183 92
158 178 88
164 184 108
162 182 114
165 186 88
168 189 114
168 189 108
157 177 88
163 183 88
166 187 95
161 181 111
154 175 80
157 179 92
158 179 95
164 184 102
155 176 76
165 186 92
159 181 80
152 173 67
164 184 88
152 173 95
162 183 92
158 178 99
155 176 72
155 175 76
161 181 84
156 177 76
156 177 67
155 177 72
151 172 80
151 172 51
153 175 51
150 172 44
153 175 44
152 172 44
155 177 57
152 174 36
148 169 44
155 176 44
152 175 25
152 174 44
159 182 36
157 179 36
147 168 0
144 166 25
152 173 0
155 177 0
152 174 0
150 173 0
150 171 0
153 175 0
158 181 0
148 170 0
151 173 0
151 174 0
158 180 0
149 171 0
150 172 0
154 175 0
147 169 0
148 169 0
147 169 0
143 164 0
147 169 0
145 165 0
147 167 0
153 175 0
144 165 0
146 166 0
144 165 0
137 159 0
139 160 0
139 161 0
149 170 0
151 172 0
147 169 0
138 159 0
141 163 0
149 170 0
138 159 0
137 157 0
149 169 0
145 165 0
144 165 0
136 157 0
133 155 0
127 149 0
143 165 0
142 163 0
144 166 0
137 159 0
138 158 0
128 150 0
141 161 0
137 159 0
135 155 0
139 159 0
135 156 0
140 161 0
138 159 0
131 152 0
143 164 0
138 159 0
136 157 0
147 167 0
140 161 0
138 159 0
142 163 0
152 173 0
142 164 0
140 161 0
139 161 0
136 157 0
139 161 0
136 157 0
133 153 0
147 167 0
134 155 0
136 156 0
128 150 0
138 157 0
135 157 0
148 170 0
137 159 0
142 162 0
142 163 0
146 168 0
146 168 0
141 162 0
138 159 0
131 153 0
144 166 0
148 169 0
141 163 0
146 167 0
143 165 0
141 163 0
147 169 0
142 165 0
134 156 0
142 164 0
140 160 0
143 165 0
146 168 0
147 168 0
150 171 0
148 168 0
150 170 0
143 165 0
138 159 0
145 167 0
140 161 0
147 169 0
155 178 0
146 168 0
147 170 0
144 167 0
146 167 0
147 168 0
145 166 0
154 175 0
149 170 0
147 168 0
149 170 0
150 171 0
149 172 0
147 169 0
147 167 0
149 170 0
153 174 0
151 172 0
155 176 0
150 172 0
152 174 0
153 176 0
151 173 0
149 171 0
147 168 0
155 177 0
158 179 0
157 179 0
152 173 0
152 174 0
150 170 0
158 180 0
150 174 0
146 168 0
146 168 0
150 172 0
152 175 0
150 172 0
151 174 0
150 172 0
156 179 0
153 176 0
147 168 0
149 171 0
145 166 0
150 171 0
159 182 0
163 184 0
155 178 0
147 170 0
157 180 0
157 179 0
157 180 0
156 178 0
158 179 0
154 178 0
151 173 0
158 180 0
161 184 0
147 170 0
154 174 0
156 177 0
161 182 0
155 177 0
161 182 0
156 178 0
156 179 0
155 176 0
157 178 0
160 183 0
156 178 0
159 182 0
160 182 0
158 180 0
159 182 0
160 182 0
158 179 0
160 182 0
162 185 0
157 179 0
162 183 0
159 181 0
162 184 0
154 176 0
154 174 0
163 184 0
157 179 0
164 187 0
161 182 0
158 179 0
166 187 0
155 174 0
155 176 0
161 182 0
162 185 0
162 184 0
157 179 0
166 188 0
162 185 0
163 186 0
164 185 0
158 181 0
158 180 0
165 188 0
162 185 0
158 180 0
165 186 0
162 184 0
161 182 0
158 180 0
160 182 0
165 188 0
163 185 0
161 184 0
162 183 0
162 184 0
161 183 0
157 179 0
162 183 0
163 185 0
159 181 0
165 188 0
162 183 0
164 186 0
164 186 0
163 185 0
163 185 0
164 188 0
165 188 0
162 184 0
162 184 0
169 192 0
158 179 0
166 188 0
168 190 0
165 187 0
165 187 0
168 191 0
167 190 0
166 189 0
166 188 0
167 190 0
166 189 0
167 188 0
168 191 0
170 192 0
171 194 0
169 192 0
164 186 0
168 190 0
168 189 0
165 187 0
167 189 0
169 192 0
169 190 0
165 187 0
169 191 0
165 187 0
165 187 0
165 187 0
170 192 0
164 187 0
170 192 0
162 184 0
174 197 82
171 194 94
169 192 99
173 196 99
179 201 111
171 194 99
172 195 76
171 194 99
171 193 88
169 192 88
174 197 88
174 198 105
178 200 99
172 195 95
170 192 80
167 190 102
172 196 114
167 190 76
171 193 108
172 195 92
171 194 88
171 193 108
170 193 84
166 189 92
170 192 108
177 198 102
173 195 102
169 192 102
167 191 95
167 190 80
170 192 76
172 194 105
170 193 95
169 192 84
167 190 120
174 196 111
170 192 120
169 191 95
166 188 108
172 195 114
159 182 99
166 190 111
166 190 88
166 189 108
168 190 102
166 188 95
167 189 99
166 188 92
165 188 84
160 183 92
167 189 88
164 186 88
165 187 105
169 191 80
172 195 62
159 182 105
175 197 111
163 185 99
170 192 99
165 186 84
157 178 80
165 186 105
162 184 84
160 182 95
160 183 84
159 180 95
163 184 84
163 184 99
163 185 84
160 181 76
165 187 111
170 191 99
161 183 84
157 178 95
165 187 99
165 187 111
163 185 84
161 183 88
159 181 108
162 184 88
166 187 105
169 190 108
167 188 105
165 187 108
156 177 95
160 182 92
155 176 84
159 181 95
164 185 99
162 184 92
159 181 111
159 181 95
151 172 84
159 180 88
159 180 92
165 187 80
161 181 67
157 178 92
160 181 88
161 182 92
159 180 76
167 189 102
155 175 88
157 179 88
161 182 80
159 179 95
167 187 88
153 174 76
157 179 36
158 178 72
155 177 57
154 175 80
157 179 36
151 171 72
156 177 51
151 173 44
159 180 72
154 175 36
164 185 72
149 171 44
150 173 57
154 177 36
151 172 25
143 165 36
156 178 36
153 175 0
148 169 36
152 174 0
150 171 0
149 171 25
152 173 25
154 177 0
151 171 0
147 170 0
153 175 0
154 176 0
153 176 0
149 171 0
152 176 0
156 179 0
146 168 0
156 179 0
154 176 0
153 175 0
142 164 0
145 165 0
143 165 0
147 169 0
144 165 0
150 171 0
145 167 0
144 166 0
150 172 0
143 165 0
142 162 0
150 171 0
148 169 0
136 157 0
140 161 0
145 166 0
143 164 0
142 163 0
133 154 0
138 159 0
148 169 0
145 166 0
139 160 0
145 166 0
140 162 0
141 161 0
137 159 0
136 158 0
141 162 0
148 168 0
136 158 0
136 156 0
134 155 0
141 162 0
144 165 0
133 153 0
132 154 0
133 154 0
142 162 0
142 164 0
137 158 0
131 152 0
138 159 0
145 165 0
145 167 0
143 164 0
140 161 0
145 166 0
138 159 0
138 158 0
145 164 0
137 159 0
139 160 0
133 153 0
137 158 0
143 165 0
141 163 0
143 164 0
149 170 0
149 171 0
139 161 0
139 161 0
141 162 0
144 166 0
138 161 0
144 164 0
139 162 0
135 156 0
143 166 0
138 159 0
142 164 0
145 166 0
139 161 0
142 164 0
144 165 0
149 170 0
144 166 0
145 167 0
150 172 0
142 164 0
144 166 0
145 166 0
144 166 0
147 167 0
155 177 0
144 165 0
147 169 0
146 167 0
152 174 0
147 169 0
142 165 0
149 171 0
144 165 0
153 175 0
142 163 0
151 172 0
151 171 0
142 163 0
144 165 0
152 173 0
145 167 0
148 170 0
148 170 0
152 172 0
156 178 0
142 163 0
150 172 0
148 170 0
145 167 0
150 171 0
151 174 0
156 179 0
150 172 0
156 177 0
149 171 0
149 170 0
157 178 0
157 179 0
154 175 0
148 169 0
152 173 0
158 179 0
152 175 0
158 179 0
150 172 0
161 183 0
154 177 0
152 172 0
148 170 0
155 177 0
161 183 0
155 176 0
153 174 0
160 181 0
150 172 0
157 180 0
156 178 0
155 176 0
153 174 0
156 178 0
158 179 0
160 182 0
154 178 0
159 181 0
163 185 0
155 178 0
157 180 0
160 182 0
162 182 0
153 176 0
163 185 0
150 171 0
163 183 0
158 181 0
155 176 0
156 177 0
154 174 0
160 183 0
155 177 0
152 173 0
156 178 0
158 179 0
159 180 0
158 181 0
163 185 0
159 181 0
162 184 0
162 185 0
155 177 0
155 176 0
160 181 0
160 182 0
161 184 0
164 185 0
157 179 0
163 184 0
163 185 0
162 184 0
158 180 0
160 183 0
155 176 0
163 184 0
163 186 0
164 187 0
165 187 0
150 172 0
164 187 0
160 182 0
166 187 0
160 181 0
160 183 0
161 183 0
162 184 0
165 188 0
164 187 0
162 184 0
162 185 0
160 184 0
162 184 0
167 190 0
163 185 0
168 190 0
162 185 0
166 188 0
160 183 0
163 186 0
165 186 0
163 183 0
165 187 0
169 190 0
169 190 0
166 187 0
162 184 0
161 182 0
161 183 0
169 191 0
160 182 0
163 185 0
168 190 0
166 189 0
168 192 0
164 186 0
164 186 0
164 186 0
163 185 0
166 189 0
166 189 0
167 189 0
164 186 0
168 190 0
163 185 0
166 188 0
168 190 0
167 189 0
164 186 0
166 189 0
165 190 0
166 189 0
165 188 0
170 192 0
168 189 0
166 187 0
165 187 0
168 190 0
167 190 0
170 192 0
168 190 0
167 189 0
164 185 0
167 190 0
168 190 0
168 190 0
169 192 0
165 188 0
168 189 0
169 190 0
174 197 99
175 198 94
172 195 88
173 196 84
178 200 95
174 197 92
171 194 92
170 192 72
175 198 105
173 196 111
173 196 92
176 200 117
172 195 99
171 193 88
169 192 102
169 192 76
168 191 105
176 198 111
171 194 102
173 195 92
173 195 102
170 192 88
172 195 88
179 201 120
174 197 105
166 190 95
170 193 80
174 197 114
165 188 57
170 193 80
173 196 95
169 192 108
166 189 108
166 189 95
170 193 99
172 194 95
170 192 92
168 191 88
168 191 99
172 196 114
169 192 105
170 191 95
165 187 88
166 189 105
163 186 88
164 187 92
167 189 99
168 191 111
162 184 76
165 187 84
161 184 105
168 191 108
167 189 95
172 194 95
167 188 92
168 190 88
165 186 76
168 190 92
163 185 99
167 188 102
165 187 84
164 186 88
168 189 92
158 180 92
165 187 99
160 182 57
161 183 84
161 183 88
166 188 108
167 189 95
165 187 99
160 182 92
164 187 105
162 184 111
166 187 102
169 189 95
158 179 92
168 190 114
166 187 99
159 180 76
164 186 92
166 187 80
156 178 95
164 185 92
169 190 108
153 174 62
156 177 99
165 186 84
159 181 84
167 187 92
155 176 80
171 192 92
162 182 102
148 169 80
164 185 105
162 181 102
158 179 67
158 178 95
155 175 67
161 182 95
159 181 76
158 180 88
163 184 95
157 178 80
148 169 67
162 183 76
158 179 62
162 182 92
161 182 88
155 175 76
147 168 36
156 177 80
149 170 72
156 177 62
156 178 57
150 171 44
148 170 36
146 168 25
150 172 25
150 172 36
153 174 44
154 176 44
151 174 25
145 166 0
159 181 0
157 179 36
153 176 25
154 176 0
155 177 36
151 173 25
152 175 36
154 178 0
151 173 0
157 180 0
151 173 0
155 177 0
155 178 0
154 175 0
157 179 0
153 175 0
158 180 0
150 171 0
149 171 0
150 171 0
156 178 0
142 165 0
143 164 0
147 168 0
139 161 0
149 171 0
141 163 0
145 168 0
143 164 0
150 172 0
140 161 0
145 166 0
152 173 0
143 164 0
145 167 0
133 154 0
144 166 0
151 173 0
152 173 0
138 160 0
140 161 0
144 165 0
149 171 0
139 159 0
138 159 0
138 160 0
146 167 0
143 164 0
147 168 0
148 170 0
144 166 0
139 160 0
143 163 0
137 159 0
143 164 0
148 169 0
139 159 0
142 163 0
142 162 0
141 162 0
142 162 0
142 163 0
135 158 0
138 159 0
146 167 0
133 154 0
141 162 0
134 155 0
135 157 0
144 165 0
138 159 0
144 165 0
133 155 0
143 165 0
141 162 0
141 163 0
143 164 0
142 162 0
143 164 0
136 158 0
148 170 0
141 162 0
137 160 0
142 163 0
143 164 0
142 163 0
141 162 0
149 170 0
146 168 0
147 169 0
140 163 0
143 163 0
137 158 0
146 168 0
150 172 0
146 167 0
150 172 0
140 161 0
137 159 0
150 172 0
146 168 0
143 164 0
143 166 0
150 171 0
147 169 0
138 159 0
146 169 0
143 163 0
145 167 0
150 173 0
149 170 0
137 159 0
152 174 0
148 169 0
147 168 0
145 167 0
142 165 0
146 168 0
147 170 0
145 166 0
154 176 0
151 174 0
155 177 0
148 170 0
157 178 0
156 178 0
153 176 0
140 161 0
148 170 0
156 178 0
154 177 0
156 179 0
157 180 0
151 172 0
153 175 0
152 174 0
156 177 0
153 174 0
149 171 0
157 179 0
158 180 0
150 172 0
159 181 0
159 179 0
160 181 0
154 177 0
148 169 0
148 171 0
161 182 0
159 181 0
152 175 0
154 175 0
152 176 0
156 178 0
158 180 0
152 176 0
158 179 0
159 181 0
155 176 0
155 175 0
163 185 0
162 184 0
152 173 0
158 179 0
155 177 0
152 173 0
165 187 0
150 173 0
159 181 0
160 184 0
157 180 0
159 182 0
156 178 0
157 178 0
151 173 0
158 179 0
159 181 0
160 183 0
158 178 0
164 186 0
161 184 0
154 175 0
163 185 0
162 184 0
163 186 0
158 180 0
161 183 0
161 183 0
156 178 0
159 181 0
158 179 0
159 182 0
161 183 0
163 186 0
159 182 0
155 176 0
162 183 0
162 184 0
159 182 0
167 190 0
156 178 0
161 183 0
158 180 0
161 184 0
158 180 0
161 184 0
164 186 0
165 187 0
161 182 0
163 185 0
160 181 0
162 183 0
158 179 0
167 187 0
167 190 0
165 188 0
164 186 0
160 181 0
161 184 0
162 183 0
166 188 0
165 188 0
167 189 0
162 185 0
160 181 0
164 186 0
163 185 0
164 186 0
166 187 0
162 183 0
167 189 0
163 185 0
165 188 0
166 189 0
165 186 0
166 188 0
158 178 0
166 187 0
163 186 0
168 192 0
163 185 0
166 187 0
164 185 0
163 187 0
167 188 0
170 193 0
166 189 0
169 191 0
166 188 0
162 184 0
162 181 0
168 190 0
169 191 0
166 187 0
165 187 0
166 188 0
161 183 0
169 191 0
164 187 0
167 188 0
166 187 0
170 192 0
166 188 0
167 190 0
168 191 0
165 188 0
167 188 0
167 190 0
169 192 0
165 189 0
169 192 0
169 192 0
163 185 0
167 188 0
169 192 0
168 190 0
