P3
400 225
255
204 226 255
204 226 255
204 226 255
204 226 255
204 226 255
204 226 255
204 226 255
204 226 255
204 226 255
204 226 255
204 226 255
204 226 255
204 226 255
204 226 255
204 226 255
203 226 255
203 226 255
203 226 255
203 226 255
203 226 255
203 226 255
203 226 255
203 226 255
203 225 255
203 225 255
203 225 255
203 225 255
203 225 255
203 225 255
203 225 255
203 225 255
203 225 255
202 225 255
202 225 255
202 225 255
202 225 255
202 225 255
202 225 255
202 225 255
202 225 255
202 225 255
202 225 255
202 225 255
202 225 255
202 225 255
202 225 255
202 225 255
202 225 255
201 225 255
201 225 255
201 225 255
201 225 255
201 224 255
201 224 255
201 224 255
201 224 255
201 224 255
201 224 255
201 224 255
201 224 255
201 224 255
201 224 255
201 224 255
200 224 255
200 224 255
200 224 255
200 224 255
200 224 255
200 224 255
200 224 255
200 224 255
200 224 255
200 224 255
200 224 255
200 224 255
200 224 255
200 224 255
200 224 255
199 224 255
199 224 255
199 223 255
199 223 255
199 223 255
199 223 255
199 223 255
199 223 255
199 223 255
199 223 255
199 223 255
199 223 255
199 223 255
199 223 255
198 223 255
198 223 255
198 223 255
198 223 255
198 223 255
198 223 255
198 223 255
198 223 255
198 223 255
198 223 255
198 223 255
198 223 255
198 223 255
198 223 255
197 223 255
197 222 255
197 222 255
197 222 255
197 222 255
197 222 255
197 222 255
197 222 255
197 222 255
197 222 255
197 222 255
197 222 255
197 222 255
197 222 255
197 222 255
196 222 255
196 222 255
196 222 255
196 222 255
196 222 255
196 222 255
196 222 255
196 222 255
196 222 255
196 222 255
196 222 255
196 222 255
196 222 255
196 222 255
196 221 255
196 221 255
195 221 255
195 221 255
195 221 255
195 221 255
195 221 255
195 221 255
195 221 255
195 221 255
195 221 255
195 221 255
195 221 255
195 221 255
195 221 255
195 221 255
195 221 255
195 221 255
195 221 255
195 221 255
194 221 255
194 221 255
194 221 255
194 221 255
194 221 255
194 221 255
194 221 255
194 221 255
194 221 255
194 221 255
194 221 255
194 221 255
194 221 255
194 221 255
194 221 255
194 221 255
194 221 255
194 221 255
194 221 255
194 221 255
194 221 255
194 221 255
194 220 255
194 220 255
194 220 255
194 220 255
194 220 255
194 220 255
194 220 255
194 220 255
194 220 255
193 220 255
193 220 255
193 220 255
193 220 255
193 220 255
193 220 255
193 220 255
193 220 255
193 220 255
193 220 255
193 220 255
193 220 255
193 220 255
193 220 255
193 220 255
193 220 255
193 220 255
193 220 255
193 220 255
193 220 255
193 220 255
193 220 255
193 220 255
193 220 255
193 220 255
193 220 255
193 220 255
193 220 255
194 220 255
194 220 255
194 220 255
194 220 255
194 220 255
194 220 255
194 220 255
194 220 255
194 220 255
194 221 255
194 221 255
194 221 255
194 221 255
194 221 255
194 221 255
194 221 255
194 221 255
194 221 255
194 221 255
194 221 255
194 221 255
194 221 255
194 221 255
194 221 255
194 221 255
194 221 255
194 221 255
194 221 255
194 221 255
194 221 255
194 221 255
195 221 255
195 221 255
195 221 255
195 221 255
195 221 255
195 221 255
195 221 255
195 221 255
195 221 255
195 221 255
195 221 255
195 221 255
195 221 255
195 221 255
195 221 255
195 221 255
195 221 255
195 221 255
196 221 255
196 221 255
196 222 255
196 222 255
196 222 255
196 222 255
196 222 255
196 222 255
196 222 255
196 222 255
196 222 255
196 222 255
196 222 255
196 222 255
196 222 255
196 222 255
197 222 255
197 222 255
197 222 255
197 222 255
197 222 255
197 222 255
197 222 255
197 222 255
197 222 255
197 222 255
197 222 255
197 222 255
197 222 255
197 222 255
197 223 255
198 223 255
198 223 255
198 223 255
198 223 255
198 223 255
198 223 255
198 223 255
198 223 255
198 223 255
198 223 255
198 223 255
198 223 255
198 223 255
198 223 255
199 223 255
199 223 255
199 223 255
199 223 255
199 223 255
199 223 255
199 223 255
199 223 255
199 223 255
199 223 255
199 223 255
199 223 255
199 224 255
199 224 255
199 224 255
200 224 255
200 224 255
200 224 255
200 224 255
200 224 255
200 224 255
200 224 255
200 224 255
200 224 255
200 224 255
200 224 255
200 224 255
200 224 255
200 224 255
201 224 255
201 224 255
201 224 255
201 224 255
201 224 255
201 224 255
201 224 255
201 224 255
201 224 255
201 224 255
201 224 255
201 225 255
201 225 255
201 225 255
201 225 255
202 225 255
202 225 255
202 225 255
202 225 255
202 225 255
202 225 255
202 225 255
202 225 255
202 225 255
202 225 255
202 225 255
202 225 255
202 225 255
202 225 255
202 225 255
202 225 255
203 225 255
203 225 255
203 225 255
203 225 255
203 225 255
203 225 255
203 225 255
203 225 255
203 225 255
203 226 255
203 226 255
203 226 255
203 226 255
203 226 255
203 226 255
203 226 255
203 226 255
204 226 255
204 226 255
204 226 255
204 226 255
204 226 255
204 226 255
204 226 255
204 226 255
204 226 255
204 226 255
204 226 255
204 226 255
204 226 255
204 226 255
204 226 255
204 226 255
204 226 255
204 226 255
204 226 255
204 226 255
204 226 255
204 226 255
204 226 255
204 226 255
204 226 255
204 226 255
204 226 255
204 226 255
204 226 255
204 226 255
204 226 255
204 226 255
204 226 255
203 226 255
203 226 255
203 226 255
203 226 255
203 226 255
203 226 255
203 226 255
203 225 255
203 225 255
203 225 255
203 225 255
203 225 255
203 225 255
203 225 255
203 225 255
203 225 255
202 225 255
202 225 255
202 225 255
202 225 255
202 225 255
202 225 255
202 225 255
202 225 255
202 225 255
202 225 255
202 225 255
202 225 255
202 225 255
202 225 255
202 225 255
202 225 255
201 225 255
201 225 255
201 225 255
201 225 255
201 225 255
201 224 255
201 224 255
201 224 255
201 224 255
201 224 255
201 224 255
201 224 255
201 224 255
201 224 255
201 224 255
200 224 255
200 224 255
200 224 255
200 224 255
200 224 255
200 224 255
200 224 255
200 224 255
200 224 255
200 224 255
200 224 255
200 224 255
200 224 255
200 224 255
200 224 255
199 224 255
199 224 255
199 223 255
199 223 255
199 223 255
199 223 255
199 223 255
199 223 255
199 223 255
199 223 255
199 223 255
199 223 255
199 223 255
199 223 255
198 223 255
198 223 255
198 223 255
198 223 255
198 223 255
198 223 255
198 223 255
198 223 255
198 223 255
198 223 255
198 223 255
198 223 255
198 223 255
198 223 255
197 223 255
197 222 255
197 222 255
197 222 255
197 222 255
197 222 255
197 222 255
197 222 255
197 222 255
197 222 255
197 222 255
197 222 255
197 222 255
197 222 255
197 222 255
196 222 255
196 222 255
196 222 255
196 222 255
196 222 255
196 222 255
196 222 255
196 222 255
196 222 255
196 222 255
196 222 255
196 222 255
196 222 255
196 222 255
196 222 255
196 221 255
195 221 255
195 221 255
195 221 255
195 221 255
195 221 255
195 221 255
195 221 255
195 221 255
195 221 255
195 221 255
195 221 255
195 221 255
195 221 255
195 221 255
195 221 255
195 221 255
195 221 255
195 221 255
195 221 255
194 221 255
194 221 255
194 221 255
194 221 255
194 221 255
194 221 255
194 221 255
194 221 255
194 221 255
194 221 255
194 221 255
194 221 255
194 221 255
194 221 255
194 221 255
194 221 255
194 221 255
194 221 255
194 221 255
194 221 255
194 221 255
194 221 255
194 221 255
194 221 255
194 221 255
194 220 255
194 220 255
194 220 255
194 220 255
194 220 255
194 220 255
194 220 255
194 220 255
194 220 255
194 220 255
194 220 255
194 220 255
194 220 255
194 220 255
194 220 255
194 220 255
194 220 255
194 220 255
194 220 255
194 220 255
194 220 255
194 220 255
194 220 255
194 220 255
194 220 255
194 220 255
194 220 255
194 220 255
194 220 255
194 220 255
194 220 255
194 220 255
194 220 255
194 220 255
194 221 255
194 221 255
194 221 255
194 221 255
194 221 255
194 221 255
194 221 255
194 221 255
194 221 255
194 221 255
194 221 255
194 221 255
194 221 255
194 221 255
194 221 255
194 221 255
194 221 255
194 221 255
194 221 255
194 221 255
194 221 255
194 221 255
194 221 255
194 221 255
195 221 255
195 221 255
195 221 255
195 221 255
195 221 255
195 221 255
195 221 255
195 221 255
195 221 255
195 221 255
195 221 255
195 221 255
195 221 255
195 221 255
195 221 255
195 221 255
195 221 255
195 221 255
195 221 255
195 221 255
196 221 255
196 222 255
196 222 255
196 222 255
196 222 255
196 222 255
196 222 255
196 222 255
196 222 255
196 222 255
196 222 255
196 222 255
196 222 255
196 222 255
196 222 255
196 222 255
197 222 255
197 222 255
197 222 255
197 222 255
197 222 255
197 222 255
197 222 255
197 222 255
197 222 255
197 222 255
197 222 255
197 222 255
197 222 255
197 222 255
197 223 255
198 223 255
198 223 255
198 223 255
198 223 255
198 223 255
198 223 255
198 223 255
198 223 255
198 223 255
198 223 255
198 223 255
198 223 255
198 223 255
198 223 255
199 223 255
199 223 255
199 223 255
199 223 255
199 223 255
199 223 255
199 223 255
199 223 255
199 223 255
199 223 255
199 223 255
199 223 255
199 224 255
199 224 255
199 224 255
200 224 255
200 224 255
200 224 255
200 224 255
200 224 255
200 224 255
200 224 255
200 224 255
200 224 255
200 224 255
200 224 255
200 224 255
200 224 255
200 224 255
201 224 255
201 224 255
201 224 255
201 224 255
201 224 255
201 224 255
201 224 255
201 224 255
201 224 255
201 224 255
201 224 255
201 225 255
201 225 255
201 225 255
201 225 255
202 225 255
202 225 255
202 225 255
202 225 255
202 225 255
202 225 255
202 225 255
202 225 255
202 225 255
202 225 255
202 225 255
202 225 255
202 225 255
202 225 255
202 225 255
202 225 255
203 225 255
203 225 255
203 225 255
203 225 255
203 225 255
203 225 255
203 225 255
203 225 255
203 225 255
203 226 255
203 226 255
203 226 255
203 226 255
203 226 255
203 226 255
203 226 255
204 226 255
204 226 255
204 226 255
204 226 255
204 226 255
204 226 255
204 226 255
204 226 255
204 226 255
204 226 255
204 226 255
204 226 255
204 226 255
204 226 255
204 226 255
204 226 255
204 226 255
204 226 255
205 226 255
205 226 255
204 226 255
204 226 255
204 226 255
204 226 255
204 226 255
204 226 255
204 226 255
204 226 255
204 226 255
204 226 255
204 226 255
204 226 255
204 226 255
204 226 255
204 226 255
204 226 255
204 226 255
204 226 255
203 226 255
203 226 255
203 226 255
203 226 255
203 226 255
203 226 255
203 226 255
203 225 255
203 225 255
203 225 255
203 225 255
203 225 255
203 225 255
203 225 255
203 225 255
203 225 255
202 225 255
202 225 255
202 225 255
202 225 255
202 225 255
202 225 255
202 225 255
202 225 255
202 225 255
202 225 255
202 225 255
202 225 255
202 225 255
202 225 255
202 225 255
202 225 255
201 225 255
201 225 255
201 225 255
201 225 255
201 225 255
201 224 255
201 224 255
201 224 255
201 224 255
201 224 255
201 224 255
201 224 255
201 224 255
201 224 255
201 224 255
200 224 255
200 224 255
200 224 255
200 224 255
200 224 255
200 224 255
200 224 255
200 224 255
200 224 255
200 224 255
200 224 255
200 224 255
200 224 255
200 224 255
200 224 255
199 224 255
199 224 255
199 223 255
199 223 255
199 223 255
199 223 255
199 223 255
199 223 255
199 223 255
199 223 255
199 223 255
199 223 255
199 223 255
199 223 255
198 223 255
198 223 255
198 223 255
198 223 255
198 223 255
198 223 255
198 223 255
198 223 255
198 223 255
198 223 255
198 223 255
198 223 255
198 223 255
198 223 255
197 223 255
197 222 255
197 222 255
197 222 255
197 222 255
197 222 255
197 222 255
197 222 255
197 222 255
197 222 255
197 222 255
197 222 255
197 222 255
197 222 255
197 222 255
196 222 255
196 222 255
196 222 255
196 222 255
196 222 255
196 222 255
196 222 255
196 222 255
196 222 255
196 222 255
196 222 255
196 222 255
196 222 255
196 222 255
196 222 255
196 221 255
195 221 255
195 221 255
195 221 255
195 221 255
195 221 255
195 221 255
195 221 255
195 221 255
195 221 255
195 221 255
195 221 255
195 221 255
195 221 255
195 221 255
195 221 255
195 221 255
195 221 255
195 221 255
195 221 255
195 221 255
194 221 255
194 221 255
194 221 255
194 221 255
194 221 255
194 221 255
194 221 255
194 221 255
194 221 255
194 221 255
194 221 255
194 221 255
194 221 255
194 221 255
194 221 255
194 221 255
194 221 255
194 221 255
194 221 255
194 221 255
194 221 255
194 221 255
194 221 255
194 221 255
194 221 255
194 221 255
194 221 255
194 221 255
194 221 255
194 221 255
194 221 255
194 220 255
194 220 255
194 220 255
194 220 255
194 220 255
194 220 255
194 220 255
194 220 255
194 220 255
194 220 255
194 220 255
194 220 255
194 220 255
194 220 255
194 220 255
194 220 255
194 221 255
194 221 255
194 221 255
194 221 255
194 221 255
194 221 255
194 221 255
194 221 255
194 221 255
194 221 255
194 221 255
194 221 255
194 221 255
194 221 255
194 221 255
194 221 255
194 221 255
194 221 255
194 221 255
194 221 255
194 221 255
194 221 255
194 221 255
194 221 255
194 221 255
194 221 255
194 221 255
194 221 255
194 221 255
194 221 255
195 221 255
195 221 255
195 221 255
195 221 255
195 221 255
195 221 255
195 221 255
195 221 255
195 221 255
195 221 255
195 221 255
195 221 255
195 221 255
195 221 255
195 221 255
195 221 255
195 221 255
195 221 255
195 221 255
195 221 255
196 221 255
196 221 255
196 222 255
196 222 255
196 222 255
196 222 255
196 222 255
196 222 255
196 222 255
196 222 255
196 222 255
196 222 255
196 222 255
196 222 255
196 222 255
196 222 255
196 222 255
197 222 255
197 222 255
197 222 255
197 222 255
197 222 255
197 222 255
197 222 255
197 222 255
197 222 255
197 222 255
197 222 255
197 222 255
197 222 255
197 222 255
197 223 255
198 223 255
198 223 255
198 223 255
198 223 255
198 223 255
198 223 255
198 223 255
198 223 255
198 223 255
198 223 255
198 223 255
198 223 255
198 223 255
198 223 255
199 223 255
199 223 255
199 223 255
199 223 255
199 223 255
199 223 255
199 223 255
199 223 255
199 223 255
199 223 255
199 223 255
199 223 255
199 224 255
199 224 255
200 224 255
200 224 255
200 224 255
200 224 255
200 224 255
200 224 255
200 224 255
200 224 255
200 224 255
200 224 255
200 224 255
200 224 255
200 224 255
200 224 255
200 224 255
201 224 255
201 224 255
201 224 255
201 224 255
201 224 255
201 224 255
201 224 255
201 224 255
201 224 255
201 224 255
201 225 255
201 225 255
201 225 255
201 225 255
201 225 255
202 225 255
202 225 255
202 225 255
202 225 255
202 225 255
202 225 255
202 225 255
202 225 255
202 225 255
202 225 255
202 225 255
202 225 255
202 225 255
202 225 255
202 225 255
203 225 255
203 225 255
203 225 255
203 225 255
203 225 255
203 225 255
203 225 255
203 225 255
203 225 255
203 225 255
203 226 255
203 226 255
203 226 255
203 226 255
203 226 255
203 226 255
203 226 255
204 226 255
204 226 255
204 226 255
204 226 255
204 226 255
204 226 255
204 226 255
204 226 255
204 226 255
204 226 255
204 226 255
204 226 255
204 226 255
204 226 255
204 226 255
204 226 255
204 226 255
204 226 255
205 226 255
205 226 255
205 226 255
205 226 255
205 226 255
205 226 255
204 226 255
204 226 255
204 226 255
204 226 255
204 226 255
204 226 255
204 226 255
204 226 255
204 226 255
204 226 255
204 226 255
204 226 255
204 226 255
204 226 255
204 226 255
204 226 255
204 226 255
204 226 255
203 226 255
203 226 255
203 226 255
203 226 255
203 226 255
203 226 255
203 226 255
203 226 255
203 225 255
203 225 255
203 225 255
203 225 255
203 225 255
203 225 255
203 225 255
203 225 255
203 225 255
202 225 255
202 225 255
202 225 255
202 225 255
202 225 255
202 225 255
202 225 255
202 225 255
202 225 255
202 225 255
202 225 255
202 225 255
202 225 255
202 225 255
202 225 255
201 225 255
201 225 255
201 225 255
201 225 255
201 225 255
201 224 255
201 224 255
201 224 255
201 224 255
201 224 255
201 224 255
201 224 255
201 224 255
201 224 255
201 224 255
200 224 255
200 224 255
200 224 255
200 224 255
200 224 255
200 224 255
200 224 255
200 224 255
200 224 255
200 224 255
200 224 255
200 224 255
200 224 255
200 224 255
200 224 255
199 224 255
199 224 255
199 223 255
199 223 255
199 223 255
199 223 255
199 223 255
199 223 255
199 223 255
199 223 255
199 223 255
199 223 255
199 223 255
199 223 255
198 223 255
198 223 255
198 223 255
198 223 255
198 223 255
198 223 255
198 223 255
198 223 255
198 223 255
198 223 255
198 223 255
198 223 255
198 223 255
198 223 255
197 223 255
197 222 255
197 222 255
197 222 255
197 222 255
197 222 255
197 222 255
197 222 255
197 222 255
197 222 255
197 222 255
197 222 255
197 222 255
197 222 255
197 222 255
196 222 255
196 222 255
196 222 255
196 222 255
196 222 255
196 222 255
196 222 255
196 222 255
196 222 255
196 222 255
196 222 255
196 222 255
196 222 255
196 222 255
196 222 255
196 221 255
196 221 255
195 221 255
195 221 255
195 221 255
195 221 255
195 221 255
195 221 255
195 221 255
195 221 255
195 221 255
195 221 255
195 221 255
195 221 255
195 221 255
195 221 255
195 221 255
195 221 255
195 221 255
195 221 255
195 221 255
195 221 255
195 221 255
194 221 255
194 221 255
194 221 255
194 221 255
194 221 255
194 221 255
194 221 255
194 221 255
194 221 255
194 221 255
194 221 255
194 221 255
194 221 255
194 221 255
194 221 255
194 221 255
194 221 255
194 221 255
194 221 255
194 221 255
194 221 255
194 221 255
194 221 255
194 221 255
194 221 255
194 221 255
194 221 255
194 221 255
194 221 255
194 221 255
194 221 255
194 221 255
194 221 255
194 221 255
194 221 255
194 221 255
194 221 255
194 221 255
194 221 255
194 221 255
194 221 255
194 221 255
194 221 255
194 221 255
194 221 255
194 221 255
194 221 255
194 221 255
194 221 255
194 221 255
194 221 255
194 221 255
194 221 255
194 221 255
194 221 255
194 221 255
194 221 255
194 221 255
194 221 255
194 221 255
194 221 255
194 221 255
194 221 255
194 221 255
194 221 255
194 221 255
194 221 255
194 221 255
194 221 255
194 221 255
195 221 255
195 221 255
195 221 255
195 221 255
195 221 255
195 221 255
195 221 255
195 221 255
195 221 255
195 221 255
195 221 255
195 221 255
195 221 255
195 221 255
195 221 255
195 221 255
195 221 255
195 221 255
195 221 255
195 221 255
195 221 255
196 221 255
196 221 255
196 222 255
196 222 255
196 222 255
196 222 255
196 222 255
196 222 255
196 222 255
196 222 255
196 222 255
196 222 255
196 222 255
196 222 255
196 222 255
196 222 255
196 222 255
197 222 255
197 222 255
197 222 255
197 222 255
197 222 255
197 222 255
197 222 255
197 222 255
197 222 255
197 222 255
197 222 255
197 222 255
197 222 255
197 222 255
197 223 255
198 223 255
198 223 255
198 223 255
198 223 255
198 223 255
198 223 255
198 223 255
198 223 255
198 223 255
198 223 255
198 223 255
198 223 255
198 223 255
198 223 255
199 223 255
199 223 255
199 223 255
199 223 255
199 223 255
199 223 255
199 223 255
199 223 255
199 223 255
199 223 255
199 223 255
199 223 255
199 224 255
199 224 255
200 224 255
200 224 255
200 224 255
200 224 255
200 224 255
200 224 255
200 224 255
200 224 255
200 224 255
200 224 255
200 224 255
200 224 255
200 224 255
200 224 255
200 224 255
201 224 255
201 224 255
201 224 255
201 224 255
201 224 255
201 224 255
201 224 255
201 224 255
201 224 255
201 224 255
201 225 255
201 225 255
201 225 255
201 225 255
201 225 255
202 225 255
202 225 255
202 225 255
202 225 255
202 225 255
202 225 255
202 225 255
202 225 255
202 225 255
202 225 255
202 225 255
202 225 255
202 225 255
202 225 255
202 225 255
203 225 255
203 225 255
203 225 255
203 225 255
203 225 255
203 225 255
203 225 255
203 225 255
203 225 255
203 226 255
203 226 255
203 226 255
203 226 255
203 226 255
203 226 255
203 226 255
203 226 255
204 226 255
204 226 255
204 226 255
204 226 255
204 226 255
204 226 255
204 226 255
204 226 255
204 226 255
204 226 255
204 226 255
204 226 255
204 226 255
204 226 255
204 226 255
204 226 255
204 226 255
204 226 255
205 226 255
205 226 255
205 226 255
205 226 255
205 226 255
205 226 255
205 226 255
205 226 255
205 226 255
205 226 255
205 226 255
204 226 255
204 226 255
204 226 255
204 226 255
204 226 255
204 226 255
204 226 255
204 226 255
204 226 255
204 226 255
204 226 255
204 226 255
204 226 255
204 226 255
204 226 255
204 226 255
204 226 255
203 226 255
203 226 255
203 226 255
203 226 255
203 226 255
203 226 255
203 226 255
203 226 255
203 225 255
203 225 255
203 225 255
203 225 255
203 225 255
203 225 255
203 225 255
203 225 255
203 225 255
202 225 255
202 225 255
202 225 255
202 225 255
202 225 255
202 225 255
202 225 255
202 225 255
202 225 255
202 225 255
202 225 255
202 225 255
202 225 255
202 225 255
202 225 255
201 225 255
201 225 255
201 225 255
201 225 255
201 225 255
201 224 255
201 224 255
201 224 255
201 224 255
201 224 255
201 224 255
201 224 255
201 224 255
201 224 255
201 224 255
200 224 255
200 224 255
200 224 255
200 224 255
200 224 255
200 224 255
200 224 255
200 224 255
200 224 255
200 224 255
200 224 255
200 224 255
200 224 255
200 224 255
200 224 255
199 224 255
199 224 255
199 223 255
199 223 255
199 223 255
199 223 255
199 223 255
199 223 255
199 223 255
199 223 255
199 223 255
199 223 255
199 223 255
199 223 255
198 223 255
198 223 255
198 223 255
198 223 255
198 223 255
198 223 255
198 223 255
198 223 255
198 223 255
198 223 255
198 223 255
198 223 255
198 223 255
198 223 255
197 223 255
197 222 255
197 222 255
197 222 255
197 222 255
197 222 255
197 222 255
197 222 255
197 222 255
197 222 255
197 222 255
197 222 255
197 222 255
197 222 255
197 222 255
197 222 255
196 222 255
196 222 255
196 222 255
196 222 255
196 222 255
196 222 255
196 222 255
196 222 255
196 222 255
196 222 255
196 222 255
196 222 255
196 222 255
196 222 255
196 222 255
196 221 255
196 221 255
195 221 255
195 221 255
195 221 255
195 221 255
195 221 255
195 221 255
195 221 255
195 221 255
195 221 255
195 221 255
195 221 255
195 221 255
195 221 255
195 221 255
195 221 255
195 221 255
195 221 255
195 221 255
195 221 255
195 221 255
195 221 255
195 221 255
194 221 255
194 221 255
194 221 255
194 221 255
194 221 255
194 221 255
194 221 255
194 221 255
194 221 255
194 221 255
194 221 255
194 221 255
194 221 255
194 221 255
194 221 255
194 221 255
194 221 255
194 221 255
194 221 255
194 221 255
194 221 255
194 221 255
194 221 255
194 221 255
194 221 255
194 221 255
194 221 255
194 221 255
194 221 255
194 221 255
194 221 255
194 221 255
194 221 255
194 221 255
194 221 255
194 221 255
194 221 255
194 221 255
194 221 255
194 221 255
194 221 255
194 221 255
194 221 255
194 221 255
194 221 255
194 221 255
194 221 255
194 221 255
194 221 255
194 221 255
194 221 255
194 221 255
194 221 255
194 221 255
194 221 255
194 221 255
194 221 255
194 221 255
194 221 255
194 221 255
194 221 255
194 221 255
195 221 255
195 221 255
195 221 255
195 221 255
195 221 255
195 221 255
195 221 255
195 221 255
195 221 255
195 221 255
195 221 255
195 221 255
195 221 255
195 221 255
195 221 255
195 221 255
195 221 255
195 221 255
195 221 255
195 221 255
195 221 255
195 221 255
196 221 255
196 221 255
196 222 255
196 222 255
196 222 255
196 222 255
196 222 255
196 222 255
196 222 255
196 222 255
196 222 255
196 222 255
196 222 255
196 222 255
196 222 255
196 222 255
196 222 255
197 222 255
197 222 255
197 222 255
197 222 255
197 222 255
197 222 255
197 222 255
197 222 255
197 222 255
197 222 255
197 222 255
197 222 255
197 222 255
197 222 255
197 222 255
198 223 255
198 223 255
198 223 255
198 223 255
198 223 255
198 223 255
198 223 255
198 223 255
198 223 255
198 223 255
198 223 255
198 223 255
198 223 255
198 223 255
198 223 255
199 223 255
199 223 255
199 223 255
199 223 255
199 223 255
199 223 255
199 223 255
199 223 255
199 223 255
199 223 255
199 223 255
199 223 255
199 224 255
199 224 255
200 224 255
200 224 255
200 224 255
200 224 255
200 224 255
200 224 255
200 224 255
200 224 255
200 224 255
200 224 255
200 224 255
200 224 255
200 224 255
200 224 255
200 224 255
201 224 255
201 224 255
201 224 255
201 224 255
201 224 255
201 224 255
201 224 255
201 224 255
201 224 255
201 224 255
201 225 255
201 225 255
201 225 255
201 225 255
201 225 255
202 225 255
202 225 255
202 225 255
202 225 255
202 225 255
202 225 255
202 225 255
202 225 255
202 225 255
202 225 255
202 225 255
202 225 255
202 225 255
202 225 255
202 225 255
203 225 255
203 225 255
203 225 255
203 225 255
203 225 255
203 225 255
203 225 255
203 225 255
203 225 255
203 226 255
203 226 255
203 226 255
203 226 255
203 226 255
203 226 255
203 226 255
203 226 255
204 226 255
204 226 255
204 226 255
204 226 255
204 226 255
204 226 255
204 226 255
204 226 255
204 226 255
204 226 255
204 226 255
204 226 255
204 226 255
204 226 255
204 226 255
204 226 255
204 226 255
205 226 255
205 226 255
205 226 255
205 226 255
205 226 255
205 226 255
205 226 255
205 227 255
205 227 255
205 226 255
205 226 255
205 226 255
205 226 255
205 226 255
205 226 255
205 226 255
204 226 255
204 226 255
204 226 255
204 226 255
204 226 255
204 226 255
204 226 255
204 226 255
204 226 255
204 226 255
204 226 255
204 226 255
204 226 255
204 226 255
204 226 255
204 226 255
204 226 255
204 226 255
203 226 255
203 226 255
203 226 255
203 226 255
203 226 255
203 226 255
203 226 255
203 225 255
203 225 255
203 225 255
203 225 255
203 225 255
203 225 255
203 225 255
203 225 255
203 225 255
202 225 255
202 225 255
202 225 255
202 225 255
202 225 255
202 225 255
202 225 255
202 225 255
202 225 255
202 225 255
202 225 255
202 225 255
202 225 255
202 225 255
202 225 255
201 225 255
201 225 255
201 225 255
201 225 255
201 225 255
201 224 255
201 224 255
201 224 255
201 224 255
201 224 255
201 224 255
201 224 255
201 224 255
201 224 255
201 224 255
200 224 255
200 224 255
200 224 255
200 224 255
200 224 255
200 224 255
200 224 255
200 224 255
200 224 255
200 224 255
200 224 255
200 224 255
200 224 255
200 224 255
200 224 255
199 224 255
199 224 255
199 223 255
199 223 255
199 223 255
199 223 255
199 223 255
199 223 255
199 223 255
199 223 255
199 223 255
199 223 255
199 223 255
199 223 255
198 223 255
198 223 255
198 223 255
198 223 255
198 223 255
198 223 255
198 223 255
198 223 255
198 223 255
198 223 255
198 223 255
198 223 255
198 223 255
198 223 255
198 223 255
197 222 255
197 222 255
197 222 255
197 222 255
197 222 255
197 222 255
197 222 255
197 222 255
197 222 255
197 222 255
197 222 255
197 222 255
197 222 255
197 222 255
197 222 255
196 222 255
196 222 255
196 222 255
196 222 255
196 222 255
196 222 255
196 222 255
196 222 255
196 222 255
196 222 255
196 222 255
196 222 255
196 222 255
196 222 255
196 222 255
196 222 255
196 221 255
195 221 255
195 221 255
195 221 255
195 221 255
195 221 255
195 221 255
195 221 255
195 221 255
195 221 255
195 221 255
195 221 255
195 221 255
195 221 255
195 221 255
195 221 255
195 221 255
195 221 255
195 221 255
195 221 255
195 221 255
195 221 255
195 221 255
195 221 255
195 221 255
194 221 255
194 221 255
194 221 255
194 221 255
194 221 255
194 221 255
194 221 255
194 221 255
194 221 255
194 221 255
194 221 255
194 221 255
194 221 255
194 221 255
194 221 255
194 221 255
194 221 255
194 221 255
194 221 255
194 221 255
194 221 255
194 221 255
194 221 255
194 221 255
194 221 255
194 221 255
194 221 255
194 221 255
194 221 255
194 221 255
194 221 255
194 221 255
194 221 255
194 221 255
194 221 255
194 221 255
194 221 255
194 221 255
194 221 255
194 221 255
194 221 255
194 221 255
194 221 255
194 221 255
194 221 255
194 221 255
194 221 255
194 221 255
194 221 255
194 221 255
194 221 255
194 221 255
194 221 255
194 221 255
195 221 255
195 221 255
195 221 255
195 221 255
195 221 255
195 221 255
195 221 255
195 221 255
195 221 255
195 221 255
195 221 255
195 221 255
195 221 255
195 221 255
195 221 255
195 221 255
195 221 255
195 221 255
195 221 255
195 221 255
195 221 255
195 221 255
195 221 255
196 221 255
196 221 255
196 222 255
196 222 255
196 222 255
196 222 255
196 222 255
196 222 255
196 222 255
196 222 255
196 222 255
196 222 255
196 222 255
196 222 255
196 222 255
196 222 255
196 222 255
196 222 255
197 222 255
197 222 255
197 222 255
197 222 255
197 222 255
197 222 255
197 222 255
197 222 255
197 222 255
197 222 255
197 222 255
197 222 255
197 222 255
197 222 255
197 222 255
198 223 255
198 223 255
198 223 255
198 223 255
198 223 255
198 223 255
198 223 255
198 223 255
198 223 255
198 223 255
198 223 255
198 223 255
198 223 255
198 223 255
198 223 255
199 223 255
199 223 255
199 223 255
199 223 255
199 223 255
199 223 255
199 223 255
199 223 255
199 223 255
199 223 255
199 223 255
199 223 255
199 224 255
199 224 255
200 224 255
200 224 255
200 224 255
200 224 255
200 224 255
200 224 255
200 224 255
200 224 255
200 224 255
200 224 255
200 224 255
200 224 255
200 224 255
200 224 255
201 224 255
201 224 255
201 224 255
201 224 255
201 224 255
201 224 255
201 224 255
201 224 255
201 224 255
201 224 255
201 224 255
201 225 255
201 225 255
201 225 255
201 225 255
202 225 255
202 225 255
202 225 255
202 225 255
202 225 255
202 225 255
202 225 255
202 225 255
202 225 255
202 225 255
202 225 255
202 225 255
202 225 255
202 225 255
202 225 255
202 225 255
203 225 255
203 225 255
203 225 255
203 225 255
203 225 255
203 225 255
203 225 255
203 225 255
203 225 255
203 226 255
203 226 255
203 226 255
203 226 255
203 226 255
203 226 255
203 226 255
204 226 255
204 226 255
204 226 255
204 226 255
204 226 255
204 226 255
204 226 255
204 226 255
204 226 255
204 226 255
204 226 255
204 226 255
204 226 255
204 226 255
204 226 255
204 226 255
204 226 255
204 226 255
205 226 255
205 226 255
205 226 255
205 226 255
205 226 255
205 226 255
205 226 255
205 227 255
205 227 255
205 227 255
205 227 255
205 227 255
205 227 255
205 226 255
205 226 255
205 226 255
205 226 255
205 226 255
205 226 255
205 226 255
205 226 255
204 226 255
204 226 255
204 226 255
204 226 255
204 226 255
204 226 255
204 226 255
204 226 255
204 226 255
204 226 255
204 226 255
204 226 255
204 226 255
204 226 255
204 226 255
204 226 255
204 226 255
203 226 255
203 226 255
203 226 255
203 226 255
203 226 255
203 226 255
203 226 255
203 225 255
203 225 255
203 225 255
203 225 255
203 225 255
203 225 255
203 225 255
203 225 255
203 225 255
202 225 255
202 225 255
202 225 255
202 225 255
202 225 255
202 225 255
202 225 255
202 225 255
202 225 255
202 225 255
202 225 255
202 225 255
202 225 255
202 225 255
202 225 255
202 225 255
201 225 255
201 225 255
201 225 255
201 225 255
201 224 255
201 224 255
201 224 255
201 224 255
201 224 255
201 224 255
201 224 255
201 224 255
201 224 255
201 224 255
201 224 255
200 224 255
200 224 255
200 224 255
200 224 255
200 224 255
200 224 255
200 224 255
200 224 255
200 224 255
200 224 255
200 224 255
200 224 255
200 224 255
200 224 255
199 224 255
199 224 255
199 223 255
199 223 255
199 223 255
199 223 255
199 223 255
199 223 255
199 223 255
199 223 255
199 223 255
199 223 255
199 223 255
199 223 255
198 223 255
198 223 255
198 223 255
198 223 255
198 223 255
198 223 255
198 223 255
198 223 255
198 223 255
198 223 255
198 223 255
198 223 255
198 223 255
198 223 255
198 223 255
197 222 255
197 222 255
197 222 255
197 222 255
197 222 255
197 222 255
197 222 255
197 222 255
197 222 255
197 222 255
197 222 255
197 222 255
197 222 255
197 222 255
197 222 255
196 222 255
196 222 255
196 222 255
196 222 255
196 222 255
196 222 255
196 222 255
196 222 255
196 222 255
196 222 255
196 222 255
196 222 255
196 222 255
196 222 255
196 222 255
196 222 255
196 221 255
196 221 255
195 221 255
195 221 255
195 221 255
195 221 255
195 221 255
195 221 255
195 221 255
195 221 255
195 221 255
195 221 255
195 221 255
195 221 255
195 221 255
195 221 255
195 221 255
195 221 255
195 221 255
195 221 255
195 221 255
195 221 255
195 221 255
195 221 255
195 221 255
195 221 255
195 221 255
195 221 255
194 221 255
194 221 255
194 221 255
194 221 255
194 221 255
194 221 255
194 221 255
194 221 255
194 221 255
194 221 255
194 221 255
194 221 255
194 221 255
194 221 255
194 221 255
194 221 255
194 221 255
194 221 255
194 221 255
194 221 255
194 221 255
194 221 255
194 221 255
194 221 255
194 221 255
194 221 255
194 221 255
194 221 255
194 221 255
194 221 255
194 221 255
194 221 255
194 221 255
194 221 255
194 221 255
194 221 255
194 221 255
194 221 255
194 221 255
194 221 255
194 221 255
194 221 255
194 221 255
194 221 255
195 221 255
195 221 255
195 221 255
195 221 255
195 221 255
195 221 255
195 221 255
195 221 255
195 221 255
195 221 255
195 221 255
195 221 255
195 221 255
195 221 255
195 221 255
195 221 255
195 221 255
195 221 255
195 221 255
195 221 255
195 221 255
195 221 255
195 221 255
195 221 255
195 221 255
195 221 255
196 221 255
196 222 255
196 222 255
196 222 255
196 222 255
196 222 255
196 222 255
196 222 255
196 222 255
196 222 255
196 222 255
196 222 255
196 222 255
196 222 255
196 222 255
196 222 255
196 222 255
196 222 255
197 222 255
197 222 255
197 222 255
197 222 255
197 222 255
197 222 255
197 222 255
197 222 255
197 222 255
197 222 255
197 222 255
197 222 255
197 222 255
197 222 255
197 222 255
198 223 255
198 223 255
198 223 255
198 223 255
198 223 255
198 223 255
198 223 255
198 223 255
198 223 255
198 223 255
198 223 255
198 223 255
198 223 255
198 223 255
198 223 255
199 223 255
199 223 255
199 223 255
199 223 255
199 223 255
199 223 255
199 223 255
199 223 255
199 223 255
199 223 255
199 223 255
199 223 255
199 224 255
199 224 255
200 224 255
200 224 255
200 224 255
200 224 255
200 224 255
200 224 255
200 224 255
200 224 255
200 224 255
200 224 255
200 224 255
200 224 255
200 224 255
200 224 255
200 224 255
201 224 255
201 224 255
201 224 255
201 224 255
201 224 255
201 224 255
201 224 255
201 224 255
201 224 255
201 224 255
201 225 255
201 225 255
201 225 255
201 225 255
202 225 255
202 225 255
202 225 255
202 225 255
202 225 255
202 225 255
202 225 255
202 225 255
202 225 255
202 225 255
202 225 255
202 225 255
202 225 255
202 225 255
202 225 255
202 225 255
203 225 255
203 225 255
203 225 255
203 225 255
203 225 255
203 225 255
203 225 255
203 225 255
203 225 255
203 226 255
203 226 255
203 226 255
203 226 255
203 226 255
203 226 255
203 226 255
204 226 255
204 226 255
204 226 255
204 226 255
204 226 255
204 226 255
204 226 255
204 226 255
204 226 255
204 226 255
204 226 255
204 226 255
204 226 255
204 226 255
204 226 255
204 226 255
204 226 255
205 226 255
205 226 255
205 226 255
205 226 255
205 226 255
205 226 255
205 226 255
205 226 255
205 227 255
205 227 255
205 227 255
205 227 255
205 227 255
205 227 255
205 227 255
205 227 255
205 227 255
205 227 255
205 227 255
205 226 255
205 226 255
205 226 255
205 226 255
205 226 255
205 226 255
205 226 255
204 226 255
204 226 255
204 226 255
204 226 255
204 226 255
204 226 255
204 226 255
204 226 255
204 226 255
204 226 255
204 226 255
204 226 255
204 226 255
204 226 255
204 226 255
204 226 255
204 226 255
203 226 255
203 226 255
203 226 255
203 226 255
203 226 255
203 226 255
203 226 255
203 226 255
203 225 255
203 225 255
203 225 255
203 225 255
203 225 255
203 225 255
203 225 255
203 225 255
203 225 255
202 225 255
202 225 255
202 225 255
202 225 255
202 225 255
202 225 255
202 225 255
202 225 255
202 225 255
202 225 255
202 225 255
202 225 255
202 225 255
202 225 255
202 225 255
201 225 255
201 225 255
201 225 255
201 225 255
201 224 255
201 224 255
201 224 255
201 224 255
201 224 255
201 224 255
201 224 255
201 224 255
201 224 255
201 224 255
201 224 255
200 224 255
200 224 255
200 224 255
200 224 255
200 224 255
200 224 255
200 224 255
200 224 255
200 224 255
200 224 255
200 224 255
200 224 255
200 224 255
200 224 255
199 224 255
199 224 255
199 223 255
199 223 255
199 223 255
199 223 255
199 223 255
199 223 255
199 223 255
199 223 255
199 223 255
199 223 255
199 223 255
199 223 255
199 223 255
198 223 255
198 223 255
198 223 255
198 223 255
198 223 255
198 223 255
198 223 255
198 223 255
198 223 255
198 223 255
198 223 255
198 223 255
198 223 255
198 223 255
197 223 255
197 222 255
197 222 255
197 222 255
197 222 255
197 222 255
197 222 255
197 222 255
197 222 255
197 222 255
197 222 255
197 222 255
197 222 255
197 222 255
197 222 255
197 222 255
196 222 255
196 222 255
196 222 255
196 222 255
196 222 255
196 222 255
196 222 255
196 222 255
196 222 255
196 222 255
196 222 255
196 222 255
196 222 255
196 222 255
196 222 255
196 222 255
196 222 255
196 221 255
195 221 255
195 221 255
195 221 255
195 221 255
195 221 255
195 221 255
195 221 255
195 221 255
195 221 255
195 221 255
195 221 255
195 221 255
195 221 255
195 221 255
195 221 255
195 221 255
195 221 255
195 221 255
195 221 255
195 221 255
195 221 255
195 221 255
195 221 255
195 221 255
195 221 255
195 221 255
195 221 255
195 221 255
195 221 255
195 221 255
194 221 255
194 221 255
194 221 255
194 221 255
194 221 255
194 221 255
194 221 255
194 221 255
194 221 255
194 221 255
194 221 255
194 221 255
194 221 255
194 221 255
194 221 255
194 221 255
194 221 255
194 221 255
194 221 255
194 221 255
194 221 255
194 221 255
194 221 255
194 221 255
194 221 255
194 221 255
194 221 255
194 221 255
194 221 255
194 221 255
195 221 255
195 221 255
195 221 255
195 221 255
195 221 255
195 221 255
195 221 255
195 221 255
195 221 255
195 221 255
195 221 255
195 221 255
195 221 255
195 221 255
195 221 255
195 221 255
195 221 255
195 221 255
195 221 255
195 221 255
195 221 255
195 221 255
195 221 255
195 221 255
195 221 255
195 221 255
195 221 255
195 221 255
195 221 255
195 221 255
196 221 255
196 222 255
196 222 255
196 222 255
196 222 255
196 222 255
196 222 255
196 222 255
196 222 255
196 222 255
196 222 255
196 222 255
196 222 255
196 222 255
196 222 255
196 222 255
196 222 255
196 222 255
197 222 255
197 222 255
197 222 255
197 222 255
197 222 255
197 222 255
197 222 255
197 222 255
197 222 255
197 222 255
197 222 255
197 222 255
197 222 255
197 222 255
197 222 255
197 222 255
198 223 255
198 223 255
198 223 255
198 223 255
198 223 255
198 223 255
198 223 255
198 223 255
198 223 255
198 223 255
198 223 255
198 223 255
198 223 255
198 223 255
198 223 255
199 223 255
199 223 255
199 223 255
199 223 255
199 223 255
199 223 255
199 223 255
199 223 255
199 223 255
199 223 255
199 223 255
199 223 255
199 224 255
199 224 255
200 224 255
200 224 255
200 224 255
200 224 255
200 224 255
200 224 255
200 224 255
200 224 255
200 224 255
200 224 255
200 224 255
200 224 255
200 224 255
200 224 255
201 224 255
201 224 255
201 224 255
201 224 255
201 224 255
201 224 255
201 224 255
201 224 255
201 224 255
201 224 255
201 224 255
201 225 255
201 225 255
201 225 255
201 225 255
202 225 255
202 225 255
202 225 255
202 225 255
202 225 255
202 225 255
202 225 255
202 225 255
202 225 255
202 225 255
202 225 255
202 225 255
202 225 255
202 225 255
202 225 255
203 225 255
203 225 255
203 225 255
203 225 255
203 225 255
203 225 255
203 225 255
203 225 255
203 225 255
203 226 255
203 226 255
203 226 255
203 226 255
203 226 255
203 226 255
203 226 255
203 226 255
204 226 255
204 226 255
204 226 255
204 226 255
204 226 255
204 226 255
204 226 255
204 226 255
204 226 255
204 226 255
204 226 255
204 226 255
204 226 255
204 226 255
204 226 255
204 226 255
204 226 255
205 226 255
205 226 255
205 226 255
205 226 255
205 226 255
205 226 255
205 226 255
205 227 255
205 227 255
205 227 255
205 227 255
205 227 255
205 227 255
205 227 255
205 227 255
205 227 255
205 227 255
205 227 255
205 227 255
205 227 255
205 227 255
205 227 255
205 227 255
205 226 255
205 226 255
205 226 255
205 226 255
205 226 255
205 226 255
205 226 255
204 226 255
204 226 255
204 226 255
204 226 255
204 226 255
204 226 255
204 226 255
204 226 255
204 226 255
204 226 255
204 226 255
204 226 255
204 226 255
204 226 255
204 226 255
204 226 255
204 226 255
204 226 255
203 226 255
203 226 255
203 226 255
203 226 255
203 226 255
203 226 255
203 226 255
203 225 255
203 225 255
203 225 255
203 225 255
203 225 255
203 225 255
203 225 255
203 225 255
203 225 255
202 225 255
202 225 255
202 225 255
202 225 255
202 225 255
202 225 255
202 225 255
202 225 255
202 225 255
202 225 255
202 225 255
202 225 255
202 225 255
202 225 255
202 225 255
201 225 255
201 225 255
201 225 255
201 225 255
201 225 255
201 224 255
201 224 255
201 224 255
201 224 255
201 224 255
201 224 255
201 224 255
201 224 255
201 224 255
201 224 255
200 224 255
200 224 255
200 224 255
200 224 255
200 224 255
200 224 255
200 224 255
200 224 255
200 224 255
200 224 255
200 224 255
200 224 255
200 224 255
200 224 255
199 224 255
199 224 255
199 224 255
199 223 255
199 223 255
199 223 255
199 223 255
199 223 255
199 223 255
199 223 255
199 223 255
199 223 255
199 223 255
199 223 255
199 223 255
198 223 255
198 223 255
198 223 255
198 223 255
198 223 255
198 223 255
198 223 255
198 223 255
198 223 255
198 223 255
198 223 255
198 223 255
198 223 255
198 223 255
197 223 255
197 222 255
197 222 255
197 222 255
197 222 255
197 222 255
197 222 255
197 222 255
197 222 255
197 222 255
197 222 255
197 222 255
197 222 255
197 222 255
197 222 255
197 222 255
196 222 255
196 222 255
196 222 255
196 222 255
196 222 255
196 222 255
196 222 255
196 222 255
196 222 255
196 222 255
196 222 255
196 222 255
196 222 255
196 222 255
196 222 255
196 222 255
196 222 255
196 222 255
196 221 255
195 221 255
195 221 255
195 221 255
195 221 255
195 221 255
195 221 255
195 221 255
195 221 255
195 221 255
195 221 255
195 221 255
195 221 255
195 221 255
195 221 255
195 221 255
195 221 255
195 221 255
195 221 255
195 221 255
195 221 255
195 221 255
195 221 255
195 221 255
195 221 255
195 221 255
195 221 255
195 221 255
195 221 255
195 221 255
195 221 255
195 221 255
195 221 255
195 221 255
195 221 255
195 221 255
195 221 255
195 221 255
195 221 255
195 221 255
195 221 255
195 221 255
195 221 255
195 221 255
195 221 255
195 221 255
195 221 255
195 221 255
195 221 255
195 221 255
195 221 255
195 221 255
195 221 255
195 221 255
195 221 255
195 221 255
195 221 255
195 221 255
195 221 255
195 221 255
195 221 255
195 221 255
195 221 255
195 221 255
195 221 255
195 221 255
195 221 255
195 221 255
195 221 255
195 221 255
195 221 255
195 221 255
195 221 255
195 221 255
195 221 255
195 221 255
195 221 255
195 221 255
195 221 255
195 221 255
195 221 255
195 221 255
195 221 255
195 221 255
195 221 255
196 221 255
196 222 255
196 222 255
196 222 255
196 222 255
196 222 255
196 222 255
196 222 255
196 222 255
196 222 255
196 222 255
196 222 255
196 222 255
196 222 255
196 222 255
196 222 255
196 222 255
196 222 255
197 222 255
197 222 255
197 222 255
197 222 255
197 222 255
197 222 255
197 222 255
197 222 255
197 222 255
197 222 255
197 222 255
197 222 255
197 222 255
197 222 255
197 222 255
197 222 255
197 223 255
198 223 255
198 223 255
198 223 255
198 223 255
198 223 255
198 223 255
198 223 255
198 223 255
198 223 255
198 223 255
198 223 255
198 223 255
198 223 255
198 223 255
199 223 255
199 223 255
199 223 255
199 223 255
199 223 255
199 223 255
199 223 255
199 223 255
199 223 255
199 223 255
199 223 255
199 223 255
199 223 255
199 224 255
199 224 255
200 224 255
200 224 255
200 224 255
200 224 255
200 224 255
200 224 255
200 224 255
200 224 255
200 224 255
200 224 255
200 224 255
200 224 255
200 224 255
200 224 255
201 224 255
201 224 255
201 224 255
201 224 255
201 224 255
201 224 255
201 224 255
201 224 255
201 224 255
201 224 255
201 225 255
201 225 255
201 225 255
201 225 255
201 225 255
202 225 255
202 225 255
202 225 255
202 225 255
202 225 255
202 225 255
202 225 255
202 225 255
202 225 255
202 225 255
202 225 255
202 225 255
202 225 255
202 225 255
202 225 255
203 225 255
203 225 255
203 225 255
203 225 255
203 225 255
203 225 255
203 225 255
203 225 255
203 225 255
203 226 255
203 226 255
203 226 255
203 226 255
203 226 255
203 226 255
203 226 255
204 226 255
204 226 255
204 226 255
204 226 255
204 226 255
204 226 255
204 226 255
204 226 255
204 226 255
204 226 255
204 226 255
204 226 255
204 226 255
204 226 255
204 226 255
204 226 255
204 226 255
204 226 255
205 226 255
205 226 255
205 226 255
205 226 255
205 226 255
205 226 255
205 226 255
205 227 255
205 227 255
205 227 255
205 227 255
205 227 255
205 227 255
205 227 255
205 227 255
205 227 255
205 227 255
205 227 255
205 227 255
205 227 255
205 227 255
205 227 255
205 227 255
205 227 255
205 227 255
205 227 255
205 227 255
205 227 255
205 226 255
205 226 255
205 226 255
205 226 255
205 226 255
205 226 255
205 226 255
204 226 255
204 226 255
204 226 255
204 226 255
204 226 255
204 226 255
204 226 255
204 226 255
204 226 255
204 226 255
204 226 255
204 226 255
204 226 255
204 226 255
204 226 255
204 226 255
204 226 255
203 226 255
203 226 255
203 226 255
203 226 255
203 226 255
203 226 255
203 226 255
203 225 255
203 225 255
203 225 255
203 225 255
203 225 255
203 225 255
203 225 255
203 225 255
203 225 255
202 225 255
202 225 255
202 225 255
202 225 255
202 225 255
202 225 255
202 225 255
202 225 255
202 225 255
202 225 255
202 225 255
202 225 255
202 225 255
202 225 255
202 225 255
201 225 255
201 225 255
201 225 255
201 225 255
201 225 255
201 224 255
201 224 255
201 224 255
201 224 255
201 224 255
201 224 255
201 224 255
201 224 255
201 224 255
201 224 255
200 224 255
200 224 255
200 224 255
200 224 255
200 224 255
200 224 255
200 224 255
200 224 255
200 224 255
200 224 255
200 224 255
200 224 255
200 224 255
200 224 255
199 224 255
199 224 255
199 224 255
199 223 255
199 223 255
199 223 255
199 223 255
199 223 255
199 223 255
199 223 255
199 223 255
199 223 255
199 223 255
199 223 255
199 223 255
198 223 255
198 223 255
198 223 255
198 223 255
198 223 255
198 223 255
198 223 255
198 223 255
198 223 255
198 223 255
198 223 255
198 223 255
198 223 255
198 223 255
198 223 255
197 222 255
197 222 255
197 222 255
197 222 255
197 222 255
197 222 255
197 222 255
197 222 255
197 222 255
197 222 255
197 222 255
197 222 255
197 222 255
197 222 255
197 222 255
197 222 255
196 222 255
196 222 255
196 222 255
196 222 255
196 222 255
196 222 255
196 222 255
196 222 255
196 222 255
196 222 255
196 222 255
196 222 255
196 222 255
196 222 255
196 222 255
196 222 255
196 222 255
196 222 255
196 221 255
196 221 255
195 221 255
195 221 255
195 221 255
195 221 255
195 221 255
195 221 255
195 221 255
195 221 255
195 221 255
195 221 255
195 221 255
195 221 255
195 221 255
195 221 255
195 221 255
195 221 255
195 221 255
195 221 255
195 221 255
195 221 255
195 221 255
195 221 255
195 221 255
195 221 255
195 221 255
195 221 255
195 221 255
195 221 255
195 221 255
195 221 255
195 221 255
195 221 255
195 221 255
195 221 255
195 221 255
195 221 255
195 221 255
195 221 255
195 221 255
195 221 255
195 221 255
195 221 255
195 221 255
195 221 255
195 221 255
195 221 255
195 221 255
195 221 255
195 221 255
195 221 255
195 221 255
195 221 255
195 221 255
195 221 255
195 221 255
195 221 255
195 221 255
195 221 255
195 221 255
195 221 255
195 221 255
195 221 255
195 221 255
195 221 255
195 221 255
195 221 255
195 221 255
195 221 255
195 221 255
195 221 255
195 221 255
195 221 255
195 221 255
195 221 255
195 221 255
195 221 255
196 221 255
196 221 255
196 222 255
196 222 255
196 222 255
196 222 255
196 222 255
196 222 255
196 222 255
196 222 255
196 222 255
196 222 255
196 222 255
196 222 255
196 222 255
196 222 255
196 222 255
196 222 255
196 222 255
196 222 255
197 222 255
197 222 255
197 222 255
197 222 255
197 222 255
197 222 255
197 222 255
197 222 255
197 222 255
197 222 255
197 222 255
197 222 255
197 222 255
197 222 255
197 222 255
197 222 255
198 223 255
198 223 255
198 223 255
198 223 255
198 223 255
198 223 255
198 223 255
198 223 255
198 223 255
198 223 255
198 223 255
198 223 255
198 223 255
198 223 255
198 223 255
199 223 255
199 223 255
199 223 255
199 223 255
199 223 255
199 223 255
199 223 255
199 223 255
199 223 255
199 223 255
199 223 255
199 223 255
199 224 255
199 224 255
199 224 255
200 224 255
200 224 255
200 224 255
200 224 255
200 224 255
200 224 255
200 224 255
200 224 255
200 224 255
200 224 255
200 224 255
200 224 255
200 224 255
200 224 255
201 224 255
201 224 255
201 224 255
201 224 255
201 224 255
201 224 255
201 224 255
201 224 255
201 224 255
201 224 255
201 225 255
201 225 255
201 225 255
201 225 255
201 225 255
202 225 255
202 225 255
202 225 255
202 225 255
202 225 255
202 225 255
202 225 255
202 225 255
202 225 255
202 225 255
202 225 255
202 225 255
202 225 255
202 225 255
202 225 255
203 225 255
203 225 255
203 225 255
203 225 255
203 225 255
203 225 255
203 225 255
203 225 255
203 225 255
203 226 255
203 226 255
203 226 255
203 226 255
203 226 255
203 226 255
203 226 255
204 226 255
204 226 255
204 226 255
204 226 255
204 226 255
204 226 255
204 226 255
204 226 255
204 226 255
204 226 255
204 226 255
204 226 255
204 226 255
204 226 255
204 226 255
204 226 255
204 226 255
205 226 255
205 226 255
205 226 255
205 226 255
205 226 255
205 226 255
205 226 255
205 227 255
205 227 255
205 227 255
205 227 255
205 227 255
205 227 255
205 227 255
205 227 255
205 227 255
205 227 255
205 227 255
205 227 255
206 227 255
206 227 255
206 227 255
205 227 255
205 227 255
205 227 255
205 227 255
205 227 255
205 227 255
205 227 255
205 227 255
205 227 255
205 227 255
205 227 255
205 226 255
205 226 255
205 226 255
205 226 255
205 226 255
205 226 255
205 226 255
204 226 255
204 226 255
204 226 255
204 226 255
204 226 255
204 226 255
204 226 255
204 226 255
204 226 255
204 226 255
204 226 255
204 226 255
204 226 255
204 226 255
204 226 255
204 226 255
204 226 255
203 226 255
203 226 255
203 226 255
203 226 255
203 226 255
203 226 255
203 226 255
203 226 255
203 225 255
203 225 255
203 225 255
203 225 255
203 225 255
203 225 255
203 225 255
203 225 255
202 225 255
202 225 255
202 225 255
202 225 255
202 225 255
202 225 255
202 225 255
202 225 255
202 225 255
202 225 255
202 225 255
202 225 255
202 225 255
202 225 255
202 225 255
202 225 255
201 225 255
201 225 255
201 225 255
201 225 255
201 224 255
201 224 255
201 224 255
201 224 255
201 224 255
201 224 255
201 224 255
201 224 255
201 224 255
201 224 255
200 224 255
200 224 255
200 224 255
200 224 255
200 224 255
200 224 255
200 224 255
200 224 255
200 224 255
200 224 255
200 224 255
200 224 255
200 224 255
200 224 255
200 224 255
199 224 255
199 224 255
199 223 255
199 223 255
199 223 255
199 223 255
199 223 255
199 223 255
199 223 255
199 223 255
199 223 255
199 223 255
199 223 255
199 223 255
198 223 255
198 223 255
198 223 255
198 223 255
198 223 255
198 223 255
198 223 255
198 223 255
198 223 255
198 223 255
198 223 255
198 223 255
198 223 255
198 223 255
198 223 255
197 223 255
197 222 255
197 222 255
197 222 255
197 222 255
197 222 255
197 222 255
197 222 255
197 222 255
197 222 255
197 222 255
197 222 255
197 222 255
197 222 255
197 222 255
197 222 255
197 222 255
196 222 255
196 222 255
196 222 255
196 222 255
196 222 255
196 222 255
196 222 255
196 222 255
196 222 255
196 222 255
196 222 255
196 222 255
196 222 255
196 222 255
196 222 255
196 222 255
196 222 255
196 222 255
196 221 255
196 221 255
196 221 255
195 221 255
195 221 255
195 221 255
195 221 255
195 221 255
195 221 255
195 221 255
195 221 255
195 221 255
195 221 255
195 221 255
195 221 255
195 221 255
195 221 255
195 221 255
195 221 255
195 221 255
195 221 255
195 221 255
195 221 255
195 221 255
195 221 255
195 221 255
195 221 255
195 221 255
195 221 255
195 221 255
195 221 255
195 221 255
195 221 255
195 221 255
195 221 255
195 221 255
195 221 255
195 221 255
195 221 255
195 221 255
195 221 255
195 221 255
195 221 255
195 221 255
195 221 255
195 221 255
195 221 255
195 221 255
195 221 255
195 221 255
195 221 255
195 221 255
195 221 255
195 221 255
195 221 255
195 221 255
195 221 255
195 221 255
195 221 255
195 221 255
195 221 255
195 221 255
195 221 255
195 221 255
195 221 255
195 221 255
195 221 255
195 221 255
195 221 255
195 221 255
195 221 255
196 221 255
196 221 255
196 221 255
196 222 255
196 222 255
196 222 255
196 222 255
196 222 255
196 222 255
196 222 255
196 222 255
196 222 255
196 222 255
196 222 255
196 222 255
196 222 255
196 222 255
196 222 255
196 222 255
196 222 255
196 222 255
197 222 255
197 222 255
197 222 255
197 222 255
197 222 255
197 222 255
197 222 255
197 222 255
197 222 255
197 222 255
197 222 255
197 222 255
197 222 255
197 222 255
197 222 255
197 222 255
197 223 255
198 223 255
198 223 255
198 223 255
198 223 255
198 223 255
198 223 255
198 223 255
198 223 255
198 223 255
198 223 255
198 223 255
198 223 255
198 223 255
198 223 255
198 223 255
199 223 255
199 223 255
199 223 255
199 223 255
199 223 255
199 223 255
199 223 255
199 223 255
199 223 255
199 223 255
199 223 255
199 223 255
199 224 255
199 224 255
200 224 255
200 224 255
200 224 255
200 224 255
200 224 255
200 224 255
200 224 255
200 224 255
200 224 255
200 224 255
200 224 255
200 224 255
200 224 255
200 224 255
200 224 255
201 224 255
201 224 255
201 224 255
201 224 255
201 224 255
201 224 255
201 224 255
201 224 255
201 224 255
201 224 255
201 225 255
201 225 255
201 225 255
201 225 255
202 225 255
202 225 255
202 225 255
202 225 255
202 225 255
202 225 255
202 225 255
202 225 255
202 225 255
202 225 255
202 225 255
202 225 255
202 225 255
202 225 255
202 225 255
202 225 255
203 225 255
203 225 255
203 225 255
203 225 255
203 225 255
203 225 255
203 225 255
203 225 255
203 226 255
203 226 255
203 226 255
203 226 255
203 226 255
203 226 255
203 226 255
203 226 255
204 226 255
204 226 255
204 226 255
204 226 255
204 226 255
204 226 255
204 226 255
204 226 255
204 226 255
204 226 255
204 226 255
204 226 255
204 226 255
204 226 255
204 226 255
204 226 255
204 226 255
205 226 255
205 226 255
205 226 255
205 226 255
205 226 255
205 226 255
205 226 255
205 227 255
205 227 255
205 227 255
205 227 255
205 227 255
205 227 255
205 227 255
205 227 255
205 227 255
205 227 255
205 227 255
206 227 255
206 227 255
206 227 255
206 227 255
206 227 255
206 227 255
206 227 255
206 227 255
205 227 255
205 227 255
205 227 255
205 227 255
205 227 255
205 227 255
205 227 255
205 227 255
205 227 255
205 227 255
205 227 255
205 226 255
205 226 255
205 226 255
205 226 255
205 226 255
205 226 255
205 226 255
205 226 255
204 226 255
204 226 255
204 226 255
204 226 255
204 226 255
204 226 255
204 226 255
204 226 255
204 226 255
204 226 255
204 226 255
204 226 255
204 226 255
204 226 255
204 226 255
204 226 255
204 226 255
203 226 255
203 226 255
203 226 255
203 226 255
203 226 255
203 226 255
203 226 255
203 225 255
203 225 255
203 225 255
203 225 255
203 225 255
203 225 255
203 225 255
203 225 255
203 225 255
202 225 255
202 225 255
202 225 255
202 225 255
202 225 255
202 225 255
202 225 255
202 225 255
202 225 255
202 225 255
202 225 255
202 225 255
202 225 255
202 225 255
202 225 255
201 225 255
201 225 255
201 225 255
201 225 255
201 224 255
201 224 255
201 224 255
201 224 255
201 224 255
201 224 255
201 224 255
201 224 255
201 224 255
201 224 255
201 224 255
200 224 255
200 224 255
200 224 255
200 224 255
200 224 255
200 224 255
200 224 255
200 224 255
200 224 255
200 224 255
200 224 255
200 224 255
200 224 255
200 224 255
199 224 255
199 224 255
199 223 255
199 223 255
199 223 255
199 223 255
199 223 255
199 223 255
199 223 255
199 223 255
199 223 255
199 223 255
199 223 255
199 223 255
198 223 255
198 223 255
198 223 255
198 223 255
198 223 255
198 223 255
198 223 255
198 223 255
198 223 255
198 223 255
198 223 255
198 223 255
198 223 255
198 223 255
198 223 255
198 223 255
197 222 255
197 222 255
197 222 255
197 222 255
197 222 255
197 222 255
197 222 255
197 222 255
197 222 255
197 222 255
197 222 255
197 222 255
197 222 255
197 222 255
197 222 255
197 222 255
197 222 255
196 222 255
196 222 255
196 222 255
196 222 255
196 222 255
196 222 255
196 222 255
196 222 255
196 222 255
196 222 255
196 222 255
196 222 255
196 222 255
196 222 255
196 222 255
196 222 255
196 222 255
196 222 255
196 222 255
196 222 255
196 221 255
196 221 255
195 221 255
195 221 255
195 221 255
195 221 255
195 221 255
195 221 255
195 221 255
195 221 255
195 221 255
195 221 255
195 221 255
195 221 255
195 221 255
195 221 255
195 221 255
195 221 255
195 221 255
195 221 255
195 221 255
195 221 255
195 221 255
195 221 255
195 221 255
195 221 255
195 221 255
195 221 255
195 221 255
195 221 255
195 221 255
195 221 255
195 221 255
195 221 255
195 221 255
195 221 255
195 221 255
195 221 255
195 221 255
195 221 255
195 221 255
195 221 255
195 221 255
195 221 255
195 221 255
195 221 255
195 221 255
195 221 255
195 221 255
195 221 255
195 221 255
195 221 255
195 221 255
195 221 255
195 221 255
195 221 255
195 221 255
195 221 255
195 221 255
195 221 255
195 221 255
195 221 255
196 221 255
196 221 255
196 222 255
196 222 255
196 222 255
196 222 255
196 222 255
196 222 255
196 222 255
196 222 255
196 222 255
196 222 255
196 222 255
196 222 255
196 222 255
196 222 255
196 222 255
196 222 255
196 222 255
196 222 255
196 222 255
196 222 255
197 222 255
197 222 255
197 222 255
197 222 255
197 222 255
197 222 255
197 222 255
197 222 255
197 222 255
197 222 255
197 222 255
197 222 255
197 222 255
197 222 255
197 222 255
197 222 255
197 222 255
198 223 255
198 223 255
198 223 255
198 223 255
198 223 255
198 223 255
198 223 255
198 223 255
198 223 255
198 223 255
198 223 255
198 223 255
198 223 255
198 223 255
198 223 255
198 223 255
199 223 255
199 223 255
199 223 255
199 223 255
199 223 255
199 223 255
199 223 255
199 223 255
199 223 255
199 223 255
199 223 255
199 223 255
199 224 255
199 224 255
200 224 255
200 224 255
200 224 255
200 224 255
200 224 255
200 224 255
200 224 255
200 224 255
200 224 255
200 224 255
200 224 255
200 224 255
200 224 255
200 224 255
200 224 255
201 224 255
201 224 255
201 224 255
201 224 255
201 224 255
201 224 255
201 224 255
201 224 255
201 224 255
201 224 255
201 225 255
201 225 255
201 225 255
201 225 255
202 225 255
202 225 255
202 225 255
202 225 255
202 225 255
202 225 255
202 225 255
202 225 255
202 225 255
202 225 255
202 225 255
202 225 255
202 225 255
202 225 255
202 225 255
203 225 255
203 225 255
203 225 255
203 225 255
203 225 255
203 225 255
203 225 255
203 225 255
203 225 255
203 226 255
203 226 255
203 226 255
203 226 255
203 226 255
203 226 255
203 226 255
204 226 255
204 226 255
204 226 255
204 226 255
204 226 255
204 226 255
204 226 255
204 226 255
204 226 255
204 226 255
204 226 255
204 226 255
204 226 255
204 226 255
204 226 255
204 226 255
204 226 255
205 226 255
205 226 255
205 226 255
205 226 255
205 226 255
205 226 255
205 226 255
205 227 255
205 227 255
205 227 255
205 227 255
205 227 255
205 227 255
205 227 255
205 227 255
205 227 255
205 227 255
205 227 255
205 227 255
206 227 255
206 227 255
206 227 255
206 227 255
206 227 255
206 227 255
206 227 255
206 227 255
206 227 255
206 227 255
206 227 255
206 227 255
206 227 255
205 227 255
205 227 255
205 227 255
205 227 255
205 227 255
205 227 255
205 227 255
205 227 255
205 227 255
205 227 255
205 227 255
205 226 255
205 226 255
205 226 255
205 226 255
205 226 255
205 226 255
205 226 255
204 226 255
204 226 255
204 226 255
204 226 255
204 226 255
204 226 255
204 226 255
204 226 255
204 226 255
204 226 255
204 226 255
204 226 255
204 226 255
204 226 255
204 226 255
204 226 255
204 226 255
203 226 255
203 226 255
203 226 255
203 226 255
203 226 255
203 226 255
203 226 255
203 225 255
203 225 255
203 225 255
203 225 255
203 225 255
203 225 255
203 225 255
203 225 255
203 225 255
202 225 255
202 225 255
202 225 255
202 225 255
202 225 255
202 225 255
202 225 255
202 225 255
202 225 255
202 225 255
202 225 255
202 225 255
202 225 255
202 225 255
202 225 255
201 225 255
201 225 255
201 225 255
201 225 255
201 224 255
201 224 255
201 224 255
201 224 255
201 224 255
201 224 255
201 224 255
201 224 255
201 224 255
201 224 255
201 224 255
200 224 255
200 224 255
200 224 255
200 224 255
200 224 255
200 224 255
200 224 255
200 224 255
200 224 255
200 224 255
200 224 255
200 224 255
200 224 255
200 224 255
199 224 255
199 224 255
199 223 255
199 223 255
199 223 255
199 223 255
199 223 255
199 223 255
199 223 255
199 223 255
199 223 255
199 223 255
199 223 255
199 223 255
199 223 255
198 223 255
198 223 255
198 223 255
198 223 255
198 223 255
198 223 255
198 223 255
198 223 255
198 223 255
198 223 255
198 223 255
198 223 255
198 223 255
198 223 255
198 223 255
197 223 255
197 222 255
197 222 255
197 222 255
197 222 255
197 222 255
197 222 255
197 222 255
197 222 255
197 222 255
197 222 255
197 222 255
197 222 255
197 222 255
197 222 255
197 222 255
197 222 255
197 222 255
196 222 255
196 222 255
196 222 255
196 222 255
196 222 255
196 222 255
196 222 255
196 222 255
196 222 255
196 222 255
196 222 255
196 222 255
196 222 255
196 222 255
196 222 255
196 222 255
196 222 255
196 222 255
196 222 255
196 222 255
196 222 255
196 221 255
196 221 255
196 221 255
195 221 255
195 221 255
195 221 255
195 221 255
195 221 255
195 221 255
195 221 255
195 221 255
195 221 255
195 221 255
195 221 255
195 221 255
195 221 255
195 221 255
195 221 255
195 221 255
195 221 255
195 221 255
195 221 255
195 221 255
195 221 255
195 221 255
195 221 255
195 221 255
195 221 255
195 221 255
195 221 255
195 221 255
195 221 255
195 221 255
195 221 255
195 221 255
195 221 255
195 221 255
195 221 255
195 221 255
195 221 255
195 221 255
195 221 255
195 221 255
195 221 255
195 221 255
195 221 255
195 221 255
195 221 255
195 221 255
195 221 255
195 221 255
195 221 255
195 221 255
196 221 255
196 221 255
196 221 255
196 222 255
196 222 255
196 222 255
196 222 255
196 222 255
196 222 255
196 222 255
196 222 255
196 222 255
196 222 255
196 222 255
196 222 255
196 222 255
196 222 255
196 222 255
196 222 255
196 222 255
196 222 255
196 222 255
196 222 255
196 222 255
197 222 255
197 222 255
197 222 255
197 222 255
197 222 255
197 222 255
197 222 255
197 222 255
197 222 255
197 222 255
197 222 255
197 222 255
197 222 255
197 222 255
197 222 255
197 222 255
197 222 255
197 223 255
198 223 255
198 223 255
198 223 255
198 223 255
198 223 255
198 223 255
198 223 255
198 223 255
198 223 255
198 223 255
198 223 255
198 223 255
198 223 255
198 223 255
198 223 255
199 223 255
199 223 255
199 223 255
199 223 255
199 223 255
199 223 255
199 223 255
199 223 255
199 223 255
199 223 255
199 223 255
199 223 255
199 223 255
199 224 255
199 224 255
200 224 255
200 224 255
200 224 255
200 224 255
200 224 255
200 224 255
200 224 255
200 224 255
200 224 255
200 224 255
200 224 255
200 224 255
200 224 255
200 224 255
201 224 255
201 224 255
201 224 255
201 224 255
201 224 255
201 224 255
201 224 255
201 224 255
201 224 255
201 224 255
201 224 255
201 225 255
201 225 255
201 225 255
201 225 255
202 225 255
202 225 255
202 225 255
202 225 255
202 225 255
202 225 255
202 225 255
202 225 255
202 225 255
202 225 255
202 225 255
202 225 255
202 225 255
202 225 255
202 225 255
203 225 255
203 225 255
203 225 255
203 225 255
203 225 255
203 225 255
203 225 255
203 225 255
203 225 255
203 226 255
203 226 255
203 226 255
203 226 255
203 226 255
203 226 255
203 226 255
204 226 255
204 226 255
204 226 255
204 226 255
204 226 255
204 226 255
204 226 255
204 226 255
204 226 255
204 226 255
204 226 255
204 226 255
204 226 255
204 226 255
204 226 255
204 226 255
204 226 255
205 226 255
205 226 255
205 226 255
205 226 255
205 226 255
205 226 255
205 226 255
205 227 255
205 227 255
205 227 255
205 227 255
205 227 255
205 227 255
205 227 255
205 227 255
205 227 255
205 227 255
205 227 255
206 227 255
206 227 255
206 227 255
206 227 255
206 227 255
206 227 255
206 227 255
206 227 255
206 227 255
206 227 255
206 227 255
206 227 255
206 227 255
206 227 255
206 227 255
206 227 255
206 227 255
206 227 255
206 227 255
205 227 255
205 227 255
205 227 255
205 227 255
205 227 255
205 227 255
205 227 255
205 227 255
205 227 255
205 227 255
205 226 255
205 226 255
205 226 255
205 226 255
205 226 255
205 226 255
205 226 255
205 226 255
204 226 255
204 226 255
204 226 255
204 226 255
204 226 255
204 226 255
204 226 255
204 226 255
204 226 255
204 226 255
204 226 255
204 226 255
204 226 255
204 226 255
204 226 255
204 226 255
204 226 255
203 226 255
203 226 255
203 226 255
203 226 255
203 226 255
203 226 255
203 226 255
203 225 255
203 225 255
203 225 255
203 225 255
203 225 255
203 225 255
203 225 255
203 225 255
202 225 255
202 225 255
202 225 255
202 225 255
202 225 255
202 225 255
202 225 255
202 225 255
202 225 255
202 225 255
202 225 255
202 225 255
202 225 255
202 225 255
202 225 255
201 225 255
201 225 255
201 225 255
201 225 255
201 225 255
201 224 255
201 224 255
201 224 255
201 224 255
201 224 255
201 224 255
201 224 255
201 224 255
201 224 255
201 224 255
200 224 255
200 224 255
200 224 255
200 224 255
200 224 255
200 224 255
200 224 255
200 224 255
200 224 255
200 224 255
200 224 255
200 224 255
200 224 255
200 224 255
199 224 255
199 224 255
199 224 255
199 223 255
199 223 255
199 223 255
199 223 255
199 223 255
199 223 255
199 223 255
199 223 255
199 223 255
199 223 255
199 223 255
199 223 255
198 223 255
198 223 255
198 223 255
198 223 255
198 223 255
198 223 255
198 223 255
198 223 255
198 223 255
198 223 255
198 223 255
198 223 255
198 223 255
198 223 255
198 223 255
198 223 255
197 222 255
197 222 255
197 222 255
197 222 255
197 222 255
197 222 255
197 222 255
197 222 255
197 222 255
197 222 255
197 222 255
197 222 255
197 222 255
197 222 255
197 222 255
197 222 255
197 222 255
197 222 255
196 222 255
196 222 255
196 222 255
196 222 255
196 222 255
196 222 255
196 222 255
196 222 255
196 222 255
196 222 255
196 222 255
196 222 255
196 222 255
196 222 255
196 222 255
196 222 255
196 222 255
196 222 255
196 222 255
196 222 255
196 222 255
196 222 255
196 222 255
196 221 255
196 221 255
196 221 255
196 221 255
195 221 255
195 221 255
195 221 255
195 221 255
195 221 255
195 221 255
195 221 255
195 221 255
195 221 255
195 221 255
195 221 255
195 221 255
195 221 255
195 221 255
195 221 255
195 221 255
195 221 255
195 221 255
195 221 255
195 221 255
195 221 255
195 221 255
195 221 255
195 221 255
195 221 255
195 221 255
195 221 255
195 221 255
195 221 255
195 221 255
195 221 255
195 221 255
195 221 255
195 221 255
195 221 255
195 221 255
195 221 255
195 221 255
195 221 255
196 221 255
196 221 255
196 222 255
196 222 255
196 222 255
196 222 255
196 222 255
196 222 255
196 222 255
196 222 255
196 222 255
196 222 255
196 222 255
196 222 255
196 222 255
196 222 255
196 222 255
196 222 255
196 222 255
196 222 255
196 222 255
196 222 255
196 222 255
196 222 255
196 222 255
196 222 255
197 222 255
197 222 255
197 222 255
197 222 255
197 222 255
197 222 255
197 222 255
197 222 255
197 222 255
197 222 255
197 222 255
197 222 255
197 222 255
197 222 255
197 222 255
197 222 255
197 222 255
197 222 255
198 223 255
198 223 255
198 223 255
198 223 255
198 223 255
198 223 255
198 223 255
198 223 255
198 223 255
198 223 255
198 223 255
198 223 255
198 223 255
198 223 255
198 223 255
198 223 255
199 223 255
199 223 255
199 223 255
199 223 255
199 223 255
199 223 255
199 223 255
199 223 255
199 223 255
199 223 255
199 223 255
199 223 255
199 224 255
199 224 255
199 224 255
200 224 255
200 224 255
200 224 255
200 224 255
200 224 255
200 224 255
200 224 255
200 224 255
200 224 255
200 224 255
200 224 255
200 224 255
200 224 255
200 224 255
201 224 255
201 224 255
201 224 255
201 224 255
201 224 255
201 224 255
201 224 255
201 224 255
201 224 255
201 224 255
201 225 255
201 225 255
201 225 255
201 225 255
201 225 255
202 225 255
202 225 255
202 225 255
202 225 255
202 225 255
202 225 255
202 225 255
202 225 255
202 225 255
202 225 255
202 225 255
202 225 255
202 225 255
202 225 255
202 225 255
203 225 255
203 225 255
203 225 255
203 225 255
203 225 255
203 225 255
203 225 255
203 225 255
203 226 255
203 226 255
203 226 255
203 226 255
203 226 255
203 226 255
203 226 255
204 226 255
204 226 255
204 226 255
204 226 255
204 226 255
204 226 255
204 226 255
204 226 255
204 226 255
204 226 255
204 226 255
204 226 255
204 226 255
204 226 255
204 226 255
204 226 255
204 226 255
205 226 255
205 226 255
205 226 255
205 226 255
205 226 255
205 226 255
205 226 255
205 226 255
205 227 255
205 227 255
205 227 255
205 227 255
205 227 255
205 227 255
205 227 255
205 227 255
205 227 255
205 227 255
206 227 255
206 227 255
206 227 255
206 227 255
206 227 255
206 227 255
206 227 255
206 227 255
206 227 255
206 227 255
206 227 255
206 227 255
206 227 255
206 227 255
206 227 255
206 227 255
206 227 255
206 227 255
206 227 255
206 227 255
206 227 255
206 227 255
206 227 255
206 227 255
205 227 255
205 227 255
205 227 255
205 227 255
205 227 255
205 227 255
205 227 255
205 227 255
205 227 255
205 227 255
205 227 255
205 226 255
205 226 255
205 226 255
205 226 255
205 226 255
205 226 255
205 226 255
204 226 255
204 226 255
204 226 255
204 226 255
204 226 255
204 226 255
204 226 255
204 226 255
204 226 255
204 226 255
204 226 255
204 226 255
204 226 255
204 226 255
204 226 255
204 226 255
204 226 255
203 226 255
203 226 255
203 226 255
203 226 255
203 226 255
203 226 255
203 226 255
203 225 255
203 225 255
203 225 255
203 225 255
203 225 255
203 225 255
203 225 255
203 225 255
203 225 255
202 225 255
202 225 255
202 225 255
202 225 255
202 225 255
202 225 255
202 225 255
202 225 255
202 225 255
202 225 255
202 225 255
202 225 255
202 225 255
202 225 255
202 225 255
201 225 255
201 225 255
201 225 255
201 225 255
201 224 255
201 224 255
201 224 255
201 224 255
201 224 255
201 224 255
201 224 255
201 224 255
201 224 255
201 224 255
200 224 255
200 224 255
200 224 255
200 224 255
200 224 255
200 224 255
200 224 255
200 224 255
200 224 255
200 224 255
200 224 255
200 224 255
200 224 255
200 224 255
200 224 255
199 224 255
199 224 255
199 223 255
199 223 255
199 223 255
199 223 255
199 223 255
199 223 255
199 223 255
199 223 255
199 223 255
199 223 255
199 223 255
199 223 255
199 223 255
198 223 255
198 223 255
198 223 255
198 223 255
198 223 255
198 223 255
198 223 255
198 223 255
198 223 255
198 223 255
198 223 255
198 223 255
198 223 255
198 223 255
198 223 255
197 223 255
197 222 255
197 222 255
197 222 255
197 222 255
197 222 255
197 222 255
197 222 255
197 222 255
197 222 255
197 222 255
197 222 255
197 222 255
197 222 255
197 222 255
197 222 255
197 222 255
197 222 255
197 222 255
196 222 255
196 222 255
196 222 255
196 222 255
196 222 255
196 222 255
196 222 255
196 222 255
196 222 255
196 222 255
196 222 255
196 222 255
196 222 255
196 222 255
196 222 255
196 222 255
196 222 255
196 222 255
196 222 255
196 222 255
196 222 255
196 222 255
196 222 255
196 222 255
196 222 255
196 222 255
196 222 255
196 221 255
196 221 255
196 221 255
196 221 255
196 221 255
196 221 255
195 221 255
195 221 255
195 221 255
195 221 255
195 221 255
195 221 255
195 221 255
195 221 255
195 221 255
195 221 255
195 221 255
195 221 255
195 221 255
195 221 255
195 221 255
195 221 255
195 221 255
195 221 255
195 221 255
195 221 255
196 221 255
196 221 255
196 221 255
196 221 255
196 221 255
196 221 255
196 222 255
196 222 255
196 222 255
196 222 255
196 222 255
196 222 255
196 222 255
196 222 255
196 222 255
196 222 255
196 222 255
196 222 255
196 222 255
196 222 255
196 222 255
196 222 255
196 222 255
196 222 255
196 222 255
196 222 255
196 222 255
196 222 255
196 222 255
196 222 255
196 222 255
196 222 255
196 222 255
197 222 255
197 222 255
197 222 255
197 222 255
197 222 255
197 222 255
197 222 255
197 222 255
197 222 255
197 222 255
197 222 255
197 222 255
197 222 255
197 222 255
197 222 255
197 222 255
197 222 255
197 222 255
197 223 255
198 223 255
198 223 255
198 223 255
198 223 255
198 223 255
198 223 255
198 223 255
198 223 255
198 223 255
198 223 255
198 223 255
198 223 255
198 223 255
198 223 255
198 223 255
198 223 255
199 223 255
199 223 255
199 223 255
199 223 255
199 223 255
199 223 255
199 223 255
199 223 255
199 223 255
199 223 255
199 223 255
199 223 255
199 224 255
199 224 255
200 224 255
200 224 255
200 224 255
200 224 255
200 224 255
200 224 255
200 224 255
200 224 255
200 224 255
200 224 255
200 224 255
200 224 255
200 224 255
200 224 255
200 224 255
201 224 255
201 224 255
201 224 255
201 224 255
201 224 255
201 224 255
201 224 255
201 224 255
201 224 255
201 224 255
201 225 255
201 225 255
201 225 255
201 225 255
202 225 255
202 225 255
202 225 255
202 225 255
202 225 255
202 225 255
202 225 255
202 225 255
202 225 255
202 225 255
202 225 255
202 225 255
202 225 255
202 225 255
202 225 255
203 225 255
203 225 255
203 225 255
203 225 255
203 225 255
203 225 255
203 225 255
203 225 255
203 225 255
203 226 255
203 226 255
203 226 255
203 226 255
203 226 255
203 226 255
203 226 255
204 226 255
204 226 255
204 226 255
204 226 255
204 226 255
204 226 255
204 226 255
204 226 255
204 226 255
204 226 255
204 226 255
204 226 255
204 226 255
204 226 255
204 226 255
204 226 255
204 226 255
205 226 255
205 226 255
205 226 255
205 226 255
205 226 255
205 226 255
205 226 255
205 227 255
205 227 255
205 227 255
205 227 255
205 227 255
205 227 255
205 227 255
205 227 255
205 227 255
205 227 255
205 227 255
206 227 255
206 227 255
206 227 255
206 227 255
206 227 255
206 227 255
206 227 255
206 227 255
206 227 255
206 227 255
206 227 255
206 227 255
206 227 255
206 227 255
206 227 255
206 227 255
206 227 255
206 227 255
206 227 255
206 227 255
206 227 255
206 227 255
206 227 255
206 227 255
206 227 255
206 227 255
206 227 255
206 227 255
206 227 255
205 227 255
205 227 255
205 227 255
205 227 255
205 227 255
205 227 255
205 227 255
205 227 255
205 227 255
205 227 255
205 227 255
205 226 255
205 226 255
205 226 255
205 226 255
205 226 255
205 226 255
205 226 255
204 226 255
204 226 255
204 226 255
204 226 255
204 226 255
204 226 255
204 226 255
204 226 255
204 226 255
204 226 255
204 226 255
204 226 255
204 226 255
204 226 255
204 226 255
204 226 255
203 226 255
203 226 255
203 226 255
203 226 255
203 226 255
203 226 255
203 226 255
203 225 255
203 225 255
203 225 255
203 225 255
203 225 255
203 225 255
203 225 255
203 225 255
203 225 255
202 225 255
202 225 255
202 225 255
202 225 255
202 225 255
202 225 255
202 225 255
202 225 255
202 225 255
202 225 255
202 225 255
202 225 255
202 225 255
202 225 255
202 225 255
201 225 255
201 225 255
201 225 255
201 225 255
201 224 255
201 224 255
201 224 255
201 224 255
201 224 255
201 224 255
201 224 255
201 224 255
201 224 255
201 224 255
200 224 255
200 224 255
200 224 255
200 224 255
200 224 255
200 224 255
200 224 255
200 224 255
200 224 255
200 224 255
200 224 255
200 224 255
200 224 255
200 224 255
200 224 255
199 224 255
199 224 255
199 223 255
199 223 255
199 223 255
199 223 255
199 223 255
199 223 255
199 223 255
199 223 255
199 223 255
199 223 255
199 223 255
199 223 255
199 223 255
198 223 255
198 223 255
198 223 255
198 223 255
198 223 255
198 223 255
198 223 255
198 223 255
198 223 255
198 223 255
198 223 255
198 223 255
198 223 255
198 223 255
198 223 255
198 223 255
197 223 255
197 222 255
197 222 255
197 222 255
197 222 255
197 222 255
197 222 255
197 222 255
197 222 255
197 222 255
197 222 255
197 222 255
197 222 255
197 222 255
197 222 255
197 222 255
197 222 255
197 222 255
197 222 255
197 222 255
196 222 255
196 222 255
196 222 255
196 222 255
196 222 255
196 222 255
196 222 255
196 222 255
196 222 255
196 222 255
196 222 255
196 222 255
196 222 255
196 222 255
196 222 255
196 222 255
196 222 255
196 222 255
196 222 255
196 222 255
196 222 255
196 222 255
196 222 255
196 222 255
196 222 255
196 222 255
196 222 255
196 222 255
196 222 255
196 222 255
196 222 255
196 222 255
196 222 255
196 222 255
196 222 255
196 222 255
196 222 255
196 222 255
196 222 255
196 222 255
196 222 255
196 222 255
196 222 255
196 222 255
196 222 255
196 222 255
196 222 255
196 222 255
196 222 255
196 222 255
196 222 255
196 222 255
196 222 255
196 222 255
196 222 255
196 222 255
196 222 255
196 222 255
196 222 255
196 222 255
196 222 255
196 222 255
196 222 255
196 222 255
196 222 255
196 222 255
196 222 255
196 222 255
196 222 255
196 222 255
196 222 255
196 222 255
196 222 255
196 222 255
196 222 255
196 222 255
196 222 255
196 222 255
197 222 255
197 222 255
197 222 255
197 222 255
197 222 255
197 222 255
197 222 255
197 222 255
197 222 255
197 222 255
197 222 255
197 222 255
197 222 255
197 222 255
197 222 255
197 222 255
197 222 255
197 222 255
197 222 255
197 223 255
198 223 255
198 223 255
198 223 255
198 223 255
198 223 255
198 223 255
198 223 255
198 223 255
198 223 255
198 223 255
198 223 255
198 223 255
198 223 255
198 223 255
198 223 255
198 223 255
199 223 255
199 223 255
199 223 255
199 223 255
199 223 255
199 223 255
199 223 255
199 223 255
199 223 255
199 223 255
199 223 255
199 223 255
199 224 255
199 224 255
199 224 255
200 224 255
200 224 255
200 224 255
200 224 255
200 224 255
200 224 255
200 224 255
200 224 255
200 224 255
200 224 255
200 224 255
200 224 255
200 224 255
200 224 255
200 224 255
201 224 255
201 224 255
201 224 255
201 224 255
201 224 255
201 224 255
201 224 255
201 224 255
201 224 255
201 224 255
201 225 255
201 225 255
201 225 255
201 225 255
202 225 255
202 225 255
202 225 255
202 225 255
202 225 255
202 225 255
202 225 255
202 225 255
202 225 255
202 225 255
202 225 255
202 225 255
202 225 255
202 225 255
202 225 255
203 225 255
203 225 255
203 225 255
203 225 255
203 225 255
203 225 255
203 225 255
203 225 255
203 225 255
203 226 255
203 226 255
203 226 255
203 226 255
203 226 255
203 226 255
203 226 255
204 226 255
204 226 255
204 226 255
204 226 255
204 226 255
204 226 255
204 226 255
204 226 255
204 226 255
204 226 255
204 226 255
204 226 255
204 226 255
204 226 255
204 226 255
204 226 255
205 226 255
205 226 255
205 226 255
205 226 255
205 226 255
205 226 255
205 226 255
205 227 255
205 227 255
205 227 255
205 227 255
205 227 255
205 227 255
205 227 255
205 227 255
205 227 255
205 227 255
205 227 255
206 227 255
206 227 255
206 227 255
206 227 255
206 227 255
206 227 255
206 227 255
206 227 255
206 227 255
206 227 255
206 227 255
206 227 255
206 227 255
206 227 255
206 227 255
206 227 255
206 227 255
206 227 255
206 227 255
206 227 255
206 227 255
206 227 255
206 227 255
206 227 255
206 227 255
206 227 255
206 227 255
206 227 255
206 227 255
206 227 255
206 227 255
206 227 255
206 227 255
206 227 255
205 227 255
205 227 255
205 227 255
205 227 255
205 227 255
205 227 255
205 227 255
205 227 255
205 227 255
205 227 255
205 227 255
205 226 255
205 226 255
205 226 255
205 226 255
205 226 255
205 226 255
205 226 255
204 226 255
204 226 255
204 226 255
204 226 255
204 226 255
204 226 255
204 226 255
204 226 255
204 226 255
204 226 255
204 226 255
204 226 255
204 226 255
204 226 255
204 226 255
204 226 255
204 226 255
203 226 255
203 226 255
203 226 255
203 226 255
203 226 255
203 226 255
203 226 255
203 225 255
203 225 255
203 225 255
203 225 255
203 225 255
203 225 255
203 225 255
203 225 255
202 225 255
202 225 255
202 225 255
202 225 255
202 225 255
202 225 255
202 225 255
202 225 255
202 225 255
202 225 255
202 225 255
202 225 255
202 225 255
202 225 255
202 225 255
201 225 255
201 225 255
201 225 255
201 225 255
201 225 255
201 224 255
201 224 255
201 224 255
201 224 255
201 224 255
201 224 255
201 224 255
201 224 255
201 224 255
201 224 255
200 224 255
200 224 255
200 224 255
200 224 255
200 224 255
200 224 255
200 224 255
200 224 255
200 224 255
200 224 255
200 224 255
200 224 255
200 224 255
200 224 255
199 224 255
199 224 255
199 224 255
199 223 255
199 223 255
199 223 255
199 223 255
199 223 255
199 223 255
199 223 255
199 223 255
199 223 255
199 223 255
199 223 255
199 223 255
199 223 255
198 223 255
198 223 255
198 223 255
198 223 255
198 223 255
198 223 255
198 223 255
198 223 255
198 223 255
198 223 255
198 223 255
198 223 255
198 223 255
198 223 255
198 223 255
198 223 255
197 223 255
197 222 255
197 222 255
197 222 255
197 222 255
197 222 255
197 222 255
197 222 255
197 222 255
197 222 255
197 222 255
197 222 255
197 222 255
197 222 255
197 222 255
197 222 255
197 222 255
197 222 255
197 222 255
197 222 255
196 222 255
196 222 255
196 222 255
196 222 255
196 222 255
196 222 255
196 222 255
196 222 255
196 222 255
196 222 255
196 222 255
196 222 255
196 222 255
196 222 255
196 222 255
196 222 255
196 222 255
196 222 255
196 222 255
196 222 255
196 222 255
196 222 255
196 222 255
196 222 255
196 222 255
196 222 255
196 222 255
196 222 255
196 222 255
196 222 255
196 222 255
196 222 255
196 222 255
196 222 255
196 222 255
196 222 255
196 222 255
196 222 255
196 222 255
196 222 255
196 222 255
196 222 255
196 222 255
196 222 255
196 222 255
196 222 255
196 222 255
196 222 255
196 222 255
196 222 255
196 222 255
196 222 255
196 222 255
196 222 255
196 222 255
196 222 255
196 222 255
196 222 255
196 222 255
196 222 255
196 222 255
196 222 255
196 222 255
196 222 255
196 222 255
196 222 255
196 222 255
196 222 255
196 222 255
196 222 255
196 222 255
196 222 255
197 222 255
197 222 255
197 222 255
197 222 255
197 222 255
197 222 255
197 222 255
197 222 255
197 222 255
197 222 255
197 222 255
197 222 255
197 222 255
197 222 255
197 222 255
197 222 255
197 222 255
197 222 255
197 222 255
197 223 255
198 223 255
198 223 255
198 223 255
198 223 255
198 223 255
198 223 255
198 223 255
198 223 255
198 223 255
198 223 255
198 223 255
198 223 255
198 223 255
198 223 255
198 223 255
198 223 255
199 223 255
199 223 255
199 223 255
199 223 255
199 223 255
199 223 255
199 223 255
199 223 255
199 223 255
199 223 255
199 223 255
199 223 255
199 223 255
199 224 255
199 224 255
200 224 255
200 224 255
200 224 255
200 224 255
200 224 255
200 224 255
200 224 255
200 224 255
200 224 255
200 224 255
200 224 255
200 224 255
200 224 255
200 224 255
200 224 255
201 224 255
201 224 255
201 224 255
201 224 255
201 224 255
201 224 255
201 224 255
201 224 255
201 224 255
201 224 255
201 225 255
201 225 255
201 225 255
201 225 255
201 225 255
202 225 255
202 225 255
202 225 255
202 225 255
202 225 255
202 225 255
202 225 255
202 225 255
202 225 255
202 225 255
202 225 255
202 225 255
202 225 255
202 225 255
202 225 255
203 225 255
203 225 255
203 225 255
203 225 255
203 225 255
203 225 255
203 225 255
203 225 255
203 226 255
203 226 255
203 226 255
203 226 255
203 226 255
203 226 255
203 226 255
204 226 255
204 226 255
204 226 255
204 226 255
204 226 255
204 226 255
204 226 255
204 226 255
204 226 255
204 226 255
204 226 255
204 226 255
204 226 255
204 226 255
204 226 255
204 226 255
204 226 255
205 226 255
205 226 255
205 226 255
205 226 255
205 226 255
205 226 255
205 226 255
205 227 255
205 227 255
205 227 255
205 227 255
205 227 255
205 227 255
205 227 255
205 227 255
205 227 255
205 227 255
205 227 255
206 227 255
206 227 255
206 227 255
206 227 255
206 227 255
206 227 255
206 227 255
206 227 255
206 227 255
206 227 255
206 227 255
206 227 255
206 227 255
206 227 255
206 227 255
206 227 255
206 227 255
206 227 255
207 227 255
207 227 255
206 227 255
206 227 255
206 227 255
206 227 255
206 227 255
206 227 255
206 227 255
206 227 255
206 227 255
206 227 255
206 227 255
206 227 255
206 227 255
206 227 255
206 227 255
206 227 255
206 227 255
206 227 255
206 227 255
205 227 255
205 227 255
205 227 255
205 227 255
205 227 255
205 227 255
205 227 255
205 227 255
205 227 255
205 227 255
205 227 255
205 226 255
205 226 255
205 226 255
205 226 255
205 226 255
205 226 255
205 226 255
204 226 255
204 226 255
204 226 255
204 226 255
204 226 255
204 226 255
204 226 255
204 226 255
204 226 255
204 226 255
204 226 255
204 226 255
204 226 255
204 226 255
204 226 255
204 226 255
203 226 255
203 226 255
203 226 255
203 226 255
203 226 255
203 226 255
203 226 255
203 225 255
203 225 255
203 225 255
203 225 255
203 225 255
203 225 255
203 225 255
203 225 255
203 225 255
202 225 255
202 225 255
202 225 255
202 225 255
202 225 255
202 225 255
202 225 255
202 225 255
202 225 255
202 225 255
202 225 255
202 225 255
202 225 255
202 225 255
201 225 255
201 225 255
201 225 255
201 225 255
201 225 255
201 224 255
201 224 255
201 224 255
201 224 255
201 224 255
201 224 255
201 224 255
201 224 255
201 224 255
201 224 255
200 224 255
200 224 255
200 224 255
200 224 255
200 224 255
200 224 255
200 224 255
200 224 255
200 224 255
200 224 255
200 224 255
200 224 255
200 224 255
200 224 255
200 224 255
199 224 255
199 224 255
199 223 255
199 223 255
199 223 255
199 223 255
199 223 255
199 223 255
199 223 255
199 223 255
199 223 255
199 223 255
199 223 255
199 223 255
199 223 255
198 223 255
198 223 255
198 223 255
198 223 255
198 223 255
198 223 255
198 223 255
198 223 255
198 223 255
198 223 255
198 223 255
198 223 255
198 223 255
198 223 255
198 223 255
198 223 255
198 223 255
197 223 255
197 222 255
197 222 255
197 222 255
197 222 255
197 222 255
197 222 255
197 222 255
197 222 255
197 222 255
197 222 255
197 222 255
197 222 255
197 222 255
197 222 255
197 222 255
197 222 255
197 222 255
197 222 255
197 222 255
197 222 255
197 222 255
196 222 255
196 222 255
196 222 255
196 222 255
196 222 255
196 222 255
196 222 255
196 222 255
196 222 255
196 222 255
196 222 255
196 222 255
196 222 255
196 222 255
196 222 255
196 222 255
196 222 255
196 222 255
196 222 255
196 222 255
196 222 255
196 222 255
196 222 255
196 222 255
196 222 255
196 222 255
196 222 255
196 222 255
196 222 255
196 222 255
196 222 255
196 222 255
196 222 255
196 222 255
196 222 255
196 222 255
196 222 255
196 222 255
196 222 255
196 222 255
196 222 255
196 222 255
196 222 255
196 222 255
196 222 255
196 222 255
196 222 255
196 222 255
196 222 255
196 222 255
196 222 255
196 222 255
196 222 255
196 222 255
196 222 255
196 222 255
196 222 255
196 222 255
196 222 255
196 222 255
196 222 255
196 222 255
197 222 255
197 222 255
197 222 255
197 222 255
197 222 255
197 222 255
197 222 255
197 222 255
197 222 255
197 222 255
197 222 255
197 222 255
197 222 255
197 222 255
197 222 255
197 222 255
197 222 255
197 222 255
197 222 255
197 222 255
197 222 255
197 223 255
198 223 255
198 223 255
198 223 255
198 223 255
198 223 255
198 223 255
198 223 255
198 223 255
198 223 255
198 223 255
198 223 255
198 223 255
198 223 255
198 223 255
198 223 255
198 223 255
198 223 255
199 223 255
199 223 255
199 223 255
199 223 255
199 223 255
199 223 255
199 223 255
199 223 255
199 223 255
199 223 255
199 223 255
199 223 255
199 223 255
199 224 255
199 224 255
200 224 255
200 224 255
200 224 255
200 224 255
200 224 255
200 224 255
200 224 255
200 224 255
200 224 255
200 224 255
200 224 255
200 224 255
200 224 255
200 224 255
200 224 255
201 224 255
201 224 255
201 224 255
201 224 255
201 224 255
201 224 255
201 224 255
201 224 255
201 224 255
201 224 255
201 225 255
201 225 255
201 225 255
201 225 255
202 225 255
202 225 255
202 225 255
202 225 255
202 225 255
202 225 255
202 225 255
202 225 255
202 225 255
202 225 255
202 225 255
202 225 255
202 225 255
202 225 255
202 225 255
203 225 255
203 225 255
203 225 255
203 225 255
203 225 255
203 225 255
203 225 255
203 225 255
203 225 255
203 226 255
203 226 255
203 226 255
203 226 255
203 226 255
203 226 255
203 226 255
204 226 255
204 226 255
204 226 255
204 226 255
204 226 255
204 226 255
204 226 255
204 226 255
204 226 255
204 226 255
204 226 255
204 226 255
204 226 255
204 226 255
204 226 255
204 226 255
205 226 255
205 226 255
205 226 255
205 226 255
205 226 255
205 226 255
205 226 255
205 227 255
205 227 255
205 227 255
205 227 255
205 227 255
205 227 255
205 227 255
205 227 255
205 227 255
205 227 255
205 227 255
206 227 255
206 227 255
206 227 255
206 227 255
206 227 255
206 227 255
206 227 255
206 227 255
206 227 255
206 227 255
206 227 255
206 227 255
206 227 255
206 227 255
206 227 255
206 227 255
206 227 255
206 227 255
206 227 255
207 227 255
207 227 255
207 227 255
207 227 255
207 227 255
207 227 255
207 227 255
206 227 255
206 227 255
206 227 255
206 227 255
206 227 255
206 227 255
206 227 255
206 227 255
206 227 255
206 227 255
206 227 255
206 227 255
206 227 255
206 227 255
206 227 255
206 227 255
206 227 255
206 227 255
206 227 255
205 227 255
205 227 255
205 227 255
205 227 255
205 227 255
205 227 255
205 227 255
205 227 255
205 227 255
205 227 255
205 226 255
205 226 255
205 226 255
205 226 255
205 226 255
205 226 255
205 226 255
204 226 255
204 226 255
204 226 255
204 226 255
204 226 255
204 226 255
204 226 255
204 226 255
204 226 255
204 226 255
204 226 255
204 226 255
204 226 255
204 226 255
204 226 255
204 226 255
204 226 255
203 226 255
203 226 255
203 226 255
203 226 255
203 226 255
203 226 255
203 225 255
203 225 255
203 225 255
203 225 255
203 225 255
203 225 255
203 225 255
203 225 255
203 225 255
202 225 255
202 225 255
202 225 255
202 225 255
202 225 255
202 225 255
202 225 255
202 225 255
202 225 255
202 225 255
202 225 255
202 225 255
202 225 255
202 225 255
202 225 255
201 225 255
201 225 255
201 225 255
201 225 255
201 224 255
201 224 255
201 224 255
201 224 255
201 224 255
201 224 255
201 224 255
201 224 255
201 224 255
201 224 255
201 224 255
200 224 255
200 224 255
200 224 255
200 224 255
200 224 255
200 224 255
200 224 255
200 224 255
200 224 255
200 224 255
200 224 255
200 224 255
200 224 255
200 224 255
199 224 255
199 224 255
199 224 255
199 223 255
199 223 255
199 223 255
199 223 255
199 223 255
199 223 255
199 223 255
199 223 255
199 223 255
199 223 255
199 223 255
199 223 255
199 223 255
198 223 255
198 223 255
198 223 255
198 223 255
198 223 255
198 223 255
198 223 255
198 223 255
198 223 255
198 223 255
198 223 255
198 223 255
198 223 255
198 223 255
198 223 255
198 223 255
198 223 255
197 223 255
197 222 255
197 222 255
197 222 255
197 222 255
197 222 255
197 222 255
197 222 255
197 222 255
197 222 255
197 222 255
197 222 255
197 222 255
197 222 255
197 222 255
197 222 255
197 222 255
197 222 255
197 222 255
197 222 255
197 222 255
197 222 255
197 222 255
197 222 255
196 222 255
196 222 255
196 222 255
196 222 255
196 222 255
196 222 255
196 222 255
196 222 255
196 222 255
196 222 255
196 222 255
196 222 255
196 222 255
196 222 255
196 222 255
196 222 255
196 222 255
196 222 255
196 222 255
196 222 255
196 222 255
196 222 255
196 222 255
196 222 255
196 222 255
196 222 255
196 222 255
196 222 255
196 222 255
196 222 255
196 222 255
196 222 255
196 222 255
196 222 255
196 222 255
196 222 255
196 222 255
196 222 255
196 222 255
196 222 255
196 222 255
196 222 255
196 222 255
196 222 255
196 222 255
196 222 255
196 222 255
196 222 255
196 222 255
196 222 255
196 222 255
196 222 255
197 222 255
197 222 255
197 222 255
197 222 255
197 222 255
197 222 255
197 222 255
197 222 255
197 222 255
197 222 255
197 222 255
197 222 255
197 222 255
197 222 255
197 222 255
197 222 255
197 222 255
197 222 255
197 222 255
197 222 255
197 222 255
197 222 255
197 222 255
197 223 255
198 223 255
198 223 255
198 223 255
198 223 255
198 223 255
198 223 255
198 223 255
198 223 255
198 223 255
198 223 255
198 223 255
198 223 255
198 223 255
198 223 255
198 223 255
198 223 255
198 223 255
199 223 255
199 223 255
199 223 255
199 223 255
199 223 255
199 223 255
199 223 255
199 223 255
199 223 255
199 223 255
199 223 255
199 223 255
199 223 255
199 224 255
199 224 255
199 224 255
200 224 255
200 224 255
200 224 255
200 224 255
200 224 255
200 224 255
200 224 255
200 224 255
200 224 255
200 224 255
200 224 255
200 224 255
200 224 255
200 224 255
201 224 255
201 224 255
201 224 255
201 224 255
201 224 255
201 224 255
201 224 255
201 224 255
201 224 255
201 224 255
201 224 255
201 225 255
201 225 255
201 225 255
201 225 255
202 225 255
202 225 255
202 225 255
202 225 255
202 225 255
202 225 255
202 225 255
202 225 255
202 225 255
202 225 255
202 225 255
202 225 255
202 225 255
202 225 255
202 225 255
203 225 255
203 225 255
203 225 255
203 225 255
203 225 255
203 225 255
203 225 255
203 225 255
203 225 255
203 226 255
203 226 255
203 226 255
203 226 255
203 226 255
203 226 255
203 226 255
204 226 255
204 226 255
204 226 255
204 226 255
204 226 255
204 226 255
204 226 255
204 226 255
204 226 255
204 226 255
204 226 255
204 226 255
204 226 255
204 226 255
204 226 255
204 226 255
205 226 255
205 226 255
205 226 255
205 226 255
205 226 255
205 226 255
205 226 255
205 227 255
205 227 255
205 227 255
205 227 255
205 227 255
205 227 255
205 227 255
205 227 255
205 227 255
205 227 255
206 227 255
206 227 255
206 227 255
206 227 255
206 227 255
206 227 255
206 227 255
206 227 255
206 227 255
206 227 255
206 227 255
206 227 255
206 227 255
206 227 255
206 227 255
206 227 255
206 227 255
206 227 255
206 227 255
206 227 255
207 227 255
207 227 255
207 227 255
207 227 255
207 228 255
207 228 255
207 227 255
207 227 255
207 227 255
207 227 255
207 227 255
206 227 255
206 227 255
206 227 255
206 227 255
206 227 255
206 227 255
206 227 255
206 227 255
206 227 255
206 227 255
206 227 255
206 227 255
206 227 255
206 227 255
206 227 255
206 227 255
206 227 255
206 227 255
206 227 255
205 227 255
205 227 255
205 227 255
205 227 255
205 227 255
205 227 255
205 227 255
205 227 255
205 227 255
205 227 255
205 227 255
205 226 255
205 226 255
205 226 255
205 226 255
205 226 255
205 226 255
205 226 255
204 226 255
204 226 255
204 226 255
204 226 255
204 226 255
204 226 255
204 226 255
204 226 255
204 226 255
204 226 255
204 226 255
204 226 255
204 226 255
204 226 255
204 226 255
204 226 255
203 226 255
203 226 255
203 226 255
203 226 255
203 226 255
203 226 255
203 226 255
203 225 255
203 225 255
203 225 255
203 225 255
203 225 255
203 225 255
203 225 255
203 225 255
202 225 255
202 225 255
202 225 255
202 225 255
202 225 255
202 225 255
202 225 255
202 225 255
202 225 255
202 225 255
202 225 255
202 225 255
202 225 255
202 225 255
202 225 255
202 225 255
201 225 255
201 225 255
201 225 255
201 225 255
201 224 255
201 224 255
201 224 255
201 224 255
201 224 255
201 224 255
201 224 255
201 224 255
201 224 255
201 224 255
200 224 255
200 224 255
200 224 255
200 224 255
200 224 255
200 224 255
200 224 255
200 224 255
200 224 255
200 224 255
200 224 255
200 224 255
200 224 255
200 224 255
200 224 255
199 224 255
199 224 255
199 223 255
199 223 255
199 223 255
199 223 255
199 223 255
199 223 255
199 223 255
199 223 255
199 223 255
199 223 255
199 223 255
199 223 255
199 223 255
199 223 255
198 223 255
198 223 255
198 223 255
198 223 255
198 223 255
198 223 255
198 223 255
198 223 255
198 223 255
198 223 255
198 223 255
198 223 255
198 223 255
198 223 255
198 223 255
198 223 255
198 223 255
197 223 255
197 222 255
197 222 255
197 222 255
197 222 255
197 222 255
197 222 255
197 222 255
197 222 255
197 222 255
197 222 255
197 222 255
197 222 255
197 222 255
197 222 255
197 222 255
197 222 255
197 222 255
197 222 255
197 222 255
197 222 255
197 222 255
197 222 255
197 222 255
197 222 255
197 222 255
197 222 255
196 222 255
196 222 255
196 222 255
196 222 255
196 222 255
196 222 255
196 222 255
196 222 255
196 222 255
196 222 255
196 222 255
196 222 255
196 222 255
196 222 255
196 222 255
196 222 255
196 222 255
196 222 255
196 222 255
196 222 255
196 222 255
196 222 255
196 222 255
196 222 255
196 222 255
196 222 255
196 222 255
196 222 255
196 222 255
196 222 255
196 222 255
196 222 255
196 222 255
196 222 255
196 222 255
196 222 255
196 222 255
196 222 255
196 222 255
196 222 255
197 222 255
197 222 255
197 222 255
197 222 255
197 222 255
197 222 255
197 222 255
197 222 255
197 222 255
197 222 255
197 222 255
197 222 255
197 222 255
197 222 255
197 222 255
197 222 255
197 222 255
197 222 255
197 222 255
197 222 255
197 222 255
197 222 255
197 222 255
197 222 255
197 222 255
197 222 255
198 223 255
198 223 255
198 223 255
198 223 255
198 223 255
198 223 255
198 223 255
198 223 255
198 223 255
198 223 255
198 223 255
198 223 255
198 223 255
198 223 255
198 223 255
198 223 255
198 223 255
198 223 255
199 223 255
199 223 255
199 223 255
199 223 255
199 223 255
199 223 255
199 223 255
199 223 255
199 223 255
199 223 255
199 223 255
199 223 255
199 223 255
199 223 255
199 224 255
199 224 255
200 224 255
200 224 255
200 224 255
200 224 255
200 224 255
200 224 255
200 224 255
200 224 255
200 224 255
200 224 255
200 224 255
200 224 255
200 224 255
200 224 255
200 224 255
201 224 255
201 224 255
201 224 255
201 224 255
201 224 255
201 224 255
201 224 255
201 224 255
201 224 255
201 224 255
201 225 255
201 225 255
201 225 255
201 225 255
201 225 255
202 225 255
202 225 255
202 225 255
202 225 255
202 225 255
202 225 255
202 225 255
202 225 255
202 225 255
202 225 255
202 225 255
202 225 255
202 225 255
202 225 255
202 225 255
203 225 255
203 225 255
203 225 255
203 225 255
203 225 255
203 225 255
203 225 255
203 225 255
203 226 255
203 226 255
203 226 255
203 226 255
203 226 255
203 226 255
203 226 255
204 226 255
204 226 255
204 226 255
204 226 255
204 226 255
204 226 255
204 226 255
204 226 255
204 226 255
204 226 255
204 226 255
204 226 255
204 226 255
204 226 255
204 226 255
204 226 255
205 226 255
205 226 255
205 226 255
205 226 255
205 226 255
205 226 255
205 226 255
205 227 255
205 227 255
205 227 255
205 227 255
205 227 255
205 227 255
205 227 255
205 227 255
205 227 255
205 227 255
205 227 255
206 227 255
206 227 255
206 227 255
206 227 255
206 227 255
206 227 255
206 227 255
206 227 255
206 227 255
206 227 255
206 227 255
206 227 255
206 227 255
206 227 255
206 227 255
206 227 255
206 227 255
206 227 255
206 227 255
207 227 255
207 227 255
207 227 255
207 227 255
207 227 255
207 228 255
207 228 255
207 228 255
207 228 255
207 228 255
207 228 255
207 228 255
207 227 255
207 227 255
207 227 255
207 227 255
207 227 255
206 227 255
206 227 255
206 227 255
206 227 255
206 227 255
206 227 255
206 227 255
206 227 255
206 227 255
206 227 255
206 227 255
206 227 255
206 227 255
206 227 255
206 227 255
206 227 255
206 227 255
206 227 255
206 227 255
205 227 255
205 227 255
205 227 255
205 227 255
205 227 255
205 227 255
205 227 255
205 227 255
205 227 255
205 227 255
205 227 255
205 226 255
205 226 255
205 226 255
205 226 255
205 226 255
205 226 255
204 226 255
204 226 255
204 226 255
204 226 255
204 226 255
204 226 255
204 226 255
204 226 255
204 226 255
204 226 255
204 226 255
204 226 255
204 226 255
204 226 255
204 226 255
204 226 255
204 226 255
203 226 255
203 226 255
203 226 255
203 226 255
203 226 255
203 226 255
203 226 255
203 225 255
203 225 255
203 225 255
203 225 255
203 225 255
203 225 255
203 225 255
203 225 255
202 225 255
202 225 255
202 225 255
202 225 255
202 225 255
202 225 255
202 225 255
202 225 255
202 225 255
202 225 255
202 225 255
202 225 255
202 225 255
202 225 255
202 225 255
201 225 255
201 225 255
201 225 255
201 225 255
201 224 255
201 224 255
201 224 255
201 224 255
201 224 255
201 224 255
201 224 255
201 224 255
201 224 255
201 224 255
200 224 255
200 224 255
200 224 255
200 224 255
200 224 255
200 224 255
200 224 255
200 224 255
200 224 255
200 224 255
200 224 255
200 224 255
200 224 255
200 224 255
200 224 255
200 224 255
199 224 255
199 224 255
199 223 255
199 223 255
199 223 255
199 223 255
199 223 255
199 223 255
199 223 255
199 223 255
199 223 255
199 223 255
199 223 255
199 223 255
199 223 255
199 223 255
198 223 255
198 223 255
198 223 255
198 223 255
198 223 255
198 223 255
198 223 255
198 223 255
198 223 255
198 223 255
198 223 255
198 223 255
198 223 255
198 223 255
198 223 255
198 223 255
198 223 255
198 223 255
197 223 255
197 222 255
197 222 255
197 222 255
197 222 255
197 222 255
197 222 255
197 222 255
197 222 255
197 222 255
197 222 255
197 222 255
197 222 255
197 222 255
197 222 255
197 222 255
197 222 255
197 222 255
197 222 255
197 222 255
197 222 255
197 222 255
197 222 255
197 222 255
197 222 255
197 222 255
197 222 255
197 222 255
197 222 255
197 222 255
197 222 255
197 222 255
196 222 255
196 222 255
196 222 255
196 222 255
196 222 255
196 222 255
196 222 255
196 222 255
196 222 255
196 222 255
196 222 255
196 222 255
196 222 255
196 222 255
196 222 255
196 222 255
196 222 255
196 222 255
196 222 255
196 222 255
196 222 255
196 222 255
197 222 255
197 222 255
197 222 255
197 222 255
197 222 255
197 222 255
197 222 255
197 222 255
197 222 255
197 222 255
197 222 255
197 222 255
197 222 255
197 222 255
197 222 255
197 222 255
197 222 255
197 222 255
197 222 255
197 222 255
197 222 255
197 222 255
197 222 255
197 222 255
197 222 255
197 222 255
197 222 255
197 222 255
197 222 255
197 222 255
197 222 255
197 223 255
198 223 255
198 223 255
198 223 255
198 223 255
198 223 255
198 223 255
198 223 255
198 223 255
198 223 255
198 223 255
198 223 255
198 223 255
198 223 255
198 223 255
198 223 255
198 223 255
198 223 255
198 223 255
198 223 255
199 223 255
199 223 255
199 223 255
199 223 255
199 223 255
199 223 255
199 223 255
199 223 255
199 223 255
199 223 255
199 223 255
199 223 255
199 223 255
199 224 255
199 224 255
200 224 255
200 224 255
200 224 255
200 224 255
200 224 255
200 224 255
200 224 255
200 224 255
200 224 255
200 224 255
200 224 255
200 224 255
200 224 255
200 224 255
200 224 255
200 224 255
201 224 255
201 224 255
201 224 255
201 224 255
201 224 255
201 224 255
201 224 255
201 224 255
201 224 255
201 224 255
201 225 255
201 225 255
201 225 255
201 225 255
202 225 255
202 225 255
202 225 255
202 225 255
202 225 255
202 225 255
202 225 255
202 225 255
202 225 255
202 225 255
202 225 255
202 225 255
202 225 255
202 225 255
202 225 255
203 225 255
203 225 255
203 225 255
203 225 255
203 225 255
203 225 255
203 225 255
203 225 255
203 226 255
203 226 255
203 226 255
203 226 255
203 226 255
203 226 255
203 226 255
204 226 255
204 226 255
204 226 255
204 226 255
204 226 255
204 226 255
204 226 255
204 226 255
204 226 255
204 226 255
204 226 255
204 226 255
204 226 255
204 226 255
204 226 255
204 226 255
204 226 255
205 226 255
205 226 255
205 226 255
205 226 255
205 226 255
205 226 255
205 227 255
205 227 255
205 227 255
205 227 255
205 227 255
205 227 255
205 227 255
205 227 255
205 227 255
205 227 255
205 227 255
206 227 255
206 227 255
206 227 255
206 227 255
206 227 255
206 227 255
206 227 255
206 227 255
206 227 255
206 227 255
206 227 255
206 227 255
206 227 255
206 227 255
206 227 255
206 227 255
206 227 255
206 227 255
206 227 255
207 227 255
207 227 255
207 227 255
207 227 255
207 227 255
207 228 255
207 228 255
207 228 255
207 228 255
207 228 255
207 228 255
207 228 255
207 228 255
207 228 255
207 228 255
207 228 255
207 228 255
207 228 255
207 227 255
207 227 255
207 227 255
207 227 255
207 227 255
206 227 255
206 227 255
206 227 255
206 227 255
206 227 255
206 227 255
206 227 255
206 227 255
206 227 255
206 227 255
206 227 255
206 227 255
206 227 255
206 227 255
206 227 255
206 227 255
206 227 255
206 227 255
206 227 255
205 227 255
205 227 255
205 227 255
205 227 255
205 227 255
205 227 255
205 227 255
205 227 255
205 227 255
205 227 255
205 226 255
205 226 255
205 226 255
205 226 255
205 226 255
205 226 255
205 226 255
204 226 255
204 226 255
204 226 255
204 226 255
204 226 255
204 226 255
204 226 255
204 226 255
204 226 255
204 226 255
204 226 255
204 226 255
204 226 255
204 226 255
204 226 255
204 226 255
203 226 255
203 226 255
203 226 255
203 226 255
203 226 255
203 226 255
203 226 255
203 225 255
203 225 255
203 225 255
203 225 255
203 225 255
203 225 255
203 225 255
203 225 255
202 225 255
202 225 255
202 225 255
202 225 255
202 225 255
202 225 255
202 225 255
202 225 255
202 225 255
202 225 255
202 225 255
202 225 255
202 225 255
202 225 255
202 225 255
201 225 255
201 225 255
201 225 255
201 225 255
201 225 255
201 224 255
201 224 255
201 224 255
201 224 255
201 224 255
201 224 255
201 224 255
201 224 255
201 224 255
201 224 255
200 224 255
200 224 255
200 224 255
200 224 255
200 224 255
200 224 255
200 224 255
200 224 255
200 224 255
200 224 255
200 224 255
200 224 255
200 224 255
200 224 255
200 224 255
199 224 255
199 224 255
199 224 255
199 223 255
199 223 255
199 223 255
199 223 255
199 223 255
199 223 255
199 223 255
199 223 255
199 223 255
199 223 255
199 223 255
199 223 255
199 223 255
198 223 255
198 223 255
198 223 255
198 223 255
198 223 255
198 223 255
198 223 255
198 223 255
198 223 255
198 223 255
198 223 255
198 223 255
198 223 255
198 223 255
198 223 255
198 223 255
198 223 255
198 223 255
198 223 255
198 223 255
197 223 255
197 222 255
197 222 255
197 222 255
197 222 255
197 222 255
197 222 255
197 222 255
197 222 255
197 222 255
197 222 255
197 222 255
197 222 255
197 222 255
197 222 255
197 222 255
197 222 255
197 222 255
197 222 255
197 222 255
197 222 255
197 222 255
197 222 255
197 222 255
197 222 255
197 222 255
197 222 255
197 222 255
197 222 255
197 222 255
197 222 255
197 222 255
197 222 255
197 222 255
197 222 255
197 222 255
197 222 255
197 222 255
197 222 255
197 222 255
197 222 255
197 222 255
197 222 255
197 222 255
197 222 255
197 222 255
197 222 255
197 222 255
197 222 255
197 222 255
197 222 255
197 222 255
197 222 255
197 222 255
197 222 255
197 222 255
197 222 255
197 222 255
197 222 255
197 222 255
197 222 255
197 222 255
197 222 255
197 222 255
197 222 255
197 222 255
197 222 255
197 222 255
197 222 255
197 222 255
197 222 255
197 222 255
197 222 255
197 222 255
197 222 255
197 222 255
197 222 255
197 223 255
198 223 255
198 223 255
198 223 255
198 223 255
198 223 255
198 223 255
198 223 255
198 223 255
198 223 255
198 223 255
198 223 255
198 223 255
198 223 255
198 223 255
198 223 255
198 223 255
198 223 255
198 223 255
198 223 255
198 223 255
199 223 255
199 223 255
199 223 255
199 223 255
199 223 255
199 223 255
199 223 255
199 223 255
199 223 255
199 223 255
199 223 255
199 223 255
199 223 255
199 224 255
199 224 255
199 224 255
200 224 255
200 224 255
200 224 255
200 224 255
200 224 255
200 224 255
200 224 255
200 224 255
200 224 255
200 224 255
200 224 255
200 224 255
200 224 255
200 224 255
200 224 255
201 224 255
201 224 255
201 224 255
201 224 255
201 224 255
201 224 255
201 224 255
201 224 255
201 224 255
201 224 255
201 225 255
201 225 255
201 225 255
201 225 255
201 225 255
202 225 255
202 225 255
202 225 255
202 225 255
202 225 255
202 225 255
202 225 255
202 225 255
202 225 255
202 225 255
202 225 255
202 225 255
202 225 255
202 225 255
202 225 255
203 225 255
203 225 255
203 225 255
203 225 255
203 225 255
203 225 255
203 225 255
203 225 255
203 226 255
203 226 255
203 226 255
203 226 255
203 226 255
203 226 255
203 226 255
204 226 255
204 226 255
204 226 255
204 226 255
204 226 255
204 226 255
204 226 255
204 226 255
204 226 255
204 226 255
204 226 255
204 226 255
204 226 255
204 226 255
204 226 255
204 226 255
205 226 255
205 226 255
205 226 255
205 226 255
205 226 255
205 226 255
205 226 255
205 227 255
205 227 255
205 227 255
205 227 255
205 227 255
205 227 255
205 227 255
205 227 255
205 227 255
205 227 255
206 227 255
206 227 255
206 227 255
206 227 255
206 227 255
206 227 255
206 227 255
206 227 255
206 227 255
206 227 255
206 227 255
206 227 255
206 227 255
206 227 255
206 227 255
206 227 255
206 227 255
206 227 255
206 227 255
207 227 255
207 227 255
207 227 255
207 227 255
207 227 255
207 228 255
207 228 255
207 228 255
207 228 255
207 228 255
207 228 255
207 228 255
207 228 255
207 228 255
207 228 255
207 228 255
207 228 255
207 228 255
207 228 255
207 228 255
207 228 255
207 228 255
207 228 255
207 228 255
207 227 255
207 227 255
207 227 255
207 227 255
207 227 255
206 227 255
206 227 255
206 227 255
206 227 255
206 227 255
206 227 255
206 227 255
206 227 255
206 227 255
206 227 255
206 227 255
206 227 255
206 227 255
206 227 255
206 227 255
206 227 255
206 227 255
206 227 255
205 227 255
205 227 255
205 227 255
205 227 255
205 227 255
205 227 255
205 227 255
205 227 255
205 227 255
205 227 255
205 227 255
205 226 255
205 226 255
205 226 255
205 226 255
205 226 255
205 226 255
205 226 255
204 226 255
204 226 255
204 226 255
204 226 255
204 226 255
204 226 255
204 226 255
204 226 255
204 226 255
204 226 255
204 226 255
204 226 255
204 226 255
204 226 255
204 226 255
204 226 255
203 226 255
203 226 255
203 226 255
203 226 255
203 226 255
203 226 255
203 225 255
203 225 255
203 225 255
203 225 255
203 225 255
203 225 255
203 225 255
203 225 255
203 225 255
202 225 255
202 225 255
202 225 255
202 225 255
202 225 255
202 225 255
202 225 255
202 225 255
202 225 255
202 225 255
202 225 255
202 225 255
202 225 255
202 225 255
202 225 255
201 225 255
201 225 255
201 225 255
201 225 255
201 224 255
201 224 255
201 224 255
201 224 255
201 224 255
201 224 255
201 224 255
201 224 255
201 224 255
201 224 255
200 224 255
200 224 255
200 224 255
200 224 255
200 224 255
200 224 255
200 224 255
200 224 255
200 224 255
200 224 255
200 224 255
200 224 255
200 224 255
200 224 255
200 224 255
200 224 255
199 224 255
199 224 255
199 223 255
199 223 255
199 223 255
199 223 255
199 223 255
199 223 255
199 223 255
199 223 255
199 223 255
199 223 255
199 223 255
199 223 255
199 223 255
199 223 255
198 223 255
198 223 255
198 223 255
198 223 255
198 223 255
198 223 255
198 223 255
198 223 255
198 223 255
198 223 255
198 223 255
198 223 255
198 223 255
198 223 255
198 223 255
198 223 255
198 223 255
198 223 255
198 223 255
198 223 255
198 223 255
197 223 255
197 222 255
197 222 255
197 222 255
197 222 255
197 222 255
197 222 255
197 222 255
197 222 255
197 222 255
197 222 255
197 222 255
197 222 255
197 222 255
197 222 255
197 222 255
197 222 255
197 222 255
197 222 255
197 222 255
197 222 255
197 222 255
197 222 255
197 222 255
197 222 255
197 222 255
197 222 255
197 222 255
197 222 255
197 222 255
197 222 255
197 222 255
197 222 255
197 222 255
197 222 255
197 222 255
197 222 255
197 222 255
197 222 255
197 222 255
197 222 255
197 222 255
197 222 255
197 222 255
197 222 255
197 222 255
197 222 255
197 222 255
197 222 255
197 222 255
197 222 255
197 222 255
197 222 255
197 222 255
197 222 255
197 222 255
197 222 255
197 222 255
197 222 255
197 222 255
197 222 255
197 222 255
197 222 255
197 222 255
197 222 255
197 222 255
197 222 255
197 222 255
197 222 255
197 223 255
198 223 255
198 223 255
198 223 255
198 223 255
198 223 255
198 223 255
198 223 255
198 223 255
198 223 255
198 223 255
198 223 255
198 223 255
198 223 255
198 223 255
198 223 255
198 223 255
198 223 255
198 223 255
198 223 255
198 223 255
199 223 255
199 223 255
199 223 255
199 223 255
199 223 255
199 223 255
199 223 255
199 223 255
199 223 255
199 223 255
199 223 255
199 223 255
199 223 255
199 223 255
199 223 255
199 224 255
199 224 255
200 224 255
200 224 255
200 224 255
200 224 255
200 224 255
200 224 255
200 224 255
200 224 255
200 224 255
200 224 255
200 224 255
200 224 255
200 224 255
200 224 255
200 224 255
201 224 255
201 224 255
201 224 255
201 224 255
201 224 255
201 224 255
201 224 255
201 224 255
201 224 255
201 224 255
201 224 255
201 225 255
201 225 255
201 225 255
201 225 255
202 225 255
202 225 255
202 225 255
202 225 255
202 225 255
202 225 255
202 225 255
202 225 255
202 225 255
202 225 255
202 225 255
202 225 255
202 225 255
202 225 255
202 225 255
203 225 255
203 225 255
203 225 255
203 225 255
203 225 255
203 225 255
203 225 255
203 225 255
203 225 255
203 226 255
203 226 255
203 226 255
203 226 255
203 226 255
203 226 255
204 226 255
204 226 255
204 226 255
204 226 255
204 226 255
204 226 255
204 226 255
204 226 255
204 226 255
204 226 255
204 226 255
204 226 255
204 226 255
204 226 255
204 226 255
204 226 255
204 226 255
205 226 255
205 226 255
205 226 255
205 226 255
205 226 255
205 226 255
205 227 255
205 227 255
205 227 255
205 227 255
205 227 255
205 227 255
205 227 255
205 227 255
205 227 255
205 227 255
205 227 255
206 227 255
206 227 255
206 227 255
206 227 255
206 227 255
206 227 255
206 227 255
206 227 255
206 227 255
206 227 255
206 227 255
206 227 255
206 227 255
206 227 255
206 227 255
206 227 255
206 227 255
206 227 255
207 227 255
207 227 255
207 227 255
207 227 255
207 227 255
207 228 255
207 228 255
207 228 255
207 228 255
207 228 255
207 228 255
207 228 255
207 228 255
207 228 255
207 228 255
207 228 255
207 228 255
207 228 255
207 228 255
207 228 255
207 228 255
207 228 255
207 228 255
207 228 255
207 228 255
207 228 255
207 228 255
207 228 255
207 228 255
207 228 255
207 227 255
207 227 255
207 227 255
207 227 255
206 227 255
206 227 255
206 227 255
206 227 255
206 227 255
206 227 255
206 227 255
206 227 255
206 227 255
206 227 255
206 227 255
206 227 255
206 227 255
206 227 255
206 227 255
206 227 255
206 227 255
206 227 255
206 227 255
205 227 255
205 227 255
205 227 255
205 227 255
205 227 255
205 227 255
205 227 255
205 227 255
205 227 255
205 227 255
205 226 255
205 226 255
205 226 255
205 226 255
205 226 255
205 226 255
205 226 255
204 226 255
204 226 255
204 226 255
204 226 255
204 226 255
204 226 255
204 226 255
204 226 255
204 226 255
204 226 255
204 226 255
204 226 255
204 226 255
204 226 255
204 226 255
204 226 255
203 226 255
203 226 255
203 226 255
203 226 255
203 226 255
203 226 255
203 226 255
203 225 255
203 225 255
203 225 255
203 225 255
203 225 255
203 225 255
203 225 255
203 225 255
202 225 255
202 225 255
202 225 255
202 225 255
202 225 255
202 225 255
202 225 255
202 225 255
202 225 255
202 225 255
202 225 255
202 225 255
202 225 255
202 225 255
202 225 255
201 225 255
201 225 255
201 225 255
201 225 255
201 225 255
201 224 255
201 224 255
201 224 255
201 224 255
201 224 255
201 224 255
201 224 255
201 224 255
201 224 255
201 224 255
200 224 255
200 224 255
200 224 255
200 224 255
200 224 255
200 224 255
200 224 255
200 224 255
200 224 255
200 224 255
200 224 255
200 224 255
200 224 255
200 224 255
200 224 255
200 224 255
199 224 255
199 224 255
199 223 255
199 223 255
199 223 255
199 223 255
199 223 255
199 223 255
199 223 255
199 223 255
199 223 255
199 223 255
199 223 255
199 223 255
199 223 255
199 223 255
199 223 255
198 223 255
198 223 255
198 223 255
198 223 255
198 223 255
198 223 255
198 223 255
198 223 255
198 223 255
198 223 255
198 223 255
198 223 255
198 223 255
198 223 255
198 223 255
198 223 255
198 223 255
198 223 255
198 223 255
198 223 255
198 223 255
198 223 255
197 222 255
197 222 255
197 222 255
197 222 255
197 222 255
197 222 255
197 222 255
197 222 255
197 222 255
197 222 255
197 222 255
197 222 255
197 222 255
197 222 255
197 222 255
197 222 255
197 222 255
197 222 255
197 222 255
197 222 255
197 222 255
197 222 255
197 222 255
197 222 255
197 222 255
197 222 255
197 222 255
197 222 255
197 222 255
197 222 255
197 222 255
197 222 255
197 222 255
197 222 255
197 222 255
197 222 255
197 222 255
197 222 255
197 222 255
197 222 255
197 222 255
197 222 255
197 222 255
197 222 255
197 222 255
197 222 255
197 222 255
197 222 255
197 222 255
197 222 255
197 222 255
197 222 255
197 222 255
197 222 255
197 222 255
197 222 255
197 222 255
197 222 255
197 222 255
197 223 255
198 223 255
198 223 255
198 223 255
198 223 255
198 223 255
198 223 255
198 223 255
198 223 255
198 223 255
198 223 255
198 223 255
198 223 255
198 223 255
198 223 255
198 223 255
198 223 255
198 223 255
198 223 255
198 223 255
198 223 255
198 223 255
198 223 255
199 223 255
199 223 255
199 223 255
199 223 255
199 223 255
199 223 255
199 223 255
199 223 255
199 223 255
199 223 255
199 223 255
199 223 255
199 223 255
199 223 255
199 223 255
199 224 255
199 224 255
200 224 255
200 224 255
200 224 255
200 224 255
200 224 255
200 224 255
200 224 255
200 224 255
200 224 255
200 224 255
200 224 255
200 224 255
200 224 255
200 224 255
200 224 255
200 224 255
201 224 255
201 224 255
201 224 255
201 224 255
201 224 255
201 224 255
201 224 255
201 224 255
201 224 255
201 224 255
201 225 255
201 225 255
201 225 255
201 225 255
201 225 255
202 225 255
202 225 255
202 225 255
202 225 255
202 225 255
202 225 255
202 225 255
202 225 255
202 225 255
202 225 255
202 225 255
202 225 255
202 225 255
202 225 255
202 225 255
203 225 255
203 225 255
203 225 255
203 225 255
203 225 255
203 225 255
203 225 255
203 225 255
203 226 255
203 226 255
203 226 255
203 226 255
203 226 255
203 226 255
203 226 255
204 226 255
204 226 255
204 226 255
204 226 255
204 226 255
204 226 255
204 226 255
204 226 255
204 226 255
204 226 255
204 226 255
204 226 255
204 226 255
204 226 255
204 226 255
204 226 255
205 226 255
205 226 255
205 226 255
205 226 255
205 226 255
205 226 255
205 226 255
205 227 255
205 227 255
205 227 255
205 227 255
205 227 255
205 227 255
205 227 255
205 227 255
205 227 255
205 227 255
206 227 255
206 227 255
206 227 255
206 227 255
206 227 255
206 227 255
206 227 255
206 227 255
206 227 255
206 227 255
206 227 255
206 227 255
206 227 255
206 227 255
206 227 255
206 227 255
206 227 255
206 227 255
206 227 255
207 227 255
207 227 255
207 227 255
207 227 255
207 228 255
207 228 255
207 228 255
207 228 255
207 228 255
207 228 255
207 228 255
207 228 255
207 228 255
207 228 255
207 228 255
207 228 255
207 228 255
207 228 255
208 228 255
207 228 255
207 228 255
207 228 255
207 228 255
207 228 255
207 228 255
207 228 255
207 228 255
207 228 255
207 228 255
207 228 255
207 228 255
207 228 255
207 228 255
207 228 255
207 228 255
207 227 255
207 227 255
207 227 255
207 227 255
206 227 255
206 227 255
206 227 255
206 227 255
206 227 255
206 227 255
206 227 255
206 227 255
206 227 255
206 227 255
206 227 255
206 227 255
206 227 255
206 227 255
206 227 255
206 227 255
206 227 255
206 227 255
206 227 255
205 227 255
205 227 255
205 227 255
205 227 255
205 227 255
205 227 255
205 227 255
205 227 255
205 227 255
205 227 255
205 226 255
205 226 255
205 226 255
205 226 255
205 226 255
205 226 255
205 226 255
204 226 255
204 226 255
204 226 255
204 226 255
204 226 255
204 226 255
204 226 255
204 226 255
204 226 255
204 226 255
204 226 255
204 226 255
204 226 255
204 226 255
204 226 255
204 226 255
203 226 255
203 226 255
203 226 255
203 226 255
203 226 255
203 226 255
203 226 255
203 225 255
203 225 255
203 225 255
203 225 255
203 225 255
203 225 255
203 225 255
203 225 255
202 225 255
202 225 255
202 225 255
202 225 255
202 225 255
202 225 255
202 225 255
202 225 255
202 225 255
202 225 255
202 225 255
202 225 255
202 225 255
202 225 255
202 225 255
201 225 255
201 225 255
201 225 255
201 225 255
201 224 255
201 224 255
201 224 255
201 224 255
201 224 255
201 224 255
201 224 255
201 224 255
201 224 255
201 224 255
201 224 255
200 224 255
200 224 255
200 224 255
200 224 255
200 224 255
200 224 255
200 224 255
200 224 255
200 224 255
200 224 255
200 224 255
200 224 255
200 224 255
200 224 255
200 224 255
200 224 255
199 224 255
199 224 255
199 223 255
199 223 255
199 223 255
199 223 255
199 223 255
199 223 255
199 223 255
199 223 255
199 223 255
199 223 255
199 223 255
199 223 255
199 223 255
199 223 255
199 223 255
198 223 255
198 223 255
198 223 255
198 223 255
198 223 255
198 223 255
198 223 255
198 223 255
198 223 255
198 223 255
198 223 255
198 223 255
198 223 255
198 223 255
198 223 255
198 223 255
198 223 255
198 223 255
198 223 255
198 223 255
198 223 255
198 223 255
198 223 255
198 223 255
197 223 255
197 222 255
197 222 255
197 222 255
197 222 255
197 222 255
197 222 255
197 222 255
197 222 255
197 222 255
197 222 255
197 222 255
197 222 255
197 222 255
197 222 255
197 222 255
197 222 255
197 222 255
197 222 255
197 222 255
197 222 255
197 222 255
197 222 255
197 222 255
197 222 255
197 222 255
197 222 255
197 222 255
197 222 255
197 222 255
197 222 255
197 222 255
197 222 255
197 222 255
197 222 255
197 222 255
197 222 255
197 222 255
197 222 255
197 222 255
197 222 255
197 222 255
197 222 255
197 222 255
197 222 255
197 222 255
197 222 255
197 222 255
197 222 255
197 223 255
198 223 255
198 223 255
198 223 255
198 223 255
198 223 255
198 223 255
198 223 255
198 223 255
198 223 255
198 223 255
198 223 255
198 223 255
198 223 255
198 223 255
198 223 255
198 223 255
198 223 255
198 223 255
198 223 255
198 223 255
198 223 255
198 223 255
198 223 255
198 223 255
199 223 255
199 223 255
199 223 255
199 223 255
199 223 255
199 223 255
199 223 255
199 223 255
199 223 255
199 223 255
199 223 255
199 223 255
199 223 255
199 223 255
199 223 255
199 224 255
199 224 255
199 224 255
200 224 255
200 224 255
200 224 255
200 224 255
200 224 255
200 224 255
200 224 255
200 224 255
200 224 255
200 224 255
200 224 255
200 224 255
200 224 255
200 224 255
200 224 255
201 224 255
201 224 255
201 224 255
201 224 255
201 224 255
201 224 255
201 224 255
201 224 255
201 224 255
201 224 255
201 224 255
201 225 255
201 225 255
201 225 255
201 225 255
202 225 255
202 225 255
202 225 255
202 225 255
202 225 255
202 225 255
202 225 255
202 225 255
202 225 255
202 225 255
202 225 255
202 225 255
202 225 255
202 225 255
202 225 255
203 225 255
203 225 255
203 225 255
203 225 255
203 225 255
203 225 255
203 225 255
203 225 255
203 226 255
203 226 255
203 226 255
203 226 255
203 226 255
203 226 255
203 226 255
204 226 255
204 226 255
204 226 255
204 226 255
204 226 255
204 226 255
204 226 255
204 226 255
204 226 255
204 226 255
204 226 255
204 226 255
204 226 255
204 226 255
204 226 255
204 226 255
205 226 255
205 226 255
205 226 255
205 226 255
205 226 255
205 226 255
205 226 255
205 227 255
205 227 255
205 227 255
205 227 255
205 227 255
205 227 255
205 227 255
205 227 255
205 227 255
205 227 255
206 227 255
206 227 255
206 227 255
206 227 255
206 227 255
206 227 255
206 227 255
206 227 255
206 227 255
206 227 255
206 227 255
206 227 255
206 227 255
206 227 255
206 227 255
206 227 255
206 227 255
206 227 255
206 227 255
207 227 255
207 227 255
207 227 255
207 227 255
207 227 255
207 228 255
207 228 255
207 228 255
207 228 255
207 228 255
207 228 255
207 228 255
207 228 255
207 228 255
207 228 255
207 228 255
207 228 255
207 228 255
207 228 255
207 228 255
208 228 255
208 228 255
208 228 255
208 228 255
208 228 255
207 228 255
207 228 255
207 228 255
207 228 255
207 228 255
207 228 255
207 228 255
207 228 255
207 228 255
207 228 255
207 228 255
207 228 255
207 228 255
207 228 255
207 228 255
207 227 255
207 227 255
207 227 255
207 227 255
207 227 255
206 227 255
206 227 255
206 227 255
206 227 255
206 227 255
206 227 255
206 227 255
206 227 255
206 227 255
206 227 255
206 227 255
206 227 255
206 227 255
206 227 255
206 227 255
206 227 255
206 227 255
206 227 255
205 227 255
205 227 255
205 227 255
205 227 255
205 227 255
205 227 255
205 227 255
205 227 255
205 227 255
205 227 255
205 227 255
205 226 255
205 226 255
205 226 255
205 226 255
205 226 255
205 226 255
204 226 255
204 226 255
204 226 255
204 226 255
204 226 255
204 226 255
204 226 255
204 226 255
204 226 255
204 226 255
204 226 255
204 226 255
204 226 255
204 226 255
204 226 255
204 226 255
203 226 255
203 226 255
203 226 255
203 226 255
203 226 255
203 226 255
203 226 255
203 225 255
203 225 255
203 225 255
203 225 255
203 225 255
203 225 255
203 225 255
203 225 255
202 225 255
202 225 255
202 225 255
202 225 255
202 225 255
202 225 255
202 225 255
202 225 255
202 225 255
202 225 255
202 225 255
202 225 255
202 225 255
202 225 255
202 225 255
202 225 255
201 225 255
201 225 255
201 225 255
201 225 255
201 224 255
201 224 255
201 224 255
201 224 255
201 224 255
201 224 255
201 224 255
201 224 255
201 224 255
201 224 255
201 224 255
200 224 255
200 224 255
200 224 255
200 224 255
200 224 255
200 224 255
200 224 255
200 224 255
200 224 255
200 224 255
200 224 255
200 224 255
200 224 255
200 224 255
200 224 255
199 224 255
199 224 255
199 224 255
199 223 255
199 223 255
199 223 255
199 223 255
199 223 255
199 223 255
199 223 255
199 223 255
199 223 255
199 223 255
199 223 255
199 223 255
199 223 255
199 223 255
199 223 255
199 223 255
198 223 255
198 223 255
198 223 255
198 223 255
198 223 255
198 223 255
198 223 255
198 223 255
198 223 255
198 223 255
198 223 255
198 223 255
198 223 255
198 223 255
198 223 255
198 223 255
198 223 255
198 223 255
198 223 255
198 223 255
198 223 255
198 223 255
198 223 255
198 223 255
198 223 255
198 223 255
198 223 255
198 223 255
197 223 255
197 222 255
197 222 255
197 222 255
197 222 255
197 222 255
197 222 255
197 222 255
197 222 255
197 222 255
197 222 255
197 222 255
197 222 255
197 222 255
197 222 255
197 222 255
197 222 255
197 222 255
197 222 255
197 222 255
197 222 255
197 222 255
197 222 255
197 222 255
197 222 255
197 222 255
197 222 255
197 222 255
197 222 255
197 222 255
197 222 255
197 222 255
197 222 255
197 223 255
197 223 255
198 223 255
198 223 255
198 223 255
198 223 255
198 223 255
198 223 255
198 223 255
198 223 255
198 223 255
198 223 255
198 223 255
198 223 255
198 223 255
198 223 255
198 223 255
198 223 255
198 223 255
198 223 255
198 223 255
198 223 255
198 223 255
198 223 255
198 223 255
198 223 255
198 223 255
198 223 255
198 223 255
199 223 255
199 223 255
199 223 255
199 223 255
199 223 255
199 223 255
199 223 255
199 223 255
199 223 255
199 223 255
199 223 255
199 223 255
199 223 255
199 223 255
199 223 255
199 223 255
199 224 255
199 224 255
199 224 255
200 224 255
200 224 255
200 224 255
200 224 255
200 224 255
200 224 255
200 224 255
200 224 255
200 224 255
200 224 255
200 224 255
200 224 255
200 224 255
200 224 255
200 224 255
201 224 255
201 224 255
201 224 255
201 224 255
201 224 255
201 224 255
201 224 255
201 224 255
201 224 255
201 224 255
201 224 255
201 225 255
201 225 255
201 225 255
201 225 255
202 225 255
202 225 255
202 225 255
202 225 255
202 225 255
202 225 255
202 225 255
202 225 255
202 225 255
202 225 255
202 225 255
202 225 255
202 225 255
202 225 255
202 225 255
203 225 255
203 225 255
203 225 255
203 225 255
203 225 255
203 225 255
203 225 255
203 225 255
203 225 255
203 226 255
203 226 255
203 226 255
203 226 255
203 226 255
203 226 255
203 226 255
204 226 255
204 226 255
204 226 255
204 226 255
204 226 255
204 226 255
204 226 255
204 226 255
204 226 255
204 226 255
204 226 255
204 226 255
204 226 255
204 226 255
204 226 255
204 226 255
205 226 255
205 226 255
205 226 255
205 226 255
205 226 255
205 226 255
205 227 255
205 227 255
205 227 255
205 227 255
205 227 255
205 227 255
205 227 255
205 227 255
205 227 255
205 227 255
206 227 255
206 227 255
206 227 255
206 227 255
206 227 255
206 227 255
206 227 255
206 227 255
206 227 255
206 227 255
206 227 255
206 227 255
206 227 255
206 227 255
206 227 255
206 227 255
206 227 255
206 227 255
206 227 255
207 227 255
207 227 255
207 227 255
207 227 255
207 227 255
207 228 255
207 228 255
207 228 255
207 228 255
207 228 255
207 228 255
207 228 255
207 228 255
207 228 255
207 228 255
207 228 255
207 228 255
207 228 255
207 228 255
207 228 255
208 228 255
208 228 255
208 228 255
208 228 255
208 228 255
208 228 255
208 228 255
208 228 255
208 228 255
208 228 255
208 228 255
207 228 255
207 228 255
207 228 255
207 228 255
207 228 255
207 228 255
207 228 255
207 228 255
207 228 255
207 228 255
207 228 255
207 228 255
207 228 255
207 228 255
207 228 255
207 227 255
207 227 255
207 227 255
207 227 255
207 227 255
206 227 255
206 227 255
206 227 255
206 227 255
206 227 255
206 227 255
206 227 255
206 227 255
206 227 255
206 227 255
206 227 255
206 227 255
206 227 255
206 227 255
206 227 255
206 227 255
206 227 255
206 227 255
205 227 255
205 227 255
205 227 255
205 227 255
205 227 255
205 227 255
205 227 255
205 227 255
205 227 255
205 227 255
205 226 255
205 226 255
205 226 255
205 226 255
205 226 255
205 226 255
205 226 255
204 226 255
204 226 255
204 226 255
204 226 255
204 226 255
204 226 255
204 226 255
204 226 255
204 226 255
204 226 255
204 226 255
204 226 255
204 226 255
204 226 255
204 226 255
204 226 255
203 226 255
203 226 255
203 226 255
203 226 255
203 226 255
203 226 255
203 226 255
203 225 255
203 225 255
203 225 255
203 225 255
203 225 255
203 225 255
203 225 255
203 225 255
202 225 255
202 225 255
202 225 255
202 225 255
202 225 255
202 225 255
202 225 255
202 225 255
202 225 255
202 225 255
202 225 255
202 225 255
202 225 255
202 225 255
202 225 255
201 225 255
201 225 255
201 225 255
201 225 255
201 225 255
201 224 255
201 224 255
201 224 255
201 224 255
201 224 255
201 224 255
201 224 255
201 224 255
201 224 255
201 224 255
200 224 255
200 224 255
200 224 255
200 224 255
200 224 255
200 224 255
200 224 255
200 224 255
200 224 255
200 224 255
200 224 255
200 224 255
200 224 255
200 224 255
200 224 255
200 224 255
199 224 255
199 224 255
199 224 255
199 223 255
199 223 255
199 223 255
199 223 255
199 223 255
199 223 255
199 223 255
199 223 255
199 223 255
199 223 255
199 223 255
199 223 255
199 223 255
199 223 255
199 223 255
199 223 255
199 223 255
198 223 255
198 223 255
198 223 255
198 223 255
198 223 255
198 223 255
198 223 255
198 223 255
198 223 255
198 223 255
198 223 255
198 223 255
198 223 255
198 223 255
198 223 255
198 223 255
198 223 255
198 223 255
198 223 255
198 223 255
198 223 255
198 223 255
198 223 255
198 223 255
198 223 255
198 223 255
198 223 255
198 223 255
198 223 255
198 223 255
198 223 255
198 223 255
198 223 255
198 223 255
198 223 255
198 223 255
197 223 255
198 223 255
197 223 255
197 223 255
197 223 255
197 223 255
198 223 255
198 223 255
197 223 255
198 223 255
198 223 255
198 223 255
198 223 255
198 223 255
198 223 255
198 223 255
198 223 255
198 223 255
198 223 255
198 223 255
198 223 255
198 223 255
198 223 255
198 223 255
198 223 255
198 223 255
198 223 255
198 223 255
198 223 255
198 223 255
198 223 255
198 223 255
198 223 255
198 223 255
198 223 255
198 223 255
198 223 255
198 223 255
198 223 255
198 223 255
198 223 255
198 223 255
198 223 255
198 223 255
198 223 255
198 223 255
199 223 255
199 223 255
199 223 255
199 223 255
199 223 255
199 223 255
199 223 255
199 223 255
199 223 255
199 223 255
199 223 255
199 223 255
199 223 255
199 223 255
199 223 255
199 223 255
199 223 255
199 224 255
199 224 255
200 224 255
200 224 255
200 224 255
200 224 255
200 224 255
200 224 255
200 224 255
200 224 255
200 224 255
200 224 255
200 224 255
200 224 255
200 224 255
200 224 255
200 224 255
200 224 255
200 224 255
201 224 255
201 224 255
201 224 255
201 224 255
201 224 255
201 224 255
201 224 255
201 224 255
201 224 255
201 224 255
201 225 255
201 225 255
201 225 255
201 225 255
201 225 255
202 225 255
202 225 255
202 225 255
202 225 255
202 225 255
202 225 255
202 225 255
202 225 255
202 225 255
202 225 255
202 225 255
202 225 255
202 225 255
202 225 255
202 225 255
203 225 255
203 225 255
203 225 255
203 225 255
203 225 255
203 225 255
203 225 255
203 225 255
203 226 255
203 226 255
203 226 255
203 226 255
203 226 255
203 226 255
203 226 255
204 226 255
204 226 255
204 226 255
204 226 255
204 226 255
204 226 255
204 226 255
204 226 255
204 226 255
204 226 255
204 226 255
204 226 255
204 226 255
204 226 255
204 226 255
204 226 255
205 226 255
205 226 255
205 226 255
205 226 255
205 226 255
205 226 255
205 226 255
205 227 255
205 227 255
205 227 255
205 227 255
205 227 255
205 227 255
205 227 255
205 227 255
205 227 255
205 227 255
206 227 255
206 227 255
206 227 255
206 227 255
206 227 255
206 227 255
206 227 255
206 227 255
206 227 255
206 227 255
206 227 255
206 227 255
206 227 255
206 227 255
206 227 255
206 227 255
206 227 255
206 227 255
207 227 255
207 227 255
207 227 255
207 227 255
207 227 255
207 228 255
207 228 255
207 228 255
207 228 255
207 228 255
207 228 255
207 228 255
207 228 255
207 228 255
207 228 255
207 228 255
207 228 255
207 228 255
207 228 255
207 228 255
208 228 255
208 228 255
208 228 255
208 228 255
208 228 255
208 228 255
208 228 255
208 228 255
208 228 255
208 228 255
208 228 255
208 228 255
208 228 255
208 228 255
208 228 255
208 228 255
208 228 255
207 228 255
207 228 255
207 228 255
207 228 255
207 228 255
207 228 255
207 228 255
207 228 255
207 228 255
207 228 255
207 228 255
207 228 255
207 228 255
207 228 255
207 228 255
207 227 255
207 227 255
207 227 255
207 227 255
207 227 255
206 227 255
206 227 255
206 227 255
206 227 255
206 227 255
206 227 255
206 227 255
206 227 255
206 227 255
206 227 255
206 227 255
206 227 255
206 227 255
206 227 255
206 227 255
206 227 255
206 227 255
206 227 255
205 227 255
205 227 255
205 227 255
205 227 255
205 227 255
205 227 255
205 227 255
205 227 255
205 227 255
205 227 255
205 226 255
205 226 255
205 226 255
205 226 255
205 226 255
205 226 255
205 226 255
204 226 255
204 226 255
204 226 255
204 226 255
204 226 255
204 226 255
204 226 255
204 226 255
204 226 255
204 226 255
204 226 255
204 226 255
204 226 255
204 226 255
204 226 255
204 226 255
203 226 255
203 226 255
203 226 255
203 226 255
203 226 255
203 226 255
203 225 255
203 225 255
203 225 255
203 225 255
203 225 255
203 225 255
203 225 255
203 225 255
203 225 255
202 225 255
202 225 255
202 225 255
202 225 255
202 225 255
202 225 255
202 225 255
202 225 255
202 225 255
202 225 255
202 225 255
202 225 255
202 225 255
202 225 255
202 225 255
201 225 255
201 225 255
201 225 255
201 225 255
201 224 255
201 224 255
201 224 255
201 224 255
201 224 255
201 224 255
201 224 255
201 224 255
201 224 255
201 224 255
201 224 255
200 224 255
200 224 255
200 224 255
200 224 255
200 224 255
200 224 255
200 224 255
200 224 255
200 224 255
200 224 255
200 224 255
200 224 255
200 224 255
200 224 255
200 224 255
200 224 255
200 224 255
199 224 255
199 224 255
199 224 255
199 223 255
199 223 255
199 223 255
199 223 255
199 223 255
199 223 255
199 223 255
199 223 255
199 223 255
199 223 255
199 223 255
199 223 255
199 223 255
199 223 255
199 223 255
199 223 255
199 223 255
198 223 255
198 223 255
198 223 255
198 223 255
198 223 255
198 223 255
198 223 255
198 223 255
198 223 255
198 223 255
198 223 255
198 223 255
198 223 255
198 223 255
198 223 255
198 223 255
198 223 255
198 223 255
198 223 255
198 223 255
198 223 255
198 223 255
198 223 255
198 223 255
198 223 255
198 223 255
198 223 255
198 223 255
198 223 255
198 223 255
198 223 255
198 223 255
198 223 255
198 223 255
198 223 255
198 223 255
198 223 255
198 223 255
198 223 255
198 223 255
198 223 255
198 223 255
198 223 255
198 223 255
198 223 255
198 223 255
198 223 255
198 223 255
198 223 255
198 223 255
198 223 255
198 223 255
198 223 255
198 223 255
198 223 255
198 223 255
198 223 255
198 223 255
198 223 255
198 223 255
198 223 255
198 223 255
198 223 255
198 223 255
198 223 255
198 223 255
198 223 255
198 223 255
198 223 255
198 223 255
198 223 255
198 223 255
198 223 255
198 223 255
199 223 255
199 223 255
199 223 255
199 223 255
199 223 255
199 223 255
199 223 255
199 223 255
199 223 255
199 223 255
199 223 255
199 223 255
199 223 255
199 223 255
199 223 255
199 223 255
199 223 255
199 224 255
199 224 255
199 224 255
200 224 255
200 224 255
200 224 255
200 224 255
200 224 255
200 224 255
200 224 255
200 224 255
200 224 255
200 224 255
200 224 255
200 224 255
200 224 255
200 224 255
200 224 255
200 224 255
200 224 255
201 224 255
201 224 255
201 224 255
201 224 255
201 224 255
201 224 255
201 224 255
201 224 255
201 224 255
201 224 255
201 224 255
201 225 255
201 225 255
201 225 255
201 225 255
202 225 255
202 225 255
202 225 255
202 225 255
202 225 255
202 225 255
202 225 255
202 225 255
202 225 255
202 225 255
202 225 255
202 225 255
202 225 255
202 225 255
202 225 255
203 225 255
203 225 255
203 225 255
203 225 255
203 225 255
203 225 255
203 225 255
203 225 255
203 225 255
203 226 255
203 226 255
203 226 255
203 226 255
203 226 255
203 226 255
204 226 255
204 226 255
204 226 255
204 226 255
204 226 255
204 226 255
204 226 255
204 226 255
204 226 255
204 226 255
204 226 255
204 226 255
204 226 255
204 226 255
204 226 255
204 226 255
205 226 255
205 226 255
205 226 255
205 226 255
205 226 255
205 226 255
205 226 255
205 227 255
205 227 255
205 227 255
205 227 255
205 227 255
205 227 255
205 227 255
205 227 255
205 227 255
205 227 255
206 227 255
206 227 255
206 227 255
206 227 255
206 227 255
206 227 255
206 227 255
206 227 255
206 227 255
206 227 255
206 227 255
206 227 255
206 227 255
206 227 255
206 227 255
206 227 255
206 227 255
206 227 255
207 227 255
207 227 255
207 227 255
207 227 255
207 227 255
207 228 255
207 228 255
207 228 255
207 228 255
207 228 255
207 228 255
207 228 255
207 228 255
207 228 255
207 228 255
207 228 255
207 228 255
207 228 255
207 228 255
207 228 255
208 228 255
208 228 255
208 228 255
208 228 255
208 228 255
208 228 255
208 228 255
208 228 255
208 228 255
208 228 255
208 228 255
208 228 255
208 228 255
208 228 255
208 228 255
208 228 255
208 228 255
208 228 255
208 228 255
208 228 255
208 228 255
208 228 255
208 228 255
207 228 255
207 228 255
207 228 255
207 228 255
207 228 255
207 228 255
207 228 255
207 228 255
207 228 255
207 228 255
207 228 255
207 228 255
207 228 255
207 228 255
207 228 255
207 227 255
207 227 255
207 227 255
207 227 255
207 227 255
206 227 255
206 227 255
206 227 255
206 227 255
206 227 255
206 227 255
206 227 255
206 227 255
206 227 255
206 227 255
206 227 255
206 227 255
206 227 255
206 227 255
206 227 255
206 227 255
206 227 255
206 227 255
205 227 255
205 227 255
205 227 255
205 227 255
205 227 255
205 227 255
205 227 255
205 227 255
205 227 255
205 227 255
205 226 255
205 226 255
205 226 255
205 226 255
205 226 255
205 226 255
204 226 255
204 226 255
204 226 255
204 226 255
204 226 255
204 226 255
204 226 255
204 226 255
204 226 255
204 226 255
204 226 255
204 226 255
204 226 255
204 226 255
204 226 255
204 226 255
203 226 255
203 226 255
203 226 255
203 226 255
203 226 255
203 226 255
203 226 255
203 225 255
203 225 255
203 225 255
203 225 255
203 225 255
203 225 255
203 225 255
203 225 255
202 225 255
202 225 255
202 225 255
202 225 255
202 225 255
202 225 255
202 225 255
202 225 255
202 225 255
202 225 255
202 225 255
202 225 255
202 225 255
202 225 255
202 225 255
202 225 255
201 225 255
201 225 255
201 225 255
201 225 255
201 224 255
201 224 255
201 224 255
201 224 255
201 224 255
201 224 255
201 224 255
201 224 255
201 224 255
201 224 255
201 224 255
200 224 255
200 224 255
200 224 255
200 224 255
200 224 255
200 224 255
200 224 255
200 224 255
200 224 255
200 224 255
200 224 255
200 224 255
200 224 255
200 224 255
200 224 255
200 224 255
200 224 255
199 224 255
199 224 255
199 224 255
199 223 255
199 223 255
199 223 255
199 223 255
199 223 255
199 223 255
199 223 255
199 223 255
199 223 255
199 223 255
199 223 255
199 223 255
199 223 255
199 223 255
199 223 255
199 223 255
199 223 255
199 223 255
199 223 255
198 223 255
198 223 255
198 223 255
198 223 255
198 223 255
198 223 255
198 223 255
198 223 255
198 223 255
198 223 255
198 223 255
198 223 255
198 223 255
198 223 255
198 223 255
198 223 255
198 223 255
198 223 255
198 223 255
198 223 255
198 223 255
198 223 255
198 223 255
198 223 255
198 223 255
198 223 255
198 223 255
198 223 255
198 223 255
198 223 255
198 223 255
198 223 255
198 223 255
198 223 255
198 223 255
198 223 255
198 223 255
198 223 255
198 223 255
198 223 255
198 223 255
198 223 255
198 223 255
198 223 255
198 223 255
198 223 255
198 223 255
198 223 255
198 223 255
198 223 255
198 223 255
198 223 255
198 223 255
198 223 255
198 223 255
198 223 255
198 223 255
198 223 255
198 223 255
198 223 255
198 223 255
198 223 255
198 223 255
198 223 255
199 223 255
199 223 255
199 223 255
199 223 255
199 223 255
199 223 255
199 223 255
199 223 255
199 223 255
199 223 255
199 223 255
199 223 255
199 223 255
199 223 255
199 223 255
199 223 255
199 223 255
199 223 255
199 223 255
199 224 255
199 224 255
199 224 255
200 224 255
200 224 255
200 224 255
200 224 255
200 224 255
200 224 255
200 224 255
200 224 255
200 224 255
200 224 255
200 224 255
200 224 255
200 224 255
200 224 255
200 224 255
200 224 255
200 224 255
201 224 255
201 224 255
201 224 255
201 224 255
201 224 255
201 224 255
201 224 255
201 224 255
201 224 255
201 224 255
201 224 255
201 225 255
201 225 255
201 225 255
201 225 255
202 225 255
202 225 255
202 225 255
202 225 255
202 225 255
202 225 255
202 225 255
202 225 255
202 225 255
202 225 255
202 225 255
202 225 255
202 225 255
202 225 255
202 225 255
203 225 255
203 225 255
203 225 255
203 225 255
203 225 255
203 225 255
203 225 255
203 225 255
203 225 255
203 226 255
203 226 255
203 226 255
203 226 255
203 226 255
203 226 255
203 226 255
204 226 255
204 226 255
204 226 255
204 226 255
204 226 255
204 226 255
204 226 255
204 226 255
204 226 255
204 226 255
204 226 255
204 226 255
204 226 255
204 226 255
204 226 255
204 226 255
205 226 255
205 226 255
205 226 255
205 226 255
205 226 255
205 226 255
205 227 255
205 227 255
205 227 255
205 227 255
205 227 255
205 227 255
205 227 255
205 227 255
205 227 255
205 227 255
206 227 255
206 227 255
206 227 255
206 227 255
206 227 255
206 227 255
206 227 255
206 227 255
206 227 255
206 227 255
206 227 255
206 227 255
206 227 255
206 227 255
206 227 255
206 227 255
206 227 255
206 227 255
207 227 255
207 227 255
207 227 255
207 227 255
207 227 255
207 228 255
207 228 255
207 228 255
207 228 255
207 228 255
207 228 255
207 228 255
207 228 255
207 228 255
207 228 255
207 228 255
207 228 255
207 228 255
207 228 255
207 228 255
208 228 255
208 228 255
208 228 255
208 228 255
208 228 255
208 228 255
208 228 255
208 228 255
208 228 255
208 228 255
208 228 255
208 228 255
208 228 255
208 228 255
208 228 255
208 228 255
208 228 255
208 228 255
208 228 255
208 228 255
208 228 255
208 228 255
208 228 255
208 228 255
208 228 255
208 228 255
208 228 255
208 228 255
208 228 255
207 228 255
207 228 255
207 228 255
207 228 255
207 228 255
207 228 255
207 228 255
207 228 255
207 228 255
207 228 255
207 228 255
207 228 255
207 228 255
207 228 255
207 228 255
207 227 255
207 227 255
207 227 255
207 227 255
207 227 255
206 227 255
206 227 255
206 227 255
206 227 255
206 227 255
206 227 255
206 227 255
206 227 255
206 227 255
206 227 255
206 227 255
206 227 255
206 227 255
206 227 255
206 227 255
206 227 255
206 227 255
205 227 255
205 227 255
205 227 255
205 227 255
205 227 255
205 227 255
205 227 255
205 227 255
205 227 255
205 227 255
205 227 255
205 226 255
205 226 255
205 226 255
205 226 255
205 226 255
205 226 255
204 226 255
204 226 255
204 226 255
204 226 255
204 226 255
204 226 255
204 226 255
204 226 255
204 226 255
204 226 255
204 226 255
204 226 255
204 226 255
204 226 255
204 226 255
204 226 255
203 226 255
203 226 255
203 226 255
203 226 255
203 226 255
203 226 255
203 226 255
203 225 255
203 225 255
203 225 255
203 225 255
203 225 255
203 225 255
203 225 255
203 225 255
202 225 255
202 225 255
202 225 255
202 225 255
202 225 255
202 225 255
202 225 255
202 225 255
202 225 255
202 225 255
202 225 255
202 225 255
202 225 255
202 225 255
202 225 255
201 225 255
201 225 255
201 225 255
201 225 255
201 225 255
201 224 255
201 224 255
201 224 255
201 224 255
201 224 255
201 224 255
201 224 255
201 224 255
201 224 255
201 224 255
201 224 255
200 224 255
200 224 255
200 224 255
200 224 255
200 224 255
200 224 255
200 224 255
200 224 255
200 224 255
200 224 255
200 224 255
200 224 255
200 224 255
200 224 255
200 224 255
200 224 255
200 224 255
200 224 255
199 224 255
199 224 255
199 224 255
199 223 255
199 223 255
199 223 255
199 223 255
199 223 255
199 223 255
199 223 255
199 223 255
199 223 255
199 223 255
199 223 255
199 223 255
199 223 255
199 223 255
199 223 255
199 223 255
199 223 255
199 223 255
199 223 255
199 223 255
198 223 255
198 223 255
198 223 255
198 223 255
198 223 255
198 223 255
198 223 255
198 223 255
198 223 255
198 223 255
198 223 255
198 223 255
198 223 255
198 223 255
198 223 255
198 223 255
198 223 255
198 223 255
198 223 255
198 223 255
198 223 255
198 223 255
198 223 255
198 223 255
198 223 255
198 223 255
198 223 255
198 223 255
198 223 255
198 223 255
198 223 255
198 223 255
198 223 255
198 223 255
198 223 255
198 223 255
198 223 255
198 223 255
198 223 255
198 223 255
198 223 255
198 223 255
198 223 255
198 223 255
198 223 255
198 223 255
198 223 255
198 223 255
198 223 255
198 223 255
198 223 255
198 223 255
198 223 255
198 223 255
199 223 255
199 223 255
199 223 255
199 223 255
199 223 255
199 223 255
199 223 255
199 223 255
199 223 255
199 223 255
199 223 255
199 223 255
199 223 255
199 223 255
199 223 255
199 223 255
199 223 255
199 223 255
199 223 255
199 223 255
199 224 255
199 224 255
199 224 255
200 224 255
200 224 255
200 224 255
200 224 255
200 224 255
200 224 255
200 224 255
200 224 255
200 224 255
200 224 255
200 224 255
200 224 255
200 224 255
200 224 255
200 224 255
200 224 255
200 224 255
200 224 255
201 224 255
201 224 255
201 224 255
201 224 255
201 224 255
201 224 255
201 224 255
201 224 255
201 224 255
201 224 255
201 224 255
201 225 255
201 225 255
201 225 255
201 225 255
201 225 255
202 225 255
202 225 255
202 225 255
202 225 255
202 225 255
202 225 255
202 225 255
202 225 255
202 225 255
202 225 255
202 225 255
202 225 255
202 225 255
202 225 255
202 225 255
203 225 255
203 225 255
203 225 255
203 225 255
203 225 255
203 225 255
203 225 255
203 225 255
203 226 255
203 226 255
203 226 255
203 226 255
203 226 255
203 226 255
203 226 255
204 226 255
204 226 255
204 226 255
204 226 255
204 226 255
204 226 255
204 226 255
204 226 255
204 226 255
204 226 255
204 226 255
204 226 255
204 226 255
204 226 255
204 226 255
204 226 255
205 226 255
205 226 255
205 226 255
205 226 255
205 226 255
205 226 255
205 227 255
205 227 255
205 227 255
205 227 255
205 227 255
205 227 255
205 227 255
205 227 255
205 227 255
205 227 255
206 227 255
206 227 255
206 227 255
206 227 255
206 227 255
206 227 255
206 227 255
206 227 255
206 227 255
206 227 255
206 227 255
206 227 255
206 227 255
206 227 255
206 227 255
206 227 255
206 227 255
206 227 255
207 227 255
207 227 255
207 227 255
207 227 255
207 227 255
207 228 255
207 228 255
207 228 255
207 228 255
207 228 255
207 228 255
207 228 255
207 228 255
207 228 255
207 228 255
207 228 255
207 228 255
207 228 255
207 228 255
207 228 255
208 228 255
208 228 255
208 228 255
208 228 255
208 228 255
208 228 255
208 228 255
208 228 255
208 228 255
208 228 255
208 228 255
208 228 255
208 228 255
208 228 255
208 228 255
208 228 255
208 228 255
208 228 255
208 228 255
208 228 255
208 228 255
208 228 255
208 228 255
208 228 255
208 228 255
208 228 255
208 228 255
208 228 255
208 228 255
208 228 255
208 228 255
208 228 255
208 228 255
208 228 255
208 228 255
207 228 255
207 228 255
207 228 255
207 228 255
207 228 255
207 228 255
207 228 255
207 228 255
207 228 255
207 228 255
207 228 255
207 228 255
207 228 255
207 228 255
207 228 255
207 227 255
207 227 255
207 227 255
207 227 255
207 227 255
206 227 255
206 227 255
206 227 255
206 227 255
206 227 255
206 227 255
206 227 255
206 227 255
206 227 255
206 227 255
206 227 255
206 227 255
206 227 255
206 227 255
206 227 255
206 227 255
206 227 255
205 227 255
205 227 255
205 227 255
205 227 255
205 227 255
205 227 255
205 227 255
205 227 255
205 227 255
205 227 255
205 226 255
205 226 255
205 226 255
205 226 255
205 226 255
205 226 255
205 226 255
204 226 255
204 226 255
204 226 255
204 226 255
204 226 255
204 226 255
204 226 255
204 226 255
204 226 255
204 226 255
204 226 255
204 226 255
204 226 255
204 226 255
204 226 255
204 226 255
203 226 255
203 226 255
203 226 255
203 226 255
203 226 255
203 226 255
203 225 255
203 225 255
203 225 255
203 225 255
203 225 255
203 225 255
203 225 255
203 225 255
203 225 255
202 225 255
202 225 255
202 225 255
202 225 255
202 225 255
202 225 255
202 225 255
202 225 255
202 225 255
202 225 255
202 225 255
202 225 255
202 225 255
202 225 255
202 225 255
201 225 255
201 225 255
201 225 255
201 225 255
201 225 255
201 224 255
201 224 255
201 224 255
201 224 255
201 224 255
201 224 255
201 224 255
201 224 255
201 224 255
201 224 255
201 224 255
200 224 255
200 224 255
200 224 255
200 224 255
200 224 255
200 224 255
200 224 255
200 224 255
200 224 255
200 224 255
200 224 255
200 224 255
200 224 255
200 224 255
200 224 255
200 224 255
200 224 255
200 224 255
199 224 255
199 224 255
199 224 255
199 224 255
199 223 255
199 223 255
199 223 255
199 223 255
199 223 255
199 223 255
199 223 255
199 223 255
199 223 255
199 223 255
199 223 255
199 223 255
199 223 255
199 223 255
199 223 255
199 223 255
199 223 255
199 223 255
199 223 255
199 223 255
199 223 255
199 223 255
199 223 255
198 223 255
198 223 255
198 223 255
198 223 255
198 223 255
198 223 255
198 223 255
198 223 255
198 223 255
198 223 255
198 223 255
198 223 255
198 223 255
198 223 255
198 223 255
198 223 255
198 223 255
198 223 255
198 223 255
198 223 255
198 223 255
198 223 255
198 223 255
198 223 255
198 223 255
198 223 255
198 223 255
198 223 255
198 223 255
198 223 255
198 223 255
198 223 255
198 223 255
198 223 255
198 223 255
198 223 255
198 223 255
198 223 255
198 223 255
198 223 255
199 223 255
199 223 255
199 223 255
199 223 255
199 223 255
199 223 255
199 223 255
199 223 255
199 223 255
199 223 255
199 223 255
199 223 255
199 223 255
199 223 255
199 223 255
199 223 255
199 223 255
199 223 255
199 223 255
199 223 255
199 223 255
199 223 255
199 223 255
199 224 255
199 224 255
199 224 255
199 224 255
200 224 255
200 224 255
200 224 255
200 224 255
200 224 255
200 224 255
200 224 255
200 224 255
200 224 255
200 224 255
200 224 255
200 224 255
200 224 255
200 224 255
200 224 255
200 224 255
200 224 255
200 224 255
201 224 255
201 224 255
201 224 255
201 224 255
201 224 255
201 224 255
201 224 255
201 224 255
201 224 255
201 224 255
201 224 255
201 225 255
201 225 255
201 225 255
201 225 255
201 225 255
202 225 255
202 225 255
202 225 255
202 225 255
202 225 255
202 225 255
202 225 255
202 225 255
202 225 255
202 225 255
202 225 255
202 225 255
202 225 255
202 225 255
202 225 255
203 225 255
203 225 255
203 225 255
203 225 255
203 225 255
203 225 255
203 225 255
203 225 255
203 225 255
203 226 255
203 226 255
203 226 255
203 226 255
203 226 255
203 226 255
204 226 255
204 226 255
204 226 255
204 226 255
204 226 255
204 226 255
204 226 255
204 226 255
204 226 255
204 226 255
204 226 255
204 226 255
204 226 255
204 226 255
204 226 255
204 226 255
205 226 255
205 226 255
205 226 255
205 226 255
205 226 255
205 226 255
205 226 255
205 227 255
205 227 255
205 227 255
205 227 255
205 227 255
205 227 255
205 227 255
205 227 255
205 227 255
205 227 255
206 227 255
206 227 255
206 227 255
206 227 255
206 227 255
206 227 255
206 227 255
206 227 255
206 227 255
206 227 255
206 227 255
206 227 255
206 227 255
206 227 255
206 227 255
206 227 255
206 227 255
207 227 255
207 227 255
207 227 255
207 227 255
207 227 255
207 228 255
207 228 255
207 228 255
207 228 255
207 228 255
207 228 255
207 228 255
207 228 255
207 228 255
207 228 255
207 228 255
207 228 255
207 228 255
207 228 255
207 228 255
208 228 255
208 228 255
208 228 255
208 228 255
208 228 255
208 228 255
208 228 255
208 228 255
208 228 255
208 228 255
208 228 255
208 228 255
208 228 255
208 228 255
208 228 255
208 228 255
208 228 255
208 228 255
208 228 255
209 228 255
208 228 255
208 228 255
208 228 255
208 228 255
208 228 255
208 228 255
208 228 255
208 228 255
208 228 255
208 228 255
208 228 255
208 228 255
208 228 255
208 228 255
208 228 255
208 228 255
208 228 255
208 228 255
208 228 255
208 228 255
208 228 255
207 228 255
207 228 255
207 228 255
207 228 255
207 228 255
207 228 255
207 228 255
207 228 255
207 228 255
207 228 255
207 228 255
207 228 255
207 228 255
207 228 255
207 228 255
207 227 255
207 227 255
207 227 255
207 227 255
207 227 255
206 227 255
206 227 255
206 227 255
206 227 255
206 227 255
206 227 255
206 227 255
206 227 255
206 227 255
206 227 255
206 227 255
206 227 255
206 227 255
206 227 255
206 227 255
206 227 255
206 227 255
205 227 255
205 227 255
205 227 255
205 227 255
205 227 255
205 227 255
205 227 255
205 227 255
205 227 255
205 227 255
205 226 255
205 226 255
205 226 255
205 226 255
205 226 255
205 226 255
205 226 255
204 226 255
204 226 255
204 226 255
204 226 255
204 226 255
204 226 255
204 226 255
204 226 255
204 226 255
204 226 255
204 226 255
204 226 255
204 226 255
204 226 255
204 226 255
203 226 255
203 226 255
203 226 255
203 226 255
203 226 255
203 226 255
203 226 255
203 225 255
203 225 255
203 225 255
203 225 255
203 225 255
203 225 255
203 225 255
203 225 255
203 225 255
202 225 255
202 225 255
202 225 255
202 225 255
202 225 255
202 225 255
202 225 255
202 225 255
202 225 255
202 225 255
202 225 255
202 225 255
202 225 255
202 225 255
202 225 255
201 225 255
201 225 255
201 225 255
201 225 255
201 225 255
201 224 255
201 224 255
201 224 255
201 224 255
201 224 255
201 224 255
201 224 255
201 224 255
201 224 255
201 224 255
201 224 255
200 224 255
200 224 255
200 224 255
200 224 255
200 224 255
200 224 255
200 224 255
200 224 255
200 224 255
200 224 255
200 224 255
200 224 255
200 224 255
200 224 255
200 224 255
200 224 255
200 224 255
200 224 255
200 224 255
200 224 255
199 224 255
199 224 255
199 224 255
199 223 255
199 223 255
199 223 255
199 223 255
199 223 255
199 223 255
199 223 255
199 223 255
199 223 255
199 223 255
199 223 255
199 223 255
199 223 255
199 223 255
199 223 255
199 223 255
199 223 255
199 223 255
199 223 255
199 223 255
199 223 255
199 223 255
199 223 255
199 223 255
199 223 255
199 223 255
199 223 255
199 223 255
199 223 255
198 223 255
198 223 255
198 223 255
198 223 255
198 223 255
198 223 255
198 223 255
198 223 255
198 223 255
198 223 255
198 223 255
198 223 255
198 223 255
198 223 255
198 223 255
198 223 255
198 223 255
198 223 255
198 223 255
199 223 255
199 223 255
199 223 255
199 223 255
199 223 255
199 223 255
199 223 255
199 223 255
199 223 255
199 223 255
199 223 255
199 223 255
199 223 255
199 223 255
199 223 255
199 223 255
199 223 255
199 223 255
199 223 255
199 223 255
199 223 255
199 223 255
199 223 255
199 223 255
199 223 255
199 223 255
199 223 255
199 223 255
199 223 255
199 223 255
199 224 255
199 224 255
199 224 255
199 224 255
200 224 255
200 224 255
200 224 255
200 224 255
200 224 255
200 224 255
200 224 255
200 224 255
200 224 255
200 224 255
200 224 255
200 224 255
200 224 255
200 224 255
200 224 255
200 224 255
200 224 255
200 224 255
200 224 255
201 224 255
201 224 255
201 224 255
201 224 255
201 224 255
201 224 255
201 224 255
201 224 255
201 224 255
201 224 255
201 224 255
201 225 255
201 225 255
201 225 255
201 225 255
201 225 255
202 225 255
202 225 255
202 225 255
202 225 255
202 225 255
202 225 255
202 225 255
202 225 255
202 225 255
202 225 255
202 225 255
202 225 255
202 225 255
202 225 255
202 225 255
203 225 255
203 225 255
203 225 255
203 225 255
203 225 255
203 225 255
203 225 255
203 225 255
203 225 255
203 226 255
203 226 255
203 226 255
203 226 255
203 226 255
203 226 255
203 226 255
204 226 255
204 226 255
204 226 255
204 226 255
204 226 255
204 226 255
204 226 255
204 226 255
204 226 255
204 226 255
204 226 255
204 226 255
204 226 255
204 226 255
204 226 255
205 226 255
205 226 255
205 226 255
205 226 255
205 226 255
205 226 255
205 226 255
205 227 255
205 227 255
205 227 255
205 227 255
205 227 255
205 227 255
205 227 255
205 227 255
205 227 255
205 227 255
206 227 255
206 227 255
206 227 255
206 227 255
206 227 255
206 227 255
206 227 255
206 227 255
206 227 255
206 227 255
206 227 255
206 227 255
206 227 255
206 227 255
206 227 255
206 227 255
206 227 255
207 227 255
207 227 255
207 227 255
207 227 255
207 227 255
207 228 255
207 228 255
207 228 255
207 228 255
207 228 255
207 228 255
207 228 255
207 228 255
207 228 255
207 228 255
207 228 255
207 228 255
207 228 255
207 228 255
207 228 255
208 228 255
208 228 255
208 228 255
208 228 255
208 228 255
208 228 255
208 228 255
208 228 255
208 228 255
208 228 255
208 228 255
208 228 255
208 228 255
208 228 255
208 228 255
208 228 255
208 228 255
208 228 255
208 228 255
208 228 255
208 228 255
209 228 255
209 229 255
209 229 255
209 228 255
209 228 255
208 228 255
208 228 255
208 228 255
208 228 255
208 228 255
208 228 255
208 228 255
208 228 255
208 228 255
208 228 255
208 228 255
208 228 255
208 228 255
208 228 255
208 228 255
208 228 255
208 228 255
208 228 255
208 228 255
208 228 255
208 228 255
207 228 255
207 228 255
207 228 255
207 228 255
207 228 255
207 228 255
207 228 255
207 228 255
207 228 255
207 228 255
207 228 255
207 228 255
207 228 255
207 228 255
207 228 255
207 227 255
207 227 255
207 227 255
207 227 255
207 227 255
206 227 255
206 227 255
206 227 255
206 227 255
206 227 255
206 227 255
206 227 255
206 227 255
206 227 255
206 227 255
206 227 255
206 227 255
206 227 255
206 227 255
206 227 255
206 227 255
206 227 255
205 227 255
205 227 255
205 227 255
205 227 255
205 227 255
205 227 255
205 227 255
205 227 255
205 227 255
205 227 255
205 226 255
205 226 255
205 226 255
205 226 255
205 226 255
205 226 255
205 226 255
204 226 255
204 226 255
204 226 255
204 226 255
204 226 255
204 226 255
204 226 255
204 226 255
204 226 255
204 226 255
204 226 255
204 226 255
204 226 255
204 226 255
204 226 255
203 226 255
203 226 255
203 226 255
203 226 255
203 226 255
203 226 255
203 226 255
203 225 255
203 225 255
203 225 255
203 225 255
203 225 255
203 225 255
203 225 255
203 225 255
203 225 255
202 225 255
202 225 255
202 225 255
202 225 255
202 225 255
202 225 255
202 225 255
202 225 255
202 225 255
202 225 255
202 225 255
202 225 255
202 225 255
202 225 255
202 225 255
201 225 255
201 225 255
201 225 255
201 225 255
201 225 255
201 224 255
201 224 255
201 224 255
201 224 255
201 224 255
201 224 255
201 224 255
201 224 255
201 224 255
201 224 255
201 224 255
201 224 255
200 224 255
200 224 255
200 224 255
200 224 255
200 224 255
200 224 255
200 224 255
200 224 255
200 224 255
200 224 255
200 224 255
200 224 255
200 224 255
200 224 255
200 224 255
200 224 255
200 224 255
200 224 255
200 224 255
200 224 255
199 224 255
199 224 255
199 224 255
199 224 255
199 223 255
199 223 255
199 223 255
199 223 255
199 223 255
199 223 255
199 223 255
199 223 255
199 223 255
199 223 255
199 223 255
199 223 255
199 223 255
199 223 255
199 223 255
199 223 255
199 223 255
199 223 255
199 223 255
199 223 255
199 223 255
199 223 255
199 223 255
199 223 255
199 223 255
199 223 255
199 223 255
199 223 255
199 223 255
199 223 255
199 223 255
199 223 255
199 223 255
199 223 255
199 223 255
199 223 255
199 223 255
199 223 255
199 223 255
199 223 255
199 223 255
199 223 255
199 223 255
199 223 255
199 223 255
199 223 255
199 223 255
199 223 255
199 223 255
199 223 255
199 223 255
199 223 255
199 223 255
199 223 255
199 223 255
199 223 255
199 223 255
199 223 255
199 223 255
199 223 255
199 223 255
199 223 255
199 223 255
199 223 255
199 223 255
199 223 255
199 223 255
199 223 255
199 224 255
199 224 255
199 224 255
199 224 255
200 224 255
200 224 255
200 224 255
200 224 255
200 224 255
200 224 255
200 224 255
200 224 255
200 224 255
200 224 255
200 224 255
200 224 255
200 224 255
200 224 255
200 224 255
200 224 255
200 224 255
200 224 255
200 224 255
200 224 255
201 224 255
201 224 255
201 224 255
201 224 255
201 224 255
201 224 255
201 224 255
201 224 255
201 224 255
201 224 255
201 224 255
201 224 255
201 225 255
201 225 255
201 225 255
201 225 255
201 225 255
202 225 255
202 225 255
202 225 255
202 225 255
202 225 255
202 225 255
202 225 255
202 225 255
202 225 255
202 225 255
202 225 255
202 225 255
202 225 255
202 225 255
202 225 255
203 225 255
203 225 255
203 225 255
203 225 255
203 225 255
203 225 255
203 225 255
203 225 255
203 225 255
203 226 255
203 226 255
203 226 255
203 226 255
203 226 255
203 226 255
203 226 255
204 226 255
204 226 255
204 226 255
204 226 255
204 226 255
204 226 255
204 226 255
204 226 255
204 226 255
204 226 255
204 226 255
204 226 255
204 226 255
204 226 255
204 226 255
204 226 255
205 226 255
205 226 255
205 226 255
205 226 255
205 226 255
205 226 255
205 227 255
205 227 255
205 227 255
205 227 255
205 227 255
205 227 255
205 227 255
205 227 255
205 227 255
205 227 255
206 227 255
206 227 255
206 227 255
206 227 255
206 227 255
206 227 255
206 227 255
206 227 255
206 227 255
206 227 255
206 227 255
206 227 255
206 227 255
206 227 255
206 227 255
206 227 255
206 227 255
207 227 255
207 227 255
207 227 255
207 227 255
207 227 255
207 228 255
207 228 255
207 228 255
207 228 255
207 228 255
207 228 255
207 228 255
207 228 255
207 228 255
207 228 255
207 228 255
207 228 255
207 228 255
207 228 255
207 228 255
208 228 255
208 228 255
208 228 255
208 228 255
208 228 255
208 228 255
208 228 255
208 228 255
208 228 255
208 228 255
208 228 255
208 228 255
208 228 255
208 228 255
208 228 255
208 228 255
208 228 255
208 228 255
208 228 255
208 228 255
208 228 255
209 228 255
209 228 255
209 229 255
209 229 255
209 229 255
209 229 255
209 229 255
209 229 255
209 229 255
209 229 255
209 228 255
208 228 255
208 228 255
208 228 255
208 228 255
208 228 255
208 228 255
208 228 255
208 228 255
208 228 255
208 228 255
208 228 255
208 228 255
208 228 255
208 228 255
208 228 255
208 228 255
208 228 255
208 228 255
208 228 255
208 228 255
208 228 255
207 228 255
207 228 255
207 228 255
207 228 255
207 228 255
207 228 255
207 228 255
207 228 255
207 228 255
207 228 255
207 228 255
207 228 255
207 228 255
207 228 255
207 228 255
207 227 255
207 227 255
207 227 255
207 227 255
206 227 255
206 227 255
206 227 255
206 227 255
206 227 255
206 227 255
206 227 255
206 227 255
206 227 255
206 227 255
206 227 255
206 227 255
206 227 255
206 227 255
206 227 255
206 227 255
206 227 255
206 227 255
205 227 255
205 227 255
205 227 255
205 227 255
205 227 255
205 227 255
205 227 255
205 227 255
205 227 255
205 227 255
205 226 255
205 226 255
205 226 255
205 226 255
205 226 255
205 226 255
204 226 255
204 226 255
204 226 255
204 226 255
204 226 255
204 226 255
204 226 255
204 226 255
204 226 255
204 226 255
204 226 255
204 226 255
204 226 255
204 226 255
204 226 255
204 226 255
203 226 255
203 226 255
203 226 255
203 226 255
203 226 255
203 226 255
203 226 255
203 225 255
203 225 255
203 225 255
203 225 255
203 225 255
203 225 255
203 225 255
203 225 255
203 225 255
202 225 255
202 225 255
202 225 255
202 225 255
202 225 255
202 225 255
202 225 255
202 225 255
202 225 255
202 225 255
202 225 255
202 225 255
202 225 255
202 225 255
202 225 255
201 225 255
201 225 255
201 225 255
201 225 255
201 225 255
201 224 255
201 224 255
201 224 255
201 224 255
201 224 255
201 224 255
201 224 255
201 224 255
201 224 255
201 224 255
201 224 255
201 224 255
200 224 255
200 224 255
200 224 255
200 224 255
200 224 255
200 224 255
200 224 255
200 224 255
200 224 255
200 224 255
200 224 255
200 224 255
200 224 255
200 224 255
200 224 255
200 224 255
200 224 255
200 224 255
200 224 255
200 224 255
200 224 255
200 224 255
199 224 255
199 224 255
199 224 255
199 224 255
199 223 255
199 223 255
199 223 255
199 223 255
199 223 255
199 223 255
199 223 255
199 223 255
199 223 255
199 223 255
199 223 255
199 223 255
199 223 255
199 223 255
199 223 255
199 223 255
199 223 255
199 223 255
199 223 255
199 223 255
199 223 255
199 223 255
199 223 255
199 223 255
199 223 255
199 223 255
199 223 255
199 223 255
199 223 255
199 223 255
199 223 255
199 223 255
199 223 255
199 223 255
199 223 255
199 223 255
199 223 255
199 223 255
199 223 255
199 223 255
199 223 255
199 223 255
199 223 255
199 223 255
199 223 255
199 223 255
199 223 255
199 223 255
199 223 255
199 223 255
199 223 255
199 223 255
199 223 255
199 223 255
199 223 255
199 223 255
199 223 255
199 223 255
199 224 255
199 224 255
199 224 255
199 224 255
200 224 255
200 224 255
200 224 255
200 224 255
200 224 255
200 224 255
200 224 255
200 224 255
200 224 255
200 224 255
200 224 255
200 224 255
200 224 255
200 224 255
200 224 255
200 224 255
200 224 255
200 224 255
200 224 255
200 224 255
200 224 255
200 224 255
201 224 255
201 224 255
201 224 255
201 224 255
201 224 255
201 224 255
201 224 255
201 224 255
201 224 255
201 224 255
201 224 255
201 224 255
201 225 255
201 225 255
201 225 255
201 225 255
201 225 255
202 225 255
202 225 255
202 225 255
202 225 255
202 225 255
202 225 255
202 225 255
202 225 255
202 225 255
202 225 255
202 225 255
202 225 255
202 225 255
202 225 255
202 225 255
202 225 255
203 225 255
203 225 255
203 225 255
203 225 255
203 225 255
203 225 255
203 225 255
203 225 255
203 226 255
203 226 255
203 226 255
203 226 255
203 226 255
203 226 255
203 226 255
204 226 255
204 226 255
204 226 255
204 226 255
204 226 255
204 226 255
204 226 255
204 226 255
204 226 255
204 226 255
204 226 255
204 226 255
204 226 255
204 226 255
204 226 255
204 226 255
205 226 255
205 226 255
205 226 255
205 226 255
205 226 255
205 226 255
205 227 255
205 227 255
205 227 255
205 227 255
205 227 255
205 227 255
205 227 255
205 227 255
205 227 255
205 227 255
206 227 255
206 227 255
206 227 255
206 227 255
206 227 255
206 227 255
206 227 255
206 227 255
206 227 255
206 227 255
206 227 255
206 227 255
206 227 255
206 227 255
206 227 255
206 227 255
206 227 255
207 227 255
207 227 255
207 227 255
207 227 255
207 227 255
207 228 255
207 228 255
207 228 255
207 228 255
207 228 255
207 228 255
207 228 255
207 228 255
207 228 255
207 228 255
207 228 255
207 228 255
207 228 255
207 228 255
207 228 255
208 228 255
208 228 255
208 228 255
208 228 255
208 228 255
208 228 255
208 228 255
208 228 255
208 228 255
208 228 255
208 228 255
208 228 255
208 228 255
208 228 255
208 228 255
208 228 255
208 228 255
208 228 255
208 228 255
208 228 255
208 228 255
209 228 255
209 229 255
209 229 255
209 229 255
209 229 255
209 229 255
209 229 255
209 229 255
209 229 255
209 229 255
209 229 255
209 229 255
209 229 255
209 229 255
209 229 255
209 229 255
209 228 255
209 228 255
208 228 255
208 228 255
208 228 255
208 228 255
208 228 255
208 228 255
208 228 255
208 228 255
208 228 255
208 228 255
208 228 255
208 228 255
208 228 255
208 228 255
208 228 255
208 228 255
208 228 255
208 228 255
208 228 255
208 228 255
208 228 255
207 228 255
207 228 255
207 228 255
207 228 255
207 228 255
207 228 255
207 228 255
207 228 255
207 228 255
207 228 255
207 228 255
207 228 255
207 228 255
207 228 255
207 227 255
207 227 255
207 227 255
207 227 255
206 227 255
206 227 255
206 227 255
206 227 255
206 227 255
206 227 255
206 227 255
206 227 255
206 227 255
206 227 255
206 227 255
206 227 255
206 227 255
206 227 255
206 227 255
206 227 255
206 227 255
206 227 255
205 227 255
205 227 255
205 227 255
205 227 255
205 227 255
205 227 255
205 227 255
205 227 255
205 227 255
205 227 255
205 226 255
205 226 255
205 226 255
205 226 255
205 226 255
205 226 255
204 226 255
204 226 255
204 226 255
204 226 255
204 226 255
204 226 255
204 226 255
204 226 255
204 226 255
204 226 255
204 226 255
204 226 255
204 226 255
204 226 255
204 226 255
204 226 255
203 226 255
203 226 255
203 226 255
203 226 255
203 226 255
203 226 255
203 226 255
203 225 255
203 225 255
203 225 255
203 225 255
203 225 255
203 225 255
203 225 255
203 225 255
202 225 255
202 225 255
202 225 255
202 225 255
202 225 255
202 225 255
202 225 255
202 225 255
202 225 255
202 225 255
202 225 255
202 225 255
202 225 255
202 225 255
202 225 255
202 225 255
201 225 255
201 225 255
201 225 255
201 225 255
201 225 255
201 224 255
201 224 255
201 224 255
201 224 255
201 224 255
201 224 255
201 224 255
201 224 255
201 224 255
201 224 255
201 224 255
201 224 255
201 224 255
200 224 255
200 224 255
200 224 255
200 224 255
200 224 255
200 224 255
200 224 255
200 224 255
200 224 255
200 224 255
200 224 255
200 224 255
200 224 255
200 224 255
200 224 255
200 224 255
200 224 255
200 224 255
200 224 255
200 224 255
200 224 255
200 224 255
200 224 255
199 224 255
199 224 255
199 224 255
199 224 255
199 224 255
199 224 255
199 223 255
199 223 255
199 223 255
199 223 255
199 223 255
199 223 255
199 223 255
199 223 255
199 223 255
199 223 255
199 223 255
199 223 255
199 223 255
199 223 255
199 223 255
199 223 255
199 223 255
199 223 255
199 223 255
199 223 255
199 223 255
199 223 255
199 223 255
199 223 255
199 223 255
199 223 255
199 223 255
199 223 255
199 223 255
199 223 255
199 223 255
199 223 255
199 223 255
199 223 255
199 223 255
199 223 255
199 223 255
199 223 255
199 223 255
199 223 255
199 223 255
199 223 255
199 223 255
199 223 255
199 224 255
199 224 255
199 224 255
199 224 255
199 224 255
200 224 255
200 224 255
200 224 255
200 224 255
200 224 255
200 224 255
200 224 255
200 224 255
200 224 255
200 224 255
200 224 255
200 224 255
200 224 255
200 224 255
200 224 255
200 224 255
200 224 255
200 224 255
200 224 255
200 224 255
200 224 255
200 224 255
200 224 255
200 224 255
201 224 255
201 224 255
201 224 255
201 224 255
201 224 255
201 224 255
201 224 255
201 224 255
201 224 255
201 224 255
201 224 255
201 224 255
201 225 255
201 225 255
201 225 255
201 225 255
201 225 255
202 225 255
202 225 255
202 225 255
202 225 255
202 225 255
202 225 255
202 225 255
202 225 255
202 225 255
202 225 255
202 225 255
202 225 255
202 225 255
202 225 255
202 225 255
202 225 255
202 225 255
203 225 255
203 225 255
203 225 255
203 225 255
203 225 255
203 225 255
203 225 255
203 225 255
203 226 255
203 226 255
203 226 255
203 226 255
203 226 255
203 226 255
203 226 255
204 226 255
204 226 255
204 226 255
204 226 255
204 226 255
204 226 255
204 226 255
204 226 255
204 226 255
204 226 255
204 226 255
204 226 255
204 226 255
204 226 255
204 226 255
204 226 255
205 226 255
205 226 255
205 226 255
205 226 255
205 226 255
205 226 255
205 227 255
205 227 255
205 227 255
205 227 255
205 227 255
205 227 255
205 227 255
205 227 255
205 227 255
205 227 255
206 227 255
206 227 255
206 227 255
206 227 255
206 227 255
206 227 255
206 227 255
206 227 255
206 227 255
206 227 255
206 227 255
206 227 255
206 227 255
206 227 255
206 227 255
206 227 255
206 227 255
206 227 255
207 227 255
207 227 255
207 227 255
207 227 255
207 228 255
207 228 255
207 228 255
207 228 255
207 228 255
207 228 255
207 228 255
207 228 255
207 228 255
207 228 255
207 228 255
207 228 255
207 228 255
207 228 255
208 228 255
208 228 255
208 228 255
208 228 255
208 228 255
208 228 255
208 228 255
208 228 255
208 228 255
208 228 255
208 228 255
208 228 255
208 228 255
208 228 255
208 228 255
208 228 255
208 228 255
208 228 255
208 228 255
208 228 255
208 228 255
209 228 255
209 228 255
209 229 255
209 229 255
209 229 255
209 229 255
209 229 255
209 229 255
209 229 255
209 229 255
209 229 255
209 229 255
209 229 255
209 229 255
209 229 255
209 229 255
209 229 255
209 229 255
209 229 255
209 229 255
209 229 255
209 229 255
209 229 255
209 228 255
209 228 255
208 228 255
208 228 255
208 228 255
208 228 255
208 228 255
208 228 255
208 228 255
208 228 255
208 228 255
208 228 255
208 228 255
208 228 255
208 228 255
208 228 255
208 228 255
208 228 255
208 228 255
208 228 255
208 228 255
208 228 255
208 228 255
207 228 255
207 228 255
207 228 255
207 228 255
207 228 255
207 228 255
207 228 255
207 228 255
207 228 255
207 228 255
207 228 255
207 228 255
207 228 255
207 228 255
207 227 255
207 227 255
207 227 255
207 227 255
207 227 255
206 227 255
206 227 255
206 227 255
206 227 255
206 227 255
206 227 255
206 227 255
206 227 255
206 227 255
206 227 255
206 227 255
206 227 255
206 227 255
206 227 255
206 227 255
206 227 255
206 227 255
205 227 255
205 227 255
205 227 255
205 227 255
205 227 255
205 227 255
205 227 255
205 227 255
205 227 255
205 227 255
205 226 255
205 226 255
205 226 255
205 226 255
205 226 255
205 226 255
204 226 255
204 226 255
204 226 255
204 226 255
204 226 255
204 226 255
204 226 255
204 226 255
204 226 255
204 226 255
204 226 255
204 226 255
204 226 255
204 226 255
204 226 255
204 226 255
203 226 255
203 226 255
203 226 255
203 226 255
203 226 255
203 226 255
203 226 255
203 225 255
203 225 255
203 225 255
203 225 255
203 225 255
203 225 255
203 225 255
203 225 255
202 225 255
202 225 255
202 225 255
202 225 255
202 225 255
202 225 255
202 225 255
202 225 255
202 225 255
202 225 255
202 225 255
202 225 255
202 225 255
202 225 255
202 225 255
202 225 255
202 225 255
201 225 255
201 225 255
201 225 255
201 225 255
201 225 255
201 224 255
201 224 255
201 224 255
201 224 255
201 224 255
201 224 255
201 224 255
201 224 255
201 224 255
201 224 255
201 224 255
201 224 255
201 224 255
200 224 255
200 224 255
200 224 255
200 224 255
200 224 255
200 224 255
200 224 255
200 224 255
200 224 255
200 224 255
200 224 255
200 224 255
200 224 255
200 224 255
200 224 255
200 224 255
200 224 255
200 224 255
200 224 255
200 224 255
200 224 255
200 224 255
200 224 255
200 224 255
200 224 255
200 224 255
200 224 255
199 224 255
199 224 255
199 224 255
199 224 255
199 224 255
199 224 255
199 224 255
199 224 255
199 223 255
199 223 255
199 223 255
199 223 255
199 223 255
199 223 255
199 223 255
199 223 255
199 223 255
199 223 255
199 223 255
199 223 255
199 223 255
199 223 255
199 223 255
199 223 255
199 223 255
199 223 255
199 223 255
199 223 255
199 223 255
199 223 255
199 223 255
199 223 255
199 224 255
199 224 255
199 224 255
199 224 255
199 224 255
199 224 255
199 224 255
199 224 255
200 224 255
200 224 255
200 224 255
200 224 255
200 224 255
200 224 255
200 224 255
200 224 255
200 224 255
200 224 255
200 224 255
200 224 255
200 224 255
200 224 255
200 224 255
200 224 255
200 224 255
200 224 255
200 224 255
200 224 255
200 224 255
200 224 255
200 224 255
200 224 255
200 224 255
200 224 255
200 224 255
201 224 255
201 224 255
201 224 255
201 224 255
201 224 255
201 224 255
201 224 255
201 224 255
201 224 255
201 224 255
201 224 255
201 224 255
201 224 255
201 225 255
201 225 255
201 225 255
201 225 255
201 225 255
202 225 255
202 225 255
202 225 255
202 225 255
202 225 255
202 225 255
202 225 255
202 225 255
202 225 255
202 225 255
202 225 255
202 225 255
202 225 255
202 225 255
202 225 255
202 225 255
202 225 255
203 225 255
203 225 255
203 225 255
203 225 255
203 225 255
203 225 255
203 225 255
203 225 255
203 226 255
203 226 255
203 226 255
203 226 255
203 226 255
203 226 255
203 226 255
204 226 255
204 226 255
204 226 255
204 226 255
204 226 255
204 226 255
204 226 255
204 226 255
204 226 255
204 226 255
204 226 255
204 226 255
204 226 255
204 226 255
204 226 255
204 226 255
205 226 255
205 226 255
205 226 255
205 226 255
205 226 255
205 226 255
205 227 255
205 227 255
205 227 255
205 227 255
205 227 255
205 227 255
205 227 255
205 227 255
205 227 255
205 227 255
206 227 255
206 227 255
206 227 255
206 227 255
206 227 255
206 227 255
206 227 255
206 227 255
206 227 255
206 227 255
206 227 255
206 227 255
206 227 255
206 227 255
206 227 255
206 227 255
206 227 255
207 227 255
207 227 255
207 227 255
207 227 255
207 227 255
207 228 255
207 228 255
207 228 255
207 228 255
207 228 255
207 228 255
207 228 255
207 228 255
207 228 255
207 228 255
207 228 255
207 228 255
207 228 255
207 228 255
208 228 255
208 228 255
208 228 255
208 228 255
208 228 255
208 228 255
208 228 255
208 228 255
208 228 255
208 228 255
208 228 255
208 228 255
208 228 255
208 228 255
208 228 255
208 228 255
208 228 255
208 228 255
208 228 255
208 228 255
208 228 255
209 228 255
209 228 255
209 229 255
209 229 255
209 229 255
209 229 255
209 229 255
209 229 255
209 229 255
209 229 255
209 229 255
209 229 255
209 229 255
209 229 255
209 229 255
209 229 255
209 229 255
209 229 255
209 229 255
209 229 255
209 229 255
209 229 255
209 229 255
209 229 255
209 229 255
209 229 255
209 229 255
209 229 255
209 229 255
209 229 255
209 228 255
208 228 255
208 228 255
208 228 255
208 228 255
208 228 255
208 228 255
208 228 255
208 228 255
208 228 255
208 228 255
208 228 255
208 228 255
208 228 255
208 228 255
208 228 255
208 228 255
208 228 255
208 228 255
208 228 255
208 228 255
208 228 255
207 228 255
207 228 255
207 228 255
207 228 255
207 228 255
207 228 255
207 228 255
207 228 255
207 228 255
207 228 255
207 228 255
207 228 255
207 228 255
207 228 255
207 227 255
207 227 255
207 227 255
207 227 255
206 227 255
206 227 255
206 227 255
206 227 255
206 227 255
206 227 255
206 227 255
206 227 255
206 227 255
206 227 255
206 227 255
206 227 255
206 227 255
206 227 255
206 227 255
206 227 255
206 227 255
206 227 255
205 227 255
205 227 255
205 227 255
205 227 255
205 227 255
205 227 255
205 227 255
205 227 255
205 227 255
205 226 255
205 226 255
205 226 255
205 226 255
205 226 255
205 226 255
205 226 255
204 226 255
204 226 255
204 226 255
204 226 255
204 226 255
204 226 255
204 226 255
204 226 255
204 226 255
204 226 255
204 226 255
204 226 255
204 226 255
204 226 255
204 226 255
204 226 255
203 226 255
203 226 255
203 226 255
203 226 255
203 226 255
203 226 255
203 226 255
203 225 255
203 225 255
203 225 255
203 225 255
203 225 255
203 225 255
203 225 255
203 225 255
203 225 255
202 225 255
202 225 255
202 225 255
202 225 255
202 225 255
202 225 255
202 225 255
202 225 255
202 225 255
202 225 255
202 225 255
202 225 255
202 225 255
202 225 255
202 225 255
202 225 255
201 225 255
201 225 255
201 225 255
201 225 255
201 225 255
201 225 255
201 224 255
201 224 255
201 224 255
201 224 255
201 224 255
201 224 255
201 224 255
201 224 255
201 224 255
201 224 255
201 224 255
201 224 255
201 224 255
200 224 255
200 224 255
200 224 255
200 224 255
200 224 255
200 224 255
200 224 255
200 224 255
200 224 255
200 224 255
200 224 255
200 224 255
200 224 255
200 224 255
200 224 255
200 224 255
200 224 255
200 224 255
200 224 255
200 224 255
200 224 255
200 224 255
200 224 255
200 224 255
200 224 255
200 224 255
200 224 255
200 224 255
200 224 255
200 224 255
200 224 255
200 224 255
200 224 255
200 224 255
199 224 255
199 224 255
199 224 255
199 224 255
199 224 255
199 224 255
199 224 255
199 224 255
199 224 255
199 224 255
199 224 255
199 224 255
199 224 255
199 224 255
199 224 255
199 224 255
199 224 255
199 224 255
200 224 255
200 224 255
200 224 255
200 224 255
200 224 255
200 224 255
200 224 255
200 224 255
200 224 255
200 224 255
200 224 255
200 224 255
200 224 255
200 224 255
200 224 255
200 224 255
200 224 255
200 224 255
200 224 255
200 224 255
200 224 255
200 224 255
200 224 255
200 224 255
200 224 255
200 224 255
200 224 255
200 224 255
200 224 255
200 224 255
200 224 255
200 224 255
200 224 255
200 224 255
201 224 255
201 224 255
201 224 255
201 224 255
201 224 255
201 224 255
201 224 255
201 224 255
201 224 255
201 224 255
201 224 255
201 224 255
201 224 255
201 224 255
201 225 255
201 225 255
201 225 255
201 225 255
201 225 255
202 225 255
202 225 255
202 225 255
202 225 255
202 225 255
202 225 255
202 225 255
202 225 255
202 225 255
202 225 255
202 225 255
202 225 255
202 225 255
202 225 255
202 225 255
202 225 255
203 225 255
203 225 255
203 225 255
203 225 255
203 225 255
203 225 255
203 225 255
203 225 255
203 225 255
203 226 255
203 226 255
203 226 255
203 226 255
203 226 255
203 226 255
203 226 255
204 226 255
204 226 255
204 226 255
204 226 255
204 226 255
204 226 255
204 226 255
204 226 255
204 226 255
204 226 255
204 226 255
204 226 255
204 226 255
204 226 255
204 226 255
204 226 255
205 226 255
205 226 255
205 226 255
205 226 255
205 226 255
205 226 255
205 227 255
205 227 255
205 227 255
205 227 255
205 227 255
205 227 255
205 227 255
205 227 255
205 227 255
205 227 255
206 227 255
206 227 255
206 227 255
206 227 255
206 227 255
206 227 255
206 227 255
206 227 255
206 227 255
206 227 255
206 227 255
206 227 255
206 227 255
206 227 255
206 227 255
206 227 255
206 227 255
206 227 255
207 227 255
207 227 255
207 227 255
207 227 255
207 228 255
207 228 255
207 228 255
207 228 255
207 228 255
207 228 255
207 228 255
207 228 255
207 228 255
207 228 255
207 228 255
207 228 255
207 228 255
207 228 255
208 228 255
208 228 255
208 228 255
208 228 255
208 228 255
208 228 255
208 228 255
208 228 255
208 228 255
208 228 255
208 228 255
208 228 255
208 228 255
208 228 255
208 228 255
208 228 255
208 228 255
208 228 255
208 228 255
208 228 255
208 228 255
209 228 255
209 229 255
209 229 255
209 229 255
209 229 255
209 229 255
209 229 255
209 229 255
209 229 255
209 229 255
209 229 255
209 229 255
209 229 255
209 229 255
209 229 255
209 229 255
209 229 255
209 229 255
209 229 255
209 229 255
209 229 255
209 229 255
209 229 255
209 229 255
209 229 255
209 229 255
209 229 255
209 229 255
209 229 255
209 229 255
209 229 255
209 229 255
209 229 255
209 229 255
209 229 255
209 229 255
209 228 255
209 228 255
208 228 255
208 228 255
208 228 255
208 228 255
208 228 255
208 228 255
208 228 255
208 228 255
208 228 255
208 228 255
208 228 255
208 228 255
208 228 255
208 228 255
208 228 255
208 228 255
208 228 255
208 228 255
208 228 255
208 228 255
207 228 255
207 228 255
207 228 255
207 228 255
207 228 255
207 228 255
207 228 255
207 228 255
207 228 255
207 228 255
207 228 255
207 228 255
207 228 255
207 228 255
207 227 255
207 227 255
207 227 255
207 227 255
206 227 255
206 227 255
206 227 255
206 227 255
206 227 255
206 227 255
206 227 255
206 227 255
206 227 255
206 227 255
206 227 255
206 227 255
206 227 255
206 227 255
206 227 255
206 227 255
206 227 255
206 227 255
205 227 255
205 227 255
205 227 255
205 227 255
205 227 255
205 227 255
205 227 255
205 227 255
205 227 255
205 227 255
205 226 255
205 226 255
205 226 255
205 226 255
205 226 255
205 226 255
204 226 255
204 226 255
204 226 255
204 226 255
204 226 255
204 226 255
204 226 255
204 226 255
204 226 255
204 226 255
204 226 255
204 226 255
204 226 255
204 226 255
204 226 255
204 226 255
203 226 255
203 226 255
203 226 255
203 226 255
203 226 255
203 226 255
203 226 255
203 225 255
203 225 255
203 225 255
203 225 255
203 225 255
203 225 255
203 225 255
203 225 255
203 225 255
202 225 255
202 225 255
202 225 255
202 225 255
202 225 255
202 225 255
202 225 255
202 225 255
202 225 255
202 225 255
202 225 255
202 225 255
202 225 255
202 225 255
202 225 255
202 225 255
202 225 255
201 225 255
201 225 255
201 225 255
201 225 255
201 225 255
201 224 255
201 224 255
201 224 255
201 224 255
201 224 255
201 224 255
201 224 255
201 224 255
201 224 255
201 224 255
201 224 255
201 224 255
201 224 255
201 224 255
201 224 255
200 224 255
200 224 255
200 224 255
200 224 255
200 224 255
200 224 255
200 224 255
200 224 255
200 224 255
200 224 255
200 224 255
200 224 255
200 224 255
200 224 255
200 224 255
200 224 255
200 224 255
200 224 255
200 224 255
200 224 255
200 224 255
200 224 255
200 224 255
200 224 255
200 224 255
200 224 255
200 224 255
200 224 255
200 224 255
200 224 255
200 224 255
200 224 255
200 224 255
200 224 255
200 224 255
200 224 255
200 224 255
200 224 255
200 224 255
200 224 255
200 224 255
200 224 255
200 224 255
200 224 255
200 224 255
200 224 255
200 224 255
200 224 255
200 224 255
200 224 255
200 224 255
200 224 255
200 224 255
200 224 255
200 224 255
200 224 255
200 224 255
200 224 255
200 224 255
200 224 255
200 224 255
200 224 255
200 224 255
200 224 255
200 224 255
200 224 255
200 224 255
200 224 255
200 224 255
200 224 255
200 224 255
200 224 255
200 224 255
200 224 255
200 224 255
200 224 255
201 224 255
201 224 255
201 224 255
201 224 255
201 224 255
201 224 255
201 224 255
201 224 255
201 224 255
201 224 255
201 224 255
201 224 255
201 224 255
201 224 255
201 224 255
201 225 255
201 225 255
201 225 255
201 225 255
201 225 255
202 225 255
202 225 255
202 225 255
202 225 255
202 225 255
202 225 255
202 225 255
202 225 255
202 225 255
202 225 255
202 225 255
202 225 255
202 225 255
202 225 255
202 225 255
202 225 255
202 225 255
203 225 255
203 225 255
203 225 255
203 225 255
203 225 255
203 225 255
203 225 255
203 225 255
203 225 255
203 226 255
203 226 255
203 226 255
203 226 255
203 226 255
203 226 255
203 226 255
204 226 255
204 226 255
204 226 255
204 226 255
204 226 255
204 226 255
204 226 255
204 226 255
204 226 255
204 226 255
204 226 255
204 226 255
204 226 255
204 226 255
204 226 255
204 226 255
205 226 255
205 226 255
205 226 255
205 226 255
205 226 255
205 226 255
205 226 255
205 227 255
205 227 255
205 227 255
205 227 255
205 227 255
205 227 255
205 227 255
205 227 255
205 227 255
206 227 255
206 227 255
206 227 255
206 227 255
206 227 255
206 227 255
206 227 255
206 227 255
206 227 255
206 227 255
206 227 255
206 227 255
206 227 255
206 227 255
206 227 255
206 227 255
206 227 255
206 227 255
207 227 255
207 227 255
207 227 255
207 227 255
207 228 255
207 228 255
207 228 255
207 228 255
207 228 255
207 228 255
207 228 255
207 228 255
207 228 255
207 228 255
207 228 255
207 228 255
207 228 255
207 228 255
208 228 255
208 228 255
208 228 255
208 228 255
208 228 255
208 228 255
208 228 255
208 228 255
208 228 255
208 228 255
208 228 255
208 228 255
208 228 255
208 228 255
208 228 255
208 228 255
208 228 255
208 228 255
208 228 255
208 228 255
209 228 255
209 228 255
209 229 255
209 229 255
209 229 255
209 229 255
209 229 255
209 229 255
209 229 255
209 229 255
209 229 255
209 229 255
209 229 255
209 229 255
209 229 255
209 229 255
209 229 255
209 229 255
209 229 255
209 229 255
209 229 255
210 229 255
209 229 255
209 229 255
209 229 255
209 229 255
209 229 255
209 229 255
209 229 255
209 229 255
209 229 255
209 229 255
209 229 255
209 229 255
209 229 255
209 229 255
209 229 255
209 229 255
209 229 255
209 229 255
209 229 255
209 229 255
209 229 255
209 229 255
209 228 255
208 228 255
208 228 255
208 228 255
208 228 255
208 228 255
208 228 255
208 228 255
208 228 255
208 228 255
208 228 255
208 228 255
208 228 255
208 228 255
208 228 255
208 228 255
208 228 255
208 228 255
208 228 255
208 228 255
208 228 255
207 228 255
207 228 255
207 228 255
207 228 255
207 228 255
207 228 255
207 228 255
207 228 255
207 228 255
207 228 255
207 228 255
207 228 255
207 228 255
207 228 255
207 227 255
207 227 255
207 227 255
207 227 255
207 227 255
206 227 255
206 227 255
206 227 255
206 227 255
206 227 255
206 227 255
206 227 255
206 227 255
206 227 255
206 227 255
206 227 255
206 227 255
206 227 255
206 227 255
206 227 255
206 227 255
206 227 255
205 227 255
205 227 255
205 227 255
205 227 255
205 227 255
205 227 255
205 227 255
205 227 255
205 227 255
205 227 255
205 226 255
205 226 255
205 226 255
205 226 255
205 226 255
205 226 255
204 226 255
204 226 255
204 226 255
204 226 255
204 226 255
204 226 255
204 226 255
204 226 255
204 226 255
204 226 255
204 226 255
204 226 255
204 226 255
204 226 255
204 226 255
204 226 255
203 226 255
203 226 255
203 226 255
203 226 255
203 226 255
203 226 255
203 226 255
203 225 255
203 225 255
203 225 255
203 225 255
203 225 255
203 225 255
203 225 255
203 225 255
203 225 255
202 225 255
202 225 255
202 225 255
202 225 255
202 225 255
202 225 255
202 225 255
202 225 255
202 225 255
202 225 255
202 225 255
202 225 255
202 225 255
202 225 255
202 225 255
202 225 255
202 225 255
202 225 255
201 225 255
201 225 255
201 225 255
201 225 255
201 225 255
201 224 255
201 224 255
201 224 255
201 224 255
201 224 255
201 224 255
201 224 255
201 224 255
201 224 255
201 224 255
201 224 255
201 224 255
201 224 255
201 224 255
201 224 255
201 224 255
200 224 255
200 224 255
200 224 255
200 224 255
200 224 255
200 224 255
200 224 255
200 224 255
200 224 255
200 224 255
200 224 255
200 224 255
200 224 255
200 224 255
200 224 255
200 224 255
200 224 255
200 224 255
200 224 255
200 224 255
200 224 255
200 224 255
200 224 255
200 224 255
200 224 255
200 224 255
200 224 255
200 224 255
200 224 255
200 224 255
200 224 255
200 224 255
200 224 255
200 224 255
200 224 255
200 224 255
200 224 255
200 224 255
200 224 255
200 224 255
200 224 255
200 224 255
200 224 255
200 224 255
200 224 255
200 224 255
200 224 255
200 224 255
200 224 255
200 224 255
200 224 255
200 224 255
200 224 255
200 224 255
200 224 255
200 224 255
200 224 255
200 224 255
200 224 255
200 224 255
200 224 255
200 224 255
200 224 255
200 224 255
200 224 255
200 224 255
201 224 255
201 224 255
201 224 255
201 224 255
201 224 255
201 224 255
201 224 255
201 224 255
201 224 255
201 224 255
201 224 255
201 224 255
201 224 255
201 224 255
201 224 255
201 224 255
201 225 255
201 225 255
201 225 255
201 225 255
201 225 255
202 225 255
202 225 255
202 225 255
202 225 255
202 225 255
202 225 255
202 225 255
202 225 255
202 225 255
202 225 255
202 225 255
202 225 255
202 225 255
202 225 255
202 225 255
202 225 255
202 225 255
202 225 255
203 225 255
203 225 255
203 225 255
203 225 255
203 225 255
203 225 255
203 225 255
203 225 255
203 225 255
203 226 255
203 226 255
203 226 255
203 226 255
203 226 255
203 226 255
203 226 255
204 226 255
204 226 255
204 226 255
204 226 255
204 226 255
204 226 255
204 226 255
204 226 255
204 226 255
204 226 255
204 226 255
204 226 255
204 226 255
204 226 255
204 226 255
204 226 255
205 226 255
205 226 255
205 226 255
205 226 255
205 226 255
205 226 255
205 226 255
205 227 255
205 227 255
205 227 255
205 227 255
205 227 255
205 227 255
205 227 255
205 227 255
205 227 255
206 227 255
206 227 255
206 227 255
206 227 255
206 227 255
206 227 255
206 227 255
206 227 255
206 227 255
206 227 255
206 227 255
206 227 255
206 227 255
206 227 255
206 227 255
206 227 255
206 227 255
207 227 255
207 227 255
207 227 255
207 227 255
207 227 255
207 228 255
207 228 255
207 228 255
207 228 255
207 228 255
207 228 255
207 228 255
207 228 255
207 228 255
207 228 255
207 228 255
207 228 255
207 228 255
207 228 255
208 228 255
208 228 255
208 228 255
208 228 255
208 228 255
208 228 255
208 228 255
208 228 255
208 228 255
208 228 255
208 228 255
208 228 255
208 228 255
208 228 255
208 228 255
208 228 255
208 228 255
208 228 255
208 228 255
208 228 255
209 228 255
209 228 255
209 229 255
209 229 255
209 229 255
209 229 255
209 229 255
209 229 255
209 229 255
209 229 255
209 229 255
209 229 255
209 229 255
209 229 255
209 229 255
209 229 255
209 229 255
209 229 255
209 229 255
209 229 255
209 229 255
209 229 255
209 229 255
210 229 255
210 229 255
210 229 255
210 229 255
210 229 255
210 229 255
209 229 255
209 229 255
209 229 255
209 229 255
209 229 255
209 229 255
209 229 255
209 229 255
209 229 255
209 229 255
209 229 255
209 229 255
209 229 255
209 229 255
209 229 255
209 229 255
209 229 255
209 229 255
209 229 255
209 229 255
209 229 255
209 228 255
208 228 255
208 228 255
208 228 255
208 228 255
208 228 255
208 228 255
208 228 255
208 228 255
208 228 255
208 228 255
208 228 255
208 228 255
208 228 255
208 228 255
208 228 255
208 228 255
208 228 255
208 228 255
208 228 255
208 228 255
207 228 255
207 228 255
207 228 255
207 228 255
207 228 255
207 228 255
207 228 255
207 228 255
207 228 255
207 228 255
207 228 255
207 228 255
207 228 255
207 228 255
207 227 255
207 227 255
207 227 255
207 227 255
207 227 255
206 227 255
206 227 255
206 227 255
206 227 255
206 227 255
206 227 255
206 227 255
206 227 255
206 227 255
206 227 255
206 227 255
206 227 255
206 227 255
206 227 255
206 227 255
206 227 255
206 227 255
205 227 255
205 227 255
205 227 255
205 227 255
205 227 255
205 227 255
205 227 255
205 227 255
205 227 255
205 227 255
205 226 255
205 226 255
205 226 255
205 226 255
205 226 255
205 226 255
204 226 255
204 226 255
204 226 255
204 226 255
204 226 255
204 226 255
204 226 255
204 226 255
204 226 255
204 226 255
204 226 255
204 226 255
204 226 255
204 226 255
204 226 255
204 226 255
203 226 255
203 226 255
203 226 255
203 226 255
203 226 255
203 226 255
203 226 255
203 225 255
203 225 255
203 225 255
203 225 255
203 225 255
203 225 255
203 225 255
203 225 255
203 225 255
203 225 255
202 225 255
202 225 255
202 225 255
202 225 255
202 225 255
202 225 255
202 225 255
202 225 255
202 225 255
202 225 255
202 225 255
202 225 255
202 225 255
202 225 255
202 225 255
202 225 255
202 225 255
201 225 255
201 225 255
201 225 255
201 225 255
201 225 255
201 225 255
201 225 255
201 224 255
201 224 255
201 224 255
201 224 255
201 224 255
201 224 255
201 224 255
201 224 255
201 224 255
201 224 255
201 224 255
201 224 255
201 224 255
201 224 255
201 224 255
201 224 255
201 224 255
200 224 255
200 224 255
200 224 255
200 224 255
200 224 255
200 224 255
200 224 255
200 224 255
200 224 255
200 224 255
200 224 255
200 224 255
200 224 255
200 224 255
200 224 255
200 224 255
200 224 255
200 224 255
200 224 255
200 224 255
200 224 255
200 224 255
200 224 255
200 224 255
200 224 255
200 224 255
200 224 255
200 224 255
200 224 255
200 224 255
200 224 255
200 224 255
200 224 255
200 224 255
200 224 255
200 224 255
200 224 255
200 224 255
200 224 255
200 224 255
200 224 255
200 224 255
200 224 255
200 224 255
200 224 255
200 224 255
200 224 255
200 224 255
200 224 255
200 224 255
200 224 255
200 224 255
200 224 255
200 224 255
201 224 255
201 224 255
201 224 255
201 224 255
201 224 255
201 224 255
201 224 255
201 224 255
201 224 255
201 224 255
201 224 255
201 224 255
201 224 255
201 224 255
201 224 255
201 224 255
201 224 255
201 225 255
201 225 255
201 225 255
201 225 255
201 225 255
201 225 255
201 225 255
202 225 255
202 225 255
202 225 255
202 225 255
202 225 255
202 225 255
202 225 255
202 225 255
202 225 255
202 225 255
202 225 255
202 225 255
202 225 255
202 225 255
202 225 255
202 225 255
202 225 255
203 225 255
203 225 255
203 225 255
203 225 255
203 225 255
203 225 255
203 225 255
203 225 255
203 225 255
203 225 255
203 226 255
203 226 255
203 226 255
203 226 255
203 226 255
203 226 255
203 226 255
204 226 255
204 226 255
204 226 255
204 226 255
204 226 255
204 226 255
204 226 255
204 226 255
204 226 255
204 226 255
204 226 255
204 226 255
204 226 255
204 226 255
204 226 255
204 226 255
205 226 255
205 226 255
205 226 255
205 226 255
205 226 255
205 226 255
205 227 255
205 227 255
205 227 255
205 227 255
205 227 255
205 227 255
205 227 255
205 227 255
205 227 255
205 227 255
206 227 255
206 227 255
206 227 255
206 227 255
206 227 255
206 227 255
206 227 255
206 227 255
206 227 255
206 227 255
206 227 255
206 227 255
206 227 255
206 227 255
206 227 255
206 227 255
206 227 255
207 227 255
207 227 255
207 227 255
207 227 255
207 228 255
207 228 255
207 228 255
207 228 255
207 228 255
207 228 255
207 228 255
207 228 255
207 228 255
207 228 255
207 228 255
207 228 255
207 228 255
207 228 255
207 228 255
208 228 255
208 228 255
208 228 255
208 228 255
208 228 255
208 228 255
208 228 255
208 228 255
208 228 255
208 228 255
208 228 255
208 228 255
208 228 255
208 228 255
208 228 255
208 228 255
208 228 255
208 228 255
208 228 255
208 228 255
209 228 255
209 229 255
209 229 255
209 229 255
209 229 255
209 229 255
209 229 255
209 229 255
209 229 255
209 229 255
209 229 255
209 229 255
209 229 255
209 229 255
209 229 255
209 229 255
209 229 255
209 229 255
209 229 255
209 229 255
209 229 255
209 229 255
210 229 255
210 229 255
210 229 255
210 229 255
210 229 255
210 229 255
210 229 255
210 229 255
210 229 255
210 229 255
210 229 255
210 229 255
210 229 255
210 229 255
209 229 255
209 229 255
209 229 255
209 229 255
209 229 255
209 229 255
209 229 255
209 229 255
209 229 255
209 229 255
209 229 255
209 229 255
209 229 255
209 229 255
209 229 255
209 229 255
209 229 255
209 229 255
209 229 255
209 229 255
209 228 255
209 228 255
208 228 255
208 228 255
208 228 255
208 228 255
208 228 255
208 228 255
208 228 255
208 228 255
208 228 255
208 228 255
208 228 255
208 228 255
208 228 255
208 228 255
208 228 255
208 228 255
208 228 255
208 228 255
208 228 255
208 228 255
207 228 255
207 228 255
207 228 255
207 228 255
207 228 255
207 228 255
207 228 255
207 228 255
207 228 255
207 228 255
207 228 255
207 228 255
207 228 255
207 228 255
207 227 255
207 227 255
207 227 255
207 227 255
206 227 255
206 227 255
206 227 255
206 227 255
206 227 255
206 227 255
206 227 255
206 227 255
206 227 255
206 227 255
206 227 255
206 227 255
206 227 255
206 227 255
206 227 255
206 227 255
206 227 255
205 227 255
205 227 255
205 227 255
205 227 255
205 227 255
205 227 255
205 227 255
205 227 255
205 227 255
205 227 255
205 226 255
205 226 255
205 226 255
205 226 255
205 226 255
205 226 255
204 226 255
204 226 255
204 226 255
204 226 255
204 226 255
204 226 255
204 226 255
204 226 255
204 226 255
204 226 255
204 226 255
204 226 255
204 226 255
204 226 255
204 226 255
204 226 255
203 226 255
203 226 255
203 226 255
203 226 255
203 226 255
203 226 255
203 226 255
203 226 255
203 225 255
203 225 255
203 225 255
203 225 255
203 225 255
203 225 255
203 225 255
203 225 255
203 225 255
202 225 255
202 225 255
202 225 255
202 225 255
202 225 255
202 225 255
202 225 255
202 225 255
202 225 255
202 225 255
202 225 255
202 225 255
202 225 255
202 225 255
202 225 255
202 225 255
202 225 255
202 225 255
202 225 255
201 225 255
201 225 255
201 225 255
201 225 255
201 225 255
201 225 255
201 224 255
201 224 255
201 224 255
201 224 255
201 224 255
201 224 255
201 224 255
201 224 255
201 224 255
201 224 255
201 224 255
201 224 255
201 224 255
201 224 255
201 224 255
201 224 255
201 224 255
201 224 255
201 224 255
201 224 255
201 224 255
201 224 255
200 224 255
200 224 255
200 224 255
200 224 255
200 224 255
200 224 255
200 224 255
200 224 255
200 224 255
200 224 255
200 224 255
200 224 255
200 224 255
200 224 255
200 224 255
200 224 255
200 224 255
200 224 255
200 224 255
200 224 255
200 224 255
200 224 255
200 224 255
200 224 255
200 224 255
200 224 255
200 224 255
200 224 255
200 224 255
200 224 255
200 224 255
200 224 255
200 224 255
200 224 255
200 224 255
200 224 255
200 224 255
201 224 255
201 224 255
201 224 255
201 224 255
201 224 255
201 224 255
201 224 255
201 224 255
201 224 255
201 224 255
201 224 255
201 224 255
201 224 255
201 224 255
201 224 255
201 224 255
201 224 255
201 224 255
201 224 255
201 224 255
201 224 255
201 225 255
201 225 255
201 225 255
201 225 255
201 225 255
201 225 255
202 225 255
202 225 255
202 225 255
202 225 255
202 225 255
202 225 255
202 225 255
202 225 255
202 225 255
202 225 255
202 225 255
202 225 255
202 225 255
202 225 255
202 225 255
202 225 255
202 225 255
202 225 255
202 225 255
203 225 255
203 225 255
203 225 255
203 225 255
203 225 255
203 225 255
203 225 255
203 225 255
203 225 255
203 226 255
203 226 255
203 226 255
203 226 255
203 226 255
203 226 255
203 226 255
203 226 255
204 226 255
204 226 255
204 226 255
204 226 255
204 226 255
204 226 255
204 226 255
204 226 255
204 226 255
204 226 255
204 226 255
204 226 255
204 226 255
204 226 255
204 226 255
204 226 255
205 226 255
205 226 255
205 226 255
205 226 255
205 226 255
205 226 255
205 227 255
205 227 255
205 227 255
205 227 255
205 227 255
205 227 255
205 227 255
205 227 255
205 227 255
205 227 255
206 227 255
206 227 255
206 227 255
206 227 255
206 227 255
206 227 255
206 227 255
206 227 255
206 227 255
206 227 255
206 227 255
206 227 255
206 227 255
206 227 255
206 227 255
206 227 255
206 227 255
207 227 255
207 227 255
207 227 255
207 227 255
207 228 255
207 228 255
207 228 255
207 228 255
207 228 255
207 228 255
207 228 255
207 228 255
207 228 255
207 228 255
207 228 255
207 228 255
207 228 255
207 228 255
208 228 255
208 228 255
208 228 255
208 228 255
208 228 255
208 228 255
208 228 255
208 228 255
208 228 255
208 228 255
208 228 255
208 228 255
208 228 255
208 228 255
208 228 255
208 228 255
208 228 255
208 228 255
208 228 255
208 228 255
209 228 255
209 228 255
209 229 255
209 229 255
209 229 255
209 229 255
209 229 255
209 229 255
209 229 255
209 229 255
209 229 255
209 229 255
209 229 255
209 229 255
209 229 255
209 229 255
209 229 255
209 229 255
209 229 255
209 229 255
209 229 255
209 229 255
210 229 255
210 229 255
210 229 255
210 229 255
210 229 255
210 229 255
210 229 255
210 229 255
210 229 255
210 229 255
210 229 255
210 229 255
210 229 255
210 229 255
210 229 255
210 229 255
210 229 255
210 229 255
210 229 255
210 229 255
210 229 255
209 229 255
209 229 255
209 229 255
209 229 255
209 229 255
209 229 255
209 229 255
209 229 255
209 229 255
209 229 255
209 229 255
209 229 255
209 229 255
209 229 255
209 229 255
209 229 255
209 229 255
209 229 255
209 229 255
209 229 255
209 229 255
209 228 255
208 228 255
208 228 255
208 228 255
208 228 255
208 228 255
208 228 255
208 228 255
208 228 255
208 228 255
208 228 255
208 228 255
208 228 255
208 228 255
208 228 255
208 228 255
208 228 255
208 228 255
208 228 255
208 228 255
208 228 255
207 228 255
207 228 255
207 228 255
207 228 255
207 228 255
207 228 255
207 228 255
207 228 255
207 228 255
207 228 255
207 228 255
207 228 255
207 228 255
207 228 255
207 227 255
207 227 255
207 227 255
207 227 255
206 227 255
206 227 255
206 227 255
206 227 255
206 227 255
206 227 255
206 227 255
206 227 255
206 227 255
206 227 255
206 227 255
206 227 255
206 227 255
206 227 255
206 227 255
206 227 255
206 227 255
205 227 255
205 227 255
205 227 255
205 227 255
205 227 255
205 227 255
205 227 255
205 227 255
205 227 255
205 227 255
205 226 255
205 226 255
205 226 255
205 226 255
205 226 255
205 226 255
204 226 255
204 226 255
204 226 255
204 226 255
204 226 255
204 226 255
204 226 255
204 226 255
204 226 255
204 226 255
204 226 255
204 226 255
204 226 255
204 226 255
204 226 255
204 226 255
204 226 255
203 226 255
203 226 255
203 226 255
203 226 255
203 226 255
203 226 255
203 226 255
203 225 255
203 225 255
203 225 255
203 225 255
203 225 255
203 225 255
203 225 255
203 225 255
203 225 255
203 225 255
202 225 255
202 225 255
202 225 255
202 225 255
202 225 255
202 225 255
202 225 255
202 225 255
202 225 255
202 225 255
202 225 255
202 225 255
202 225 255
202 225 255
202 225 255
202 225 255
202 225 255
202 225 255
202 225 255
201 225 255
201 225 255
201 225 255
201 225 255
201 225 255
201 225 255
201 225 255
201 225 255
201 224 255
201 224 255
201 224 255
201 224 255
201 224 255
201 224 255
201 224 255
201 224 255
201 224 255
201 224 255
201 224 255
201 224 255
201 224 255
201 224 255
201 224 255
201 224 255
201 224 255
201 224 255
201 224 255
201 224 255
201 224 255
201 224 255
201 224 255
201 224 255
201 224 255
201 224 255
201 224 255
201 224 255
201 224 255
201 224 255
201 224 255
201 224 255
201 224 255
201 224 255
201 224 255
201 224 255
201 224 255
201 224 255
201 224 255
201 224 255
201 224 255
201 224 255
201 224 255
201 224 255
201 224 255
201 224 255
201 224 255
201 224 255
201 224 255
201 224 255
201 224 255
201 224 255
201 224 255
201 224 255
201 224 255
201 224 255
201 224 255
201 224 255
201 224 255
201 224 255
201 224 255
201 224 255
201 224 255
201 224 255
201 224 255
201 224 255
201 224 255
201 224 255
201 225 255
201 225 255
201 225 255
201 225 255
201 225 255
201 225 255
201 225 255
202 225 255
202 225 255
202 225 255
202 225 255
202 225 255
202 225 255
202 225 255
202 225 255
202 225 255
202 225 255
202 225 255
202 225 255
202 225 255
202 225 255
202 225 255
202 225 255
202 225 255
202 225 255
202 225 255
202 225 255
203 225 255
203 225 255
203 225 255
203 225 255
203 225 255
203 225 255
203 225 255
203 225 255
203 225 255
203 225 255
203 226 255
203 226 255
203 226 255
203 226 255
203 226 255
203 226 255
203 226 255
204 226 255
204 226 255
204 226 255
204 226 255
204 226 255
204 226 255
204 226 255
204 226 255
204 226 255
204 226 255
204 226 255
204 226 255
204 226 255
204 226 255
204 226 255
204 226 255
204 226 255
205 226 255
205 226 255
205 226 255
205 226 255
205 226 255
205 226 255
205 227 255
205 227 255
205 227 255
205 227 255
205 227 255
205 227 255
205 227 255
205 227 255
205 227 255
205 227 255
206 227 255
206 227 255
206 227 255
206 227 255
206 227 255
206 227 255
206 227 255
206 227 255
206 227 255
206 227 255
206 227 255
206 227 255
206 227 255
206 227 255
206 227 255
206 227 255
206 227 255
207 227 255
207 227 255
207 227 255
207 227 255
207 228 255
207 228 255
207 228 255
207 228 255
207 228 255
207 228 255
207 228 255
207 228 255
207 228 255
207 228 255
207 228 255
207 228 255
207 228 255
207 228 255
208 228 255
208 228 255
208 228 255
208 228 255
208 228 255
208 228 255
208 228 255
208 228 255
208 228 255
208 228 255
208 228 255
208 228 255
208 228 255
208 228 255
208 228 255
208 228 255
208 228 255
208 228 255
208 228 255
208 228 255
209 228 255
209 229 255
209 229 255
209 229 255
209 229 255
209 229 255
209 229 255
209 229 255
209 229 255
209 229 255
209 229 255
209 229 255
209 229 255
209 229 255
209 229 255
209 229 255
209 229 255
209 229 255
209 229 255
209 229 255
209 229 255
209 229 255
210 229 255
210 229 255
210 229 255
210 229 255
210 229 255
210 229 255
210 229 255
210 229 255
210 229 255
210 229 255
210 229 255
210 229 255
210 229 255
210 229 255
210 229 255
210 229 255
210 229 255
210 229 255
210 229 255
210 229 255
210 229 255
210 229 255
210 229 255
210 229 255
210 229 255
210 229 255
210 229 255
210 229 255
209 229 255
209 229 255
209 229 255
209 229 255
209 229 255
209 229 255
209 229 255
209 229 255
209 229 255
209 229 255
209 229 255
209 229 255
209 229 255
209 229 255
209 229 255
209 229 255
209 229 255
209 229 255
209 229 255
209 229 255
209 228 255
209 228 255
208 228 255
208 228 255
208 228 255
208 228 255
208 228 255
208 228 255
208 228 255
208 228 255
208 228 255
208 228 255
208 228 255
208 228 255
208 228 255
208 228 255
208 228 255
208 228 255
208 228 255
208 228 255
208 228 255
207 228 255
207 228 255
207 228 255
207 228 255
207 228 255
207 228 255
207 228 255
207 228 255
207 228 255
207 228 255
207 228 255
207 228 255
207 228 255
207 228 255
207 227 255
207 227 255
207 227 255
207 227 255
206 227 255
206 227 255
206 227 255
206 227 255
206 227 255
206 227 255
206 227 255
206 227 255
206 227 255
206 227 255
206 227 255
206 227 255
206 227 255
206 227 255
206 227 255
206 227 255
206 227 255
205 227 255
205 227 255
205 227 255
205 227 255
205 227 255
205 227 255
205 227 255
205 227 255
205 227 255
205 227 255
205 226 255
205 226 255
205 226 255
205 226 255
205 226 255
205 226 255
205 226 255
204 226 255
204 226 255
204 226 255
204 226 255
204 226 255
204 226 255
204 226 255
204 226 255
204 226 255
204 226 255
204 226 255
204 226 255
204 226 255
204 226 255
204 226 255
204 226 255
203 226 255
203 226 255
203 226 255
203 226 255
203 226 255
203 226 255
203 226 255
203 226 255
203 225 255
203 225 255
203 225 255
203 225 255
203 225 255
203 225 255
203 225 255
203 225 255
203 225 255
203 225 255
202 225 255
202 225 255
202 225 255
202 225 255
202 225 255
202 225 255
202 225 255
202 225 255
202 225 255
202 225 255
202 225 255
202 225 255
202 225 255
202 225 255
202 225 255
202 225 255
202 225 255
202 225 255
202 225 255
202 225 255
202 225 255
201 225 255
201 225 255
201 225 255
201 225 255
201 225 255
201 225 255
201 225 255
201 225 255
201 224 255
201 224 255
201 224 255
201 224 255
201 224 255
201 224 255
201 224 255
201 224 255
201 224 255
201 224 255
201 224 255
201 224 255
201 224 255
201 224 255
201 224 255
201 224 255
201 224 255
201 224 255
201 224 255
201 224 255
201 224 255
201 224 255
201 224 255
201 224 255
201 224 255
201 224 255
201 224 255
201 224 255
201 224 255
201 224 255
201 224 255
201 224 255
201 224 255
201 224 255
201 224 255
201 224 255
201 224 255
201 224 255
201 224 255
201 224 255
201 224 255
201 224 255
201 224 255
201 224 255
201 224 255
201 224 255
201 224 255
201 224 255
201 224 255
201 224 255
201 224 255
201 224 255
201 224 255
201 224 255
201 224 255
201 224 255
201 225 255
201 225 255
201 225 255
201 225 255
201 225 255
201 225 255
201 225 255
201 225 255
201 225 255
202 225 255
202 225 255
202 225 255
202 225 255
202 225 255
202 225 255
202 225 255
202 225 255
202 225 255
202 225 255
202 225 255
202 225 255
202 225 255
202 225 255
202 225 255
202 225 255
202 225 255
202 225 255
202 225 255
202 225 255
203 225 255
203 225 255
203 225 255
203 225 255
203 225 255
203 225 255
203 225 255
203 225 255
203 225 255
203 225 255
203 226 255
203 226 255
203 226 255
203 226 255
203 226 255
203 226 255
203 226 255
203 226 255
204 226 255
204 226 255
204 226 255
204 226 255
204 226 255
204 226 255
204 226 255
204 226 255
204 226 255
204 226 255
204 226 255
204 226 255
204 226 255
204 226 255
204 226 255
204 226 255
205 226 255
205 226 255
205 226 255
205 226 255
205 226 255
205 226 255
205 226 255
205 227 255
205 227 255
205 227 255
205 227 255
205 227 255
205 227 255
205 227 255
205 227 255
205 227 255
206 227 255
206 227 255
206 227 255
206 227 255
206 227 255
206 227 255
206 227 255
206 227 255
206 227 255
206 227 255
206 227 255
206 227 255
206 227 255
206 227 255
206 227 255
206 227 255
206 227 255
206 227 255
207 227 255
207 227 255
207 227 255
207 227 255
207 228 255
207 228 255
207 228 255
207 228 255
207 228 255
207 228 255
207 228 255
207 228 255
207 228 255
207 228 255
207 228 255
207 228 255
207 228 255
207 228 255
208 228 255
208 228 255
208 228 255
208 228 255
208 228 255
208 228 255
208 228 255
208 228 255
208 228 255
208 228 255
208 228 255
208 228 255
208 228 255
208 228 255
208 228 255
208 228 255
208 228 255
208 228 255
208 228 255
209 228 255
209 228 255
209 229 255
209 229 255
209 229 255
209 229 255
209 229 255
209 229 255
209 229 255
209 229 255
209 229 255
209 229 255
209 229 255
209 229 255
209 229 255
209 229 255
209 229 255
209 229 255
209 229 255
209 229 255
209 229 255
209 229 255
210 229 255
210 229 255
210 229 255
210 229 255
210 229 255
210 229 255
210 229 255
210 229 255
210 229 255
210 229 255
210 229 255
210 229 255
210 229 255
210 229 255
210 229 255
210 229 255
210 229 255
210 229 255
210 229 255
210 229 255
210 229 255
210 229 255
210 229 255
210 229 255
210 229 255
210 229 255
210 229 255
210 229 255
210 229 255
210 229 255
210 229 255
210 229 255
210 229 255
210 229 255
210 229 255
209 229 255
209 229 255
209 229 255
209 229 255
209 229 255
209 229 255
209 229 255
209 229 255
209 229 255
209 229 255
209 229 255
209 229 255
209 229 255
209 229 255
209 229 255
209 229 255
209 229 255
209 229 255
209 229 255
209 229 255
209 228 255
209 228 255
208 228 255
208 228 255
208 228 255
208 228 255
208 228 255
208 228 255
208 228 255
208 228 255
208 228 255
208 228 255
208 228 255
208 228 255
208 228 255
208 228 255
208 228 255
208 228 255
208 228 255
208 228 255
208 228 255
208 228 255
207 228 255
207 228 255
207 228 255
207 228 255
207 228 255
207 228 255
207 228 255
207 228 255
207 228 255
207 228 255
207 228 255
207 228 255
207 228 255
207 227 255
207 227 255
207 227 255
207 227 255
206 227 255
206 227 255
206 227 255
206 227 255
206 227 255
206 227 255
206 227 255
206 227 255
206 227 255
206 227 255
206 227 255
206 227 255
206 227 255
206 227 255
206 227 255
206 227 255
206 227 255
206 227 255
205 227 255
205 227 255
205 227 255
205 227 255
205 227 255
205 227 255
205 227 255
205 227 255
205 227 255
205 226 255
205 226 255
205 226 255
205 226 255
205 226 255
205 226 255
205 226 255
204 226 255
204 226 255
204 226 255
204 226 255
204 226 255
204 226 255
204 226 255
204 226 255
204 226 255
204 226 255
204 226 255
204 226 255
204 226 255
204 226 255
204 226 255
204 226 255
204 226 255
203 226 255
203 226 255
203 226 255
203 226 255
203 226 255
203 226 255
203 226 255
203 225 255
203 225 255
203 225 255
203 225 255
203 225 255
203 225 255
203 225 255
203 225 255
203 225 255
203 225 255
203 225 255
202 225 255
202 225 255
202 225 255
202 225 255
202 225 255
202 225 255
202 225 255
202 225 255
202 225 255
202 225 255
202 225 255
202 225 255
202 225 255
202 225 255
202 225 255
202 225 255
202 225 255
202 225 255
202 225 255
202 225 255
202 225 255
202 225 255
202 225 255
201 225 255
201 225 255
201 225 255
201 225 255
201 225 255
201 225 255
201 225 255
201 225 255
201 225 255
201 225 255
201 224 255
201 224 255
201 224 255
201 224 255
201 224 255
201 224 255
201 224 255
201 224 255
201 224 255
201 224 255
201 224 255
201 224 255
201 224 255
201 224 255
201 224 255
201 224 255
201 224 255
201 224 255
201 224 255
201 224 255
201 224 255
201 224 255
201 224 255
201 224 255
201 224 255
201 224 255
201 224 255
201 224 255
201 224 255
201 224 255
201 224 255
201 224 255
201 224 255
201 224 255
201 224 255
201 224 255
201 224 255
201 224 255
201 224 255
201 224 255
201 225 255
201 225 255
201 225 255
201 225 255
201 225 255
201 225 255
201 225 255
201 225 255
201 225 255
201 225 255
202 225 255
202 225 255
202 225 255
202 225 255
202 225 255
202 225 255
202 225 255
202 225 255
202 225 255
202 225 255
202 225 255
202 225 255
202 225 255
202 225 255
202 225 255
202 225 255
202 225 255
202 225 255
202 225 255
202 225 255
202 225 255
202 225 255
202 225 255
203 225 255
203 225 255
203 225 255
203 225 255
203 225 255
203 225 255
203 225 255
203 225 255
203 225 255
203 225 255
203 225 255
203 226 255
203 226 255
203 226 255
203 226 255
203 226 255
203 226 255
203 226 255
204 226 255
204 226 255
204 226 255
204 226 255
204 226 255
204 226 255
204 226 255
204 226 255
204 226 255
204 226 255
204 226 255
204 226 255
204 226 255
204 226 255
204 226 255
204 226 255
204 226 255
205 226 255
205 226 255
205 226 255
205 226 255
205 226 255
205 226 255
205 226 255
205 227 255
205 227 255
205 227 255
205 227 255
205 227 255
205 227 255
205 227 255
205 227 255
205 227 255
206 227 255
206 227 255
206 227 255
206 227 255
206 227 255
206 227 255
206 227 255
206 227 255
206 227 255
206 227 255
206 227 255
206 227 255
206 227 255
206 227 255
206 227 255
206 227 255
206 227 255
207 227 255
207 227 255
207 227 255
207 227 255
207 227 255
207 228 255
207 228 255
207 228 255
207 228 255
207 228 255
207 228 255
207 228 255
207 228 255
207 228 255
207 228 255
207 228 255
207 228 255
207 228 255
208 228 255
208 228 255
208 228 255
208 228 255
208 228 255
208 228 255
208 228 255
208 228 255
208 228 255
208 228 255
208 228 255
208 228 255
208 228 255
208 228 255
208 228 255
208 228 255
208 228 255
208 228 255
208 228 255
208 228 255
209 228 255
209 229 255
209 229 255
209 229 255
209 229 255
209 229 255
209 229 255
209 229 255
209 229 255
209 229 255
209 229 255
209 229 255
209 229 255
209 229 255
209 229 255
209 229 255
209 229 255
209 229 255
209 229 255
209 229 255
209 229 255
209 229 255
210 229 255
210 229 255
210 229 255
210 229 255
210 229 255
210 229 255
210 229 255
210 229 255
210 229 255
210 229 255
210 229 255
210 229 255
210 229 255
210 229 255
210 229 255
210 229 255
210 229 255
210 229 255
210 229 255
210 230 255
210 229 255
210 229 255
210 229 255
210 229 255
210 229 255
210 229 255
210 229 255
210 229 255
210 229 255
210 229 255
210 229 255
210 229 255
210 229 255
210 229 255
210 229 255
210 229 255
210 229 255
210 229 255
210 229 255
210 229 255
210 229 255
210 229 255
209 229 255
209 229 255
209 229 255
209 229 255
209 229 255
209 229 255
209 229 255
209 229 255
209 229 255
209 229 255
209 229 255
209 229 255
209 229 255
209 229 255
209 229 255
209 229 255
209 229 255
209 229 255
209 229 255
209 229 255
209 228 255
209 228 255
208 228 255
208 228 255
208 228 255
208 228 255
208 228 255
208 228 255
208 228 255
208 228 255
208 228 255
208 228 255
208 228 255
208 228 255
208 228 255
208 228 255
208 228 255
208 228 255
208 228 255
208 228 255
208 228 255
207 228 255
207 228 255
207 228 255
207 228 255
207 228 255
207 228 255
207 228 255
207 228 255
207 228 255
207 228 255
207 228 255
207 228 255
207 228 255
207 228 255
207 227 255
207 227 255
207 227 255
207 227 255
206 227 255
206 227 255
206 227 255
206 227 255
206 227 255
206 227 255
206 227 255
206 227 255
206 227 255
206 227 255
206 227 255
206 227 255
206 227 255
206 227 255
206 227 255
206 227 255
206 227 255
205 227 255
205 227 255
205 227 255
205 227 255
205 227 255
205 227 255
205 227 255
205 227 255
205 227 255
205 227 255
205 226 255
205 226 255
205 226 255
205 226 255
205 226 255
205 226 255
204 226 255
204 226 255
204 226 255
204 226 255
204 226 255
204 226 255
204 226 255
204 226 255
204 226 255
204 226 255
204 226 255
204 226 255
204 226 255
204 226 255
204 226 255
204 226 255
204 226 255
203 226 255
203 226 255
203 226 255
203 226 255
203 226 255
203 226 255
203 226 255
203 226 255
203 225 255
203 225 255
203 225 255
203 225 255
203 225 255
203 225 255
203 225 255
203 225 255
203 225 255
203 225 255
203 225 255
202 225 255
202 225 255
202 225 255
202 225 255
202 225 255
202 225 255
202 225 255
202 225 255
202 225 255
202 225 255
202 225 255
202 225 255
202 225 255
202 225 255
202 225 255
202 225 255
202 225 255
202 225 255
202 225 255
202 225 255
202 225 255
202 225 255
202 225 255
202 225 255
202 225 255
202 225 255
201 225 255
201 225 255
201 225 255
201 225 255
201 225 255
201 225 255
201 225 255
201 225 255
201 225 255
201 225 255
201 225 255
201 225 255
201 225 255
201 225 255
201 225 255
201 225 255
201 225 255
201 224 255
201 224 255
201 224 255
201 224 255
201 224 255
201 224 255
201 224 255
201 224 255
201 224 255
201 224 255
201 224 255
201 224 255
201 225 255
201 225 255
201 225 255
201 225 255
201 225 255
201 225 255
201 225 255
201 225 255
201 225 255
201 225 255
201 225 255
201 225 255
201 225 255
201 225 255
201 225 255
201 225 255
201 225 255
202 225 255
202 225 255
202 225 255
202 225 255
202 225 255
202 225 255
202 225 255
202 225 255
202 225 255
202 225 255
202 225 255
202 225 255
202 225 255
202 225 255
202 225 255
202 225 255
202 225 255
202 225 255
202 225 255
202 225 255
202 225 255
202 225 255
202 225 255
202 225 255
202 225 255
202 225 255
203 225 255
203 225 255
203 225 255
203 225 255
203 225 255
203 225 255
203 225 255
203 225 255
203 225 255
203 225 255
203 225 255
203 226 255
203 226 255
203 226 255
203 226 255
203 226 255
203 226 255
203 226 255
203 226 255
204 226 255
204 226 255
204 226 255
204 226 255
204 226 255
204 226 255
204 226 255
204 226 255
204 226 255
204 226 255
204 226 255
204 226 255
204 226 255
204 226 255
204 226 255
204 226 255
204 226 255
205 226 255
205 226 255
205 226 255
205 226 255
205 226 255
205 226 255
205 227 255
205 227 255
205 227 255
205 227 255
205 227 255
205 227 255
205 227 255
205 227 255
205 227 255
205 227 255
206 227 255
206 227 255
206 227 255
206 227 255
206 227 255
206 227 255
206 227 255
206 227 255
206 227 255
206 227 255
206 227 255
206 227 255
206 227 255
206 227 255
206 227 255
206 227 255
206 227 255
207 227 255
207 227 255
207 227 255
207 227 255
207 228 255
207 228 255
207 228 255
207 228 255
207 228 255
207 228 255
207 228 255
207 228 255
207 228 255
207 228 255
207 228 255
207 228 255
207 228 255
207 228 255
208 228 255
208 228 255
208 228 255
208 228 255
208 228 255
208 228 255
208 228 255
208 228 255
208 228 255
208 228 255
208 228 255
208 228 255
208 228 255
208 228 255
208 228 255
208 228 255
208 228 255
208 228 255
208 228 255
208 228 255
209 228 255
209 229 255
209 229 255
209 229 255
209 229 255
209 229 255
209 229 255
209 229 255
209 229 255
209 229 255
209 229 255
209 229 255
209 229 255
209 229 255
209 229 255
209 229 255
209 229 255
209 229 255
209 229 255
209 229 255
209 229 255
210 229 255
210 229 255
210 229 255
210 229 255
210 229 255
210 229 255
210 229 255
210 229 255
210 229 255
210 229 255
210 229 255
210 229 255
210 229 255
210 229 255
210 229 255
210 229 255
210 229 255
210 229 255
210 229 255
210 229 255
210 229 255
210 229 255
210 230 255
211 230 255
211 230 255
210 230 255
210 230 255
210 230 255
210 229 255
210 229 255
210 229 255
210 229 255
210 229 255
210 229 255
210 229 255
210 229 255
210 229 255
210 229 255
210 229 255
210 229 255
210 229 255
210 229 255
210 229 255
210 229 255
210 229 255
210 229 255
210 229 255
210 229 255
210 229 255
210 229 255
209 229 255
209 229 255
209 229 255
209 229 255
209 229 255
209 229 255
209 229 255
209 229 255
209 229 255
209 229 255
209 229 255
209 229 255
209 229 255
209 229 255
209 229 255
209 229 255
209 229 255
209 229 255
209 229 255
209 229 255
209 228 255
208 228 255
208 228 255
208 228 255
208 228 255
208 228 255
208 228 255
208 228 255
208 228 255
208 228 255
208 228 255
208 228 255
208 228 255
208 228 255
208 228 255
208 228 255
208 228 255
208 228 255
208 228 255
208 228 255
207 228 255
207 228 255
207 228 255
207 228 255
207 228 255
207 228 255
207 228 255
207 228 255
207 228 255
207 228 255
207 228 255
207 228 255
207 228 255
207 228 255
207 227 255
207 227 255
207 227 255
207 227 255
206 227 255
206 227 255
206 227 255
206 227 255
206 227 255
206 227 255
206 227 255
206 227 255
206 227 255
206 227 255
206 227 255
206 227 255
206 227 255
206 227 255
206 227 255
206 227 255
206 227 255
205 227 255
205 227 255
205 227 255
205 227 255
205 227 255
205 227 255
205 227 255
205 227 255
205 227 255
205 227 255
205 226 255
205 226 255
205 226 255
205 226 255
205 226 255
205 226 255
205 226 255
204 226 255
204 226 255
204 226 255
204 226 255
204 226 255
204 226 255
204 226 255
204 226 255
204 226 255
204 226 255
204 226 255
204 226 255
204 226 255
204 226 255
204 226 255
204 226 255
204 226 255
203 226 255
203 226 255
203 226 255
203 226 255
203 226 255
203 226 255
203 226 255
203 226 255
203 225 255
203 225 255
203 225 255
203 225 255
203 225 255
203 225 255
203 225 255
203 225 255
203 225 255
203 225 255
203 225 255
203 225 255
202 225 255
202 225 255
202 225 255
202 225 255
202 225 255
202 225 255
202 225 255
202 225 255
202 225 255
202 225 255
202 225 255
202 225 255
202 225 255
202 225 255
202 225 255
202 225 255
202 225 255
202 225 255
202 225 255
202 225 255
202 225 255
202 225 255
202 225 255
202 225 255
202 225 255
202 225 255
202 225 255
202 225 255
202 225 255
202 225 255
202 225 255
201 225 255
201 225 255
201 225 255
201 225 255
201 225 255
201 225 255
201 225 255
201 225 255
201 225 255
201 225 255
201 225 255
201 225 255
201 225 255
201 225 255
201 225 255
201 225 255
201 225 255
201 225 255
201 225 255
201 225 255
201 225 255
201 225 255
201 225 255
201 225 255
201 225 255
201 225 255
202 225 255
202 225 255
202 225 255
202 225 255
202 225 255
202 225 255
202 225 255
202 225 255
202 225 255
202 225 255
202 225 255
202 225 255
202 225 255
202 225 255
202 225 255
202 225 255
202 225 255
202 225 255
202 225 255
202 225 255
202 225 255
202 225 255
202 225 255
202 225 255
202 225 255
202 225 255
202 225 255
202 225 255
202 225 255
202 225 255
202 225 255
203 225 255
203 225 255
203 225 255
203 225 255
203 225 255
203 225 255
203 225 255
203 225 255
203 225 255
203 225 255
203 225 255
203 225 255
203 226 255
203 226 255
203 226 255
203 226 255
203 226 255
203 226 255
203 226 255
203 226 255
204 226 255
204 226 255
204 226 255
204 226 255
204 226 255
204 226 255
204 226 255
204 226 255
204 226 255
204 226 255
204 226 255
204 226 255
204 226 255
204 226 255
204 226 255
204 226 255
204 226 255
205 226 255
205 226 255
205 226 255
205 226 255
205 226 255
205 226 255
205 226 255
205 227 255
205 227 255
205 227 255
205 227 255
205 227 255
205 227 255
205 227 255
205 227 255
205 227 255
205 227 255
206 227 255
206 227 255
206 227 255
206 227 255
206 227 255
206 227 255
206 227 255
206 227 255
206 227 255
206 227 255
206 227 255
206 227 255
206 227 255
206 227 255
206 227 255
206 227 255
206 227 255
207 227 255
207 227 255
207 227 255
207 227 255
207 228 255
207 228 255
207 228 255
207 228 255
207 228 255
207 228 255
207 228 255
207 228 255
207 228 255
207 228 255
207 228 255
207 228 255
207 228 255
207 228 255
208 228 255
208 228 255
208 228 255
208 228 255
208 228 255
208 228 255
208 228 255
208 228 255
208 228 255
208 228 255
208 228 255
208 228 255
208 228 255
208 228 255
208 228 255
208 228 255
208 228 255
208 228 255
208 228 255
209 228 255
209 228 255
209 229 255
209 229 255
209 229 255
209 229 255
209 229 255
209 229 255
209 229 255
209 229 255
209 229 255
209 229 255
209 229 255
209 229 255
209 229 255
209 229 255
209 229 255
209 229 255
209 229 255
209 229 255
209 229 255
210 229 255
210 229 255
210 229 255
210 229 255
210 229 255
210 229 255
210 229 255
210 229 255
210 229 255
210 229 255
210 229 255
210 229 255
210 229 255
210 229 255
210 229 255
210 229 255
210 229 255
210 229 255
210 229 255
210 229 255
210 229 255
210 229 255
210 230 255
210 230 255
210 230 255
211 230 255
211 230 255
211 230 255
211 230 255
211 230 255
211 230 255
211 230 255
211 230 255
210 230 255
210 230 255
210 230 255
210 229 255
210 229 255
210 229 255
210 229 255
210 229 255
210 229 255
210 229 255
210 229 255
210 229 255
210 229 255
210 229 255
210 229 255
210 229 255
210 229 255
210 229 255
210 229 255
210 229 255
210 229 255
210 229 255
210 229 255
210 229 255
209 229 255
209 229 255
209 229 255
209 229 255
209 229 255
209 229 255
209 229 255
209 229 255
209 229 255
209 229 255
209 229 255
209 229 255
209 229 255
209 229 255
209 229 255
209 229 255
209 229 255
209 229 255
209 229 255
209 229 255
209 228 255
209 228 255
208 228 255
208 228 255
208 228 255
208 228 255
208 228 255
208 228 255
208 228 255
208 228 255
208 228 255
208 228 255
208 228 255
208 228 255
208 228 255
208 228 255
208 228 255
208 228 255
208 228 255
208 228 255
208 228 255
207 228 255
207 228 255
207 228 255
207 228 255
207 228 255
207 228 255
207 228 255
207 228 255
207 228 255
207 228 255
207 228 255
207 228 255
207 228 255
207 228 255
207 227 255
207 227 255
207 227 255
207 227 255
206 227 255
206 227 255
206 227 255
206 227 255
206 227 255
206 227 255
206 227 255
206 227 255
206 227 255
206 227 255
206 227 255
206 227 255
206 227 255
206 227 255
206 227 255
206 227 255
206 227 255
205 227 255
205 227 255
205 227 255
205 227 255
205 227 255
205 227 255
205 227 255
205 227 255
205 227 255
205 227 255
205 226 255
205 226 255
205 226 255
205 226 255
205 226 255
205 226 255
205 226 255
204 226 255
204 226 255
204 226 255
204 226 255
204 226 255
204 226 255
204 226 255
204 226 255
204 226 255
204 226 255
204 226 255
204 226 255
204 226 255
204 226 255
204 226 255
204 226 255
204 226 255
203 226 255
203 226 255
203 226 255
203 226 255
203 226 255
203 226 255
203 226 255
203 226 255
203 226 255
203 225 255
203 225 255
203 225 255
203 225 255
203 225 255
203 225 255
203 225 255
203 225 255
203 225 255
203 225 255
203 225 255
203 225 255
202 225 255
202 225 255
202 225 255
202 225 255
202 225 255
202 225 255
202 225 255
202 225 255
202 225 255
202 225 255
202 225 255
202 225 255
202 225 255
202 225 255
202 225 255
202 225 255
202 225 255
202 225 255
202 225 255
202 225 255
202 225 255
202 225 255
202 225 255
202 225 255
202 225 255
202 225 255
202 225 255
202 225 255
202 225 255
202 225 255
202 225 255
202 225 255
202 225 255
202 225 255
202 225 255
202 225 255
202 225 255
202 225 255
202 225 255
202 225 255
202 225 255
202 225 255
202 225 255
202 225 255
202 225 255
202 225 255
202 225 255
202 225 255
202 225 255
202 225 255
202 225 255
202 225 255
202 225 255
202 225 255
202 225 255
202 225 255
202 225 255
202 225 255
202 225 255
202 225 255
202 225 255
202 225 255
202 225 255
202 225 255
202 225 255
202 225 255
202 225 255
202 225 255
202 225 255
202 225 255
202 225 255
202 225 255
202 225 255
202 225 255
202 225 255
202 225 255
202 225 255
202 225 255
203 225 255
203 225 255
203 225 255
203 225 255
203 225 255
203 225 255
203 225 255
203 225 255
203 225 255
203 225 255
203 225 255
203 225 255
203 226 255
203 226 255
203 226 255
203 226 255
203 226 255
203 226 255
203 226 255
203 226 255
203 226 255
204 226 255
204 226 255
204 226 255
204 226 255
204 226 255
204 226 255
204 226 255
204 226 255
204 226 255
204 226 255
204 226 255
204 226 255
204 226 255
204 226 255
204 226 255
204 226 255
204 226 255
205 226 255
205 226 255
205 226 255
205 226 255
205 226 255
205 226 255
205 226 255
205 227 255
205 227 255
205 227 255
205 227 255
205 227 255
205 227 255
205 227 255
205 227 255
205 227 255
205 227 255
206 227 255
206 227 255
206 227 255
206 227 255
206 227 255
206 227 255
206 227 255
206 227 255
206 227 255
206 227 255
206 227 255
206 227 255
206 227 255
206 227 255
206 227 255
206 227 255
206 227 255
207 227 255
207 227 255
207 227 255
207 227 255
207 227 255
207 228 255
207 228 255
207 228 255
207 228 255
207 228 255
207 228 255
207 228 255
207 228 255
207 228 255
207 228 255
207 228 255
207 228 255
207 228 255
208 228 255
208 228 255
208 228 255
208 228 255
208 228 255
208 228 255
208 228 255
208 228 255
208 228 255
208 228 255
208 228 255
208 228 255
208 228 255
208 228 255
208 228 255
208 228 255
208 228 255
208 228 255
208 228 255
208 228 255
209 228 255
209 229 255
209 229 255
209 229 255
209 229 255
209 229 255
209 229 255
209 229 255
209 229 255
209 229 255
209 229 255
209 229 255
209 229 255
209 229 255
209 229 255
209 229 255
209 229 255
209 229 255
209 229 255
209 229 255
209 229 255
210 229 255
210 229 255
210 229 255
210 229 255
210 229 255
210 229 255
210 229 255
210 229 255
210 229 255
210 229 255
210 229 255
210 229 255
210 229 255
210 229 255
210 229 255
210 229 255
210 229 255
210 229 255
210 229 255
210 229 255
210 229 255
210 230 255
210 230 255
210 230 255
211 230 255
211 230 255
211 230 255
211 230 255
211 230 255
211 230 255
211 230 255
211 230 255
211 230 255
211 230 255
211 230 255
211 230 255
211 230 255
211 230 255
211 230 255
211 230 255
210 230 255
210 230 255
210 230 255
210 229 255
210 229 255
210 229 255
210 229 255
210 229 255
210 229 255
210 229 255
210 229 255
210 229 255
210 229 255
210 229 255
210 229 255
210 229 255
210 229 255
210 229 255
210 229 255
210 229 255
210 229 255
210 229 255
210 229 255
210 229 255
209 229 255
209 229 255
209 229 255
209 229 255
209 229 255
209 229 255
209 229 255
209 229 255
209 228 254
209 229 255
209 229 254
209 229 255
209 229 255
209 229 254
209 229 255
209 229 255
209 229 255
209 229 255
209 229 255
208 228 255
209 229 254
208 228 255
209 229 255
208 228 255
208 228 255
208 228 255
208 228 255
208 228 255
208 228 255
208 228 255
208 228 255
208 228 255
208 228 255
208 228 255
208 228 255
208 228 255
208 228 255
208 228 255
208 228 255
208 228 255
207 228 255
207 228 255
207 228 255
207 228 255
207 228 255
207 228 255
207 228 255
207 228 255
207 228 255
207 228 255
207 228 255
207 228 255
207 228 255
207 228 255
207 227 255
207 227 255
207 227 255
207 227 255
206 227 255
206 227 255
206 227 255
206 227 255
206 227 255
206 227 255
206 227 255
206 227 255
206 227 255
206 227 255
206 227 255
206 227 255
206 227 255
206 227 255
206 227 255
206 227 255
206 227 255
205 227 255
205 227 255
205 227 255
205 227 255
205 227 255
205 227 255
205 227 255
205 227 255
205 227 255
205 227 255
205 226 255
205 226 255
205 226 255
205 226 255
205 226 255
205 226 255
205 226 255
204 226 255
204 226 255
204 226 255
204 226 255
204 226 255
204 226 255
204 226 255
204 226 255
204 226 255
204 226 255
204 226 255
204 226 255
204 226 255
204 226 255
204 226 255
204 226 255
204 226 255
204 226 255
203 226 255
203 226 255
203 226 255
203 226 255
203 226 255
203 226 255
203 226 255
203 226 255
203 226 255
203 225 255
203 225 255
203 225 255
203 225 255
203 225 255
203 225 255
203 225 255
203 225 255
203 225 255
203 225 255
203 225 255
203 225 255
203 225 255
203 225 255
202 225 255
202 225 255
202 225 255
202 225 255
202 225 255
202 225 255
202 225 255
202 225 255
202 225 255
202 225 255
202 225 255
202 225 255
202 225 255
202 225 255
202 225 255
202 225 255
202 225 255
202 225 255
202 225 255
202 225 255
202 225 255
202 225 255
202 225 255
202 225 255
202 225 255
202 225 255
202 225 255
202 225 255
202 225 255
202 225 255
202 225 255
202 225 255
202 225 255
202 225 255
202 225 255
202 225 255
202 225 255
202 225 255
202 225 255
202 225 255
202 225 255
202 225 255
202 225 255
202 225 255
202 225 255
202 225 255
202 225 255
202 225 255
202 225 255
202 225 255
202 225 255
202 225 255
202 225 255
202 225 255
202 225 255
202 225 255
202 225 255
202 225 255
202 225 255
202 225 255
202 225 255
202 225 255
202 225 255
202 225 255
202 225 255
202 225 255
203 225 255
203 225 255
203 225 255
203 225 255
203 225 255
203 225 255
203 225 255
203 225 255
203 225 255
203 225 255
203 225 255
203 225 255
203 225 255
203 225 255
203 226 255
203 226 255
203 226 255
203 226 255
203 226 255
203 226 255
203 226 255
203 226 255
203 226 255
204 226 255
204 226 255
204 226 255
204 226 255
204 226 255
204 226 255
204 226 255
204 226 255
204 226 255
204 226 255
204 226 255
204 226 255
204 226 255
204 226 255
204 226 255
204 226 255
204 226 255
204 226 255
205 226 255
205 226 255
205 226 255
205 226 255
205 226 255
205 226 255
205 226 255
205 227 255
205 227 255
205 227 255
205 227 255
205 227 255
205 227 255
205 227 255
205 227 255
205 227 255
205 227 255
206 227 255
206 227 255
206 227 255
206 227 255
206 227 255
206 227 255
206 227 255
206 227 255
206 227 255
206 227 255
206 227 255
206 227 255
206 227 255
206 227 255
206 227 255
206 227 255
206 227 255
207 227 255
207 227 255
207 227 255
207 227 255
207 228 255
207 228 255
207 228 255
207 228 255
207 228 255
207 228 255
207 228 255
207 228 255
207 228 255
207 228 255
207 228 255
207 228 255
207 228 255
207 228 255
208 228 255
208 228 255
208 228 255
208 228 255
208 228 255
208 228 255
208 228 255
208 228 255
208 228 255
208 228 255
208 228 255
208 228 255
208 228 255
202 221 247
192 209 230
193 209 230
189 205 223
186 199 210
181 195 206
169 181 190
172 183 188
172 185 193
172 184 193
180 190 192
180 193 202
173 184 191
176 187 194
177 189 195
180 193 204
192 207 224
187 201 214
189 204 218
188 204 221
204 221 243
207 226 250
208 227 253
209 229 255
209 229 255
209 229 255
209 229 255
210 229 255
210 229 255
210 229 255
210 229 255
210 229 255
210 229 255
210 229 255
210 229 255
210 229 255
210 229 255
210 229 255
210 229 255
210 229 255
210 229 255
210 229 255
210 229 255
210 229 255
210 229 255
210 229 255
210 229 255
210 229 255
210 230 255
210 230 255
210 230 255
211 230 255
211 230 255
211 230 255
211 230 255
211 230 255
211 230 255
211 230 255
211 230 255
211 230 255
211 230 255
211 230 255
211 230 255
211 230 255
211 230 255
211 230 255
211 230 255
211 230 255
211 230 255
211 230 255
211 230 255
211 230 255
211 230 255
211 230 255
211 230 255
210 230 255
210 230 255
210 230 255
210 229 255
210 229 255
210 229 255
210 229 255
210 229 255
210 229 255
210 229 255
210 229 255
210 229 255
210 229 255
210 229 255
210 229 255
210 229 255
210 229 254
210 229 255
210 229 255
209 229 255
209 229 252
208 228 253
210 229 255
210 229 254
208 228 254
209 228 254
207 228 254
210 229 254
210 229 253
209 228 253
208 228 254
207 227 250
208 228 254
208 228 255
206 227 250
209 229 254
208 228 252
208 228 252
207 227 252
205 226 253
207 228 254
207 227 253
207 228 254
207 228 255
208 228 253
207 227 254
207 227 254
207 227 254
207 228 253
209 228 254
207 228 255
208 228 253
208 228 254
208 228 255
209 229 255
208 228 255
208 228 255
208 228 255
208 228 255
208 228 255
208 228 255
208 228 255
208 228 255
208 228 255
207 228 255
207 228 255
207 228 255
207 228 255
207 228 255
207 228 255
207 228 255
207 228 255
207 228 255
207 228 255
207 228 255
207 228 255
207 228 255
207 227 255
207 227 255
207 227 255
207 227 255
206 227 255
206 227 255
206 227 255
206 227 255
206 227 255
206 227 255
206 227 255
206 227 255
206 227 255
206 227 255
206 227 255
206 227 255
206 227 255
206 227 255
206 227 255
206 227 255
206 227 255
206 227 255
205 227 255
205 227 255
205 227 255
205 227 255
205 227 255
205 227 255
205 227 255
205 227 255
205 227 255
205 227 255
205 226 255
205 226 255
205 226 255
205 226 255
205 226 255
205 226 255
205 226 255
204 226 255
204 226 255
204 226 255
204 226 255
204 226 255
204 226 255
204 226 255
204 226 255
204 226 255
204 226 255
204 226 255
204 226 255
204 226 255
204 226 255
204 226 255
204 226 255
204 226 255
204 226 255
204 226 255
203 226 255
203 226 255
203 226 255
203 226 255
203 226 255
203 226 255
203 226 255
203 226 255
203 226 255
203 225 255
203 225 255
203 225 255
203 225 255
203 225 255
203 225 255
203 225 255
203 225 255
203 225 255
203 225 255
203 225 255
203 225 255
203 225 255
203 225 255
203 225 255
203 225 255
202 225 255
202 225 255
202 225 255
202 225 255
202 225 255
202 225 255
202 225 255
202 225 255
202 225 255
202 225 255
202 225 255
202 225 255
202 225 255
202 225 255
202 225 255
202 225 255
202 225 255
202 225 255
202 225 255
202 225 255
202 225 255
202 225 255
202 225 255
202 225 255
202 225 255
202 225 255
202 225 255
202 225 255
202 225 255
202 225 255
202 225 255
202 225 255
202 225 255
202 225 255
202 225 255
202 225 255
202 225 255
202 225 255
202 225 255
202 225 255
202 225 255
202 225 255
202 225 255
202 225 255
202 225 255
202 225 255
202 225 255
202 225 255
202 225 255
202 225 255
202 225 255
202 225 255
203 225 255
203 225 255
203 225 255
203 225 255
203 225 255
203 225 255
203 225 255
203 225 255
203 225 255
203 225 255
203 225 255
203 225 255
203 225 255
203 225 255
203 225 255
203 226 255
203 226 255
203 226 255
203 226 255
203 226 255
203 226 255
203 226 255
203 226 255
203 226 255
203 226 255
204 226 255
204 226 255
204 226 255
204 226 255
204 226 255
204 226 255
204 226 255
204 226 255
204 226 255
204 226 255
204 226 255
204 226 255
204 226 255
204 226 255
204 226 255
204 226 255
204 226 255
204 226 255
204 226 255
205 226 255
205 226 255
205 226 255
205 226 255
205 226 255
205 226 255
205 226 255
205 227 255
205 227 255
205 227 255
205 227 255
205 227 255
205 227 255
205 227 255
205 227 255
205 227 255
205 227 255
206 227 255
206 227 255
206 227 255
206 227 255
206 227 255
206 227 255
206 227 255
206 227 255
206 227 255
206 227 255
206 227 255
206 227 255
206 227 255
206 227 255
206 227 255
206 227 255
206 227 255
206 227 255
207 227 255
207 227 255
207 227 255
207 227 255
207 228 255
207 228 255
207 228 255
207 228 255
207 228 255
207 228 255
207 228 255
207 228 255
207 228 255
207 228 255
207 228 255
207 228 255
207 228 255
208 228 255
208 228 255
208 228 255
208 228 255
208 228 255
208 228 255
208 228 255
206 226 253
191 209 232
188 203 220
185 199 211
163 174 176
157 165 161
153 161 159
149 151 129
135 135 103
134 131 87
137 134 88
131 128 85
131 130 87
134 132 88
128 126 84
126 124 83
123 121 80
133 130 87
132 129 86
126 123 81
127 125 84
141 138 91
130 128 85
135 132 86
135 131 87
131 128 85
132 129 85
141 137 90
130 127 84
129 126 83
134 131 87
136 134 88
124 121 80
133 132 97
146 147 122
149 156 150
159 165 158
166 175 177
177 188 197
186 201 216
195 210 226
207 226 250
210 229 255
210 229 255
210 229 255
210 229 255
210 229 255
210 229 255
210 229 255
210 229 255
210 229 255
210 229 255
210 229 255
210 229 255
210 230 255
210 230 255
210 230 255
211 230 255
211 230 255
211 230 255
211 230 255
211 230 255
211 230 255
211 230 255
211 230 255
211 230 255
211 230 255
211 230 255
211 230 255
211 230 255
211 230 255
211 230 255
211 230 255
211 230 255
211 230 255
211 230 255
211 230 255
211 230 255
211 230 255
211 230 255
211 230 255
211 230 255
211 230 255
211 230 255
211 230 255
211 230 255
211 230 255
211 230 255
211 230 255
210 230 255
210 230 255
210 230 255
210 229 255
210 229 255
210 230 255
210 229 255
210 230 255
210 229 255
209 228 252
209 229 253
209 229 253
210 229 253
210 229 254
209 228 252
209 229 255
209 228 253
209 229 254
208 227 249
207 228 252
207 227 250
207 227 252
205 226 252
207 227 252
206 227 254
206 226 250
207 228 254
207 228 253
205 226 253
206 227 252
207 227 253
205 226 253
207 228 255
206 227 254
205 226 252
205 226 252
207 227 253
205 226 253
206 227 252
205 226 248
205 226 253
204 226 249
206 227 253
204 225 250
205 226 252
208 228 253
205 226 250
205 227 254
206 227 254
207 227 250
207 227 250
207 227 253
207 227 254
208 228 254
208 228 255
208 228 255
207 228 255
208 228 254
208 228 255
208 228 255
208 228 255
208 228 255
208 228 255
207 228 255
207 228 255
207 228 255
207 228 255
207 228 255
207 228 255
207 228 255
207 228 255
207 228 255
207 228 255
207 228 255
207 228 255
207 228 255
207 228 255
207 227 255
207 227 255
207 227 255
207 227 255
206 227 255
206 227 255
206 227 255
206 227 255
206 227 255
206 227 255
206 227 255
206 227 255
206 227 255
206 227 255
206 227 255
206 227 255
206 227 255
206 227 255
206 227 255
206 227 255
206 227 255
205 227 255
205 227 255
205 227 255
205 227 255
205 227 255
205 227 255
205 227 255
205 227 255
205 227 255
205 227 255
205 227 255
205 226 255
205 226 255
205 226 255
205 226 255
205 226 255
205 226 255
205 226 255
204 226 255
204 226 255
204 226 255
204 226 255
204 226 255
204 226 255
204 226 255
204 226 255
204 226 255
204 226 255
204 226 255
204 226 255
204 226 255
204 226 255
204 226 255
204 226 255
204 226 255
204 226 255
204 226 255
204 226 255
203 226 255
203 226 255
203 226 255
203 226 255
203 226 255
203 226 255
203 226 255
203 226 255
203 226 255
203 226 255
203 225 255
203 225 255
203 225 255
203 225 255
203 225 255
203 225 255
203 225 255
203 225 255
203 225 255
203 225 255
203 225 255
203 225 255
203 225 255
203 225 255
203 225 255
203 225 255
203 225 255
203 225 255
203 225 255
203 225 255
202 225 255
202 225 255
202 225 255
202 225 255
202 225 255
202 225 255
202 225 255
202 225 255
202 225 255
202 225 255
202 225 255
202 225 255
202 225 255
202 225 255
202 225 255
202 225 255
202 225 255
202 225 255
202 225 255
202 225 255
202 225 255
202 225 255
202 225 255
202 225 255
202 225 255
202 225 255
202 225 255
202 225 255
202 225 255
202 225 255
202 225 255
202 225 255
203 225 255
203 225 255
203 225 255
203 225 255
203 225 255
203 225 255
203 225 255
203 225 255
203 225 255
203 225 255
203 225 255
203 225 255
203 225 255
203 225 255
203 225 255
203 225 255
203 225 255
203 225 255
203 225 255
203 225 255
203 226 255
203 226 255
203 226 255
203 226 255
203 226 255
203 226 255
203 226 255
203 226 255
203 226 255
203 226 255
204 226 255
204 226 255
204 226 255
204 226 255
204 226 255
204 226 255
204 226 255
204 226 255
204 226 255
204 226 255
204 226 255
204 226 255
204 226 255
204 226 255
204 226 255
204 226 255
204 226 255
204 226 255
204 226 255
204 226 255
205 226 255
205 226 255
205 226 255
205 226 255
205 226 255
205 226 255
205 226 255
205 227 255
205 227 255
205 227 255
205 227 255
205 227 255
205 227 255
205 227 255
205 227 255
205 227 255
205 227 255
205 227 255
206 227 255
206 227 255
206 227 255
206 227 255
206 227 255
206 227 255
206 227 255
206 227 255
206 227 255
206 227 255
206 227 255
206 227 255
206 227 255
206 227 255
206 227 255
206 227 255
206 227 255
207 227 255
207 227 255
207 227 255
207 227 255
207 228 255
207 228 255
207 228 255
207 228 255
207 228 255
207 228 255
207 228 255
207 228 255
207 228 255
207 228 255
207 228 255
207 228 255
207 228 255
207 228 255
208 228 255
208 228 255
208 228 255
208 228 255
199 218 243
185 201 217
181 194 202
164 174 175
153 158 141
140 140 108
137 135 90
123 120 80
139 137 91
133 132 88
130 128 85
138 135 90
135 134 90
126 124 82
139 136 90
141 139 93
133 132 88
130 128 85
135 134 90
134 131 87
137 135 90
135 133 88
142 140 93
137 134 90
129 126 84
139 136 90
140 137 90
125 122 80
135 134 89
136 134 88
142 139 92
141 138 92
133 130 86
135 131 86
135 133 87
135 131 87
128 127 84
139 135 89
142 140 93
140 136 89
136 133 87
137 135 90
131 129 86
133 131 85
120 117 75
142 139 91
128 125 83
128 124 80
155 157 137
156 158 140
178 188 189
182 195 205
187 201 217
203 221 246
210 229 255
210 229 255
210 230 255
210 230 255
210 230 255
211 230 255
211 230 255
211 230 255
211 230 255
211 230 255
211 230 255
211 230 255
211 230 255
211 230 255
211 230 255
211 230 255
211 230 255
211 230 255
211 230 255
211 230 255
211 230 255
211 230 255
211 230 255
211 230 255
211 230 255
211 230 255
211 230 255
211 230 255
211 230 255
211 230 255
211 230 255
211 230 255
211 230 255
211 230 255
211 230 255
211 230 255
211 230 255
211 230 255
211 230 255
211 230 255
211 230 255
211 230 255
211 230 255
210 229 254
210 230 255
211 230 255
209 229 253
209 228 253
210 229 253
210 229 253
209 228 252
208 228 252
210 229 254
210 229 255
206 227 249
208 228 250
207 227 248
207 228 255
205 227 253
207 227 255
207 228 254
206 227 255
207 227 255
206 227 253
206 227 254
204 226 254
204 226 255
204 226 254
206 227 255
205 227 255
204 226 254
206 227 255
204 226 255
204 226 255
205 226 255
203 226 255
204 226 255
204 226 255
203 225 254
204 226 254
204 226 255
204 226 255
204 226 255
205 226 254
204 226 254
205 226 254
202 225 253
204 226 254
205 226 254
205 226 254
204 225 250
206 227 255
205 226 254
205 226 253
204 226 254
204 226 249
207 228 253
205 226 248
207 227 252
207 228 254
208 228 254
208 228 255
208 228 255
208 228 255
208 228 255
208 228 255
208 228 255
208 228 255
207 228 255
207 228 255
207 228 255
207 228 255
207 228 255
207 228 255
207 228 255
207 228 255
207 228 255
207 228 255
207 228 255
207 228 255
207 228 255
207 227 255
207 227 255
207 227 255
207 227 255
207 227 255
206 227 255
206 227 255
206 227 255
206 227 255
206 227 255
206 227 255
206 227 255
206 227 255
206 227 255
206 227 255
206 227 255
206 227 255
206 227 255
206 227 255
206 227 255
206 227 255
206 227 255
205 227 255
205 227 255
205 227 255
205 227 255
205 227 255
205 227 255
205 227 255
205 227 255
205 227 255
205 227 255
205 227 255
205 226 255
205 226 255
205 226 255
205 226 255
205 226 255
205 226 255
205 226 255
204 226 255
204 226 255
204 226 255
204 226 255
204 226 255
204 226 255
204 226 255
204 226 255
204 226 255
204 226 255
204 226 255
204 226 255
204 226 255
204 226 255
204 226 255
204 226 255
204 226 255
204 226 255
204 226 255
204 226 255
204 226 255
203 226 255
203 226 255
203 226 255
203 226 255
203 226 255
203 226 255
203 226 255
203 226 255
203 226 255
203 226 255
203 226 255
203 226 255
203 225 255
203 225 255
203 225 255
203 225 255
203 225 255
203 225 255
203 225 255
203 225 255
203 225 255
203 225 255
203 225 255
203 225 255
203 225 255
203 225 255
203 225 255
203 225 255
203 225 255
203 225 255
203 225 255
203 225 255
203 225 255
203 225 255
203 225 255
203 225 255
203 225 255
203 225 255
203 225 255
203 225 255
203 225 255
203 225 255
203 225 255
203 225 255
203 225 255
203 225 255
203 225 255
203 225 255
203 225 255
203 225 255
203 225 255
203 225 255
203 225 255
203 225 255
203 225 255
203 225 255
203 225 255
203 225 255
203 225 255
203 225 255
203 225 255
203 225 255
203 225 255
203 225 255
203 225 255
203 225 255
203 225 255
203 225 255
203 225 255
203 225 255
203 226 255
203 226 255
203 226 255
203 226 255
203 226 255
203 226 255
203 226 255
203 226 255
203 226 255
203 226 255
203 226 255
203 226 255
204 226 255
204 226 255
204 226 255
204 226 255
204 226 255
204 226 255
204 226 255
204 226 255
204 226 255
204 226 255
204 226 255
204 226 255
204 226 255
204 226 255
204 226 255
204 226 255
204 226 255
204 226 255
204 226 255
204 226 255
205 226 255
205 226 255
205 226 255
205 226 255
205 226 255
205 226 255
205 226 255
205 226 255
205 227 255
205 227 255
205 227 255
205 227 255
205 227 255
205 227 255
205 227 255
205 227 255
205 227 255
205 227 255
205 227 255
206 227 255
206 227 255
206 227 255
206 227 255
206 227 255
206 227 255
206 227 255
206 227 255
206 227 255
206 227 255
206 227 255
206 227 255
206 227 255
206 227 255
206 227 255
206 227 255
206 227 255
207 227 255
207 227 255
207 227 255
207 227 255
207 227 255
207 228 255
207 228 255
207 228 255
207 228 255
207 228 255
207 228 255
207 228 255
207 228 255
207 228 255
207 228 255
207 228 255
207 228 255
207 228 255
208 228 255
208 228 255
208 228 255
203 222 246
184 198 212
167 177 176
149 156 151
145 147 120
139 138 93
134 133 89
134 132 88
129 127 84
133 130 87
130 128 86
125 124 83
130 128 85
139 136 90
128 126 84
137 135 90
143 141 94
137 135 90
125 124 83
135 132 88
142 140 93
133 132 88
135 133 89
137 135 90
139 137 92
135 133 89
134 133 89
129 128 85
141 139 93
129 128 85
146 144 97
136 134 88
140 138 93
138 136 90
143 140 93
137 135 90
134 131 87
126 125 84
131 129 85
138 135 89
138 136 91
129 127 84
134 131 87
140 137 90
136 132 87
139 137 89
140 137 90
123 121 80
129 127 84
135 133 88
123 120 79
128 126 83
135 132 85
131 127 82
137 134 88
125 122 80
129 127 83
129 126 80
131 128 84
140 141 114
161 168 161
175 185 188
189 203 218
202 220 244
211 230 255
211 230 255
211 230 255
211 230 255
211 230 255
211 230 255
211 230 255
211 230 255
211 230 255
211 230 255
211 230 255
211 230 255
211 230 255
211 230 255
211 230 255
211 230 255
211 230 255
211 230 255
211 230 255
211 230 255
211 230 255
211 230 255
211 230 255
211 230 255
211 230 255
211 230 255
211 230 255
211 230 255
211 230 255
211 230 255
211 230 255
211 230 255
211 230 255
211 230 255
211 230 254
211 230 254
212 230 254
210 229 250
211 229 254
210 229 254
209 229 254
207 227 248
208 228 252
208 228 250
207 227 252
207 228 253
207 228 254
208 228 255
206 227 254
206 227 254
207 227 255
206 227 255
206 227 255
206 227 254
205 226 254
205 227 255
204 226 255
204 226 255
204 226 255
204 226 255
203 225 254
203 226 255
203 226 255
203 225 255
202 225 255
203 225 255
203 225 255
201 224 254
203 226 255
202 225 255
203 226 255
201 224 255
202 225 255
202 225 255
202 225 255
202 225 255
201 224 255
202 225 254
203 225 255
202 225 255
202 225 255
202 225 255
202 225 254
202 225 255
203 225 255
202 225 255
204 226 255
202 225 255
204 226 255
204 226 255
205 226 255
204 226 253
203 225 253
204 226 254
204 226 253
204 226 253
206 227 255
204 225 252
206 227 253
205 226 248
208 228 255
208 228 255
208 228 255
208 228 255
208 228 255
208 228 255
207 228 255
207 228 255
207 228 255
207 228 255
207 228 255
207 228 255
207 228 255
207 228 255
207 228 255
207 228 255
207 228 255
207 228 255
207 228 255
207 228 255
207 227 255
207 227 255
207 227 255
207 227 255
206 227 255
206 227 255
206 227 255
206 227 255
206 227 255
206 227 255
206 227 255
206 227 255
206 227 255
206 227 255
206 227 255
206 227 255
206 227 255
206 227 255
206 227 255
206 227 255
206 227 255
206 227 255
205 227 255
205 227 255
205 227 255
205 227 255
205 227 255
205 227 255
205 227 255
205 227 255
205 227 255
205 227 255
205 227 255
205 226 255
205 226 255
205 226 255
205 226 255
205 226 255
205 226 255
205 226 255
205 226 255
204 226 255
204 226 255
204 226 255
204 226 255
204 226 255
204 226 255
204 226 255
204 226 255
204 226 255
204 226 255
204 226 255
204 226 255
204 226 255
204 226 255
204 226 255
204 226 255
204 226 255
204 226 255
204 226 255
204 226 255
204 226 255
204 226 255
203 226 255
203 226 255
203 226 255
203 226 255
203 226 255
203 226 255
203 226 255
203 226 255
203 226 255
203 226 255
203 226 255
203 226 255
203 226 255
203 226 255
203 226 255
203 225 255
203 225 255
203 225 255
203 225 255
203 225 255
203 225 255
203 225 255
203 225 255
203 225 255
203 225 255
203 225 255
203 225 255
203 225 255
203 225 255
203 225 255
203 225 255
203 225 255
203 225 255
203 225 255
203 225 255
203 225 255
203 225 255
203 225 255
203 225 255
203 225 255
203 225 255
203 225 255
203 225 255
203 225 255
203 225 255
203 225 255
203 225 255
203 225 255
203 225 255
203 225 255
203 225 255
203 225 255
203 225 255
203 225 255
203 225 255
203 226 255
203 226 255
203 226 255
203 226 255
203 226 255
203 226 255
203 226 255
203 226 255
203 226 255
203 226 255
203 226 255
203 226 255
203 226 255
203 226 255
203 226 255
204 226 255
204 226 255
204 226 255
204 226 255
204 226 255
204 226 255
204 226 255
204 226 255
204 226 255
204 226 255
204 226 255
204 226 255
204 226 255
204 226 255
204 226 255
204 226 255
204 226 255
204 226 255
204 226 255
204 226 255
204 226 255
204 226 255
205 226 255
205 226 255
205 226 255
205 226 255
205 226 255
205 226 255
205 226 255
205 226 255
205 227 255
205 227 255
205 227 255
205 227 255
205 227 255
205 227 255
205 227 255
205 227 255
205 227 255
205 227 255
205 227 255
206 227 255
206 227 255
206 227 255
206 227 255
206 227 255
206 227 255
206 227 255
206 227 255
206 227 255
206 227 255
206 227 255
206 227 255
206 227 255
206 227 255
206 227 255
206 227 255
206 227 255
206 227 255
207 227 255
207 227 255
207 227 255
207 227 255
207 228 255
207 228 255
207 228 255
207 228 255
207 228 255
207 228 255
207 228 255
207 228 255
207 228 255
207 228 255
207 228 255
207 228 255
207 228 255
207 228 255
208 228 255
208 228 255
196 214 235
185 199 211
161 169 163
134 135 107
129 127 85
127 125 84
130 129 87
130 129 86
135 134 90
128 127 85
133 131 87
135 134 90
145 143 96
128 126 84
145 144 97
131 129 86
139 137 92
135 134 90
132 131 88
134 133 89
146 144 96
135 134 90
141 138 92
134 133 89
139 137 91
143 142 95
134 131 87
130 128 86
143 141 95
140 139 93
140 138 92
141 139 93
138 136 91
143 141 95
143 141 94
138 136 91
139 137 92
147 144 95
145 143 95
144 141 94
136 134 89
141 138 92
133 130 85
146 144 97
146 144 95
144 141 94
135 133 88
132 130 87
140 137 90
147 145 96
143 140 93
133 131 85
137 134 87
126 124 83
137 135 89
146 142 93
135 131 86
139 136 89
135 130 84
140 135 88
128 125 81
123 121 79
139 136 90
128 125 82
136 132 84
141 136 87
136 132 84
125 122 79
149 152 132
157 163 156
167 178 183
199 215 236
211 230 255
211 230 255
211 230 255
211 230 255
211 230 255
211 230 255
211 230 255
211 230 255
211 230 255
211 230 255
211 230 255
211 230 255
211 230 255
211 230 255
212 230 255
212 230 255
212 230 255
212 230 255
211 230 255
211 230 255
211 230 255
211 230 255
211 230 255
211 230 255
211 230 255
211 230 255
210 229 254
212 230 254
211 229 253
211 230 255
210 229 253
209 228 253
210 229 254
209 228 253
208 228 253
208 228 252
208 228 253
208 228 254
208 228 255
208 228 254
208 228 255
207 227 255
207 228 255
206 227 255
207 228 255
206 227 255
205 227 254
204 226 255
205 226 255
204 226 255
204 226 255
205 226 255
203 226 255
204 226 255
202 225 255
203 225 255
202 225 255
202 225 254
201 224 255
202 225 255
201 224 254
201 224 255
202 225 255
201 224 254
200 224 255
201 224 255
200 224 255
200 224 253
200 224 255
199 223 255
200 224 255
200 224 255
200 224 255
199 223 254
200 224 255
199 223 255
199 223 254
199 223 255
200 224 255
201 224 255
200 224 255
200 224 255
200 224 255
201 224 255
201 224 255
201 225 255
202 225 255
201 224 255
202 225 255
202 225 255
203 225 255
203 226 255
205 226 255
203 226 254
206 227 254
205 226 252
205 226 252
204 226 252
206 227 253
206 227 252
206 227 253
207 227 254
208 228 255
208 228 255
208 228 255
208 228 255
207 228 255
207 228 255
207 228 255
207 228 255
207 228 255
207 228 255
207 228 255
207 228 255
207 228 255
207 228 255
207 228 255
207 228 255
207 228 255
207 228 255
207 227 255
207 227 255
207 227 255
207 227 255
206 227 255
206 227 255
206 227 255
206 227 255
206 227 255
206 227 255
206 227 255
206 227 255
206 227 255
206 227 255
206 227 255
206 227 255
206 227 255
206 227 255
206 227 255
206 227 255
206 227 255
206 227 255
205 227 255
205 227 255
205 227 255
205 227 255
205 227 255
205 227 255
205 227 255
205 227 255
205 227 255
205 227 255
205 227 255
205 226 255
205 226 255
205 226 255
205 226 255
205 226 255
205 226 255
205 226 255
205 226 255
204 226 255
204 226 255
204 226 255
204 226 255
204 226 255
204 226 255
204 226 255
204 226 255
204 226 255
204 226 255
204 226 255
204 226 255
204 226 255
204 226 255
204 226 255
204 226 255
204 226 255
204 226 255
204 226 255
204 226 255
204 226 255
204 226 255
204 226 255
204 226 255
204 226 255
203 226 255
203 226 255
203 226 255
203 226 255
203 226 255
203 226 255
203 226 255
203 226 255
203 226 255
203 226 255
203 226 255
203 226 255
203 226 255
203 226 255
203 226 255
203 226 255
203 226 255
203 226 255
203 226 255
203 226 255
203 226 255
203 226 255
203 226 255
203 226 255
203 226 255
203 226 255
203 226 255
203 226 255
203 226 255
203 226 255
203 226 255
203 226 255
203 226 255
203 226 255
203 226 255
203 226 255
203 226 255
203 226 255
203 226 255
203 226 255
203 226 255
203 226 255
203 226 255
203 226 255
203 226 255
203 226 255
203 226 255
203 226 255
203 226 255
203 226 255
203 226 255
203 226 255
203 226 255
203 226 255
203 226 255
204 226 255
204 226 255
204 226 255
204 226 255
204 226 255
204 226 255
204 226 255
204 226 255
204 226 255
204 226 255
204 226 255
204 226 255
204 226 255
204 226 255
204 226 255
204 226 255
204 226 255
204 226 255
204 226 255
204 226 255
204 226 255
204 226 255
204 226 255
204 226 255
204 226 255
204 226 255
205 226 255
205 226 255
205 226 255
205 226 255
205 226 255
205 226 255
205 226 255
205 226 255
205 227 255
205 227 255
205 227 255
205 227 255
205 227 255
205 227 255
205 227 255
205 227 255
205 227 255
205 227 255
205 227 255
206 227 255
206 227 255
206 227 255
206 227 255
206 227 255
206 227 255
206 227 255
206 227 255
206 227 255
206 227 255
206 227 255
206 227 255
206 227 255
206 227 255
206 227 255
206 227 255
206 227 255
206 227 255
207 227 255
207 227 255
207 227 255
207 227 255
207 228 255
207 228 255
207 228 255
207 228 255
207 228 255
207 228 255
207 228 255
207 228 255
207 228 255
207 228 255
207 228 255
207 228 255
207 228 255
207 228 255
208 228 255
208 228 255
202 221 245
178 192 206
153 162 161
145 147 123
130 128 85
131 129 86
130 128 85
132 131 87
136 134 90
132 130 87
129 128 86
145 144 97
130 128 86
136 135 91
141 139 93
135 134 90
130 129 87
135 134 90
138 137 92
129 128 86
142 140 94
144 143 96
143 141 95
144 142 95
140 138 93
140 138 92
146 143 95
143 141 94
139 137 92
142 141 95
145 143 95
136 134 90
142 140 93
145 143 96
141 139 93
140 138 93
137 135 90
145 143 95
142 140 94
142 140 93
145 144 97
148 146 97
131 129 85
139 137 92
137 134 89
142 140 92
144 142 95
145 142 94
141 139 93
134 131 87
141 137 90
142 140 93
131 128 85
143 141 92
140 136 90
141 139 93
146 143 95
129 127 83
143 140 91
136 134 89
146 144 93
137 134 88
133 130 85
141 138 92
125 122 80
146 142 92
135 132 87
137 134 87
134 131 84
129 126 80
128 125 82
137 134 85
134 131 85
127 123 79
128 124 80
140 136 89
148 149 119
153 161 162
186 199 211
200 217 239
211 230 255
211 230 255
211 230 255
211 230 255
211 230 255
211 230 255
212 230 255
212 230 255
212 230 255
212 230 255
212 230 255
212 230 255
212 230 255
212 230 255
212 230 255
212 230 255
212 230 255
212 230 255
212 230 254
212 230 254
212 230 255
210 229 253
211 230 255
210 229 255
209 228 253
209 228 249
209 228 252
209 228 254
209 228 254
208 228 253
208 228 255
208 228 255
208 228 255
207 227 255
207 228 255
207 227 255
207 228 255
206 227 255
205 226 255
204 226 254
205 226 255
205 226 255
205 226 255
203 225 254
203 225 255
202 225 255
202 225 255
201 224 254
202 225 255
201 225 255
201 224 255
201 225 255
201 225 255
200 224 255
201 224 255
200 224 255
199 223 255
199 223 255
199 223 254
199 223 255
200 224 255
199 223 255
199 223 255
198 223 255
198 223 254
197 222 255
197 222 255
198 223 255
198 223 255
198 222 254
197 222 255
198 223 255
198 223 255
198 222 254
198 223 255
198 223 255
198 223 255
199 223 255
199 223 255
197 222 255
198 223 255
198 223 255
199 223 255
199 223 255
198 223 255
200 224 255
200 224 255
201 224 255
201 225 255
201 225 255
202 225 255
202 225 255
201 225 255
203 226 255
203 226 254
204 226 253
204 225 250
207 227 254
207 228 254
207 227 255
208 228 252
207 228 254
207 228 255
208 228 255
208 228 255
208 228 255
207 228 255
207 228 255
207 228 255
207 228 255
207 228 255
207 228 255
207 228 255
207 228 255
207 228 255
207 228 255
207 228 255
207 228 255
207 228 255
207 228 255
207 227 255
207 227 255
207 227 255
207 227 255
206 227 255
206 227 255
206 227 255
206 227 255
206 227 255
206 227 255
206 227 255
206 227 255
206 227 255
206 227 255
206 227 255
206 227 255
206 227 255
206 227 255
206 227 255
206 227 255
206 227 255
206 227 255
205 227 255
205 227 255
205 227 255
205 227 255
205 227 255
205 227 255
205 227 255
205 227 255
205 227 255
205 227 255
205 227 255
205 227 255
205 226 255
205 226 255
205 226 255
205 226 255
205 226 255
205 226 255
205 226 255
205 226 255
205 226 255
204 226 255
204 226 255
204 226 255
204 226 255
204 226 255
204 226 255
204 226 255
204 226 255
204 226 255
204 226 255
204 226 255
204 226 255
204 226 255
204 226 255
204 226 255
204 226 255
204 226 255
204 226 255
204 226 255
204 226 255
204 226 255
204 226 255
204 226 255
204 226 255
204 226 255
204 226 255
204 226 255
204 226 255
204 226 255
203 226 255
203 226 255
203 226 255
203 226 255
203 226 255
203 226 255
203 226 255
203 226 255
203 226 255
203 226 255
203 226 255
203 226 255
203 226 255
203 226 255
203 226 255
203 226 255
203 226 255
203 226 255
203 226 255
203 226 255
203 226 255
203 226 255
203 226 255
203 226 255
203 226 255
203 226 255
203 226 255
203 226 255
203 226 255
203 226 255
203 226 255
203 226 255
203 226 255
203 226 255
203 226 255
203 226 255
204 226 255
204 226 255
204 226 255
204 226 255
204 226 255
204 226 255
204 226 255
204 226 255
204 226 255
204 226 255
204 226 255
204 226 255
204 226 255
204 226 255
204 226 255
204 226 255
204 226 255
204 226 255
204 226 255
204 226 255
204 226 255
204 226 255
204 226 255
204 226 255
204 226 255
204 226 255
204 226 255
204 226 255
204 226 255
204 226 255
205 226 255
205 226 255
205 226 255
205 226 255
205 226 255
205 226 255
205 226 255
205 226 255
205 227 255
205 227 255
205 227 255
205 227 255
205 227 255
205 227 255
205 227 255
205 227 255
205 227 255
205 227 255
205 227 255
205 227 255
206 227 255
206 227 255
206 227 255
206 227 255
206 227 255
206 227 255
206 227 255
206 227 255
206 227 255
206 227 255
206 227 255
206 227 255
206 227 255
206 227 255
206 227 255
206 227 255
206 227 255
206 227 255
207 227 255
207 227 255
207 227 255
207 227 255
207 228 255
207 228 255
207 228 255
207 228 255
207 228 255
207 228 255
207 228 255
207 228 255
207 228 255
207 228 255
207 228 255
207 228 255
207 228 255
207 228 255
208 228 255
208 228 255
208 228 255
197 215 237
162 173 182
153 158 144
137 136 95
134 133 89
135 132 88
123 122 82
138 136 91
132 131 88
136 135 90
132 131 87
137 136 91
138 137 92
134 133 89
141 139 93
142 140 94
134 132 88
132 130 87
147 146 97
138 138 93
142 140 94
140 138 93
135 133 89
144 143 96
144 142 95
145 144 97
143 141 95
145 143 95
149 147 99
142 141 95
132 131 88
141 140 94
148 146 97
151 149 100
139 137 92
147 145 97
145 143 95
152 148 98
147 145 97
139 137 92
142 140 94
143 141 94
125 123 83
142 140 94
149 147 98
134 132 88
135 132 87
145 143 96
132 130 86
137 136 89
149 147 98
144 143 95
140 138 92
146 144 96
136 133 89
143 140 91
135 133 87
153 150 100
145 142 93
140 137 91
144 142 94
129 127 84
134 130 84
142 139 90
142 139 91
144 140 90
142 138 90
135 131 84
145 141 92
146 143 95
136 132 85
131 128 84
137 134 88
130 128 84
145 142 92
131 127 84
151 147 95
130 127 81
133 129 80
125 122 75
140 135 87
141 136 85
132 129 80
155 158 139
171 181 183
202 217 234
212 230 255
212 230 255
212 230 255
212 230 255
212 230 255
212 230 255
212 230 255
212 230 255
212 230 255
212 230 255
212 230 255
212 230 255
213 231 255
211 230 254
210 229 252
211 230 252
211 229 252
210 229 252
210 229 254
208 228 249
209 228 249
210 229 253
209 229 254
207 228 255
209 229 255
207 228 255
208 228 255
208 228 255
206 227 255
207 228 255
205 227 255
206 227 255
205 226 254
205 226 255
204 226 255
203 225 255
204 226 255
203 225 254
203 226 255
202 225 255
202 225 255
202 225 255
202 225 255
201 224 255
200 224 255
200 224 255
200 224 254
199 223 255
200 224 255
199 223 254
200 224 255
198 223 255
199 223 255
198 223 255
198 223 255
198 223 255
198 223 255
197 222 255
197 222 255
197 222 255
197 222 255
197 222 255
196 222 255
195 221 255
196 222 255
195 221 255
197 222 255
196 222 255
196 222 255
196 222 255
196 222 255
196 222 255
196 222 255
196 222 255
196 222 255
195 221 255
195 221 255
196 222 255
196 222 254
197 222 255
197 222 255
197 222 255
198 223 255
197 222 255
198 223 255
199 223 255
197 223 255
200 224 255
199 223 254
200 224 255
201 224 255
200 224 255
202 225 255
203 226 255
203 225 253
204 226 255
202 225 252
205 227 253
206 227 252
207 227 255
205 226 252
208 228 255
207 228 255
208 228 255
208 228 255
208 228 255
208 228 255
207 228 255
207 228 255
207 228 255
207 228 255
207 228 255
207 228 255
207 228 255
207 228 255
207 228 255
207 228 255
207 228 255
207 228 255
207 228 255
207 228 255
207 227 255
207 227 255
207 227 255
207 227 255
206 227 255
206 227 255
206 227 255
206 227 255
206 227 255
206 227 255
206 227 255
206 227 255
206 227 255
206 227 255
206 227 255
206 227 255
206 227 255
206 227 255
206 227 255
206 227 255
206 227 255
206 227 255
206 227 255
205 227 255
205 227 255
205 227 255
205 227 255
205 227 255
205 227 255
205 227 255
205 227 255
205 227 255
205 227 255
205 227 255
205 227 255
205 226 255
205 226 255
205 226 255
205 226 255
205 226 255
205 226 255
205 226 255
205 226 255
205 226 255
204 226 255
204 226 255
204 226 255
204 226 255
204 226 255
204 226 255
204 226 255
204 226 255
204 226 255
204 226 255
204 226 255
204 226 255
204 226 255
204 226 255
204 226 255
204 226 255
204 226 255
204 226 255
204 226 255
204 226 255
204 226 255
204 226 255
204 226 255
204 226 255
204 226 255
204 226 255
204 226 255
204 226 255
204 226 255
204 226 255
204 226 255
204 226 255
204 226 255
204 226 255
204 226 255
204 226 255
204 226 255
204 226 255
204 226 255
204 226 255
204 226 255
204 226 255
204 226 255
204 226 255
204 226 255
204 226 255
204 226 255
204 226 255
204 226 255
204 226 255
204 226 255
204 226 255
204 226 255
204 226 255
204 226 255
204 226 255
204 226 255
204 226 255
204 226 255
204 226 255
204 226 255
204 226 255
204 226 255
204 226 255
204 226 255
204 226 255
204 226 255
204 226 255
204 226 255
204 226 255
204 226 255
204 226 255
204 226 255
204 226 255
204 226 255
204 226 255
204 226 255
204 226 255
204 226 255
204 226 255
204 226 255
204 226 255
204 226 255
204 226 255
205 226 255
205 226 255
205 226 255
205 226 255
205 226 255
205 226 255
205 226 255
205 226 255
205 226 255
205 227 255
205 227 255
205 227 255
205 227 255
205 227 255
205 227 255
205 227 255
205 227 255
205 227 255
205 227 255
205 227 255
205 227 255
206 227 255
206 227 255
206 227 255
206 227 255
206 227 255
206 227 255
206 227 255
206 227 255
206 227 255
206 227 255
206 227 255
206 227 255
206 227 255
206 227 255
206 227 255
206 227 255
206 227 255
206 227 255
206 227 255
207 227 255
207 227 255
207 227 255
207 227 255
207 228 255
207 228 255
207 228 255
207 228 255
207 228 255
207 228 255
207 228 255
207 228 255
207 228 255
207 228 255
207 228 255
207 228 255
207 228 255
207 228 255
208 228 255
208 228 255
208 228 255
207 227 254
188 205 225
168 176 174
140 142 118
129 127 84
134 133 89
137 135 90
139 137 92
144 142 95
129 127 84
139 138 93
133 132 88
132 130 87
129 128 86
139 137 92
136 134 90
143 142 95
143 142 95
135 134 90
141 140 94
139 138 93
139 137 92
136 135 91
149 147 99
146 145 97
142 140 94
145 143 96
145 144 97
148 147 99
143 141 95
144 142 95
145 144 97
147 146 98
147 145 97
142 140 93
147 145 97
142 141 95
141 140 93
142 141 94
137 135 90
144 141 94
151 149 100
151 149 100
150 148 99
144 142 95
144 142 95
148 147 99
144 142 95
155 153 101
145 143 95
150 146 97
151 148 98
146 143 95
136 134 89
143 140 93
148 146 96
142 140 93
146 143 95
137 135 90
144 140 92
146 142 94
143 141 93
145 142 93
148 144 95
151 148 98
135 132 86
150 147 98
142 139 93
134 131 87
142 139 90
140 137 91
139 136 87
152 148 97
139 136 89
141 138 90
145 141 92
131 129 84
137 133 87
135 133 87
129 126 80
135 132 86
143 139 91
133 129 83
130 126 80
139 137 88
139 135 87
136 132 85
132 128 83
136 132 84
130 126 76
141 141 112
170 179 181
198 213 229
212 230 255
212 230 255
212 230 255
212 230 255
212 230 255
212 230 255
212 230 255
211 230 253
212 230 252
211 230 254
211 229 252
210 230 255
211 230 255
209 229 253
210 229 254
209 229 253
209 229 253
209 229 255
209 229 255
208 228 255
207 228 255
206 227 255
206 227 255
206 227 255
207 228 255
206 227 255
204 226 255
204 226 255
205 227 255
203 226 255
203 226 255
204 226 255
203 226 255
202 225 255
202 225 254
202 225 255
201 224 255
201 224 255
201 224 255
201 224 255
199 224 255
200 224 255
200 224 255
198 223 255
199 223 255
198 223 255
198 223 255
198 223 255
197 222 255
198 223 255
196 222 255
196 222 255
196 222 255
196 222 255
196 222 255
195 221 255
195 221 255
195 221 255
195 221 255
194 221 255
194 221 255
195 221 255
195 221 255
195 221 255
194 221 255
194 221 255
194 221 255
194 220 255
194 221 255
194 221 255
194 221 255
195 221 255
194 221 255
194 221 255
193 220 255
195 221 255
195 221 255
195 221 255
196 222 255
196 222 255
195 221 255
196 222 255
196 222 255
197 222 254
197 222 255
197 222 255
198 223 255
198 223 255
197 222 254
200 224 255
200 224 255
201 225 255
200 224 255
204 226 255
204 226 255
203 225 253
205 226 254
206 227 254
204 225 248
206 227 253
207 228 255
207 228 255
208 228 255
208 228 255
208 228 255
208 228 255
208 228 255
208 228 255
207 228 255
207 228 255
207 228 255
207 228 255
207 228 255
207 228 255
207 228 255
207 228 255
207 228 255
207 228 255
207 228 255
207 228 255
207 228 255
207 228 255
207 227 255
207 227 255
207 227 255
207 227 255
206 227 255
206 227 255
206 227 255
206 227 255
206 227 255
206 227 255
206 227 255
206 227 255
206 227 255
206 227 255
206 227 255
206 227 255
206 227 255
206 227 255
206 227 255
206 227 255
206 227 255
206 227 255
206 227 255
206 227 255
205 227 255
205 227 255
205 227 255
205 227 255
205 227 255
205 227 255
205 227 255
205 227 255
205 227 255
205 227 255
205 227 255
205 227 255
205 226 255
205 226 255
205 226 255
205 226 255
205 226 255
205 226 255
205 226 255
205 226 255
205 226 255
205 226 255
204 226 255
204 226 255
204 226 255
204 226 255
204 226 255
204 226 255
204 226 255
204 226 255
204 226 255
204 226 255
204 226 255
204 226 255
204 226 255
204 226 255
204 226 255
204 226 255
204 226 255
204 226 255
204 226 255
204 226 255
204 226 255
204 226 255
204 226 255
204 226 255
204 226 255
204 226 255
204 226 255
204 226 255
204 226 255
204 226 255
204 226 255
204 226 255
204 226 255
204 226 255
204 226 255
204 226 255
204 226 255
204 226 255
204 226 255
204 226 255
204 226 255
204 226 255
204 226 255
204 226 255
204 226 255
204 226 255
204 226 255
204 226 255
204 226 255
204 226 255
204 226 255
204 226 255
204 226 255
204 226 255
204 226 255
204 226 255
204 226 255
204 226 255
204 226 255
204 226 255
204 226 255
204 226 255
204 226 255
204 226 255
204 226 255
204 226 255
204 226 255
204 226 255
204 226 255
204 226 255
204 226 255
205 226 255
205 226 255
205 226 255
205 226 255
205 226 255
205 226 255
205 226 255
205 226 255
205 226 255
205 226 255
205 226 255
205 227 255
205 227 255
205 227 255
205 227 255
205 227 255
205 227 255
205 227 255
205 227 255
205 227 255
205 227 255
205 227 255
205 227 255
206 227 255
206 227 255
206 227 255
206 227 255
206 227 255
206 227 255
206 227 255
206 227 255
206 227 255
206 227 255
206 227 255
206 227 255
206 227 255
206 227 255
206 227 255
206 227 255
206 227 255
206 227 255
206 227 255
206 227 255
207 227 255
207 227 255
207 227 255
207 227 255
207 228 255
207 228 255
207 228 255
207 228 255
207 228 255
207 228 255
207 228 255
207 228 255
207 228 255
207 228 255
207 228 255
207 228 255
207 228 255
207 228 255
208 228 255
208 228 255
208 228 255
208 228 255
208 228 255
198 217 240
175 186 189
142 147 131
135 133 89
128 127 85
131 130 87
129 128 85
123 121 81
137 136 91
137 135 90
132 131 87
138 136 91
137 136 92
136 135 90
142 140 94
144 142 95
132 131 88
137 137 92
135 134 90
140 139 94
138 138 93
147 146 98
151 149 100
141 140 94
151 150 101
147 146 98
142 141 95
146 144 97
147 145 97
149 148 99
148 146 98
140 140 94
145 144 97
143 142 95
148 146 98
142 140 93
142 140 94
144 143 96
141 140 94
136 134 90
149 146 97
152 149 99
144 142 95
147 145 97
144 142 95
137 137 92
153 151 99
152 149 99
155 153 101
147 145 97
146 143 95
138 137 91
143 140 92
151 149 99
150 147 98
148 145 96
141 138 92
151 148 98
149 145 96
141 138 92
140 137 89
145 143 93
152 149 99
142 139 91
152 149 97
150 147 97
139 137 92
139 137 90
136 133 87
138 135 88
149 145 95
141 137 90
144 140 91
148 144 95
135 133 87
140 137 90
142 139 91
144 141 91
151 148 97
140 137 88
134 131 85
134 130 86
140 138 93
144 141 92
139 137 89
141 138 89
147 143 90
140 135 87
139 137 88
148 143 90
134 131 85
137 134 87
138 135 87
141 137 88
141 136 87
155 158 137
180 188 188
199 216 238
212 230 255
212 230 253
213 231 253
211 229 253
210 229 250
211 230 254
210 229 252
210 229 255
209 229 253
209 229 255
210 229 255
210 229 255
208 228 255
207 228 254
208 228 255
206 227 255
207 228 255
207 228 255
207 227 255
206 227 255
206 227 255
204 226 255
204 226 255
204 226 255
203 225 255
203 225 255
202 225 254
202 225 255
202 225 254
202 225 255
201 224 255
201 224 255
200 224 255
200 224 255
199 223 255
200 224 255
199 223 255
199 223 255
198 223 255
198 223 255
197 222 255
198 223 255
197 222 255
196 222 255
196 222 255
196 221 255
196 221 255
196 222 255
195 221 255
194 221 255
194 221 255
194 221 255
194 221 255
194 220 255
194 220 255
193 220 255
193 220 255
193 220 255
193 220 255
193 220 255
193 220 255
193 220 255
193 220 255
193 220 255
192 220 255
192 220 255
192 220 255
193 220 255
192 220 255
192 220 255
192 220 255
193 220 255
193 220 255
193 220 255
193 220 255
193 220 255
194 220 255
193 220 255
194 221 255
194 220 255
194 221 255
194 221 255
194 221 255
195 221 255
196 222 255
197 222 255
197 222 255
197 222 255
197 222 255
200 224 255
198 223 255
200 224 255
200 224 254
202 225 255
202 225 255
204 226 255
204 226 253
205 226 255
207 228 255
206 227 254
208 228 255
208 228 255
208 228 255
208 228 255
208 228 255
208 228 255
208 228 255
208 228 255
208 228 255
207 228 255
207 228 255
207 228 255
207 228 255
207 228 255
207 228 255
207 228 255
207 228 255
207 228 255
207 228 255
207 228 255
207 228 255
207 228 255
207 228 255
207 227 255
207 227 255
207 227 255
207 227 255
207 227 255
206 227 255
206 227 255
206 227 255
206 227 255
206 227 255
206 227 255
206 227 255
206 227 255
206 227 255
206 227 255
206 227 255
206 227 255
206 227 255
206 227 255
206 227 255
206 227 255
206 227 255
206 227 255
206 227 255
205 227 255
205 227 255
205 227 255
205 227 255
205 227 255
205 227 255
205 227 255
205 227 255
205 227 255
205 227 255
205 227 255
205 227 255
205 227 255
205 227 255
205 226 255
205 226 255
205 226 255
205 226 255
205 226 255
205 226 255
205 226 255
205 226 255
205 226 255
205 226 255
205 226 255
205 226 255
204 226 255
204 226 255
204 226 255
204 226 255
204 226 255
204 226 255
204 226 255
204 226 255
204 226 255
204 226 255
204 226 255
204 226 255
204 226 255
204 226 255
204 226 255
204 226 255
204 226 255
204 226 255
204 226 255
204 226 255
204 226 255
204 226 255
204 226 255
204 226 255
204 226 255
204 226 255
204 226 255
204 226 255
204 226 255
204 226 255
204 226 255
204 226 255
204 226 255
204 226 255
204 226 255
204 226 255
204 226 255
204 226 255
204 226 255
204 226 255
204 226 255
204 226 255
204 226 255
204 226 255
204 226 255
204 226 255
204 226 255
204 226 255
204 226 255
204 226 255
204 226 255
204 226 255
204 226 255
204 226 255
204 226 255
204 226 255
205 226 255
205 226 255
205 226 255
205 226 255
205 226 255
205 226 255
205 226 255
205 226 255
205 226 255
205 226 255
205 226 255
205 226 255
205 227 255
205 227 255
205 227 255
205 227 255
205 227 255
205 227 255
205 227 255
205 227 255
205 227 255
205 227 255
205 227 255
205 227 255
205 227 255
205 227 255
206 227 255
206 227 255
206 227 255
206 227 255
206 227 255
206 227 255
206 227 255
206 227 255
206 227 255
206 227 255
206 227 255
206 227 255
206 227 255
206 227 255
206 227 255
206 227 255
206 227 255
206 227 255
206 227 255
206 227 255
207 227 255
207 227 255
207 227 255
207 227 255
207 228 255
207 228 255
207 228 255
207 228 255
207 228 255
207 228 255
207 228 255
207 228 255
207 228 255
207 228 255
207 228 255
207 228 255
207 228 255
207 228 255
208 228 255
208 228 255
208 228 255
208 228 255
208 228 255
208 228 255
206 226 253
182 196 207
160 165 151
132 131 90
130 128 85
132 131 87
138 137 92
129 128 86
135 134 90
139 138 93
145 143 95
128 127 85
136 135 91
134 134 90
141 140 94
146 145 97
147 146 98
142 141 95
141 140 95
149 148 99
139 137 92
145 143 96
148 147 99
145 144 97
146 144 97
144 144 97
153 151 101
146 145 97
143 141 95
144 142 95
146 145 97
145 144 97
145 143 96
143 141 95
146 144 97
146 145 97
144 142 95
143 141 94
148 146 98
148 146 97
150 148 99
145 143 96
152 150 101
149 147 98
137 135 90
151 150 100
145 143 95
143 141 93
151 149 99
154 152 101
139 137 91
150 148 99
144 142 94
154 152 101
142 139 93
139 138 91
151 150 99
143 140 93
139 137 91
147 144 96
149 146 97
149 146 97
151 149 98
144 141 94
143 140 93
126 124 80
146 143 95
138 136 91
144 141 94
147 143 95
142 140 93
149 145 93
152 148 97
142 139 92
154 151 99
139 136 88
139 136 88
145 142 93
147 145 95
139 135 87
149 146 95
134 132 84
147 143 93
140 136 87
140 136 86
150 146 96
136 133 84
140 137 89
138 135 86
141 138 87
147 143 90
144 140 90
142 137 87
134 131 83
127 123 78
139 135 84
132 129 80
130 126 80
136 132 84
117 114 73
123 120 79
153 155 136
210 229 250
210 229 250
211 229 253
209 228 250
209 229 255
210 229 254
209 229 254
209 229 254
209 229 255
209 228 255
209 228 255
207 228 255
207 227 255
207 228 255
206 227 255
206 227 255
205 227 255
204 226 254
204 226 255
204 226 255
204 226 255
203 226 255
202 225 255
202 225 255
202 225 255
202 225 255
201 224 255
200 224 255
200 224 255
200 224 255
200 224 255
199 223 255
199 223 255
198 223 255
199 223 255
198 223 255
197 222 255
197 222 255
197 222 255
196 222 255
196 222 255
196 222 255
195 221 255
195 221 255
195 221 255
195 221 255
195 221 255
194 221 255
194 220 255
193 220 255
194 220 255
193 220 255
193 220 255
192 220 255
193 220 255
192 220 255
192 220 255
191 219 255
192 219 255
191 219 255
192 219 255
192 220 255
191 219 255
191 219 255
191 219 255
191 219 255
191 219 255
190 219 255
191 219 255
191 219 255
191 219 255
191 219 255
191 219 255
191 219 255
191 219 255
191 219 255
192 220 255
192 220 255
193 220 255
193 220 255
193 220 255
192 220 255
193 220 255
194 221 255
195 221 255
195 221 255
195 221 255
196 222 255
197 222 253
197 222 255
197 222 255
199 223 255
199 223 255
199 224 255
201 224 255
202 225 255
201 224 255
203 225 253
205 226 252
205 226 255
207 227 252
207 228 253
208 228 253
208 228 255
208 228 255
208 228 255
208 228 255
208 228 255
208 228 255
208 228 255
208 228 255
208 228 255
207 228 255
207 228 255
207 228 255
207 228 255
207 228 255
207 228 255
207 228 255
207 228 255
207 228 255
207 228 255
207 228 255
207 228 255
207 228 255
207 228 255
207 227 255
207 227 255
207 227 255
207 227 255
207 227 255
206 227 255
206 227 255
206 227 255
206 227 255
206 227 255
206 227 255
206 227 255
206 227 255
206 227 255
206 227 255
206 227 255
206 227 255
206 227 255
206 227 255
206 227 255
206 227 255
206 227 255
206 227 255
206 227 255
206 227 255
206 227 255
205 227 255
205 227 255
205 227 255
205 227 255
205 227 255
205 227 255
205 227 255
205 227 255
205 227 255
205 227 255
205 227 255
205 227 255
205 227 255
205 227 255
205 227 255
205 226 255
205 226 255
205 226 255
205 226 255
205 226 255
205 226 255
205 226 255
205 226 255
205 226 255
205 226 255
205 226 255
205 226 255
205 226 255
205 226 255
205 226 255
204 226 255
204 226 255
204 226 255
204 226 255
204 226 255
204 226 255
204 226 255
204 226 255
204 226 255
204 226 255
204 226 255
204 226 255
204 226 255
204 226 255
204 226 255
204 226 255
204 226 255
204 226 255
204 226 255
204 226 255
204 226 255
204 226 255
204 226 255
204 226 255
204 226 255
204 226 255
204 226 255
204 226 255
204 226 255
204 226 255
204 226 255
204 226 255
204 226 255
204 226 255
204 226 255
205 226 255
205 226 255
205 226 255
205 226 255
205 226 255
205 226 255
205 226 255
205 226 255
205 226 255
205 226 255
205 226 255
205 226 255
205 226 255
205 226 255
205 226 255
205 226 255
205 227 255
205 227 255
205 227 255
205 227 255
205 227 255
205 227 255
205 227 255
205 227 255
205 227 255
205 227 255
205 227 255
205 227 255
205 227 255
205 227 255
205 227 255
206 227 255
206 227 255
206 227 255
206 227 255
206 227 255
206 227 255
206 227 255
206 227 255
206 227 255
206 227 255
206 227 255
206 227 255
206 227 255
206 227 255
206 227 255
206 227 255
206 227 255
206 227 255
206 227 255
206 227 255
206 227 255
207 227 255
207 227 255
207 227 255
207 227 255
207 227 255
207 228 255
207 228 255
207 228 255
207 228 255
207 228 255
207 228 255
207 228 255
207 228 255
207 228 255
207 228 255
207 228 255
207 228 255
207 228 255
207 228 255
208 228 255
208 228 255
208 228 255
208 228 255
208 228 255
208 228 255
208 228 255
208 228 255
190 206 226
177 188 192
133 132 99
145 143 96
135 134 90
139 138 93
145 144 96
143 142 95
139 138 93
141 140 94
129 128 86
139 138 93
140 139 93
136 135 90
145 143 96
144 143 96
148 147 99
141 140 94
151 151 102
140 139 93
144 144 97
147 146 98
141 140 94
152 150 101
144 143 96
143 142 95
140 139 94
152 151 101
148 146 97
148 146 97
132 131 87
143 141 95
145 144 97
145 143 96
146 144 97
153 151 101
150 148 99
148 146 98
146 144 96
150 149 100
145 143 95
150 148 99
149 147 99
145 144 97
142 140 94
144 142 95
150 147 97
147 145 97
150 148 99
149 147 98
150 148 99
157 153 102
148 147 98
144 142 93
146 143 95
150 148 99
151 148 99
148 146 97
150 147 97
145 143 95
148 146 96
146 143 95
154 150 99
149 145 95
151 148 97
155 152 100
148 145 96
151 148 97
145 142 93
149 146 95
149 146 96
150 147 97
143 140 93
152 149 97
139 136 88
148 145 93
145 142 93
140 137 89
146 144 95
148 146 95
140 137 89
149 146 95
143 140 91
155 151 98
144 141 90
146 143 93
148 144 93
144 139 90
131 129 84
136 133 86
138 135 87
144 141 92
137 134 87
140 136 87
138 134 86
133 128 80
140 137 87
144 141 90
136 132 84
141 137 88
140 136 84
142 139 87
131 127 81
125 122 77
211 229 253
209 228 248
209 228 252
211 230 255
209 229 255
209 229 255
209 229 255
209 228 255
208 228 255
208 228 255
207 228 255
207 228 255
206 227 255
206 227 255
205 226 254
205 226 254
204 226 255
205 226 255
204 226 255
204 226 255
203 225 255
203 225 255
202 225 255
202 225 255
201 224 255
201 224 255
200 224 255
199 224 255
200 224 255
199 223 255
199 223 255
198 223 255
198 223 255
198 223 255
198 223 255
196 222 255
197 222 255
196 222 255
196 222 255
196 222 255
195 221 255
195 221 255
195 221 255
194 221 255
194 221 255
194 221 255
193 220 255
193 220 255
193 220 255
192 220 255
192 220 255
192 219 255
192 219 255
191 219 255
191 219 255
191 219 255
191 219 255
191 219 255
190 219 255
191 219 255
190 219 255
191 219 255
190 219 255
190 218 255
190 219 255
189 218 255
189 218 255
189 218 255
190 218 255
190 218 255
189 218 255
190 218 255
189 218 255
189 218 255
189 218 255
190 218 255
190 219 255
190 219 255
190 219 255
190 219 255
191 219 255
191 219 255
191 219 255
192 220 255
192 219 255
193 220 255
193 220 255
194 220 255
193 220 255
195 221 255
195 221 255
197 222 255
196 222 255
197 222 255
197 222 255
198 223 255
200 224 255
200 224 254
202 225 255
204 226 255
205 227 255
205 226 253
205 226 253
206 227 253
206 227 250
207 228 254
208 228 255
208 228 255
208 228 255
208 228 255
208 228 255
208 228 255
208 228 255
208 228 255
208 228 255
208 228 255
207 228 255
207 228 255
207 228 255
207 228 255
207 228 255
207 228 255
207 228 255
207 228 255
207 228 255
207 228 255
207 228 255
207 228 255
207 228 255
207 228 255
207 228 255
207 227 255
207 227 255
207 227 255
207 227 255
207 227 255
206 227 255
206 227 255
206 227 255
206 227 255
206 227 255
206 227 255
206 227 255
206 227 255
206 227 255
206 227 255
206 227 255
206 227 255
206 227 255
206 227 255
206 227 255
206 227 255
206 227 255
206 227 255
206 227 255
206 227 255
206 227 255
206 227 255
205 227 255
205 227 255
205 227 255
205 227 255
205 227 255
205 227 255
205 227 255
205 227 255
205 227 255
205 227 255
205 227 255
205 227 255
205 227 255
205 227 255
205 227 255
205 227 255
205 227 255
205 227 255
205 226 255
205 226 255
205 226 255
205 226 255
205 226 255
205 226 255
205 226 255
205 226 255
205 226 255
205 226 255
205 226 255
205 226 255
205 226 255
205 226 255
205 226 255
205 226 255
205 226 255
205 226 255
205 226 255
205 226 255
205 226 255
205 226 255
205 226 255
205 226 255
205 226 255
205 226 255
205 226 255
205 226 255
205 226 255
205 226 255
205 226 255
205 226 255
205 226 255
205 226 255
205 226 255
205 226 255
205 226 255
205 226 255
205 226 255
205 226 255
205 226 255
205 226 255
205 226 255
205 226 255
205 226 255
205 226 255
205 226 255
205 226 255
205 227 255
205 227 255
205 227 255
205 227 255
205 227 255
205 227 255
205 227 255
205 227 255
205 227 255
205 227 255
205 227 255
205 227 255
205 227 255
205 227 255
205 227 255
205 227 255
205 227 255
205 227 255
206 227 255
206 227 255
206 227 255
206 227 255
206 227 255
206 227 255
206 227 255
206 227 255
206 227 255
206 227 255
206 227 255
206 227 255
206 227 255
206 227 255
206 227 255
206 227 255
206 227 255
206 227 255
206 227 255
206 227 255
206 227 255
206 227 255
207 227 255
207 227 255
207 227 255
207 227 255
207 227 255
207 228 255
207 228 255
207 228 255
207 228 255
207 228 255
207 228 255
207 228 255
207 228 255
207 228 255
207 228 255
207 228 255
207 228 255
207 228 255
207 228 255
207 228 255
208 228 255
208 228 255
208 228 255
208 228 255
208 228 255
208 228 255
208 228 255
208 228 255
208 228 255
207 227 253
185 200 216
146 151 136
132 130 87
139 137 91
133 132 88
140 139 93
141 140 94
137 136 91
137 136 91
142 141 95
136 135 91
143 143 96
134 134 90
143 142 95
142 141 95
138 137 92
142 140 94
149 148 99
145 144 97
145 143 96
138 137 93
144 143 97
139 138 93
146 145 97
139 138 93
141 140 94
139 138 93
153 152 103
145 144 97
141 140 94
143 141 95
145 145 97
142 140 94
154 153 103
145 144 97
139 138 93
145 143 95
150 148 99
149 147 99
150 148 99
150 148 99
143 142 95
144 144 97
147 146 97
141 140 94
151 150 100
149 147 98
153 151 101
150 147 98
144 142 95
149 147 99
147 145 97
146 143 95
153 150 100
147 144 96
155 152 101
146 144 96
151 149 99
151 148 99
151 149 99
145 142 93
148 146 97
146 144 95
153 150 99
153 151 100
145 142 94
149 146 97
148 145 96
149 146 95
148 144 94
150 147 95
145 142 93
151 148 97
150 147 95
147 145 95
151 148 97
144 140 91
141 137 90
145 141 93
145 142 93
148 145 93
150 148 97
135 133 86
149 146 95
146 143 91
149 145 95
141 137 87
142 139 89
149 147 95
149 144 93
143 139 90
130 127 80
141 138 89
142 137 88
139 135 86
136 132 85
142 139 89
133 130 84
137 135 87
143 139 84
140 136 87
147 144 93
139 134 84
146 143 92
138 134 84
145 140 88
211 230 254
210 229 254
210 229 255
209 229 255
210 229 255
208 228 255
208 228 255
208 228 255
208 228 255
207 227 255
207 227 255
206 227 255
206 227 255
205 227 255
204 226 255
204 226 255
204 226 255
203 226 255
203 225 255
203 225 255
202 225 255
201 224 255
200 224 255
201 224 255
200 224 255
200 224 255
199 224 255
199 223 255
199 223 255
198 223 255
198 223 255
197 222 255
197 222 255
197 222 255
196 222 255
196 222 255
196 222 255
196 222 255
195 221 255
194 221 255
195 221 255
194 221 255
194 221 255
193 220 255
193 220 255
193 220 255
192 220 255
192 220 255
192 219 255
192 219 255
191 219 255
191 219 255
191 219 255
191 219 255
190 219 255
190 219 255
190 219 255
190 218 255
189 218 255
189 218 255
190 218 255
189 218 255
189 218 255
189 218 255
188 218 255
189 218 255
188 218 255
188 218 255
188 218 255
188 217 255
188 218 255
188 218 255
188 218 255
188 217 255
188 218 255
188 217 255
188 218 255
188 217 255
188 218 255
189 218 255
189 218 255
189 218 255
189 218 255
190 219 255
191 219 255
190 219 255
191 219 255
191 219 255
192 220 255
192 219 255
193 220 255
194 220 255
194 221 255
195 221 255
196 222 255
196 222 255
196 222 255
198 223 255
199 224 255
201 224 255
201 224 254
202 225 255
203 225 253
203 225 254
206 227 255
208 228 250
209 228 253
208 228 255
208 228 255
208 228 255
208 228 255
208 228 255
208 228 255
208 228 255
208 228 255
208 228 255
208 228 255
208 228 255
208 228 255
208 228 255
208 228 255
207 228 255
207 228 255
207 228 255
207 228 255
207 228 255
207 228 255
207 228 255
207 228 255
207 228 255
207 228 255
207 228 255
207 228 255
207 228 255
207 228 255
207 228 255
207 227 255
207 227 255
207 227 255
207 227 255
207 227 255
206 227 255
206 227 255
206 227 255
206 227 255
206 227 255
206 227 255
206 227 255
206 227 255
206 227 255
206 227 255
206 227 255
206 227 255
206 227 255
206 227 255
206 227 255
206 227 255
206 227 255
206 227 255
206 227 255
206 227 255
206 227 255
206 227 255
206 227 255
205 227 255
205 227 255
205 227 255
205 227 255
205 227 255
205 227 255
205 227 255
205 227 255
205 227 255
205 227 255
205 227 255
205 227 255
205 227 255
205 227 255
205 227 255
205 227 255
205 227 255
205 227 255
205 227 255
205 227 255
205 227 255
205 227 255
205 227 255
205 227 255
205 227 255
205 226 255
205 226 255
205 226 255
205 226 255
205 226 255
205 226 255
205 226 255
205 226 255
205 226 255
205 226 255
205 226 255
205 226 255
205 226 255
205 226 255
205 226 255
205 226 255
205 226 255
205 226 255
205 226 255
205 226 255
205 226 255
205 226 255
205 227 255
205 227 255
205 227 255
205 227 255
205 227 255
205 227 255
205 227 255
205 227 255
205 227 255
205 227 255
205 227 255
205 227 255
205 227 255
205 227 255
205 227 255
205 227 255
205 227 255
205 227 255
205 227 255
205 227 255
205 227 255
205 227 255
205 227 255
205 227 255
205 227 255
206 227 255
206 227 255
206 227 255
206 227 255
206 227 255
206 227 255
206 227 255
206 227 255
206 227 255
206 227 255
206 227 255
206 227 255
206 227 255
206 227 255
206 227 255
206 227 255
206 227 255
206 227 255
206 227 255
206 227 255
206 227 255
206 227 255
206 227 255
207 227 255
207 227 255
207 227 255
207 227 255
207 227 255
207 227 255
207 228 255
207 228 255
207 228 255
207 228 255
207 228 255
207 228 255
207 228 255
207 228 255
207 228 255
207 228 255
207 228 255
207 228 255
207 228 255
207 228 255
208 228 255
208 228 255
208 228 255
208 228 255
208 228 255
208 228 255
208 228 255
208 228 255
208 228 255
208 228 255
208 228 255
208 228 255
207 227 253
183 195 200
142 143 117
134 133 89
136 134 90
138 136 91
141 139 93
137 136 91
146 144 97
146 144 97
136 135 91
141 140 93
141 140 94
141 141 95
144 142 96
147 146 98
137 136 91
152 151 101
144 143 96
130 129 87
149 147 99
148 147 99
149 148 100
148 148 100
146 144 97
146 144 97
147 145 97
143 142 95
147 146 97
148 146 98
148 146 98
150 148 99
153 151 101
146 145 97
149 147 98
150 148 99
152 150 100
150 149 100
149 147 99
151 150 101
152 150 101
154 152 101
159 157 104
151 149 99
156 154 103
153 151 101
153 151 101
146 144 95
150 148 99
142 140 93
158 155 103
147 145 96
154 151 99
155 152 101
156 153 103
152 149 98
147 144 95
153 151 99
150 148 98
156 153 100
142 139 92
152 149 99
148 145 97
146 142 94
159 156 103
147 145 96
153 151 99
149 147 97
154 151 100
151 148 98
146 145 95
155 151 100
152 149 97
155 152 101
152 149 99
139 137 92
151 148 95
142 139 91
144 141 93
143 141 91
143 141 93
151 148 98
148 144 95
152 148 95
143 140 90
157 154 101
146 143 93
144 140 91
144 141 91
150 147 95
145 142 92
139 136 87
148 144 93
146 143 94
150 145 92
141 137 87
157 152 97
137 134 85
148 144 91
145 141 89
146 141 90
143 139 89
138 135 87
144 141 91
136 132 84
145 141 92
133 129 82
134 130 80
133 129 80
211 230 255
210 229 255
209 229 255
210 229 255
208 228 255
208 228 255
208 228 255
207 228 255
206 227 255
206 227 255
205 227 255
205 227 255
205 227 255
205 226 255
205 226 255
203 226 255
203 225 255
202 225 255
203 225 255
202 225 255
201 225 255
200 224 255
200 224 255
200 224 255
200 224 255
200 224 255
199 223 255
198 223 255
198 223 254
198 223 255
197 222 255
197 222 255
197 222 255
196 222 255
196 222 255
196 222 255
195 221 255
194 221 255
194 221 255
194 221 255
194 220 255
193 220 255
193 220 255
193 220 255
192 220 255
192 219 255
192 220 255
191 219 255
191 219 255
191 219 255
190 219 255
190 218 255
190 219 255
189 218 255
189 218 255
189 218 255
189 218 255
189 218 255
189 218 255
188 218 255
188 217 255
188 217 255
188 217 255
188 217 255
187 217 255
187 217 255
187 217 255
187 217 255
187 217 255
187 217 255
187 217 255
187 217 255
187 217 255
187 217 255
187 217 255
187 217 255
187 217 255
188 217 255
188 217 255
187 217 255
187 217 255
188 217 255
188 217 255
188 218 255
189 218 255
189 218 255
189 218 255
189 218 255
189 218 255
191 219 255
191 219 255
191 219 255
192 220 255
193 220 255
193 220 255
195 221 255
195 221 255
196 222 255
196 222 255
198 223 255
199 223 255
199 223 255
200 224 255
203 225 255
205 226 255
205 226 253
204 226 250
206 227 254
207 227 250
208 228 254
208 228 254
208 228 255
208 228 255
208 228 255
208 228 255
208 228 255
208 228 255
208 228 255
208 228 255
208 228 255
208 228 255
208 228 255
208 228 255
208 228 255
208 228 255
207 228 255
207 228 255
207 228 255
207 228 255
207 228 255
207 228 255
207 228 255
207 228 255
207 228 255
207 228 255
207 228 255
207 228 255
207 228 255
207 228 255
207 228 255
207 228 255
207 227 255
207 227 255
207 227 255
207 227 255
207 227 255
206 227 255
206 227 255
206 227 255
206 227 255
206 227 255
206 227 255
206 227 255
206 227 255
206 227 255
206 227 255
206 227 255
206 227 255
206 227 255
206 227 255
206 227 255
206 227 255
206 227 255
206 227 255
206 227 255
206 227 255
206 227 255
206 227 255
206 227 255
206 227 255
206 227 255
206 227 255
206 227 255
205 227 255
205 227 255
205 227 255
205 227 255
205 227 255
205 227 255
205 227 255
205 227 255
205 227 255
205 227 255
205 227 255
205 227 255
205 227 255
205 227 255
205 227 255
205 227 255
205 227 255
205 227 255
205 227 255
205 227 255
205 227 255
205 227 255
205 227 255
205 227 255
205 227 255
203 225 254
199 221 252
199 221 252
203 225 254
204 226 255
205 227 255
205 227 255
205 227 255
205 227 255
205 227 255
205 227 255
205 227 255
205 227 255
205 227 255
205 227 255
205 227 255
205 227 255
205 227 255
205 227 255
205 227 255
205 227 255
205 227 255
205 227 255
205 227 255
205 227 255
205 227 255
205 227 255
205 227 255
205 227 255
206 227 255
206 227 255
206 227 255
206 227 255
206 227 255
206 227 255
206 227 255
206 227 255
206 227 255
206 227 255
206 227 255
206 227 255
206 227 255
206 227 255
206 227 255
206 227 255
206 227 255
206 227 255
206 227 255
206 227 255
206 227 255
206 227 255
206 227 255
206 227 255
206 227 255
206 227 255
206 227 255
207 227 255
207 227 255
207 227 255
207 227 255
207 227 255
207 228 255
207 228 255
207 228 255
207 228 255
207 228 255
207 228 255
207 228 255
207 228 255
207 228 255
207 228 255
207 228 255
207 228 255
207 228 255
207 228 255
207 228 255
207 228 255
208 228 255
208 228 255
208 228 255
208 228 255
208 228 255
208 228 255
208 228 255
208 228 255
208 228 255
208 228 255
208 228 255
208 228 255
208 228 255
208 228 255
202 221 244
185 199 210
144 144 106
133 131 87
128 126 85
140 138 92
137 135 90
149 147 99
138 136 91
138 137 92
146 145 97
144 144 97
148 146 98
137 136 91
136 135 91
152 151 101
145 144 97
144 143 96
150 149 100
142 141 95
145 144 97
138 137 92
151 150 101
146 145 97
144 142 95
152 151 101
147 146 98
150 149 100
143 141 95
150 149 100
150 148 99
152 150 101
146 145 97
156 154 103
153 151 101
149 147 99
154 152 102
154 153 103
146 144 96
158 156 104
147 145 97
153 150 100
158 156 104
153 151 101
153 151 101
139 137 92
142 141 95
157 155 103
152 149 99
147 145 96
148 145 97
148 146 97
153 151 101
147 146 98
152 149 99
159 156 104
153 151 101
155 152 101
152 149 99
147 145 95
154 152 101
147 145 97
153 151 100
154 150 99
157 152 101
151 148 97
146 144 96
159 156 103
149 147 97
154 150 99
151 149 97
153 149 98
150 147 97
151 149 98
151 148 97
153 149 97
150 146 96
141 139 90
149 146 95
147 144 92
148 145 95
146 143 94
147 143 95
149 146 97
139 135 88
151 146 96
153 149 96
151 147 97
141 138 89
146 142 93
145 142 93
154 152 100
135 133 87
150 146 96
146 142 91
138 135 87
148 145 94
142 139 90
147 143 93
134 130 84
142 139 90
144 139 87
153 150 95
148 145 95
145 141 90
142 138 87
144 141 89
135 131 83
140 137 86
142 137 87
141 137 88
209 228 253
209 229 255
209 229 255
208 228 255
207 228 254
207 228 255
207 228 255
206 227 255
205 227 255
206 227 255
205 227 255
204 226 254
204 226 255
203 226 255
203 226 255
203 225 255
202 225 255
202 225 255
202 225 255
201 224 255
201 224 255
200 224 255
200 224 255
200 224 255
199 224 255
199 223 255
198 223 255
198 223 255
197 222 255
197 222 255
197 222 255
196 222 255
196 222 255
195 221 255
195 221 255
195 221 255
194 221 255
194 221 255
193 220 255
193 220 255
193 220 255
192 220 255
193 220 255
192 220 255
191 219 255
192 219 255
191 219 255
191 219 255
191 219 255
190 219 255
190 219 255
190 218 255
189 218 255
189 218 255
189 218 255
188 218 255
188 218 255
188 217 255
188 217 255
187 217 255
187 217 255
187 217 255
187 217 255
187 217 255
187 217 255
187 217 255
186 217 255
186 217 255
186 217 255
186 217 255
186 216 255
186 216 255
186 216 255
186 216 255
186 217 255
186 216 255
186 216 255
186 216 255
186 217 255
186 217 255
186 217 255
187 217 255
187 217 255
187 217 255
187 217 255
188 217 255
188 217 255
188 217 255
188 218 255
188 218 255
189 218 255
190 219 255
190 219 255
191 219 255
191 219 255
192 220 255
192 220 255
193 220 255
195 221 255
195 221 254
197 222 255
197 222 255
198 223 255
199 223 254
200 224 255
201 225 255
202 225 255
205 227 255
204 225 252
206 227 253
209 228 254
208 228 255
208 228 255
208 228 255
208 228 255
208 228 255
208 228 255
208 228 255
208 228 255
208 228 255
208 228 255
208 228 255
208 228 255
208 228 255
208 228 255
208 228 255
208 228 255
208 228 255
208 228 255
208 228 255
207 228 255
207 228 255
207 228 255
207 228 255
207 228 255
207 228 255
207 228 255
207 228 255
207 228 255
207 228 255
207 228 255
207 228 255
207 228 255
207 228 255
207 228 255
207 228 255
207 227 255
207 227 255
207 227 255
207 227 255
207 227 255
207 227 255
206 227 255
206 227 255
206 227 255
206 227 255
206 227 255
206 227 255
206 227 255
206 227 255
206 227 255
206 227 255
206 227 255
206 227 255
206 227 255
206 227 255
206 227 255
206 227 255
206 227 255
206 227 255
206 227 255
206 227 255
206 227 255
206 227 255
206 227 255
206 227 255
206 227 255
206 227 255
206 227 255
206 227 255
206 227 255
206 227 255
206 227 255
206 227 255
206 227 255
205 227 255
205 227 255
205 227 255
205 227 255
205 227 255
192 213 246
171 193 232
149 173 219
127 152 207
114 140 197
105 133 195
74 107 181
65 101 178
61 98 176
61 99 179
61 99 179
62 99 180
61 99 179
68 103 179
96 125 190
116 142 200
128 153 206
139 163 211
167 190 230
186 208 242
204 225 254
205 227 255
205 227 255
205 227 255
205 227 255
205 227 255
206 227 255
206 227 255
206 227 255
206 227 255
206 227 255
206 227 255
206 227 255
206 227 255
206 227 255
206 227 255
206 227 255
206 227 255
206 227 255
206 227 255
206 227 255
206 227 255
206 227 255
206 227 255
206 227 255
206 227 255
206 227 255
206 227 255
206 227 255
206 227 255
206 227 255
206 227 255
206 227 255
206 227 255
206 227 255
206 227 255
206 227 255
206 227 255
207 227 255
207 227 255
207 227 255
207 227 255
207 227 255
207 227 255
207 228 255
207 228 255
207 228 255
207 228 255
207 228 255
207 228 255
207 228 255
207 228 255
207 228 255
207 228 255
207 228 255
207 228 255
207 228 255
207 228 255
207 228 255
207 228 255
208 228 255
208 228 255
208 228 255
208 228 255
208 228 255
208 228 255
208 228 255
208 228 255
208 228 255
208 228 255
208 228 255
208 228 255
208 228 255
208 228 255
208 228 255
208 228 255
208 228 255
204 223 249
173 185 196
140 141 115
145 143 95
139 137 92
134 133 89
144 142 95
140 139 93
138 137 92
136 135 91
142 141 95
145 143 96
131 129 87
140 138 92
136 136 91
148 147 99
142 141 95
143 142 95
141 140 94
144 143 96
144 143 96
140 140 94
153 152 102
152 150 101
142 141 95
141 140 94
150 149 100
157 155 104
147 146 98
153 151 101
155 153 103
146 144 96
147 145 97
147 147 99
154 153 103
157 156 105
158 155 104
153 151 101
153 150 99
152 150 100
159 157 105
141 140 94
154 152 101
153 151 101
154 151 101
153 151 101
153 151 101
153 151 101
154 151 101
154 152 101
157 155 103
155 152 101
151 148 99
153 151 101
152 150 100
159 156 104
155 152 101
154 151 99
149 147 97
151 148 99
159 156 104
160 157 104
148 146 97
153 150 99
144 141 94
155 152 100
157 154 101
150 146 96
156 153 101
156 152 100
152 148 97
151 147 96
142 139 91
153 150 99
154 151 100
157 153 101
150 147 96
148 144 95
154 150 99
150 147 97
146 143 93
153 150 97
149 145 95
147 143 93
147 144 92
147 144 93
152 150 99
146 142 90
146 143 92
147 144 93
147 144 93
156 152 98
149 145 92
140 137 88
145 141 90
149 145 92
141 137 88
144 138 87
154 150 95
142 139 92
147 143 90
142 137 87
146 142 92
149 145 93
146 142 92
137 133 86
145 140 90
145 142 88
134 130 83
142 138 88
147 143 90
143 139 87
138 134 83
208 228 255
208 228 255
208 228 254
207 227 253
207 228 255
207 228 255
206 227 255
206 227 255
206 227 255
205 226 255
205 226 255
204 226 255
204 226 255
203 226 255
202 225 255
202 225 255
201 225 255
201 224 255
201 224 255
201 224 255
200 224 255
200 224 255
199 223 255
199 223 255
198 223 255
198 223 255
197 222 255
197 222 255
196 222 255
197 222 255
196 222 255
196 222 255
195 221 255
195 221 255
194 221 255
194 221 255
194 221 255
194 220 255
193 220 255
193 220 255
192 220 255
192 220 255
191 219 255
191 219 255
191 219 255
191 219 255
190 219 255
190 219 255
190 218 255
189 218 255
189 218 255
189 218 255
189 218 255
188 218 255
188 217 255
188 217 255
187 217 255
188 217 255
187 217 255
187 217 255
187 217 255
187 217 255
186 217 255
186 216 255
186 217 255
186 216 255
186 216 255
186 216 255
185 216 255
185 216 255
185 216 255
185 216 255
185 216 255
185 216 255
185 216 255
185 216 255
185 216 255
185 216 255
185 216 255
185 216 255
185 216 255
185 216 255
185 216 255
186 216 255
186 216 255
186 216 255
186 217 255
186 217 255
187 217 255
187 217 255
188 217 255
188 218 255
188 218 255
189 218 255
189 218 255
190 218 255
191 219 255
191 219 255
192 220 255
193 220 255
194 220 255
195 221 255
194 221 254
196 222 255
197 222 255
199 223 255
200 224 254
201 225 255
203 226 255
205 226 255
206 227 255
204 226 250
208 228 253
209 228 255
209 229 255
208 228 255
208 228 255
208 228 255
208 228 255
208 228 255
208 228 255
208 228 255
208 228 255
208 228 255
208 228 255
208 228 255
208 228 255
208 228 255
208 228 255
208 228 255
208 228 255
208 228 255
208 228 255
208 228 255
208 228 255
207 228 255
207 228 255
207 228 255
207 228 255
207 228 255
207 228 255
207 228 255
207 228 255
207 228 255
207 228 255
207 228 255
207 228 255
207 228 255
207 228 255
207 228 255
207 228 255
207 228 255
207 227 255
207 227 255
207 227 255
207 227 255
207 227 255
207 227 255
206 227 255
206 227 255
206 227 255
206 227 255
206 227 255
206 227 255
206 227 255
206 227 255
206 227 255
206 227 255
206 227 255
206 227 255
206 227 255
206 227 255
206 227 255
206 227 255
206 227 255
206 227 255
206 227 255
206 227 255
206 227 255
206 227 255
206 227 255
206 227 255
206 227 255
206 227 255
206 227 255
205 226 255
181 203 238
141 165 214
105 133 195
65 101 178
62 99 176
62 99 179
62 99 177
62 99 172
62 99 176
62 99 177
63 99 179
63 99 176
62 99 176
62 99 175
62 99 174
62 99 176
62 99 175
62 98 172
62 98 173
62 99 176
62 99 176
62 99 177
62 99 176
61 98 177
72 106 174
107 134 192
145 169 217
176 198 235
203 224 254
206 227 255
206 227 255
206 227 255
206 227 255
206 227 255
206 227 255
206 227 255
206 227 255
206 227 255
206 227 255
206 227 255
206 227 255
206 227 255
206 227 255
206 227 255
206 227 255
206 227 255
206 227 255
206 227 255
206 227 255
206 227 255
206 227 255
206 227 255
206 227 255
206 227 255
206 227 255
207 227 255
207 227 255
207 227 255
207 227 255
207 227 255
207 227 255
207 227 255
207 228 255
207 228 255
207 228 255
207 228 255
207 228 255
207 228 255
207 228 255
207 228 255
207 228 255
207 228 255
207 228 255
207 228 255
207 228 255
207 228 255
207 228 255
207 228 255
207 228 255
208 228 255
208 228 255
208 228 255
208 228 255
208 228 255
208 228 255
208 228 255
208 228 255
208 228 255
208 228 255
208 228 255
208 228 255
208 228 255
208 228 255
208 228 255
208 228 255
208 228 255
208 228 255
208 228 255
208 228 255
209 228 255
185 198 210
137 139 115
126 124 83
135 133 89
133 131 87
133 132 88
138 136 91
137 135 90
141 140 94
139 138 93
144 143 96
140 138 93
145 145 97
148 147 99
145 144 97
143 142 96
149 148 99
152 151 101
146 145 98
149 148 99
143 141 95
151 150 101
149 148 99
151 151 101
152 150 101
153 151 101
152 151 101
150 149 101
150 148 99
160 158 106
137 136 91
148 147 99
152 150 101
152 150 101
162 161 108
156 153 102
153 150 100
148 146 97
149 148 99
153 152 102
159 157 105
152 151 101
150 148 99
159 156 104
147 145 97
153 150 100
154 152 101
151 149 99
163 160 107
150 147 97
150 148 99
149 147 97
158 155 103
152 150 100
155 152 101
147 145 96
152 148 98
157 154 101
159 156 103
155 152 101
152 149 98
153 150 97
162 158 104
157 153 101
155 153 102
149 147 97
154 151 101
158 155 101
152 149 99
149 147 97
149 147 97
153 150 97
153 150 100
158 154 101
147 144 95
151 149 98
153 149 99
155 152 99
149 145 93
157 153 99
152 149 98
150 146 94
150 147 95
153 148 96
153 149 97
149 146 94
148 143 92
148 144 94
145 142 95
146 143 91
144 141 93
144 141 90
152 148 95
155 151 97
152 148 96
149 145 93
149 144 90
146 142 93
148 144 93
143 139 87
143 140 90
135 132 83
152 149 96
149 145 94
137 134 86
149 144 93
148 144 92
151 147 95
148 144 92
142 138 85
145 141 90
138 135 85
143 139 87
134 129 81
208 228 255
208 228 255
207 228 255
206 227 255
206 227 255
207 227 255
206 227 255
205 227 255
205 227 255
205 226 255
204 226 255
203 226 255
203 226 255
202 225 255
202 225 255
202 225 255
201 224 255
201 224 255
201 224 255
200 224 255
199 224 255
199 224 255
199 223 255
198 223 255
198 223 255
197 222 255
197 222 255
196 222 255
196 222 255
196 222 255
196 222 255
195 221 255
194 221 255
195 221 255
194 221 255
193 220 255
194 220 255
193 220 255
193 220 255
192 220 255
192 220 255
191 219 255
191 219 255
191 219 255
191 219 255
190 219 255
190 218 255
190 218 255
189 218 255
189 218 255
189 218 255
188 218 255
188 217 255
188 217 255
187 217 255
188 218 255
188 218 255
187 216 253
190 219 255
190 218 254
190 217 250
190 218 252
190 217 249
190 218 250
191 219 254
191 219 253
189 218 250
190 218 254
188 216 244
189 218 253
190 218 255
188 217 252
189 218 255
186 216 252
186 216 253
186 216 254
186 217 255
184 215 255
184 215 255
184 215 255
184 216 255
184 215 255
184 215 255
184 216 255
185 216 255
185 216 255
185 216 255
185 216 255
185 216 255
185 216 255
186 217 255
187 217 255
187 217 255
187 217 255
188 217 255
188 218 255
189 218 255
189 218 255
190 219 255
191 219 255
191 219 255
193 220 255
193 220 255
195 221 255
196 222 255
197 222 255
198 223 255
199 223 255
200 224 254
201 224 255
204 226 255
204 226 254
205 226 254
207 227 252
208 228 253
208 228 254
209 229 255
209 229 255
209 228 255
208 228 255
208 228 255
208 228 255
208 228 255
208 228 255
208 228 255
208 228 255
208 228 255
208 228 255
208 228 255
208 228 255
208 228 255
208 228 255
208 228 255
208 228 255
208 228 255
208 228 255
208 228 255
208 228 255
208 228 255
208 228 255
207 228 255
207 228 255
207 228 255
207 228 255
207 228 255
207 228 255
207 228 255
207 228 255
207 228 255
207 228 255
207 228 255
207 228 255
207 228 255
207 228 255
207 228 255
207 228 255
207 228 255
207 228 255
207 228 255
207 227 255
207 227 255
207 227 255
207 227 255
207 227 255
207 227 255
207 227 255
206 227 255
206 227 255
206 227 255
206 227 255
206 227 255
206 227 255
206 227 255
206 227 255
206 227 255
206 227 255
206 227 255
206 227 255
206 227 255
206 227 255
206 227 255
206 227 255
202 223 252
175 197 234
113 139 198
79 111 179
62 99 173
62 99 173
62 99 178
61 98 172
62 99 179
62 99 173
63 99 176
61 98 173
62 99 174
62 99 171
62 99 173
62 99 173
62 99 172
62 99 175
63 100 177
63 99 174
62 98 171
62 99 173
62 99 174
62 98 175
62 99 174
62 99 176
62 98 171
62 98 169
62 98 173
62 99 175
62 99 174
62 99 176
71 105 176
130 154 205
164 187 226
203 224 253
206 227 255
206 227 255
206 227 255
206 227 255
206 227 255
206 227 255
206 227 255
206 227 255
206 227 255
206 227 255
206 227 255
206 227 255
206 227 255
206 227 255
206 227 255
206 227 255
206 227 255
207 227 255
207 227 255
207 227 255
207 227 255
207 227 255
207 227 255
207 228 255
207 228 255
207 228 255
207 228 255
207 228 255
207 228 255
207 228 255
207 228 255
207 228 255
207 228 255
207 228 255
207 228 255
207 228 255
207 228 255
207 228 255
207 228 255
207 228 255
207 228 255
208 228 255
208 228 255
208 228 255
208 228 255
208 228 255
208 228 255
208 228 255
208 228 255
208 228 255
208 228 255
208 228 255
208 228 255
208 228 255
208 228 255
208 228 255
208 228 255
208 228 255
208 228 255
208 228 255
208 228 255
208 228 255
209 228 255
209 228 255
209 229 255
209 229 255
192 206 220
148 151 126
136 133 88
132 130 87
130 128 86
141 140 94
141 140 95
138 136 91
140 138 93
141 139 93
143 142 96
144 143 96
146 146 98
140 139 93
140 139 94
145 143 96
142 141 95
149 147 99
144 143 96
144 143 96
144 142 95
147 145 97
150 150 101
149 148 99
150 148 99
149 148 99
157 155 104
156 155 103
150 149 100
153 151 101
143 141 94
155 153 102
149 148 100
150 149 100
154 153 103
156 154 103
154 152 101
156 154 103
147 145 97
158 155 104
156 153 102
157 156 104
164 161 108
156 155 104
155 153 103
142 140 93
159 157 105
152 149 99
163 160 106
155 153 102
158 155 104
154 151 101
156 154 103
150 148 98
152 150 100
152 149 99
157 154 102
157 154 103
153 152 101
159 157 104
157 156 104
160 157 103
157 155 102
152 148 97
156 152 99
159 157 104
150 148 97
154 151 100
162 158 104
152 149 99
158 155 101
157 154 101
146 144 95
149 147 97
155 152 100
153 150 97
144 141 90
153 149 99
148 145 95
152 149 96
147 144 94
152 148 96
153 149 94
146 143 92
149 145 95
160 156 101
151 147 96
159 154 99
154 151 99
153 151 98
153 150 98
151 148 97
146 142 92
144 141 90
150 146 94
147 144 93
145 141 92
145 141 93
146 142 93
148 144 91
150 147 94
144 141 93
145 141 87
155 151 98
151 147 93
148 145 93
141 137 88
147 143 92
139 134 86
127 124 77
154 150 96
146 142 90
136 132 85
135 131 84
144 139 90
140 135 83
207 228 255
207 228 255
207 228 255
206 227 255
206 227 255
206 227 255
205 227 255
204 226 255
204 226 255
204 226 255
204 226 255
203 225 255
203 225 255
202 225 255
202 225 255
201 224 255
201 224 255
200 224 255
200 224 255
200 224 255
199 223 255
199 223 255
199 223 255
198 223 255
197 222 255
197 222 255
197 222 255
196 222 255
196 222 255
195 221 255
195 221 255
195 221 255
194 221 255
194 221 255
193 220 255
193 220 255
193 220 255
192 220 255
192 220 255
192 219 255
192 219 255
191 219 255
191 219 255
190 219 255
191 219 255
190 218 255
189 218 255
189 218 255
190 218 255
190 219 254
191 219 250
191 218 250
194 220 254
194 220 248
197 222 253
194 220 250
196 221 249
196 221 248
194 220 249
196 221 250
193 220 248
194 220 242
194 219 244
197 221 246
196 221 246
195 220 250
195 221 249
196 221 249
194 220 246
195 221 253
195 221 254
194 220 249
191 218 242
193 219 242
194 220 248
192 218 248
193 219 240
193 220 250
193 219 250
189 217 246
189 218 255
189 217 252
188 217 254
185 216 255
184 215 255
184 215 255
184 215 255
184 215 255
184 216 255
185 216 255
185 216 255
185 216 255
185 216 255
186 217 255
186 217 255
187 217 255
187 217 255
188 217 255
188 218 255
189 218 255
190 218 255
191 219 255
191 219 255
192 220 255
193 220 255
194 221 255
196 222 255
196 222 255
197 222 255
199 223 255
201 224 255
201 225 255
204 226 255
205 227 255
205 227 254
207 227 250
208 228 254
209 229 255
209 229 255
209 229 255
209 229 255
209 229 255
209 229 255
209 228 255
209 228 255
208 228 255
208 228 255
208 228 255
208 228 255
208 228 255
208 228 255
208 228 255
208 228 255
208 228 255
208 228 255
208 228 255
208 228 255
208 228 255
208 228 255
208 228 255
208 228 255
208 228 255
208 228 255
208 228 255
208 228 255
208 228 255
208 228 255
207 228 255
207 228 255
207 228 255
207 228 255
207 228 255
207 228 255
207 228 255
207 228 255
207 228 255
207 228 255
207 228 255
207 228 255
207 228 255
207 228 255
207 228 255
207 228 255
207 228 255
207 228 255
207 228 255
207 228 255
207 227 255
207 227 255
207 227 255
207 227 255
207 227 255
207 227 255
207 227 255
207 227 255
207 227 255
206 227 255
206 227 255
206 227 255
206 227 255
184 205 238
121 146 201
71 105 180
61 98 170
62 99 173
61 98 173
62 99 175
62 99 175
62 99 173
62 99 173
62 99 174
63 100 178
62 99 177
63 99 178
62 99 172
62 99 176
62 98 172
62 98 170
62 99 171
61 98 168
62 99 172
63 99 172
62 99 169
61 98 170
61 98 166
62 99 174
62 99 173
62 98 170
62 99 171
61 98 170
62 98 170
62 98 174
61 97 167
62 98 174
62 99 177
62 99 175
61 98 171
83 114 184
134 158 208
185 206 240
206 227 255
206 227 255
206 227 255
206 227 255
206 227 255
207 227 255
207 227 255
207 227 255
207 227 255
207 227 255
207 227 255
207 227 255
207 227 255
207 227 255
207 228 255
207 228 255
207 228 255
207 228 255
207 228 255
207 228 255
207 228 255
207 228 255
207 228 255
207 228 255
207 228 255
207 228 255
207 228 255
207 228 255
207 228 255
207 228 255
207 228 255
207 228 255
207 228 255
208 228 255
208 228 255
208 228 255
208 228 255
208 228 255
208 228 255
208 228 255
208 228 255
208 228 255
208 228 255
208 228 255
208 228 255
208 228 255
208 228 255
208 228 255
208 228 255
208 228 255
208 228 255
208 228 255
208 228 255
208 228 255
208 228 255
209 228 255
209 228 255
209 229 255
209 229 255
209 229 255
209 229 255
209 229 255
199 217 240
151 158 151
131 130 87
130 128 86
142 140 93
134 132 89
139 137 92
142 140 94
144 142 95
144 142 95
140 139 94
146 144 97
137 136 91
136 135 91
150 149 100
142 142 96
152 150 101
145 144 97
147 146 98
147 146 98
147 146 98
147 146 97
141 140 95
153 151 102
151 150 100
158 155 104
149 148 100
144 143 96
156 154 103
152 150 101
153 151 102
157 155 104
149 147 99
158 156 104
156 154 103
152 150 100
150 148 99
155 153 103
158 156 104
148 145 97
153 151 101
157 156 104
154 152 102
147 147 99
155 153 102
158 156 104
153 151 101
153 151 101
161 159 106
155 152 101
158 155 103
160 157 103
161 158 106
164 161 107
157 155 104
155 153 101
155 153 102
155 152 101
149 147 96
154 151 100
160 157 105
157 155 103
157 154 102
150 147 97
153 150 99
151 149 99
154 151 101
142 139 92
151 147 97
154 150 98
153 150 97
149 146 97
153 150 99
149 147 97
158 155 102
151 148 98
159 155 102
148 144 93
151 147 97
158 154 102
162 158 102
159 156 104
157 154 99
155 151 98
155 152 101
156 152 99
162 158 103
152 148 93
152 149 97
147 144 94
154 151 99
158 155 102
157 153 99
154 150 95
147 144 94
148 144 92
151 147 94
153 148 93
148 143 91
147 144 92
144 141 90
156 152 96
150 147 95
143 138 88
147 143 93
148 144 93
143 138 87
132 128 82
153 148 93
145 140 90
143 139 87
140 136 88
150 145 93
143 140 88
147 142 88
150 146 92
136 133 85
148 143 90
207 228 255
207 228 255
206 227 255
206 227 255
206 227 255
205 226 255
205 226 255
204 226 255
204 226 255
203 226 255
202 225 255
203 225 255
202 225 255
202 225 255
201 225 255
201 224 255
201 224 255
200 224 255
200 224 255
200 224 255
199 223 255
199 223 255
198 223 255
197 222 255
197 222 255
197 222 255
196 222 255
196 222 255
196 222 255
195 221 255
195 221 255
194 221 255
194 221 255
194 220 255
194 220 255
193 220 255
193 220 255
192 220 255
192 220 255
191 219 255
191 219 255
191 219 255
191 219 255
191 219 253
193 220 255
193 219 246
197 222 253
198 223 253
197 221 248
197 222 252
197 222 250
197 221 245
197 222 248
197 222 249
198 223 253
196 221 250
197 221 248
197 222 250
195 220 242
197 221 245
195 220 245
197 221 246
195 221 252
198 222 248
197 222 252
197 222 249
194 219 241
195 221 249
194 220 242
194 220 245
195 220 244
195 220 246
194 219 244
195 220 245
196 221 246
195 220 249
195 220 245
194 220 245
193 219 248
193 219 246
194 220 248
194 220 253
195 221 250
196 221 249
193 219 250
191 218 248
189 218 250
187 217 254
185 216 254
184 215 255
184 215 255
184 216 255
184 216 255
185 216 255
185 216 255
186 216 255
186 216 255
186 217 255
187 217 255
187 217 255
188 218 255
189 218 255
189 218 255
190 219 255
192 219 255
192 220 255
193 220 255
195 221 255
195 221 255
197 222 255
198 223 255
199 224 255
201 224 255
202 225 255
204 226 255
205 226 254
207 228 255
207 227 254
210 229 255
209 229 255
209 229 255
209 229 255
209 229 255
209 229 255
209 229 255
209 229 255
209 229 255
209 229 255
209 228 255
209 228 255
208 228 255
208 228 255
208 228 255
208 228 255
208 228 255
208 228 255
208 228 255
208 228 255
208 228 255
208 228 255
208 228 255
208 228 255
208 228 255
208 228 255
208 228 255
208 228 255
208 228 255
208 228 255
208 228 255
208 228 255
208 228 255
208 228 255
208 228 255
207 228 255
207 228 255
207 228 255
207 228 255
207 228 255
207 228 255
207 228 255
207 228 255
207 228 255
207 228 255
207 228 255
207 228 255
207 228 255
207 228 255
207 228 255
207 228 255
207 228 255
207 228 255
207 228 255
207 228 255
207 228 255
207 228 255
207 228 255
207 228 255
204 225 254
162 184 224
111 138 194
61 98 167
63 99 171
62 99 171
62 99 176
62 99 171
63 99 178
62 99 174
61 98 172
62 99 172
62 99 173
63 100 176
62 98 172
62 99 174
63 99 174
63 99 171
62 99 171
62 99 176
62 99 173
62 98 172
62 98 170
61 98 163
61 98 169
63 99 175
61 98 169
62 98 172
62 98 172
62 99 173
62 99 172
61 98 170
62 99 175
62 99 172
62 99 174
62 99 172
61 98 170
62 98 170
62 98 171
61 98 172
62 98 173
60 97 170
61 97 169
106 133 195
166 188 227
207 227 255
207 228 255
207 228 255
207 228 255
207 228 255
207 228 255
207 228 255
207 228 255
207 228 255
207 228 255
207 228 255
207 228 255
207 228 255
207 228 255
207 228 255
207 228 255
207 228 255
207 228 255
207 228 255
207 228 255
207 228 255
207 228 255
207 228 255
207 228 255
207 228 255
208 228 255
208 228 255
208 228 255
208 228 255
208 228 255
208 228 255
208 228 255
208 228 255
208 228 255
208 228 255
208 228 255
208 228 255
208 228 255
208 228 255
208 228 255
208 228 255
208 228 255
208 228 255
208 228 255
208 228 255
208 228 255
208 228 255
208 228 255
208 228 255
209 228 255
209 229 255
209 229 255
209 229 255
209 229 255
209 229 255
209 229 255
209 229 255
209 229 255
209 228 254
180 192 198
128 126 91
135 133 89
137 135 91
131 130 87
137 136 91
134 133 89
137 136 91
135 134 91
139 137 92
144 143 96
153 151 102
142 142 96
138 137 92
145 145 97
144 143 97
146 145 97
149 148 100
148 147 99
149 148 99
151 150 101
146 145 97
145 143 95
153 152 102
152 150 101
158 157 105
152 150 100
145 144 97
156 154 103
160 157 105
155 153 103
154 152 101
145 144 97
151 149 100
155 153 102
152 149 99
159 156 104
146 144 97
153 151 101
157 155 103
155 153 102
156 154 103
157 154 103
154 152 102
158 155 103
156 153 101
160 156 103
162 159 106
149 147 99
161 159 106
152 150 100
149 147 99
151 149 99
156 154 103
163 160 106
157 153 101
162 159 106
158 155 103
161 158 105
161 157 104
149 147 98
158 155 102
154 152 101
164 160 105
162 158 104
160 156 102
155 152 101
154 152 101
161 157 104
161 157 102
155 152 100
148 145 95
158 155 103
163 159 104
158 154 101
162 158 103
157 153 100
158 154 101
147 145 95
151 149 97
158 154 101
156 152 97
154 150 97
159 155 101
157 154 99
150 146 95
152 149 97
151 149 99
157 153 98
152 148 94
153 150 97
152 148 95
146 143 91
154 150 97
155 151 98
158 154 99
153 149 95
166 161 104
147 145 94
152 147 93
147 144 92
155 151 99
150 146 95
143 138 87
147 143 93
148 143 90
150 146 93
149 145 92
154 150 95
139 136 84
144 141 91
143 139 90
149 144 91
141 137 86
150 146 93
145 140 89
146 142 87
149 144 90
145 140 90
207 227 255
207 228 255
206 227 255
206 227 255
205 227 255
204 226 255
204 226 255
204 226 255
203 226 255
203 225 255
203 225 255
202 225 255
202 225 255
201 225 255
201 224 255
200 224 255
200 224 255
199 224 255
199 223 255
199 223 255
198 223 255
198 223 255
198 223 255
197 222 255
197 222 255
196 222 255
196 222 255
196 221 255
195 221 255
195 221 255
194 221 255
194 221 255
194 221 255
194 220 255
193 220 255
193 220 255
193 220 255
192 220 255
192 219 255
192 220 254
192 219 250
196 221 253
195 220 245
197 222 249
200 223 250
198 222 249
197 222 249
198 222 250
199 223 253
199 223 250
198 223 250
198 221 244
198 222 250
196 221 245
196 220 244
197 221 248
198 222 249
195 220 248
197 222 252
197 222 245
199 223 249
197 221 245
198 222 250
198 223 250
196 221 244
196 221 246
197 222 246
197 221 244
198 223 254
197 222 250
197 221 249
197 222 248
196 221 246
195 220 245
197 222 248
197 222 249
197 222 250
196 222 253
196 221 248
195 221 250
194 219 242
193 220 249
195 220 244
195 220 244
195 220 245
194 220 250
195 221 248
194 220 249
195 221 250
192 219 246
191 219 254
188 217 254
185 216 255
184 216 255
184 216 255
184 216 255
185 216 255
185 216 255
186 216 255
186 216 255
187 217 255
188 217 255
188 217 255
189 218 255
189 218 255
190 219 255
191 219 255
192 220 255
193 220 255
194 221 255
196 222 255
197 222 255
198 223 255
200 224 255
200 224 255
203 225 255
204 226 255
205 226 254
207 228 254
207 227 252
209 229 254
209 229 255
209 229 255
209 229 255
209 229 255
209 229 255
209 229 255
209 229 255
209 229 255
209 229 255
209 229 255
209 229 255
209 229 255
209 228 255
209 228 255
208 228 255
208 228 255
208 228 255
208 228 255
208 228 255
208 228 255
208 228 255
208 228 255
208 228 255
208 228 255
208 228 255
208 228 255
208 228 255
208 228 255
208 228 255
208 228 255
208 228 255
208 228 255
208 228 255
208 228 255
208 228 255
208 228 255
208 228 255
208 228 255
208 228 255
207 228 255
207 228 255
207 228 255
207 228 255
207 228 255
207 228 255
207 228 255
207 228 255
207 228 255
207 228 255
207 228 255
207 228 255
207 228 255
207 228 255
207 228 255
206 227 255
177 198 235
99 127 187
62 98 173
61 98 169
63 99 174
62 99 170
62 99 172
62 98 172
63 99 174
62 99 175
62 99 169
62 99 170
62 99 172
62 98 167
62 99 173
62 99 173
63 99 174
62 99 169
61 98 166
62 99 171
61 98 170
62 99 169
61 98 173
62 99 171
62 99 174
61 97 163
62 98 166
62 98 169
63 99 171
62 98 169
62 99 173
61 98 170
62 99 175
62 99 170
62 98 175
63 99 175
61 97 170
62 98 171
62 99 171
62 99 173
62 99 171
62 99 174
62 97 166
61 97 171
62 98 174
62 98 169
93 122 188
168 190 228
204 225 253
207 228 255
207 228 255
207 228 255
207 228 255
207 228 255
207 228 255
207 228 255
207 228 255
207 228 255
207 228 255
207 228 255
207 228 255
207 228 255
207 228 255
207 228 255
208 228 255
208 228 255
208 228 255
208 228 255
208 228 255
208 228 255
208 228 255
208 228 255
208 228 255
208 228 255
208 228 255
208 228 255
208 228 255
208 228 255
208 228 255
208 228 255
208 228 255
208 228 255
208 228 255
208 228 255
208 228 255
208 228 255
208 228 255
208 228 255
208 228 255
209 228 255
209 229 255
209 229 255
209 229 255
209 229 255
209 229 255
209 229 255
209 229 255
209 229 255
209 229 255
209 229 255
209 229 255
209 229 255
209 229 255
196 213 232
148 152 137
119 117 78
136 135 90
135 133 89
148 146 98
146 143 96
145 144 97
136 134 90
136 135 91
138 137 93
137 135 91
136 136 91
145 144 97
147 146 98
139 137 92
141 140 94
149 148 99
157 155 104
147 145 97
145 143 96
147 146 98
155 153 103
154 153 102
147 145 97
153 151 101
146 145 98
156 154 103
150 149 100
152 150 101
152 151 101
154 152 102
157 155 103
159 157 105
154 151 101
152 151 102
157 155 103
151 148 99
157 155 104
147 144 96
157 155 103
160 158 106
155 153 102
156 154 103
159 156 104
160 157 104
156 153 103
156 154 103
158 155 103
159 156 103
161 158 105
158 155 103
157 155 103
154 152 101
157 155 103
156 153 101
161 158 104
167 163 109
159 156 103
164 159 104
164 162 107
160 157 104
162 159 105
162 158 104
157 153 102
156 154 102
157 154 101
155 151 99
160 157 103
164 160 105
162 158 104
159 155 103
160 157 103
162 158 103
165 160 104
158 154 101
152 149 97
153 151 100
158 154 101
155 151 97
159 156 102
155 151 99
156 153 99
158 153 99
156 152 96
152 149 98
160 156 103
156 152 97
154 150 97
153 150 97
154 150 96
164 160 101
157 153 98
158 154 99
157 153 97
152 149 97
154 150 97
152 149 96
156 152 97
156 151 97
151 147 93
152 150 97
149 145 91
142 139 87
155 151 96
149 145 93
140 137 90
143 140 89
141 137 87
142 137 88
151 146 92
152 147 92
153 148 94
144 140 91
139 136 86
147 143 90
145 141 87
137 134 83
141 137 84
140 136 87
150 145 93
207 227 255
206 227 255
206 227 255
205 227 255
205 226 255
204 226 255
204 226 255
203 226 255
203 226 255
202 225 255
202 225 255
202 225 255
201 225 255
201 224 255
201 224 255
200 224 255
200 224 255
200 224 255
199 223 255
199 223 255
198 223 255
198 223 255
198 223 255
197 222 255
197 222 255
196 222 255
196 222 255
195 221 255
195 221 255
195 221 255
194 221 255
194 221 255
193 220 255
193 220 255
193 220 255
193 220 255
195 221 254
197 222 249
198 222 250
199 223 250
200 223 249
198 223 254
200 223 250
199 222 242
199 223 254
200 223 249
199 222 245
199 223 250
198 222 248
198 222 246
197 221 241
198 222 250
197 221 242
198 222 245
199 222 248
200 224 252
199 222 246
200 223 250
199 223 249
197 221 245
200 224 253
198 222 249
201 224 252
201 224 250
197 222 248
199 223 249
198 222 246
199 222 249
197 222 246
198 223 250
198 222 249
197 221 240
198 222 248
197 221 245
196 221 249
198 222 250
198 223 253
198 222 246
195 221 246
195 221 249
196 221 252
197 222 249
198 223 250
196 221 250
195 221 253
196 221 249
193 219 244
196 221 250
196 221 246
195 221 248
196 221 249
194 220 254
193 220 253
191 218 249
190 218 254
186 216 253
185 216 255
184 216 255
185 216 255
186 216 255
186 217 255
186 217 255
187 217 255
187 217 255
188 217 255
189 218 255
190 219 255
190 219 255
192 219 255
193 220 255
194 221 255
195 221 255
196 222 255
197 222 255
200 224 255
200 224 255
202 225 254
205 227 255
205 226 255
208 228 255
208 228 253
208 228 255
209 229 255
209 229 255
209 229 255
209 229 255
209 229 255
209 229 255
209 229 255
209 229 255
209 229 255
209 229 255
209 229 255
209 229 255
209 229 255
209 229 255
209 229 255
209 229 255
209 229 255
209 228 255
209 228 255
208 228 255
208 228 255
208 228 255
208 228 255
208 228 255
208 228 255
208 228 255
208 228 255
208 228 255
208 228 255
208 228 255
208 228 255
208 228 255
208 228 255
208 228 255
208 228 255
208 228 255
208 228 255
208 228 255
208 228 255
208 228 255
208 228 255
208 228 255
208 228 255
208 228 255
208 228 255
208 228 255
207 228 255
207 228 255
207 228 255
207 228 255
207 228 255
207 228 255
174 196 233
97 125 188
62 99 174
62 98 170
62 99 174
62 99 172
62 99 171
62 98 172
62 99 171
62 99 175
62 99 171
63 99 173
62 99 175
61 98 169
63 100 173
62 99 173
62 99 167
62 99 174
63 99 170
62 99 168
62 99 169
62 98 169
63 100 174
62 99 172
62 98 166
62 98 166
63 99 171
63 99 167
62 99 174
61 97 169
61 98 161
62 99 176
62 98 168
63 99 172
63 99 168
62 98 170
62 98 170
61 98 166
62 99 171
61 98 169
62 98 169
61 97 167
62 98 162
63 99 176
62 98 175
62 98 172
61 97 164
62 97 171
61 96 168
62 98 174
85 115 181
172 194 231
207 228 255
207 228 255
207 228 255
207 228 255
207 228 255
207 228 255
208 228 255
208 228 255
208 228 255
208 228 255
208 228 255
208 228 255
208 228 255
208 228 255
208 228 255
208 228 255
208 228 255
208 228 255
208 228 255
208 228 255
208 228 255
208 228 255
208 228 255
208 228 255
208 228 255
208 228 255
208 228 255
208 228 255
208 228 255
208 228 255
208 228 255
208 228 255
208 228 255
209 228 255
209 228 255
209 229 255
209 229 255
209 229 255
209 229 255
209 229 255
209 229 255
209 229 255
209 229 255
209 229 255
209 229 255
209 229 255
209 229 255
209 229 255
209 229 255
209 229 255
209 229 255
208 227 253
173 183 186
134 132 90
131 129 86
135 133 88
124 123 82
138 136 91
144 143 96
142 140 94
134 133 89
146 143 96
148 146 98
142 140 95
134 132 89
142 139 94
136 136 93
149 147 99
152 150 101
146 145 97
151 151 102
157 155 104
150 149 101
146 143 96
153 152 102
144 142 96
149 147 99
149 148 99
151 150 101
153 151 101
144 143 96
152 149 99
159 157 105
159 158 106
151 149 99
157 156 104
158 157 105
156 153 101
155 153 102
162 160 106
156 154 103
160 158 105
159 156 104
156 154 103
159 157 104
154 152 101
157 155 103
164 161 107
157 155 103
159 156 104
153 151 101
156 153 101
159 156 104
160 157 104
163 159 104
158 156 103
162 159 104
158 154 102
157 154 102
162 159 104
151 148 97
165 160 104
156 152 100
153 150 99
160 157 103
158 155 102
155 152 100
158 155 103
164 160 106
163 160 105
162 157 102
160 156 101
160 156 102
161 157 103
153 149 99
157 152 98
157 154 99
161 157 103
159 155 102
160 156 100
165 161 104
157 153 99
153 150 96
156 153 100
158 154 100
152 149 97
161 156 101
153 149 95
151 149 97
149 146 95
160 156 100
157 154 100
154 150 96
159 156 99
154 150 97
157 153 99
158 155 101
158 153 96
151 147 93
157 153 98
145 141 90
155 151 98
152 148 93
155 150 97
145 142 90
145 141 87
155 151 96
153 150 97
154 150 95
151 146 93
145 141 93
146 142 92
142 139 89
150 147 93
154 149 93
154 150 97
153 148 94
150 145 90
150 145 90
148 143 91
153 147 90
153 149 93
149 146 90
148 144 90
206 227 255
205 227 255
205 227 255
205 227 255
204 226 255
204 226 255
204 226 255
203 225 255
203 225 255
202 225 255
202 225 255
202 225 255
201 225 255
201 224 255
200 224 255
200 224 255
200 224 255
199 223 255
199 223 255
198 223 255
198 223 255
198 223 255
197 222 255
197 222 254
197 222 255
196 222 255
196 222 255
195 221 255
195 221 255
195 221 255
194 221 255
194 221 255
194 220 255
195 221 253
197 222 249
200 223 252
200 224 253
200 223 252
199 223 246
200 223 246
201 224 250
200 223 252
198 222 244
198 221 241
197 221 248
199 222 244
200 224 249
200 223 248
199 223 248
200 223 249
199 222 246
200 223 252
200 223 250
200 223 252
198 222 249
202 224 250
201 223 252
200 223 248
196 219 241
197 221 245
199 222 249
198 222 250
197 221 241
194 219 236
195 220 238
196 221 244
196 220 240
196 221 242
192 217 227
197 221 245
194 219 240
195 219 238
194 219 236
195 220 241
194 220 241
195 220 241
195 219 231
193 218 231
195 220 240
194 219 240
194 219 240
197 221 246
197 222 249
197 221 244
199 223 249
199 223 249
195 220 249
197 222 250
197 222 246
197 221 246
194 219 242
195 220 245
193 219 244
196 221 245
195 220 248
194 220 249
195 221 252
190 218 246
187 216 253
185 216 255
185 216 255
185 216 255
185 216 255
186 217 255
187 217 255
188 217 255
188 218 255
189 218 255
190 218 255
191 219 255
192 220 255
193 220 255
194 221 255
196 222 255
197 222 255
199 224 255
200 224 255
201 224 254
202 225 255
205 226 255
205 227 254
207 227 252
209 228 254
209 229 255
209 229 255
209 229 255
209 229 255
209 229 255
209 229 255
209 229 255
209 229 255
209 229 255
209 229 255
209 229 255
209 229 255
209 229 255
209 229 255
209 229 255
209 229 255
209 229 255
209 229 255
209 229 255
209 229 255
209 229 255
209 229 255
209 229 255
209 228 255
209 228 255
208 228 255
208 228 255
208 228 255
208 228 255
208 228 255
208 228 255
208 228 255
208 228 255
208 228 255
208 228 255
208 228 255
208 228 255
208 228 255
208 228 255
208 228 255
208 228 255
208 228 255
208 228 255
208 228 255
208 228 255
208 228 255
208 228 255
208 228 255
208 228 255
188 209 241
123 148 203
62 99 176
62 99 174
62 99 172
63 99 175
62 99 175
62 99 175
62 98 169
63 99 173
62 98 169
62 99 175
62 98 170
62 98 166
62 98 169
62 98 164
62 98 167
61 98 166
62 98 165
61 98 164
63 99 172
61 98 167
63 99 172
62 99 172
62 99 167
61 98 166
62 98 172
62 98 168
62 99 170
62 98 169
62 99 176
62 98 169
62 99 173
62 98 171
62 98 162
62 99 171
62 99 170
62 98 170
62 99 172
62 99 174
62 99 169
61 98 173
61 97 166
62 98 170
61 98 172
62 98 173
62 99 174
62 98 169
61 97 166
62 98 172
61 97 171
61 97 170
61 97 169
62 98 173
128 151 198
199 219 249
208 228 255
208 228 255
208 228 255
208 228 255
208 228 255
208 228 255
208 228 255
208 228 255
208 228 255
208 228 255
208 228 255
208 228 255
208 228 255
208 228 255
208 228 255
208 228 255
208 228 255
208 228 255
208 228 255
208 228 255
208 228 255
208 228 255
208 228 255
208 228 255
208 228 255
209 228 255
209 228 255
209 229 255
209 229 255
209 229 255
209 229 255
209 229 255
209 229 255
209 229 255
209 229 255
209 229 255
209 229 255
209 229 255
209 229 255
209 229 255
209 229 255
209 229 255
209 229 255
209 229 255
209 229 255
209 229 255
209 229 255
209 229 255
194 211 230
149 151 131
138 136 90
132 129 86
145 142 95
147 145 97
135 133 89
131 130 87
143 142 96
144 142 96
143 142 95
132 130 87
141 140 95
143 141 95
141 140 95
149 147 98
148 147 98
155 154 104
149 148 101
145 143 96
150 149 101
148 146 98
152 151 101
148 148 100
152 150 101
156 154 103
156 154 103
149 147 98
151 149 100
153 150 101
157 155 104
155 153 103
158 155 103
155 153 102
161 159 106
158 156 104
153 150 100
159 156 104
153 151 100
161 158 106
156 154 103
161 159 106
158 156 104
161 157 104
157 155 103
162 159 105
162 158 105
157 155 103
159 156 104
154 151 101
161 158 105
164 161 107
162 158 105
162 159 106
159 155 103
159 156 104
166 162 105
166 163 108
165 162 108
162 158 104
155 153 100
155 152 98
162 158 104
164 161 108
160 158 103
164 160 106
155 153 101
158 155 103
163 160 105
161 156 102
162 158 104
165 161 106
151 148 97
161 156 101
160 156 102
160 157 103
163 159 104
155 153 99
156 153 100
149 146 95
156 153 97
160 156 103
164 161 104
161 157 101
156 152 99
157 153 99
161 157 102
153 149 95
161 158 102
164 160 103
154 150 96
149 145 92
162 157 101
156 152 98
158 154 99
153 150 96
161 157 99
153 149 97
155 150 97
150 146 94
161 158 103
148 145 91
147 144 93
154 150 99
149 145 92
146 143 90
151 147 92
156 152 99
157 151 94
149 145 89
158 153 97
153 148 94
150 146 93
157 152 94
151 147 93
140 137 84
155 149 93
153 148 93
155 151 95
153 147 95
153 148 95
153 148 95
154 149 91
143 139 87
206 227 255
205 227 255
205 227 255
205 226 255
204 226 255
204 226 255
204 226 255
203 226 255
203 225 255
202 225 255
202 225 255
201 225 255
201 224 255
201 224 255
200 224 255
200 224 255
200 224 255
199 223 255
199 223 255
198 223 255
198 223 255
197 222 255
197 222 255
197 222 255
196 222 255
196 222 255
196 222 255
195 221 255
195 221 255
195 221 255
196 221 253
197 221 249
199 222 241
202 224 250
200 224 250
201 224 250
201 224 252
202 224 245
200 223 245
200 223 245
199 223 249
200 223 249
200 223 245
201 223 244
200 223 248
201 224 246
202 225 250
201 224 253
201 224 250
200 223 242
200 224 252
200 224 252
200 223 245
197 221 244
196 220 237
197 221 241
197 221 244
197 220 237
197 221 242
196 220 240
194 219 234
197 221 238
195 220 236
196 220 234
197 221 240
196 220 233
198 222 248
198 222 250
193 217 223
196 220 240
195 219 238
195 220 241
197 221 245
196 221 244
195 219 236
194 218 237
195 219 237
197 221 242
197 221 244
194 219 238
194 219 236
195 220 240
196 221 248
193 219 237
194 219 238
194 219 237
197 222 246
196 221 244
196 221 246
197 222 252
198 222 249
198 222 246
194 220 246
195 221 248
195 220 245
194 219 241
194 220 245
195 221 249
195 221 252
192 219 248
191 219 250
187 217 254
185 216 255
185 216 255
186 217 255
187 217 255
187 217 255
188 217 255
189 218 255
189 218 255
190 219 255
192 220 255
193 220 255
194 220 255
195 221 255
196 222 255
197 222 255
199 223 255
200 224 255
202 225 255
205 227 255
207 227 255
208 228 254
208 227 249
210 229 255
210 229 255
210 229 255
210 229 255
210 229 255
210 229 255
209 229 255
209 229 255
209 229 255
209 229 255
209 229 255
209 229 255
209 229 255
209 229 255
209 229 255
209 229 255
209 229 255
209 229 255
209 229 255
209 229 255
209 229 255
209 229 255
209 229 255
209 229 255
209 229 255
209 229 255
209 229 255
209 229 255
209 228 255
209 228 255
209 228 255
208 228 255
208 228 255
208 228 255
208 228 255
208 228 255
208 228 255
208 228 255
208 228 255
208 228 255
208 228 255
208 228 255
208 228 255
208 228 255
208 228 255
208 228 255
207 227 255
159 181 223
73 107 176
62 99 177
62 99 174
62 98 168
62 99 172
62 99 169
62 98 171
61 98 168
61 98 159
62 99 168
62 98 164
63 99 165
63 99 171
61 98 166
62 99 171
62 98 167
63 99 171
62 98 168
62 98 163
62 98 167
62 98 166
62 99 168
61 97 163
61 98 163
63 99 172
62 99 172
62 98 165
62 99 166
62 99 169
62 98 167
62 98 168
61 98 165
62 99 168
63 99 168
62 98 167
63 99 171
63 99 174
62 98 166
62 98 168
62 98 171
60 96 163
61 98 165
61 98 168
62 98 170
62 98 170
61 97 169
61 97 167
62 98 170
61 97 163
61 97 167
61 97 162
62 98 169
61 98 173
61 96 162
61 96 168
74 107 175
152 174 217
203 223 252
208 228 255
208 228 255
208 228 255
208 228 255
208 228 255
208 228 255
208 228 255
208 228 255
208 228 255
208 228 255
208 228 255
208 228 255
208 228 255
208 228 255
208 228 255
209 228 255
209 228 255
209 228 255
209 229 255
209 229 255
209 229 255
209 229 255
209 229 255
209 229 255
209 229 255
209 229 255
209 229 255
209 229 255
209 229 255
209 229 255
209 229 255
209 229 255
209 229 255
209 229 255
209 229 255
209 229 255
209 229 255
209 229 255
209 229 255
209 229 255
210 229 255
210 229 255
210 229 255
210 229 255
210 229 255
183 196 208
133 132 96
127 125 84
134 131 87
141 138 93
136 135 90
142 139 93
150 149 100
144 142 95
141 140 95
142 141 95
133 132 88
138 137 93
151 150 100
145 143 96
149 148 99
145 145 98
141 140 94
154 152 102
148 147 98
145 144 97
150 149 100
145 143 95
151 149 100
155 154 103
151 150 101
156 154 103
150 148 100
159 157 105
151 149 100
160 158 106
150 147 98
155 154 103
152 149 100
152 151 101
162 159 106
157 155 104
158 156 104
161 158 106
154 152 102
159 156 104
167 163 109
160 157 105
154 151 101
160 158 106
163 159 106
165 161 107
157 154 103
160 157 104
158 154 102
155 153 102
166 163 108
157 154 103
162 158 104
154 151 99
167 162 107
162 158 104
164 160 105
161 157 103
164 160 106
161 157 103
161 158 104
156 154 101
157 154 101
155 152 100
164 159 104
164 161 106
161 158 103
165 160 105
162 157 103
165 161 104
158 155 102
168 163 106
161 157 104
162 158 103
165 160 104
148 145 94
158 154 100
161 157 100
159 155 103
164 160 104
158 154 100
165 161 104
156 153 99
157 154 101
165 160 102
162 157 103
159 154 98
157 153 100
159 156 101
161 157 99
157 154 99
151 147 95
155 151 95
156 153 99
157 154 101
151 147 94
156 152 96
157 153 96
157 153 97
159 154 97
156 153 99
152 147 95
156 152 95
154 150 96
155 150 93
155 151 97
150 146 89
162 158 103
149 145 92
144 140 90
151 146 93
153 147 96
149 144 93
151 146 94
151 147 94
154 150 96
157 153 97
151 146 94
156 152 97
146 142 88
150 146 93
144 139 89
153 149 95
152 148 94
205 227 255
205 227 255
205 226 255
205 226 255
204 226 255
203 226 255
203 226 255
203 225 255
203 225 255
202 225 255
202 225 255
201 225 255
201 224 255
201 224 255
200 224 255
200 224 255
199 224 255
199 223 255
199 223 255
198 223 255
198 223 255
198 223 255
197 222 255
197 222 255
196 222 255
196 222 255
195 221 255
196 221 254
198 223 255
200 223 246
201 224 253
200 223 250
202 224 253
201 224 249
199 222 246
201 224 253
202 225 249
200 223 246
201 223 244
200 223 242
197 221 241
199 223 246
201 224 252
202 225 250
203 225 246
201 224 246
201 223 246
202 224 245
201 223 245
198 221 237
197 221 240
199 222 245
197 220 236
197 220 238
197 221 237
198 222 245
198 221 240
199 222 240
197 221 240
199 222 245
199 223 246
196 220 240
198 222 242
196 219 234
197 221 242
199 223 248
197 221 237
197 221 246
198 222 244
196 219 230
198 222 242
196 220 244
198 222 246
199 223 250
198 222 244
198 222 248
198 222 245
198 222 244
197 222 246
197 221 240
198 222 244
196 220 240
196 221 242
194 218 234
195 219 237
196 221 244
195 219 234
194 219 238
196 221 250
194 219 236
195 220 249
196 221 248
197 222 249
197 221 245
196 221 249
195 221 249
195 220 242
198 222 249
198 222 252
197 221 249
195 221 249
195 221 248
193 219 246
190 218 250
188 217 255
186 216 255
186 216 255
187 217 255
188 217 255
188 218 255
189 218 255
190 218 255
191 219 255
192 220 255
193 220 255
195 221 255
195 221 255
197 222 255
198 223 255
200 224 255
201 224 255
203 225 253
204 226 254
206 227 253
208 228 254
209 229 252
210 229 255
210 229 255
210 229 255
210 229 255
210 229 255
210 229 255
210 229 255
210 229 255
210 229 255
210 229 255
209 229 255
209 229 255
209 229 255
209 229 255
209 229 255
209 229 255
209 229 255
209 229 255
209 229 255
209 229 255
209 229 255
209 229 255
209 229 255
209 229 255
209 229 255
209 229 255
209 229 255
209 229 255
209 229 255
209 229 255
209 229 255
209 229 255
209 229 255
209 229 255
209 229 255
209 228 255
208 228 255
208 228 255
208 228 255
208 228 255
208 228 255
208 228 255
208 228 255
196 216 247
110 137 195
62 98 171
62 99 174
62 98 169
62 99 172
62 99 171
62 98 168
63 99 168
61 98 165
62 98 165
62 99 172
62 98 162
62 98 166
62 98 173
62 98 166
62 99 172
61 98 164
63 99 169
62 99 171
62 98 168
62 99 171
61 97 156
62 98 165
62 98 164
62 99 172
62 98 166
62 98 164
61 97 163
61 97 159
61 97 159
62 98 163
62 98 170
61 97 165
62 98 166
62 98 163
62 98 168
62 99 170
62 98 164
62 98 164
61 97 162
62 99 169
62 98 164
62 98 169
62 98 165
62 98 161
62 98 163
62 98 164
62 98 168
62 98 167
61 97 168
61 97 165
61 97 166
62 98 170
62 98 172
62 98 170
62 98 168
60 96 167
61 97 165
62 97 167
110 136 191
195 215 246
208 228 255
208 228 255
208 228 255
208 228 255
208 228 255
208 228 255
209 228 255
209 228 255
209 228 255
209 229 255
209 229 255
209 229 255
209 229 255
209 229 255
209 229 255
209 229 255
209 229 255
209 229 255
209 229 255
209 229 255
209 229 255
209 229 255
209 229 255
209 229 255
209 229 255
209 229 255
209 229 255
209 229 255
209 229 255
209 229 255
209 229 255
209 229 255
209 229 255
210 229 255
210 229 255
210 229 255
210 229 255
210 229 255
210 229 255
210 229 255
210 229 255
210 229 255
206 224 248
154 161 159
123 121 79
125 123 83
138 135 89
138 136 92
143 140 93
137 137 93
140 138 92
137 136 92
139 137 92
150 147 98
136 136 92
142 141 95
136 135 92
156 155 104
141 140 94
153 152 102
151 149 100
150 149 101
146 145 98
147 146 98
150 149 101
152 151 102
159 157 105
159 158 106
149 147 99
156 154 103
154 151 101
160 158 105
160 157 104
152 151 102
152 150 100
162 160 106
155 152 102
160 158 106
154 153 103
156 153 103
157 155 104
158 155 103
160 157 104
164 160 106
162 159 105
152 149 99
163 160 107
167 163 108
160 158 105
161 158 105
160 157 105
157 155 103
156 154 103
157 154 102
168 164 109
163 159 105
156 153 101
164 161 107
163 160 106
164 160 104
168 164 108
162 159 105
168 165 109
163 160 104
169 165 108
163 160 105
160 156 103
160 156 103
158 155 101
162 159 104
161 157 101
160 155 99
158 154 101
165 162 105
155 153 101
162 157 103
163 159 104
164 159 103
164 159 104
156 152 99
157 153 99
162 158 102
163 160 104
166 161 104
159 156 102
162 158 103
168 163 104
161 157 101
156 152 99
156 151 97
161 157 103
164 160 104
162 158 101
157 153 97
155 151 95
159 156 101
165 159 103
162 158 101
160 155 99
156 152 99
161 156 101
155 151 95
151 147 93
156 150 94
164 159 102
161 156 97
152 149 97
155 151 96
154 151 97
148 144 90
158 154 97
150 146 93
160 155 97
153 149 93
147 142 91
150 146 92
155 152 93
159 154 95
155 150 93
154 149 90
144 140 88
146 142 90
146 142 89
139 135 84
150 145 93
146 141 89
150 146 91
153 149 95
148 143 90
205 227 255
205 227 255
205 226 255
204 226 255
204 226 255
203 226 255
203 226 255
203 225 255
202 225 255
202 225 255
202 225 255
201 225 255
201 224 255
201 224 255
200 224 255
200 224 255
199 223 255
199 223 255
198 223 255
198 223 255
198 223 255
198 223 255
197 222 255
197 222 255
196 222 255
197 222 254
200 223 252
201 224 248
201 224 249
200 223 245
201 224 248
201 223 250
199 222 246
202 224 249
200 223 245
201 224 250
199 222 244
201 224 248
200 222 242
202 224 246
201 223 242
202 224 252
203 225 252
201 224 248
201 223 244
197 221 237
198 221 233
196 220 231
199 222 242
199 222 238
200 223 245
199 222 242
198 221 238
197 221 238
198 221 240
200 223 245
199 222 244
200 223 249
198 221 237
197 220 236
198 221 241
200 223 244
199 222 245
197 220 240
199 222 240
197 221 238
198 221 240
201 224 248
197 221 238
198 222 240
199 221 238
199 222 242
197 221 240
197 221 244
197 221 242
199 223 249
199 222 242
198 222 245
197 221 237
198 222 244
199 222 252
198 222 246
198 221 242
199 223 250
197 221 244
196 219 231
196 220 240
198 222 245
196 220 237
196 220 240
195 219 237
195 220 240
195 220 240
193 218 231
195 220 242
196 221 246
195 220 245
196 221 246
195 221 249
197 222 248
197 222 253
195 219 244
197 221 246
196 222 253
196 220 244
193 220 253
188 217 255
186 216 255
187 217 255
187 217 255
188 218 255
189 218 255
190 219 255
191 219 255
192 219 255
193 220 255
194 220 255
195 221 255
197 222 255
198 223 255
201 224 255
201 224 254
203 226 255
205 227 255
206 227 255
207 228 255
210 229 253
210 229 255
210 229 255
210 229 255
210 229 255
210 229 255
210 229 255
210 229 255
210 229 255
210 229 255
210 229 255
210 229 255
210 229 255
210 229 255
210 229 255
210 229 255
209 229 255
209 229 255
209 229 255
209 229 255
209 229 255
209 229 255
209 229 255
209 229 255
209 229 255
209 229 255
209 229 255
209 229 255
209 229 255
209 229 255
209 229 255
209 229 255
209 229 255
209 229 255
209 229 255
209 229 255
209 229 255
209 229 255
209 229 255
209 229 255
209 229 255
209 229 255
172 193 230
68 103 174
61 98 170
61 98 168
62 98 167
61 98 174
62 99 173
62 98 168
63 99 175
62 98 169
62 99 170
62 98 166
62 98 167
62 98 167
62 99 166
62 98 163
62 98 165
62 98 164
62 98 165
62 98 166
62 98 162
62 98 169
62 98 170
62 99 173
60 97 161
62 98 164
62 98 167
62 98 164
62 99 171
62 98 166
62 98 169
62 98 161
61 98 166
62 98 165
63 99 166
61 98 161
62 98 165
62 98 163
61 97 162
61 97 157
62 98 163
62 98 163
61 97 163
61 98 163
62 98 161
62 98 159
62 98 167
61 97 156
62 98 170
61 98 167
61 97 161
61 96 164
61 96 163
61 98 166
61 98 169
62 98 171
61 97 171
61 97 164
62 98 171
62 98 169
62 98 172
61 97 164
73 106 173
170 190 226
209 229 255
209 229 255
209 229 255
209 229 255
209 229 255
209 229 255
209 229 255
209 229 255
209 229 255
209 229 255
209 229 255
209 229 255
209 229 255
209 229 255
209 229 255
209 229 255
209 229 255
209 229 255
209 229 255
209 229 255
209 229 255
209 229 255
209 229 255
209 229 255
209 229 255
209 229 255
210 229 255
210 229 255
210 229 255
210 229 255
210 229 255
210 229 255
210 229 255
210 229 255
210 229 255
210 229 255
210 229 255
210 229 255
210 229 255
210 229 255
203 220 242
149 152 138
134 132 86
137 135 90
129 126 84
141 139 93
142 140 94
139 138 93
152 150 101
138 136 92
129 129 88
142 141 96
146 143 96
143 142 96
150 148 100
144 142 96
147 145 98
148 146 98
146 144 97
152 151 102
153 152 102
150 149 101
148 146 99
148 147 99
147 145 97
150 149 101
155 152 101
155 153 103
157 155 105
158 155 103
150 148 98
159 157 105
153 151 101
155 153 103
159 157 105
158 156 104
157 154 103
157 154 103
164 162 108
163 160 107
156 154 101
159 156 104
151 148 98
156 154 103
160 158 105
163 160 107
159 157 104
162 159 106
162 159 106
164 161 107
162 158 104
158 154 102
169 166 110
169 166 110
162 159 105
166 162 106
166 163 108
158 154 101
159 157 104
161 157 103
162 157 102
163 160 105
154 152 99
162 158 104
161 157 103
168 164 107
162 158 103
158 155 102
158 154 100
159 157 104
159 155 101
158 154 101
157 153 100
161 156 102
164 159 103
162 157 101
160 156 101
155 152 95
158 154 101
163 160 104
159 155 100
159 155 101
164 159 104
161 157 100
161 157 103
162 158 103
157 154 100
162 158 103
171 166 107
157 153 98
163 160 101
167 163 105
159 155 101
155 151 97
162 156 99
157 153 97
165 160 101
161 156 99
162 157 98
161 155 98
155 151 95
150 147 92
159 155 99
158 153 99
160 155 94
161 157 102
156 151 96
160 155 97
155 151 95
155 152 97
156 151 95
154 150 97
155 152 94
159 155 97
149 145 90
149 145 93
148 144 90
143 139 84
156 152 97
153 147 91
157 153 95
150 145 90
151 146 87
162 157 96
159 153 94
144 140 84
149 145 90
140 136 82
205 227 255
205 227 255
205 226 255
204 226 255
204 226 255
203 226 255
203 225 255
203 225 255
202 225 255
202 225 255
201 225 255
201 225 255
201 224 255
201 224 255
200 224 255
200 224 255
200 224 255
199 223 255
199 223 255
198 223 255
198 223 255
198 223 255
197 222 255
197 222 254
199 223 252
202 224 248
201 223 248
203 225 250
202 224 249
203 225 252
201 224 252
201 224 248
203 225 250
203 225 246
201 224 248
202 224 244
202 224 245
202 224 246
204 226 252
204 225 250
202 224 246
200 222 242
198 221 236
198 221 237
197 220 236
200 223 248
199 222 242
198 221 237
198 221 233
199 222 241
199 221 238
201 224 250
199 222 238
201 224 249
199 222 238
199 222 238
198 221 238
201 223 248
201 223 246
200 223 244
198 221 237
200 223 245
200 222 240
199 222 238
200 223 249
199 223 245
200 222 245
199 222 240
200 223 248
197 220 237
199 222 240
199 222 241
201 224 252
200 223 244
198 222 244
197 220 237
197 221 237
198 222 241
199 222 241
199 222 244
198 222 246
199 222 244
198 222 241
200 223 249
198 222 242
198 221 242
197 221 241
198 222 244
197 221 242
197 220 238
198 222 244
196 220 237
194 219 237
197 221 245
198 222 249
195 220 242
194 219 241
194 219 237
197 221 242
197 222 248
197 221 242
198 223 253
196 221 245
196 221 249
196 221 248
195 221 253
193 219 242
194 220 253
188 218 255
187 217 255
187 217 255
188 218 255
189 218 255
189 218 255
191 219 255
192 219 255
192 220 255
194 221 255
196 222 255
196 222 255
198 223 255
200 224 255
201 224 254
204 226 255
204 226 255
205 226 255
207 227 252
211 230 254
210 229 255
210 229 255
210 229 255
210 229 255
210 229 255
210 229 255
210 229 255
210 229 255
210 229 255
210 229 255
210 229 255
210 229 255
210 229 255
210 229 255
210 229 255
210 229 255
210 229 255
210 229 255
210 229 255
210 229 255
210 229 255
209 229 255
209 229 255
209 229 255
209 229 255
209 229 255
209 229 255
209 229 255
209 229 255
209 229 255
209 229 255
209 229 255
209 229 255
209 229 255
209 229 255
209 229 255
209 229 255
209 229 255
208 228 255
158 180 220
62 99 170
63 99 174
62 99 171
62 99 171
63 99 168
63 100 177
62 99 171
62 99 170
63 99 172
62 99 171
62 98 164
63 99 166
62 98 163
63 99 170
62 99 166
62 99 169
62 99 170
61 97 166
61 98 166
61 97 159
62 98 164
62 99 172
61 98 167
62 98 165
62 99 167
62 98 164
62 98 164
62 98 167
62 99 166
61 98 163
62 98 163
61 97 161
63 99 170
62 98 166
61 98 166
62 99 169
61 97 158
63 99 171
63 99 169
63 99 165
61 98 166
62 98 167
62 98 166
61 96 152
61 97 161
62 98 166
62 99 168
62 98 162
62 98 161
61 98 167
62 98 165
61 97 156
61 97 164
61 97 160
63 99 171
62 98 169
61 97 165
61 97 160
61 97 163
61 97 166
61 96 162
62 98 171
61 97 170
60 96 169
158 179 222
206 226 254
209 229 255
209 229 255
209 229 255
209 229 255
209 229 255
209 229 255
209 229 255
209 229 255
209 229 255
209 229 255
209 229 255
209 229 255
209 229 255
209 229 255
209 229 255
209 229 255
209 229 255
210 229 255
210 229 255
210 229 255
210 229 255
210 229 255
210 229 255
210 229 255
210 229 255
210 229 255
210 229 255
210 229 255
210 229 255
210 229 255
210 229 255
210 229 255
210 229 255
210 229 255
210 229 255
210 229 255
210 229 255
195 210 226
143 142 108
123 121 79
141 138 93
133 131 88
141 140 94
141 140 94
135 132 89
138 137 93
144 142 95
141 140 95
140 139 95
141 140 94
149 148 99
142 141 95
147 146 98
139 138 93
151 150 102
150 148 99
147 146 98
150 149 101
150 149 100
144 142 96
148 147 99
150 149 100
155 153 103
156 154 104
155 154 103
157 155 104
155 153 102
158 155 104
161 159 107
154 151 101
154 153 103
158 156 104
161 158 105
158 155 103
159 156 103
158 155 103
161 159 106
156 153 102
166 161 104
159 157 104
159 156 103
160 157 104
163 160 104
159 156 103
160 157 105
157 153 100
161 157 104
166 162 107
168 163 106
162 158 104
160 158 104
162 159 105
164 161 106
166 162 107
164 159 104
168 164 108
156 153 101
165 162 106
165 162 108
168 164 108
162 158 103
167 163 107
159 156 102
165 161 105
163 159 104
163 159 104
167 162 105
163 159 103
168 163 106
158 153 99
159 155 100
161 157 101
165 161 103
161 156 99
166 161 106
165 162 105
158 155 101
160 156 100
161 158 102
165 160 104
156 152 99
155 152 95
156 152 97
167 162 104
164 159 102
162 156 99
161 157 99
168 162 104
166 161 104
165 161 103
164 160 105
158 153 97
164 159 103
146 142 90
159 155 101
146 142 89
164 159 100
159 155 97
159 154 97
161 158 99
149 145 91
153 150 93
151 147 91
162 157 99
161 157 100
155 151 95
161 157 99
157 153 97
150 146 88
149 145 92
154 149 95
160 155 99
157 152 97
148 143 90
159 154 98
150 147 92
155 151 97
154 149 90
154 148 90
150 146 92
152 146 90
144 140 89
155 150 94
150 144 92
154 149 92
149 144 86
205 227 255
205 227 255
205 226 255
204 226 255
204 226 255
203 226 255
203 226 255
203 225 255
202 225 255
202 225 255
202 225 255
201 224 255
201 224 255
200 224 255
200 224 255
200 224 255
200 224 255
199 223 255
199 223 255
198 223 255
198 223 255
198 223 254
200 224 250
203 225 249
202 224 250
203 224 246
202 224 246
200 222 242
202 224 245
202 224 246
203 225 248
204 225 249
203 225 249
204 225 249
204 226 252
205 226 250
202 223 241
204 226 250
201 223 242
200 222 238
198 220 233
197 220 233
199 221 231
199 221 238
200 222 237
200 223 241
202 224 248
200 222 237
202 224 246
202 224 245
201 224 245
200 223 240
199 222 238
200 223 242
202 224 246
199 222 238
202 224 248
198 220 236
201 223 241
201 224 244
201 223 245
201 223 244
202 224 242
202 224 246
202 224 245
200 222 248
199 222 244
201 223 244
200 223 248
201 224 249
201 223 244
201 224 249
201 224 250
199 222 241
201 224 249
201 223 249
200 223 246
199 222 244
201 224 248
201 223 244
200 223 245
199 222 238
199 221 238
199 222 244
197 220 241
198 221 242
200 222 242
198 221 241
200 223 248
197 221 248
197 221 241
198 222 249
197 220 237
196 220 236
198 221 241
196 220 236
196 220 238
197 221 241
196 220 236
196 221 245
195 220 241
194 219 237
200 224 252
198 222 248
198 222 248
196 221 248
197 222 253
197 222 254
196 221 246
194 220 245
189 217 252
187 217 255
188 217 255
189 218 255
189 218 255
190 219 255
191 219 255
193 220 255
194 220 255
195 221 255
196 222 255
198 223 255
199 223 255
201 224 255
203 226 255
204 226 255
207 227 255
207 227 252
210 229 254
210 229 255
210 230 255
210 230 255
210 230 255
210 229 255
210 229 255
210 229 255
210 229 255
210 229 255
210 229 255
210 229 255
210 229 255
210 229 255
210 229 255
210 229 255
210 229 255
210 229 255
210 229 255
210 229 255
210 229 255
210 229 255
210 229 255
210 229 255
210 229 255
210 229 255
210 229 255
210 229 255
210 229 255
209 229 255
209 229 255
209 229 255
209 229 255
209 229 255
209 229 255
209 229 255
209 229 255
207 227 254
145 168 214
62 98 172
62 98 167
62 99 174
61 97 166
62 99 172
62 98 170
62 99 167
62 98 165
63 99 171
61 98 165
62 98 164
62 98 162
62 98 162
62 98 164
62 98 162
62 98 168
62 98 167
62 99 166
63 99 167
61 98 160
62 98 167
62 98 163
63 99 170
62 98 168
62 98 164
62 98 165
62 98 164
62 98 166
62 98 164
61 98 164
62 98 164
62 98 161
62 99 169
62 98 164
63 99 164
62 98 162
62 99 171
62 98 160
62 98 161
62 98 159
61 98 170
63 99 170
61 97 165
62 98 161
61 98 168
62 98 163
62 99 170
63 99 169
62 98 161
62 98 165
61 97 164
62 98 165
62 98 166
62 98 167
62 98 167
61 97 163
62 98 166
61 96 159
62 97 163
61 96 159
61 96 163
61 97 166
61 96 163
61 95 164
61 96 167
60 95 165
122 146 196
206 226 254
209 229 255
209 229 255
209 229 255
209 229 255
209 229 255
209 229 255
209 229 255
209 229 255
210 229 255
210 229 255
210 229 255
210 229 255
210 229 255
210 229 255
210 229 255
210 229 255
210 229 255
210 229 255
210 229 255
210 229 255
210 229 255
210 229 255
210 229 255
210 229 255
210 229 255
210 229 255
210 229 255
210 229 255
210 229 255
210 229 255
210 229 255
210 229 255
210 230 255
210 230 255
210 230 255
188 201 209
133 131 92
129 125 83
142 140 93
136 134 89
133 132 89
133 131 88
141 139 94
132 132 91
138 138 93
145 144 97
146 144 97
141 140 96
147 145 98
132 131 89
141 140 94
149 147 99
145 143 96
151 149 101
144 142 95
152 150 101
155 153 103
150 148 99
150 149 99
151 149 100
154 152 102
155 153 104
152 150 101
156 154 103
162 160 107
157 156 104
160 157 105
153 151 100
161 158 104
154 151 102
154 152 103
163 159 105
156 154 103
153 150 100
158 155 103
155 153 102
165 162 108
158 155 103
165 162 107
166 163 107
165 162 107
162 159 105
162 159 105
171 167 111
168 164 108
161 158 103
163 159 105
168 165 108
160 156 103
163 160 106
164 160 106
160 157 103
161 158 104
166 161 103
162 159 104
165 160 105
166 163 106
162 158 104
165 161 106
161 156 101
168 162 104
164 160 103
160 156 104
161 157 101
166 162 106
169 166 107
167 163 107
164 160 103
165 161 104
164 159 102
167 163 108
170 165 107
165 160 103
166 161 102
156 152 98
162 158 103
162 158 101
164 160 103
163 158 100
155 151 98
160 155 98
157 153 98
159 154 98
158 154 101
164 159 99
161 157 99
158 154 97
164 159 100
162 158 101
160 156 99
157 153 98
151 147 90
166 162 103
159 155 99
159 155 99
150 146 93
156 152 95
154 151 94
156 151 95
155 151 96
160 155 98
156 151 96
156 151 95
163 159 101
156 151 95
159 154 96
161 156 97
160 155 95
146 142 89
151 147 93
146 142 89
142 140 87
165 160 101
164 159 103
151 147 94
156 151 96
159 154 94
155 150 91
155 150 93
153 147 90
141 137 87
149 144 90
156 151 92
153 149 91
153 148 92
205 227 255
205 227 255
205 226 255
204 226 255
204 226 255
204 226 255
203 225 255
203 225 255
202 225 255
202 225 255
201 225 255
201 225 255
201 224 255
201 224 255
200 224 255
200 224 255
199 224 255
199 223 255
199 223 255
198 222 254
200 223 248
203 225 252
204 225 249
203 225 253
204 226 252
203 225 252
204 225 249
203 225 248
202 224 246
205 226 246
202 224 246
203 225 244
203 225 246
204 225 249
205 226 252
203 225 246
202 224 246
200 223 238
201 223 242
200 223 241
200 223 241
202 224 246
201 223 242
203 225 249
200 222 238
202 224 246
202 224 246
201 223 242
200 223 240
201 223 241
202 224 246
204 225 250
202 224 245
201 223 244
203 225 252
200 222 238
203 225 248
203 225 252
201 223 242
202 224 249
201 223 242
202 225 250
200 222 244
200 222 238
201 224 248
201 223 248
203 224 250
201 224 246
203 225 249
201 224 249
202 224 246
202 225 250
202 225 250
201 224 249
200 223 245
201 224 246
198 220 241
198 221 237
199 222 244
200 223 245
201 224 245
200 223 240
198 221 236
199 222 246
201 224 249
200 223 248
200 223 242
200 223 248
200 223 246
200 223 249
199 222 241
200 223 248
200 223 248
198 222 244
198 222 242
199 222 244
198 221 242
198 221 241
199 222 248
196 221 246
197 221 241
196 221 245
196 221 245
193 218 230
198 222 246
199 222 246
197 222 249
196 221 244
198 222 252
197 222 250
196 221 245
194 220 249
190 219 253
188 218 255
189 218 255
190 218 255
190 219 255
192 219 255
192 220 255
193 220 255
195 221 255
196 222 255
197 222 255
199 223 255
201 224 255
202 225 255
205 226 254
206 227 255
207 227 253
209 229 253
210 229 254
211 230 255
211 230 255
211 230 255
211 230 255
211 230 255
211 230 255
210 230 255
210 230 255
210 230 255
210 229 255
210 229 255
210 229 255
210 229 255
210 229 255
210 229 255
210 229 255
210 229 255
210 229 255
210 229 255
210 229 255
210 229 255
210 229 255
210 229 255
210 229 255
210 229 255
210 229 255
210 229 255
210 229 255
210 229 255
210 229 255
210 229 255
210 229 255
210 229 255
203 222 251
106 132 188
62 99 171
62 99 171
62 98 167
62 99 169
62 99 166
63 99 171
63 99 172
62 99 167
62 99 173
62 99 170
63 99 169
62 98 166
62 98 163
61 97 161
62 98 164
63 99 170
62 99 166
62 99 171
62 98 160
62 98 158
62 98 162
62 98 162
62 99 169
61 97 156
61 97 163
61 98 161
63 99 167
62 99 170
62 98 161
63 99 167
62 98 164
62 98 160
61 97 159
62 98 162
61 98 164
62 98 161
61 98 165
62 98 160
62 99 167
63 99 166
62 98 164
62 98 167
63 98 168
61 97 161
61 97 160
61 97 166
62 99 171
61 97 158
62 98 168
63 99 168
62 97 160
61 97 161
61 97 163
61 96 163
61 97 160
61 96 165
61 96 154
62 97 161
61 96 158
62 98 168
60 95 157
62 98 171
60 96 165
61 96 160
59 93 158
60 94 163
60 95 157
61 96 165
119 142 191
203 222 249
210 229 255
210 229 255
210 229 255
210 229 255
210 229 255
210 229 255
210 229 255
210 229 255
210 229 255
210 229 255
210 229 255
210 229 255
210 229 255
210 229 255
210 229 255
210 229 255
210 229 255
210 229 255
210 229 255
210 229 255
210 229 255
210 229 255
210 229 255
210 229 255
210 230 255
210 230 255
210 230 255
211 230 255
211 230 255
211 230 255
211 230 255
211 230 255
211 230 255
179 189 192
129 126 86
127 125 82
141 139 92
139 137 92
138 136 91
140 138 93
141 141 96
133 133 90
146 143 96
143 142 96
143 142 96
148 146 98
144 144 98
153 152 102
144 142 95
149 149 101
147 145 98
148 148 100
153 152 101
146 144 98
151 150 101
155 154 103
156 154 104
145 145 98
155 152 102
156 153 103
155 152 102
154 152 101
163 160 105
158 155 103
158 156 105
158 156 104
160 157 105
155 153 102
163 161 107
156 154 103
153 151 101
159 156 104
161 158 105
162 159 104
160 157 104
164 161 106
161 158 104
165 161 106
164 160 107
160 156 103
161 159 106
153 150 97
163 159 104
163 159 106
167 163 107
170 165 107
166 162 107
164 160 105
167 162 106
160 157 104
163 160 105
166 161 105
170 166 108
165 162 106
164 160 105
167 164 108
161 158 102
169 165 108
158 155 103
165 161 105
164 160 104
162 159 105
166 163 105
166 162 104
167 162 106
168 162 104
166 161 104
163 160 103
165 160 104
172 167 108
169 163 105
168 163 105
161 156 101
159 155 101
166 163 104
164 159 103
166 162 104
166 161 104
166 160 102
160 156 98
166 161 103
166 160 103
162 158 99
162 157 99
160 155 97
168 163 106
160 156 99
158 153 99
162 157 100
157 153 97
159 155 94
157 152 99
160 154 99
158 154 97
160 156 97
161 156 94
160 156 101
158 153 95
157 153 95
156 152 95
159 155 99
157 152 97
163 158 98
152 147 91
158 153 97
151 147 90
153 149 93
158 154 99
152 147 91
162 157 98
153 148 90
146 142 88
147 143 87
156 152 92
154 149 93
155 149 95
142 138 87
154 150 93
154 150 95
152 147 91
152 148 93
163 157 97
146 141 89
157 153 96
205 227 255
205 226 255
204 226 255
204 226 255
204 226 255
204 226 255
203 226 255
203 225 255
202 225 255
202 225 255
202 225 255
201 225 255
201 224 255
201 224 255
200 224 255
200 224 255
200 224 255
200 224 255
201 223 250
203 226 255
206 227 254
206 227 252
204 225 248
205 226 248
204 226 250
204 226 250
205 226 248
203 224 246
204 225 253
205 226 249
204 225 246
204 225 249
204 225 246
205 226 253
203 224 245
201 223 242
200 222 233
201 223 237
200 222 237
203 225 248
201 223 241
203 225 249
203 224 244
203 224 244
199 221 238
203 224 244
200 223 240
202 224 245
203 224 245
201 222 238
202 224 246
203 225 248
201 223 240
202 223 245
203 224 246
202 224 244
202 223 245
202 224 244
203 225 245
203 224 246
203 224 244
202 224 241
202 224 248
200 222 242
202 224 249
201 224 248
199 222 238
203 225 249
202 224 248
202 223 240
202 224 246
202 224 241
201 224 246
202 224 246
201 222 241
202 224 245
203 225 250
202 224 246
200 223 240
201 224 246
203 225 249
201 223 242
201 224 248
201 223 246
202 224 248
201 223 245
202 225 250
199 222 242
201 223 244
202 224 250
199 222 245
199 222 240
200 222 242
198 221 241
199 222 244
199 223 246
199 223 245
198 222 242
197 221 241
198 221 238
198 222 242
197 221 240
196 220 236
197 221 240
195 219 236
196 220 236
198 222 248
198 222 246
198 222 249
195 220 242
195 221 248
196 221 245
197 222 249
192 219 249
189 217 253
189 218 255
190 218 255
191 219 255
191 219 255
192 220 255
194 221 255
195 221 255
196 222 255
197 222 255
199 224 255
201 224 255
203 225 255
205 226 254
206 227 255
208 228 255
208 228 252
210 229 254
211 230 255
211 230 255
211 230 255
211 230 255
211 230 255
211 230 255
211 230 255
211 230 255
211 230 255
211 230 255
211 230 255
211 230 255
211 230 255
210 230 255
210 230 255
210 229 255
210 229 255
210 229 255
210 229 255
210 229 255
210 229 255
210 229 255
210 229 255
210 229 255
210 229 255
210 229 255
210 229 255
210 229 255
210 229 255
210 229 255
210 229 255
201 221 249
94 122 184
62 98 172
62 99 172
63 99 168
62 98 166
62 99 167
62 98 166
62 98 169
61 97 159
63 99 168
61 97 163
62 98 167
62 98 167
63 99 171
62 98 164
62 99 169
61 97 162
62 98 164
62 98 158
61 97 156
61 97 160
62 98 163
62 99 167
62 99 167
62 97 160
62 99 163
62 99 164
61 97 159
62 98 164
62 98 160
63 99 171
61 97 159
63 99 163
62 98 162
61 97 160
62 97 157
61 97 153
62 97 157
62 98 165
62 98 163
61 97 156
60 96 152
62 98 161
61 96 154
62 98 160
61 97 160
62 98 167
62 97 161
62 98 167
62 98 166
62 97 165
63 99 173
62 98 165
61 96 159
62 98 165
61 97 167
62 97 163
61 97 165
62 98 166
61 97 162
61 97 166
61 96 166
62 98 168
62 98 166
61 97 158
61 97 165
60 95 156
59 93 151
61 96 165
60 95 161
60 94 158
100 126 183
200 219 248
210 229 255
210 229 255
210 229 255
210 229 255
210 229 255
210 229 255
210 229 255
210 229 255
210 229 255
210 229 255
210 229 255
210 229 255
210 229 255
210 229 255
210 229 255
210 229 255
210 230 255
210 230 255
210 230 255
211 230 255
211 230 255
211 230 255
211 230 255
211 230 255
211 230 255
211 230 255
211 230 255
211 230 255
211 230 255
211 230 255
211 230 255
174 186 194
130 128 85
136 133 88
131 128 86
139 137 92
135 133 89
134 133 90
140 138 94
143 142 95
143 141 95
135 135 92
135 134 90
136 136 92
148 147 99
141 140 95
152 152 103
128 127 87
159 158 106
139 138 94
162 160 107
152 151 102
155 153 103
149 148 101
146 145 98
153 151 101
154 153 103
154 152 102
148 146 98
159 155 103
156 154 103
154 151 101
160 159 106
156 154 103
158 157 105
161 157 105
157 154 102
160 157 105
157 156 105
152 149 99
161 158 104
162 159 105
162 159 104
162 158 105
166 163 108
162 159 105
167 164 108
167 163 107
165 162 107
163 159 106
162 159 105
165 161 106
167 164 107
171 167 110
166 162 107
170 166 108
166 163 107
167 163 108
171 165 108
169 165 109
171 166 108
164 160 105
164 159 104
166 162 106
164 161 106
164 160 105
168 163 107
166 161 103
164 160 105
168 165 106
165 160 104
163 158 103
169 165 109
163 160 104
167 163 104
165 162 106
170 165 104
165 161 105
162 157 100
167 162 106
158 154 99
162 158 101
165 161 104
156 153 97
165 161 104
169 164 106
166 162 103
160 156 102
157 152 99
166 161 103
162 157 99
162 158 99
158 153 99
153 148 92
159 155 96
156 153 95
166 162 104
159 155 97
154 149 93
168 163 104
165 160 101
160 156 101
160 154 98
160 155 95
161 157 97
158 153 93
161 157 98
157 153 97
163 158 99
158 153 96
159 154 97
154 150 92
159 154 97
153 148 91
159 155 98
150 146 91
155 150 93
155 150 93
156 153 95
149 144 88
168 162 102
154 150 92
148 144 90
144 140 87
157 151 94
159 154 95
151 146 93
152 147 90
149 144 87
157 152 94
152 149 90
154 147 90
154 149 92
205 227 255
205 227 255
205 226 255
204 226 255
204 226 255
204 226 255
203 226 255
203 225 255
203 225 255
202 225 255
202 225 255
201 225 255
201 224 255
201 224 255
201 224 255
200 224 255
200 223 252
203 224 246
205 226 249
205 226 248
205 226 250
205 227 253
206 227 254
206 227 252
204 225 249
206 226 249
204 225 246
204 225 246
207 227 253
204 226 250
206 227 250
205 226 249
202 223 238
201 223 238
199 221 230
201 223 238
203 225 246
201 223 238
200 222 238
202 224 244
203 225 246
204 225 249
203 225 245
203 224 245
203 224 245
202 223 240
204 225 246
204 225 246
204 225 249
203 224 242
204 225 248
204 225 245
204 225 248
203 225 244
203 225 248
201 223 238
204 226 249
204 225 252
203 225 246
205 226 250
203 225 245
204 226 250
204 225 245
202 224 242
204 225 246
202 223 238
203 224 245
202 224 246
203 224 248
203 225 250
202 224 244
204 225 252
201 223 238
204 226 253
204 226 252
202 224 248
202 224 241
201 223 240
203 225 246
202 224 248
200 223 244
204 226 252
201 223 242
203 224 246
200 222 244
203 225 249
200 223 242
203 225 248
200 223 246
201 223 246
202 224 248
202 225 250
201 224 246
200 223 246
198 221 238
197 220 237
199 222 242
201 224 249
200 223 249
200 223 246
198 221 241
199 223 248
198 222 240
198 222 246
197 220 238
197 221 240
197 222 249
194 219 237
198 222 245
199 223 248
198 222 245
196 220 241
198 222 252
199 223 246
195 220 242
192 219 252
189 218 255
190 219 255
191 219 255
192 219 255
193 220 255
194 221 255
196 222 255
197 222 255
198 223 255
199 223 255
201 224 255
202 225 255
204 226 255
207 228 255
208 228 255
209 228 252
211 230 253
211 230 255
211 230 255
211 230 255
211 230 255
211 230 255
211 230 255
211 230 255
211 230 255
211 230 255
211 230 255
211 230 255
211 230 255
211 230 255
211 230 255
211 230 255
211 230 255
211 230 255
211 230 255
211 230 255
210 230 255
210 230 255
210 230 255
210 230 255
210 229 255
210 229 255
210 229 255
210 229 255
210 229 255
210 229 255
207 227 254
99 127 186
62 99 171
61 97 161
61 98 163
62 98 163
62 99 166
62 98 162
62 98 164
62 98 162
62 99 168
61 97 155
62 98 164
63 99 166
62 98 160
63 100 171
62 99 166
63 99 169
62 98 165
61 97 157
62 98 160
61 97 161
61 97 164
62 98 163
62 98 163
62 98 162
62 98 162
61 97 156
61 97 160
61 97 156
61 97 159
62 98 167
63 99 165
61 97 152
63 99 161
62 98 164
63 99 164
63 99 164
62 98 163
62 98 170
62 98 160
61 97 157
62 98 159
61 97 163
61 97 160
62 98 163
60 96 156
62 98 161
63 98 164
62 98 160
62 97 163
61 97 160
61 97 165
62 98 163
62 98 166
62 98 164
62 98 163
61 97 160
61 97 167
61 97 162
62 98 166
62 97 162
63 99 168
62 98 166
62 98 165
62 97 163
61 96 159
61 97 163
62 97 165
61 96 163
60 95 150
61 96 159
61 95 162
60 95 162
99 125 183
203 223 250
210 229 255
210 229 255
210 229 255
210 229 255
210 229 255
210 229 255
210 230 255
210 230 255
210 230 255
211 230 255
211 230 255
211 230 255
211 230 255
211 230 255
211 230 255
211 230 255
211 230 255
211 230 255
211 230 255
211 230 255
211 230 255
211 230 255
211 230 255
211 230 255
211 230 255
211 230 255
211 230 255
211 230 255
211 230 255
171 180 180
141 137 92
129 126 83
132 131 88
134 132 89
132 130 88
142 140 94
143 141 95
127 127 87
129 128 88
141 139 94
138 136 91
140 138 94
139 138 93
144 143 97
139 139 95
145 143 96
145 144 98
154 152 102
149 147 98
138 137 94
147 146 100
150 148 100
152 151 102
151 150 101
147 145 98
150 149 100
149 147 99
151 150 101
152 150 101
161 158 105
159 157 105
154 152 101
158 155 102
154 152 102
167 164 108
161 158 104
164 160 106
156 153 102
157 155 103
170 167 112
160 158 104
157 154 102
161 158 104
158 155 102
164 160 104
160 158 104
162 158 104
165 160 105
169 164 108
167 164 106
166 163 107
167 163 107
168 164 106
159 156 102
166 163 108
164 160 105
165 161 104
161 157 103
168 164 108
167 163 104
167 164 106
161 158 104
175 169 109
165 160 103
166 161 105
165 161 106
174 169 110
164 161 106
169 165 107
168 163 106
166 163 105
166 162 103
165 160 105
162 158 99
165 161 104
165 159 102
167 162 103
169 163 104
161 156 99
170 166 105
167 162 103
161 157 101
161 157 102
165 160 102
158 154 98
164 159 101
164 159 102
162 157 100
167 162 100
163 158 101
170 165 104
163 158 99
163 159 102
169 163 101
166 162 101
165 160 99
158 152 95
165 160 100
157 153 98
157 153 99
162 156 93
153 150 92
163 158 100
162 157 100
162 158 101
166 160 103
155 152 95
166 160 100
158 152 95
164 159 101
160 156 95
157 152 92
156 151 91
167 161 101
161 156 95
155 152 94
164 158 99
156 151 94
158 154 95
155 150 97
157 152 97
153 149 92
153 148 90
156 151 92
157 153 95
162 156 95
146 143 85
157 151 95
147 143 87
154 148 90
151 146 91
147 142 89
205 227 255
205 227 255
205 226 255
204 226 255
204 226 255
204 226 255
203 226 255
203 225 255
203 225 255
202 225 255
202 225 255
202 225 255
201 225 255
201 224 255
203 225 255
204 226 254
204 225 248
205 226 252
206 227 253
204 225 246
205 226 252
205 226 248
203 225 248
207 227 249
205 226 248
205 226 250
204 225 246
203 224 238
205 226 246
207 228 254
205 226 246
202 223 237
203 224 244
203 224 241
203 224 245
204 225 246
203 224 241
204 225 246
203 224 238
203 225 245
202 224 244
204 225 246
203 224 242
206 227 253
204 225 245
204 225 245
204 225 246
205 226 250
205 226 246
201 223 240
202 223 240
201 223 238
203 224 242
206 227 253
202 223 240
203 225 242
203 224 240
204 225 250
204 226 250
203 224 246
203 224 241
204 225 248
205 226 249
204 225 246
202 224 242
202 223 246
204 225 248
203 224 244
204 225 244
203 225 252
205 226 249
204 224 241
201 223 241
202 224 242
202 224 244
203 225 249
204 226 249
203 225 248
202 223 244
202 224 246
204 226 252
203 224 246
203 224 242
201 223 245
204 225 250
202 224 244
202 224 245
204 225 249
203 225 249
202 224 244
201 223 245
200 222 241
201 224 244
203 225 254
202 224 253
203 225 249
201 224 250
201 223 246
201 224 248
199 222 238
200 223 244
199 222 238
198 222 242
198 221 241
199 222 244
198 222 242
196 220 234
197 221 244
196 220 240
196 220 236
199 222 242
200 223 249
199 222 244
199 223 252
199 223 249
197 222 252
194 220 245
190 218 254
190 219 255
191 219 255
192 220 255
193 220 255
195 221 255
196 222 255
196 222 255
198 223 255
199 224 255
201 224 255
203 225 255
205 227 255
206 227 255
209 229 255
210 229 254
211 230 253
211 230 255
211 230 255
211 230 255
211 230 255
211 230 255
211 230 255
211 230 255
211 230 255
211 230 255
211 230 255
211 230 255
211 230 255
211 230 255
211 230 255
211 230 255
211 230 255
211 230 255
211 230 255
211 230 255
211 230 255
211 230 255
211 230 255
211 230 255
211 230 255
211 230 255
211 230 255
211 230 255
209 228 254
118 143 194
62 98 169
63 99 166
62 99 167
62 98 169
62 99 169
62 98 168
62 98 159
62 98 160
62 99 168
62 98 165
62 98 160
61 97 161
62 98 168
61 98 165
62 98 156
62 98 165
61 97 163
61 97 161
62 98 161
62 98 163
62 98 163
62 98 163
62 98 164
63 99 168
62 98 161
62 98 160
61 97 158
61 98 159
62 97 156
62 98 164
63 99 166
61 97 159
61 97 159
62 98 162
61 96 158
62 98 160
62 98 161
62 98 158
62 98 164
62 98 158
63 99 166
62 98 162
62 98 163
62 98 163
62 98 162
62 97 158
62 98 164
62 97 159
61 97 159
61 97 161
63 99 167
62 98 168
62 97 156
62 98 163
61 97 156
62 98 167
62 97 155
62 97 159
61 97 159
61 97 163
61 96 160
61 96 168
61 97 169
61 97 163
60 96 157
63 98 162
61 97 165
60 95 158
61 96 156
60 95 159
61 96 165
60 95 159
61 96 165
60 94 154
106 129 177
209 228 253
211 230 255
211 230 255
211 230 255
211 230 255
211 230 255
211 230 255
211 230 255
211 230 255
211 230 255
211 230 255
211 230 255
211 230 255
211 230 255
211 230 255
211 230 255
211 230 255
211 230 255
211 230 255
211 230 255
211 230 255
211 230 255
211 230 255
211 230 255
211 230 255
211 230 255
211 230 255
211 230 255
169 178 182
130 126 83
133 131 88
128 125 83
139 138 93
128 127 85
130 128 86
130 130 88
147 145 97
139 139 95
137 136 92
142 141 97
141 139 93
142 143 99
135 135 92
138 138 94
148 146 100
145 144 98
138 136 93
151 150 102
156 154 104
153 151 102
157 154 103
151 149 100
147 146 99
151 150 101
146 145 98
156 153 102
155 152 102
151 149 100
156 153 102
152 151 101
146 144 96
160 158 104
162 159 106
161 159 107
161 158 105
158 157 104
155 152 102
163 160 108
163 161 105
162 159 107
164 160 104
165 162 107
167 163 105
167 164 106
165 162 108
165 162 108
162 159 105
163 160 103
165 161 106
163 159 104
167 164 108
171 166 108
166 162 104
168 164 107
168 164 107
170 165 108
166 162 105
166 162 107
166 162 104
171 166 108
160 157 100
164 160 104
170 165 107
169 165 108
159 156 101
168 163 105
170 166 106
169 164 105
170 165 104
167 163 105
169 164 106
170 165 105
166 161 101
166 162 106
161 157 102
164 160 104
170 164 103
161 157 99
170 165 104
171 166 107
165 161 101
171 165 104
158 153 99
163 159 99
167 162 104
165 161 101
163 158 99
156 151 95
160 155 99
166 162 103
169 162 99
158 153 95
159 155 97
161 156 94
160 155 95
166 160 99
166 162 103
168 162 102
164 159 95
163 158 101
159 154 99
168 162 103
164 160 101
156 152 93
152 148 94
157 153 95
155 150 94
160 155 99
160 157 98
166 161 103
162 156 99
157 152 93
161 156 98
164 159 99
158 153 95
144 140 84
157 154 99
151 145 87
155 149 90
154 149 93
155 150 93
152 147 89
159 154 94
152 147 93
158 154 97
162 156 96
158 152 92
157 153 95
151 147 90
156 151 93
156 151 93
148 143 84
206 227 255
205 227 255
205 226 255
205 226 255
204 226 255
204 226 255
204 226 255
203 226 255
203 225 255
203 225 255
202 225 255
202 225 255
202 225 255
203 225 254
204 224 244
206 227 253
205 226 246
206 227 252
207 227 252
207 227 249
202 223 240
205 225 248
204 225 244
208 228 254
203 224 244
207 227 249
207 227 253
206 227 250
205 226 252
202 224 241
204 225 245
203 225 242
202 223 237
203 224 240
204 225 244
204 225 245
203 224 244
204 224 238
203 224 241
205 225 244
201 223 238
205 226 246
203 224 242
204 224 245
204 225 245
203 224 237
204 224 244
204 225 245
203 224 238
203 224 244
203 223 241
203 224 242
206 227 252
205 226 246
204 225 246
202 223 240
205 226 248
205 226 246
204 225 245
203 225 244
204 225 245
205 226 249
203 225 246
204 225 249
204 225 249
204 226 252
204 225 246
202 223 241
204 225 245
203 224 244
205 225 245
203 225 245
203 224 240
203 224 245
205 226 253
204 225 249
203 224 248
203 224 248
204 225 245
203 224 248
205 226 250
203 224 248
204 225 249
201 223 242
204 225 252
202 223 245
204 225 246
204 225 249
201 223 244
201 223 245
204 225 250
203 224 246
203 225 250
202 224 246
201 223 244
201 223 241
201 223 245
199 221 241
199 221 241
202 224 249
200 223 240
202 224 252
199 223 244
201 224 248
200 223 245
198 221 240
199 222 241
197 220 231
197 220 237
198 222 245
198 222 245
198 222 246
199 222 245
199 222 246
196 221 246
198 222 245
198 222 249
197 221 242
193 220 252
190 219 255
191 219 255
192 220 255
193 220 255
195 221 255
196 221 255
197 222 255
198 223 255
200 224 255
201 224 255
203 226 255
205 226 255
206 227 255
209 229 255
211 229 254
211 230 254
212 230 255
212 230 255
212 230 255
212 230 255
211 230 255
211 230 255
211 230 255
211 230 255
211 230 255
211 230 255
211 230 255
211 230 255
211 230 255
211 230 255
211 230 255
211 230 255
211 230 255
211 230 255
211 230 255
211 230 255
211 230 255
211 230 255
211 230 255
211 230 255
211 230 255
208 227 254
117 142 195
63 99 173
61 97 162
62 98 167
62 98 163
62 98 167
61 97 161
62 98 164
62 98 166
62 98 165
61 97 160
62 98 164
62 99 167
62 98 163
62 98 162
62 98 165
61 97 160
61 97 157
62 98 157
62 98 159
62 98 157
62 98 163
63 99 165
62 98 157
63 99 165
62 98 162
61 97 159
62 98 164
62 98 159
62 98 156
61 97 163
61 97 162
62 98 161
61 98 161
63 99 169
62 99 163
62 98 160
62 98 158
62 98 161
62 98 165
61 97 153
62 98 162
62 98 164
61 96 152
62 98 161
61 98 163
62 98 166
61 96 153
62 98 159
62 98 156
62 99 166
62 97 155
63 99 167
61 97 161
62 97 160
62 98 168
60 95 151
61 97 160
62 98 162
61 96 154
62 98 162
61 96 155
62 97 166
62 97 163
60 95 151
61 97 159
61 97 164
61 97 166
61 95 159
60 95 155
62 97 166
61 96 163
60 94 158
61 96 160
60 96 162
60 95 156
60 95 162
116 139 189
207 226 252
211 230 255
211 230 255
211 230 255
211 230 255
211 230 255
211 230 255
211 230 255
211 230 255
211 230 255
211 230 255
211 230 255
211 230 255
211 230 255
211 230 255
211 230 255
211 230 255
211 230 255
211 230 255
211 230 255
211 230 255
211 230 255
212 230 255
212 230 255
212 230 255
212 230 255
174 185 189
131 127 83
140 137 90
132 130 88
136 133 88
137 135 91
133 131 88
130 129 87
139 137 93
129 128 88
131 132 91
144 142 96
138 138 94
144 144 98
137 136 92
142 142 97
144 142 96
149 148 100
142 141 95
154 151 101
150 149 99
143 141 95
147 146 99
144 143 98
156 154 102
152 150 100
147 146 99
154 152 102
154 152 102
155 152 102
153 151 102
158 156 105
165 162 108
165 161 105
153 150 100
159 157 105
161 158 104
162 160 105
156 153 102
164 161 106
159 156 103
159 156 102
170 166 108
167 162 107
166 163 106
162 159 104
168 164 108
165 160 102
164 161 105
164 160 105
166 162 107
165 161 103
165 162 106
167 163 106
169 165 108
172 168 108
169 164 107
172 167 109
164 159 102
169 165 107
167 163 107
168 164 104
169 164 107
166 161 104
169 164 105
169 164 106
165 161 104
169 164 106
164 160 101
167 163 106
170 165 103
161 157 100
170 165 106
166 161 103
166 160 99
167 163 104
164 160 103
163 159 100
170 164 103
165 161 104
161 157 99
166 161 102
166 162 104
161 156 99
164 160 99
170 165 105
162 158 100
161 157 97
163 158 97
164 159 103
172 166 106
167 161 101
167 162 102
173 167 106
159 156 99
170 166 105
165 159 97
159 155 99
171 165 106
164 159 98
168 162 104
166 160 100
162 157 97
160 155 96
163 159 95
163 158 101
158 153 94
160 154 93
161 156 97
156 152 97
157 153 97
167 162 103
157 151 94
169 164 98
160 155 96
163 159 103
157 152 95
159 154 97
153 149 90
163 157 99
162 157 98
156 151 95
160 153 95
160 155 96
161 155 95
152 146 90
165 159 98
160 155 94
153 148 88
158 154 95
158 153 92
151 147 83
153 149 94
148 143 84
156 152 91
206 227 255
205 227 255
205 227 255
205 226 255
204 226 255
204 226 255
204 226 255
203 226 255
203 226 255
203 225 255
203 225 255
201 224 254
204 226 253
207 227 253
206 226 250
207 227 252
205 226 248
205 225 242
205 226 249
206 227 248
206 226 248
206 226 248
207 227 249
205 226 248
206 227 250
206 227 250
208 228 252
205 225 245
201 222 234
205 226 248
203 224 238
203 224 237
204 225 241
204 224 240
205 226 245
204 224 242
205 225 244
204 225 240
204 225 241
204 225 246
202 223 242
205 226 246
205 226 248
204 225 244
203 224 241
205 225 246
204 225 241
203 224 244
204 225 245
205 225 245
205 226 249
204 225 248
207 227 252
203 224 238
204 225 246
206 226 249
203 224 238
204 224 244
204 225 248
203 224 245
205 226 246
205 226 245
205 226 248
206 227 249
205 226 246
203 224 240
205 226 245
206 226 248
205 226 248
203 224 244
203 224 240
204 225 244
204 225 242
206 227 252
205 226 252
206 227 250
202 224 242
203 224 242
204 226 249
203 225 242
204 225 245
201 222 236
204 225 250
205 226 250
202 223 241
201 223 242
203 225 249
201 222 241
203 225 249
203 224 244
205 226 249
203 224 244
203 225 250
202 223 240
204 225 245
202 224 242
202 223 242
202 224 245
202 224 244
204 225 250
203 225 248
202 225 249
203 225 249
199 222 240
201 224 249
200 223 241
200 222 242
200 222 240
199 222 244
199 222 241
199 222 240
199 222 244
197 221 242
199 222 240
199 223 248
199 222 244
200 222 246
200 223 254
199 223 252
195 221 250
192 219 255
192 219 255
193 220 255
194 220 255
195 221 255
196 222 255
198 223 255
199 223 255
199 224 255
202 225 255
204 226 255
205 227 255
207 228 255
210 229 255
209 229 254
212 230 254
212 230 255
212 230 255
212 230 255
212 230 255
212 230 255
212 230 255
212 230 255
212 230 255
212 230 255
212 230 255
212 230 255
212 230 255
211 230 255
211 230 255
211 230 255
211 230 255
211 230 255
211 230 255
211 230 255
211 230 255
211 230 255
211 230 255
211 230 255
211 230 255
136 159 206
62 98 171
61 97 160
62 99 168
62 98 160
61 97 158
62 98 163
62 98 167
61 97 156
61 97 157
62 98 165
62 98 160
62 98 167
62 98 162
62 98 160
63 99 166
62 99 166
61 97 156
62 98 161
62 98 160
61 97 160
63 99 165
61 97 155
63 99 164
62 98 165
62 98 167
62 97 153
62 98 160
61 97 160
61 97 162
63 98 161
62 98 160
62 97 156
62 98 161
62 97 157
61 97 156
62 98 166
62 97 153
63 99 164
62 98 164
63 99 167
61 97 157
62 97 159
62 97 153
61 98 162
61 97 159
62 98 164
63 98 160
63 99 165
62 98 160
62 98 161
61 97 156
60 96 150
61 97 155
62 98 162
62 97 158
62 98 161
62 98 161
63 99 164
62 97 158
60 96 158
62 97 161
62 98 162
62 98 164
62 98 172
61 97 163
61 96 156
59 94 146
61 95 156
61 96 159
60 95 158
61 97 165
61 97 160
60 95 157
61 95 160
59 93 149
60 95 161
61 95 154
60 93 159
145 166 205
211 230 255
211 230 255
211 230 255
211 230 255
211 230 255
211 230 255
211 230 255
211 230 255
211 230 255
211 230 255
211 230 255
211 230 255
211 230 255
212 230 255
212 230 255
212 230 255
212 230 255
212 230 255
212 230 255
212 230 255
212 230 255
212 230 255
212 230 255
212 230 255
174 186 195
132 129 85
129 126 84
133 131 86
133 131 88
126 124 83
131 130 90
132 132 90
137 137 94
130 129 87
146 144 97
143 142 97
141 141 97
141 141 96
145 143 96
138 136 93
147 145 97
146 145 98
136 136 93
145 144 97
151 151 102
145 143 95
145 144 99
149 148 100
156 154 103
149 147 99
148 147 99
156 154 103
155 153 103
160 157 104
159 156 104
158 155 102
155 153 101
150 148 98
162 159 104
166 163 108
163 159 104
164 161 106
170 166 109
163 160 105
165 161 105
159 156 103
165 161 104
165 161 106
165 162 107
169 165 108
166 163 107
169 165 106
169 165 107
170 165 108
165 161 105
171 167 107
164 160 105
160 156 101
162 158 104
164 160 103
168 164 108
164 160 104
160 157 102
169 164 103
167 163 106
174 169 110
171 166 108
165 161 103
173 169 109
163 159 102
166 162 103
165 161 101
172 167 107
173 167 106
170 165 107
169 165 106
167 162 104
172 166 105
174 169 109
172 166 104
170 165 108
167 162 103
168 163 103
169 164 104
165 160 103
169 165 104
164 159 100
163 158 102
169 164 104
165 161 100
165 161 101
167 162 103
169 163 102
169 164 104
164 161 103
164 161 105
164 159 98
160 156 97
171 166 103
164 159 101
163 158 98
173 167 104
159 155 97
160 156 97
164 160 100
163 158 101
164 159 98
167 162 99
165 160 99
158 153 97
160 156 96
167 163 105
160 156 97
164 158 96
163 158 101
161 156 98
161 156 97
160 155 93
162 156 97
161 156 97
158 154 95
151 147 90
167 161 99
158 153 93
161 156 98
154 149 89
153 149 87
153 148 89
165 159 97
151 146 92
151 146 90
153 149 90
153 149 91
163 159 97
152 147 92
161 156 97
154 149 90
153 148 84
159 155 97
157 153 94
206 227 255
205 227 255
205 227 255
205 227 255
205 226 255
204 226 255
204 226 255
204 226 255
204 226 255
203 226 255
204 226 255
206 227 255
205 226 246
206 227 250
205 226 245
207 227 250
207 227 250
205 226 249
205 226 248
206 226 248
207 227 250
206 226 248
206 226 244
205 226 244
207 227 252
206 227 249
206 226 248
204 225 242
204 225 242
204 225 241
206 227 249
204 224 241
205 226 244
205 226 245
207 227 253
206 226 244
205 226 245
205 226 245
207 227 250
204 225 246
206 226 248
205 226 248
205 225 246
206 227 250
207 228 253
203 224 240
204 224 241
206 226 244
203 223 244
206 226 248
204 224 246
206 226 246
205 225 248
207 227 252
205 225 246
204 225 244
205 225 248
205 226 245
206 227 250
207 227 248
206 226 248
202 222 236
205 226 246
207 227 250
205 226 245
204 225 245
204 224 241
206 227 248
205 226 244
204 225 242
207 227 250
206 226 248
204 225 244
205 225 248
202 223 237
204 225 246
205 225 244
205 226 248
203 224 246
206 227 250
203 224 246
206 227 250
203 225 245
205 226 249
204 225 241
204 225 245
203 224 245
204 225 248
204 225 245
205 226 250
204 226 252
202 224 241
204 225 244
202 224 245
203 224 244
205 227 254
204 225 246
204 225 249
204 225 245
202 224 246
202 224 242
201 223 242
204 226 253
202 224 249
201 223 245
202 224 248
202 224 245
203 225 250
202 224 245
200 222 246
199 222 240
201 224 253
199 222 241
197 221 240
196 220 234
200 224 250
200 223 248
198 222 246
200 223 246
199 223 249
198 222 250
193 220 253
192 220 255
193 220 255
194 221 255
195 221 255
197 222 255
198 223 255
199 223 255
201 224 255
202 225 255
204 226 255
206 227 255
208 228 255
209 229 255
211 230 255
212 230 255
212 230 255
212 230 255
212 230 255
212 230 255
212 230 255
212 230 255
212 230 255
212 230 255
212 230 255
212 230 255
212 230 255
212 230 255
212 230 255
212 230 255
212 230 255
212 230 255
212 230 255
212 230 255
212 230 255
212 230 255
211 230 255
211 230 255
162 183 220
62 98 165
61 98 171
62 99 171
62 99 166
62 98 164
62 98 162
62 98 165
63 99 166
62 98 160
63 98 161
62 98 162
62 98 164
62 98 156
61 97 159
61 97 158
61 97 163
62 98 160
62 98 155
62 98 162
62 98 165
62 98 159
61 97 157
62 97 154
62 98 159
61 97 156
62 98 159
61 97 157
62 98 162
61 97 158
61 97 158
62 98 156
62 98 164
61 98 160
61 97 158
63 99 162
62 98 158
62 98 159
61 97 156
62 98 160
61 97 159
62 98 164
61 96 152
61 97 155
62 98 162
62 99 165
62 97 157
62 98 157
63 99 168
61 97 154
62 98 164
62 98 162
62 97 157
62 98 164
62 98 155
61 97 155
61 96 154
61 96 153
62 97 159
62 98 166
62 97 158
63 98 166
61 97 153
61 96 154
61 96 160
61 96 153
61 97 161
60 96 157
61 96 158
62 98 165
60 95 157
61 96 162
61 96 163
59 94 160
62 96 156
61 95 156
60 95 161
59 93 153
61 95 155
60 95 162
60 93 154
169 188 220
211 230 255
211 230 255
212 230 255
212 230 255
212 230 255
212 230 255
212 230 255
212 230 255
212 230 255
212 230 255
212 230 255
212 230 255
212 230 255
212 230 255
212 230 255
212 230 255
212 230 255
212 230 255
212 230 255
212 230 255
212 230 255
212 230 255
181 195 208
126 123 80
122 120 80
134 132 88
130 128 86
132 131 88
117 119 84
123 122 83
129 129 89
131 130 89
139 138 95
135 134 92
139 138 94
129 129 89
127 126 86
146 145 99
138 138 94
147 146 99
146 145 98
144 142 97
147 145 99
156 154 103
146 144 97
147 146 99
157 154 103
151 150 100
148 146 99
155 152 102
160 158 105
157 154 104
154 153 103
156 153 102
154 151 101
156 154 104
162 159 105
163 160 104
155 153 103
161 158 104
161 158 105
166 162 106
162 159 104
170 167 110
163 160 107
166 162 106
167 163 108
166 162 107
159 156 103
166 162 105
170 166 108
167 163 106
170 165 105
173 168 109
164 159 104
164 161 106
167 162 104
162 159 102
167 162 103
169 165 108
171 165 107
165 160 101
163 159 103
166 161 102
168 164 105
167 161 101
166 161 103
166 161 105
163 160 102
172 167 106
169 164 105
170 164 103
170 165 106
172 167 106
168 163 103
164 160 103
165 161 101
169 164 103
173 167 108
170 164 104
167 163 103
166 162 102
170 165 102
171 166 105
169 163 105
166 161 104
162 157 100
164 160 101
169 165 105
169 164 103
166 161 101
159 155 97
167 162 101
164 159 97
168 161 101
166 161 101
166 161 100
166 161 103
164 159 101
159 155 96
162 157 98
158 154 97
160 156 94
161 157 99
166 161 103
164 159 99
160 155 94
157 152 93
170 164 103
163 158 100
163 157 97
165 160 97
165 160 99
162 156 95
162 157 99
160 155 97
157 153 95
164 159 99
157 152 95
160 154 94
165 161 99
157 152 90
155 149 93
163 159 100
153 147 90
155 151 91
154 150 92
160 156 92
157 152 90
160 154 93
152 146 89
161 155 96
158 154 93
151 146 87
148 143 87
153 148 88
158 153 92
154 148 90
159 154 90
206 227 255
206 227 255
206 227 255
205 227 255
205 227 255
205 226 255
204 226 255
204 226 255
204 226 255
203 225 252
207 227 252
204 224 242
207 227 252
206 226 245
208 228 254
208 227 250
207 227 249
207 227 249
207 227 246
205 225 241
208 228 252
206 226 246
208 228 252
207 227 249
207 227 252
204 224 241
206 226 245
205 226 245
204 225 241
205 226 244
204 224 236
204 224 238
205 225 242
205 225 242
206 226 242
205 225 241
205 225 240
206 226 249
206 226 248
207 227 250
206 226 246
204 225 241
204 225 242
205 225 246
207 227 250
205 226 246
205 225 246
204 224 245
207 227 249
207 226 248
206 227 246
205 225 245
204 225 242
205 225 241
205 225 246
205 226 244
205 225 245
207 227 249
204 225 250
207 227 249
208 228 253
205 225 242
206 227 249
204 225 244
205 226 248
203 223 238
205 225 246
207 227 248
206 226 245
206 226 244
206 226 246
203 224 240
205 226 246
204 225 241
205 226 246
206 226 244
206 226 248
205 226 246
204 225 246
206 226 249
204 224 244
205 226 245
205 225 242
205 226 246
205 226 248
204 225 245
202 223 236
203 224 244
206 226 246
206 226 248
202 223 242
205 226 252
204 225 246
204 225 246
203 224 244
203 224 245
204 225 248
204 226 250
204 226 249
204 225 250
204 225 246
203 225 248
203 224 241
203 225 246
202 224 244
202 224 245
202 224 246
202 224 246
202 224 246
201 224 246
198 221 237
201 223 244
201 223 246
201 224 248
197 221 238
198 221 240
198 221 238
201 224 252
201 224 248
199 223 245
201 224 245
200 223 245
195 221 253
193 220 255
194 221 255
195 221 255
196 222 255
197 222 255
198 223 255
200 224 255
201 224 255
203 225 255
204 226 255
207 228 255
208 228 255
210 229 254
212 230 254
212 231 255
212 231 255
212 231 255
212 231 255
212 231 255
212 231 255
212 230 255
212 230 255
212 230 255
212 230 255
212 230 255
212 230 255
212 230 255
212 230 255
212 230 255
212 230 255
212 230 255
212 230 255
212 230 255
212 230 255
212 230 255
196 215 244
62 98 164
63 99 166
62 98 166
62 98 165
62 99 166
60 96 154
63 99 163
61 97 163
62 99 168
62 98 163
62 98 163
61 98 162
61 97 155
62 98 161
62 98 161
61 97 157
61 96 149
61 97 157
62 98 156
60 96 152
62 98 159
62 98 160
62 98 156
62 98 160
61 98 161
62 98 156
62 98 162
61 97 159
61 98 160
63 99 167
61 97 158
62 98 154
62 98 166
62 98 162
61 97 156
61 97 151
62 98 161
62 98 153
62 98 161
62 98 164
62 98 159
62 97 156
61 97 156
62 98 163
61 98 164
62 98 161
62 98 156
61 97 154
61 96 148
61 97 153
62 98 162
61 97 157
62 98 158
62 97 158
62 98 163
60 94 154
61 96 155
61 97 159
61 96 151
61 97 160
61 96 151
60 95 152
61 95 154
62 97 159
62 97 159
62 97 160
61 97 158
60 94 156
61 96 157
61 96 164
61 96 157
60 95 157
62 97 159
61 96 155
60 94 154
61 96 160
59 94 157
60 94 152
61 95 158
61 95 159
60 94 160
62 94 153
187 206 235
212 230 255
212 230 255
212 230 255
212 230 255
212 230 255
212 230 255
212 230 255
212 230 255
212 230 255
212 230 255
212 230 255
212 230 255
212 230 255
212 230 255
212 230 255
212 231 255
212 231 255
212 231 255
212 231 255
212 231 255
195 211 229
119 117 79
131 129 86
124 123 80
129 128 87
131 131 90
127 127 86
130 128 88
138 137 93
127 126 86
139 137 93
127 126 86
139 139 95
138 138 93
142 142 98
144 143 98
142 141 96
144 144 98
136 135 91
153 151 102
145 143 97
145 144 97
152 150 101
147 146 99
151 149 100
155 153 103
150 148 100
154 152 103
150 149 100
157 155 105
159 156 103
152 151 100
156 154 101
163 159 105
160 158 106
160 158 104
161 158 105
159 156 103
156 154 101
165 161 104
162 159 105
166 163 107
161 158 105
158 155 102
164 161 106
161 157 103
163 160 105
166 161 104
168 164 106
166 162 104
172 167 107
169 163 105
169 164 104
167 163 104
164 160 104
167 163 105
168 164 106
170 165 104
167 163 107
169 164 103
170 166 108
167 162 104
162 158 103
171 167 106
170 165 101
167 163 103
164 159 98
172 167 105
169 164 106
164 160 101
171 166 104
168 164 105
169 165 104
169 164 103
171 166 104
166 162 103
172 166 104
171 165 105
168 163 102
168 164 103
169 165 101
172 165 104
161 156 97
161 158 100
160 156 98
170 164 105
170 164 103
164 160 101
172 167 106
169 164 104
167 163 104
172 166 106
161 156 99
167 161 99
166 162 99
167 162 102
164 160 97
164 159 100
167 161 101
161 156 99
161 157 95
163 157 98
161 157 99
161 157 98
164 159 98
163 158 99
164 159 98
158 153 95
160 156 98
165 159 99
160 155 95
166 161 101
162 157 96
156 151 93
163 157 97
162 156 95
163 157 97
166 160 96
162 157 95
160 157 93
159 153 92
162 156 95
161 156 94
158 153 93
159 154 95
149 145 90
165 159 98
153 148 90
154 148 88
154 149 92
156 152 87
157 151 95
149 144 87
161 155 91
150 146 90
148 144 87
156 151 92
155 150 93
206 227 255
206 227 255
206 227 255
206 227 255
205 227 255
205 226 255
205 226 255
204 226 255
205 226 254
207 227 252
207 227 249
206 226 246
207 227 249
207 227 249
206 226 248
205 225 245
206 226 249
209 228 250
207 227 250
207 227 248
208 227 245
207 227 249
206 226 248
203 223 236
201 222 234
205 225 242
204 224 237
208 228 250
204 224 236
205 225 238
203 224 238
205 226 244
206 226 246
205 225 240
205 225 244
206 226 244
205 225 244
207 227 246
206 227 246
204 224 242
206 226 245
205 225 240
206 226 245
208 228 252
207 226 248
207 227 246
207 227 249
207 227 248
206 225 245
207 227 248
204 224 245
208 228 250
206 225 244
208 227 246
204 224 242
207 227 245
207 227 246
205 225 245
205 225 241
205 225 242
208 228 252
207 227 250
207 227 246
206 226 244
205 225 246
206 227 250
206 227 248
208 228 252
208 228 253
206 226 245
205 225 245
205 225 246
204 224 242
205 225 241
206 226 246
206 226 248
205 225 242
206 226 245
203 224 241
205 225 244
206 226 249
205 225 246
209 229 255
203 224 244
204 225 246
206 226 246
206 226 249
206 227 249
205 226 249
204 225 241
203 224 242
205 225 246
205 225 245
205 226 246
205 226 249
206 226 246
203 224 241
205 226 244
204 225 244
203 225 245
205 226 250
204 226 248
202 224 242
202 224 249
202 224 246
202 224 245
201 223 248
203 225 248
201 223 245
203 225 246
203 225 252
201 223 242
200 222 238
200 223 242
200 223 246
199 222 238
197 220 233
197 220 230
201 224 248
203 225 253
201 224 250
199 222 244
200 223 246
199 223 254
194 221 255
195 221 255
196 222 255
196 222 255
198 223 255
199 223 255
201 224 255
202 225 255
204 226 255
205 227 255
207 228 255
209 229 255
211 230 254
212 230 253
213 231 255
213 231 255
213 231 255
213 231 255
213 231 255
212 231 255
212 231 255
212 231 255
212 231 255
212 231 255
212 231 255
212 231 255
212 231 255
212 231 255
212 230 255
212 230 255
212 230 255
212 230 255
212 230 255
204 223 250
98 125 181
61 97 169
62 98 165
62 98 163
62 98 162
61 97 161
62 98 167
62 98 161
62 98 162
62 98 161
62 97 157
62 98 159
62 98 163
62 97 152
60 96 154
62 98 161
62 98 165
62 98 164
62 97 158
61 97 152
61 97 157
62 98 158
62 98 161
63 99 164
62 98 165
61 97 156
61 96 155
61 97 155
62 98 160
62 98 161
62 98 165
62 98 155
61 96 153
62 98 165
61 97 155
62 98 160
62 98 156
61 97 150
61 97 151
62 97 152
61 97 155
62 98 161
61 97 151
62 98 159
61 96 154
61 97 158
62 97 154
61 97 155
62 97 159
62 97 159
61 97 156
61 97 156
61 97 152
61 96 152
61 96 148
61 96 160
63 99 167
62 97 152
62 97 162
62 98 164
61 97 155
61 97 155
61 97 160
62 97 162
62 97 158
62 97 157
62 97 161
61 96 154
60 94 155
61 96 158
61 95 157
62 98 163
61 96 153
61 96 158
61 96 159
60 95 162
62 97 161
60 95 160
61 96 157
60 94 153
60 94 154
60 93 156
59 93 159
96 121 172
205 223 249
212 230 255
212 230 255
212 230 255
212 230 255
212 231 255
212 231 255
212 231 255
212 231 255
212 231 255
212 231 255
212 231 255
212 231 255
212 231 255
212 231 255
213 231 255
213 231 255
213 231 255
213 231 255
201 217 236
134 137 121
125 122 80
134 131 89
123 123 82
133 130 88
128 128 87
138 136 93
136 135 91
128 128 88
141 140 95
137 137 93
139 139 94
143 143 98
142 141 97
130 129 88
145 143 97
143 143 97
148 147 99
146 145 99
140 140 95
142 141 96
141 141 97
150 147 98
143 142 96
151 150 102
158 156 104
151 149 99
151 150 101
145 143 96
156 153 100
155 153 102
156 154 102
158 155 101
165 162 108
159 155 102
156 154 103
165 162 105
160 156 102
153 151 101
164 161 106
164 160 105
165 161 105
165 162 105
168 163 106
165 160 101
161 159 104
164 161 106
173 168 108
166 162 105
162 159 103
165 160 104
171 167 110
165 161 104
169 164 105
169 164 107
167 163 104
167 163 105
166 162 102
171 166 106
172 167 107
171 166 107
166 161 103
172 167 107
171 167 108
166 163 106
170 165 104
166 161 103
172 167 108
170 165 106
170 165 105
166 162 104
171 165 105
173 168 106
171 165 103
168 163 100
163 159 102
172 167 109
168 163 103
173 167 103
163 159 99
171 165 103
168 163 102
169 163 101
168 164 101
173 168 106
168 162 103
166 161 103
168 163 103
161 156 95
171 166 104
169 163 104
170 164 103
168 163 102
168 163 101
171 165 104
163 158 95
175 169 104
164 159 95
167 161 100
162 158 93
164 159 99
165 160 100
161 156 95
172 166 103
160 154 95
163 156 97
160 155 95
162 157 95
166 162 100
167 161 99
163 158 95
161 156 92
170 163 101
161 156 95
155 150 95
158 152 91
158 153 93
156 151 90
156 152 93
159 153 94
158 153 92
163 158 97
160 154 95
161 155 96
167 160 98
157 151 90
160 154 93
161 155 95
149 144 87
156 151 92
156 152 95
156 151 91
152 147 87
161 156 97
158 151 95
155 149 90
152 147 87
153 148 87
207 228 255
207 227 255
206 227 255
206 227 255
205 227 255
205 227 255
205 227 255
205 226 254
208 228 250
207 227 245
208 228 250
209 228 252
210 229 254
206 226 242
207 227 248
209 229 252
208 227 248
208 228 252
209 228 248
209 229 253
206 226 245
207 226 244
206 226 244
203 224 236
205 225 237
205 225 240
205 225 240
206 226 244
206 226 241
208 228 250
206 226 245
206 226 244
206 226 244
205 225 240
206 226 241
206 226 244
205 225 240
207 227 245
206 226 241
208 228 249
207 227 248
206 226 244
207 227 248
206 226 245
207 227 244
208 227 248
204 224 236
208 228 249
207 227 246
208 228 249
204 224 238
204 224 241
205 226 242
204 224 240
205 225 245
207 227 246
207 227 245
207 227 249
207 227 248
207 227 248
208 227 244
206 226 250
207 227 249
209 228 250
204 224 241
204 224 237
205 225 244
207 227 250
206 226 244
206 226 246
207 227 246
204 225 244
207 227 249
205 225 246
207 226 248
208 228 250
207 227 249
208 228 253
208 228 253
207 227 250
206 226 244
208 228 254
206 226 245
207 227 249
206 227 248
207 228 252
208 228 253
205 225 244
205 226 248
206 226 246
206 226 246
206 226 245
204 225 245
207 227 250
203 224 242
205 225 248
205 226 245
205 226 248
204 225 241
205 226 248
205 226 252
204 225 246
204 225 246
202 223 242
206 226 248
203 224 242
203 225 245
203 224 241
204 225 246
205 226 250
201 223 238
203 224 245
202 224 241
202 224 246
201 223 240
200 222 238
200 223 244
200 223 244
200 222 240
202 224 248
202 224 245
200 223 249
201 223 244
200 223 246
198 223 252
195 221 255
195 221 255
196 222 255
197 223 255
199 223 255
200 224 255
201 224 255
203 225 255
204 226 255
205 227 254
207 228 255
209 229 255
211 229 254
212 230 254
213 231 255
213 231 255
213 231 255
213 231 255
213 231 255
213 231 255
213 231 255
213 231 255
213 231 255
213 231 255
213 231 255
213 231 255
213 231 255
212 231 255
212 231 255
212 231 255
212 231 255
212 231 255
130 153 199
62 98 166
62 99 170
63 99 169
62 98 164
63 99 163
62 97 157
61 97 153
62 98 158
61 98 163
62 97 158
62 98 163
62 97 159
62 99 164
62 98 161
61 97 155
62 98 161
62 97 156
61 97 151
62 98 162
62 98 156
62 97 157
62 98 159
61 97 147
63 98 158
62 98 157
62 98 161
62 97 155
62 98 158
63 98 162
61 97 158
63 98 162
62 98 153
62 98 160
61 97 159
62 98 161
62 97 160
63 99 163
62 97 156
61 97 154
61 97 154
62 98 163
60 96 150
63 99 163
62 98 159
60 96 147
62 98 166
62 98 163
62 97 159
61 97 155
61 97 155
60 96 153
62 97 155
62 98 158
61 97 150
62 97 160
62 98 162
60 95 148
62 98 162
61 96 152
62 97 151
61 97 152
60 96 152
62 97 160
62 98 159
61 97 163
61 97 159
60 95 156
60 95 151
62 97 157
61 96 156
61 96 160
60 94 147
60 94 156
60 95 149
61 95 158
60 93 146
61 96 157
60 94 153
60 94 150
59 93 154
60 94 155
58 92 148
57 90 146
59 92 151
138 159 197
212 231 255
212 231 255
212 231 255
212 231 255
212 231 255
213 231 255
213 231 255
213 231 255
213 231 255
213 231 255
213 231 255
213 231 255
213 231 255
213 231 255
213 231 255
213 231 255
213 231 255
211 229 253
140 144 132
124 123 83
129 125 81
122 121 82
123 122 85
125 124 84
134 134 91
133 133 91
119 121 85
137 136 93
130 131 90
130 131 90
123 124 87
138 138 94
136 136 93
134 133 91
147 145 98
142 141 96
133 133 92
141 141 97
143 142 96
142 140 95
150 149 101
150 148 100
149 147 98
155 152 100
153 150 98
155 152 102
151 150 100
152 150 100
148 147 99
154 152 100
156 154 103
164 161 107
158 155 101
155 153 103
160 157 102
159 156 100
156 153 99
162 159 103
167 163 107
162 159 104
160 158 103
159 157 104
166 161 104
166 163 106
165 161 101
166 163 104
167 163 103
168 163 106
167 162 102
166 162 103
170 166 109
171 166 105
168 163 106
168 164 103
167 163 106
165 161 103
173 167 106
166 163 103
166 161 101
171 167 107
171 166 106
172 166 104
172 167 107
169 164 103
174 168 108
172 167 106
173 167 104
171 167 106
169 164 106
173 168 104
171 165 103
170 165 103
171 166 104
171 166 103
166 162 97
167 162 100
173 168 107
167 162 103
168 164 103
167 163 101
163 158 97
167 162 99
172 166 102
171 166 104
165 161 103
167 163 100
167 162 101
169 163 101
164 161 99
170 165 99
167 162 99
168 161 101
166 161 97
168 163 100
169 163 100
164 158 96
170 164 103
172 167 105
167 162 99
167 163 99
161 157 95
165 160 97
167 161 99
159 153 91
168 162 99
159 154 93
172 166 98
161 156 90
161 157 95
155 150 91
166 160 97
167 162 101
168 163 102
160 154 94
169 163 101
162 157 97
160 154 92
162 157 96
161 155 90
155 150 87
159 154 93
165 158 94
157 153 95
160 153 93
162 156 94
155 149 89
156 151 88
159 154 93
153 147 90
156 151 92
164 159 95
152 147 86
154 149 88
153 148 89
159 153 92
162 157 98
144 140 85
207 228 255
207 227 255
206 227 255
206 227 255
206 227 255
206 227 255
207 227 253
208 228 252
208 228 250
208 228 250
209 228 249
208 228 249
207 227 248
208 228 248
210 229 253
209 228 248
207 227 245
208 228 248
209 228 250
209 228 248
209 228 250
204 224 233
206 226 242
207 226 244
207 226 242
206 226 244
208 227 250
208 227 249
206 226 238
206 226 242
205 225 238
207 227 246
207 227 248
208 228 249
205 225 236
207 227 248
208 227 248
206 225 238
208 227 242
205 224 240
208 227 249
207 227 248
208 228 248
209 228 249
208 228 246
209 228 248
206 226 246
207 227 242
207 227 248
206 226 245
207 227 244
208 227 248
207 227 246
207 227 245
207 226 249
206 226 245
206 226 244
208 227 246
208 227 246
208 227 245
207 227 249
209 228 250
209 228 252
207 226 244
209 228 250
209 228 249
208 228 248
207 226 244
207 226 244
208 227 246
205 225 245
207 226 246
207 227 249
206 226 244
207 227 246
206 226 249
207 227 245
206 226 248
207 227 246
207 227 248
205 225 245
207 227 245
208 228 253
207 227 248
203 224 241
207 226 248
206 226 249
207 226 242
207 227 248
207 227 252
206 227 249
206 226 246
205 226 248
205 225 244
206 226 249
205 225 237
205 226 250
206 226 246
206 227 249
205 226 248
206 227 249
206 226 245
206 227 250
204 225 242
206 226 249
205 225 244
205 226 246
203 224 244
202 223 242
205 226 249
204 225 246
203 225 246
204 226 250
203 225 245
203 224 245
201 223 241
202 224 245
201 223 241
198 221 234
199 222 234
201 223 244
201 224 245
203 225 246
201 224 249
201 223 245
199 223 254
195 221 255
196 222 255
197 222 255
198 223 255
199 224 255
200 224 255
202 225 255
204 226 255
205 226 255
206 227 255
208 228 255
210 230 255
211 230 252
213 231 255
213 231 255
213 231 255
213 231 255
213 231 255
213 231 255
213 231 255
213 231 255
213 231 255
213 231 255
213 231 255
213 231 255
213 231 255
213 231 255
213 231 255
213 231 255
213 231 255
191 210 239
65 100 162
62 99 169
61 97 155
61 98 160
62 98 167
61 97 157
62 98 161
62 98 158
62 99 167
61 97 155
62 98 158
62 98 158
62 98 160
62 98 156
62 97 153
62 98 162
62 98 161
61 97 157
62 97 155
62 98 164
62 98 162
62 98 159
63 98 159
61 96 152
62 98 161
63 98 162
62 98 157
61 96 151
61 97 153
62 98 156
62 98 157
63 99 161
61 97 156
62 97 156
62 97 148
62 97 160
61 97 151
62 98 159
61 97 159
62 98 158
62 98 159
61 96 153
63 99 162
61 97 158
63 98 159
61 97 157
61 97 153
61 96 150
61 97 161
61 97 156
61 96 151
62 97 157
61 97 159
60 96 154
62 98 159
62 97 152
61 96 149
62 98 159
62 97 156
62 98 160
60 96 154
61 97 154
61 96 152
62 98 157
62 97 162
61 97 154
62 96 155
62 97 159
60 94 144
61 96 155
62 97 161
61 96 151
61 96 153
61 96 155
60 94 150
61 96 153
60 95 155
59 93 154
61 97 159
60 93 152
59 93 148
60 94 156
59 92 151
59 93 150
59 93 158
59 93 156
177 195 222
213 231 255
213 231 255
213 231 255
213 231 255
213 231 255
213 231 255
213 231 255
213 231 255
213 231 255
213 231 255
213 231 255
213 231 255
213 231 255
213 231 255
213 231 255
213 231 255
164 172 172
126 123 82
124 123 82
126 125 83
124 122 82
131 130 89
123 121 82
123 123 86
127 127 87
134 134 91
125 125 87
132 132 91
130 130 90
123 123 87
137 136 93
138 138 95
137 136 93
139 139 96
130 130 89
138 137 93
148 146 99
140 140 96
147 144 97
149 147 97
143 142 96
154 153 103
155 153 102
154 151 99
152 150 100
152 150 99
155 152 100
153 151 98
157 154 101
153 151 100
158 155 103
156 153 100
159 155 101
155 152 100
163 160 104
164 160 102
159 156 103
162 158 100
169 166 108
158 154 99
162 159 103
162 158 100
168 163 104
163 160 99
170 165 105
166 161 103
165 161 102
168 163 104
170 164 105
165 160 102
167 163 104
166 162 103
172 166 103
166 163 102
171 166 107
171 167 109
171 165 103
168 163 104
165 160 100
170 165 106
174 169 106
172 167 107
171 166 105
170 165 105
170 165 103
170 167 103
169 164 100
169 164 104
170 165 104
172 167 104
172 166 104
168 163 101
175 169 106
172 165 102
167 162 102
172 167 105
168 163 103
167 162 100
163 159 91
171 167 105
170 165 99
170 164 101
169 164 101
172 166 104
175 168 106
166 160 99
168 162 99
168 163 100
164 159 97
166 161 102
168 162 101
165 161 100
167 163 100
159 155 95
166 161 99
164 158 98
169 163 99
163 158 95
162 157 97
163 158 95
169 164 103
173 166 101
167 162 95
165 160 98
163 157 95
156 151 90
164 159 96
159 154 91
167 161 97
167 162 101
158 153 94
163 158 91
157 153 91
166 159 95
153 149 89
163 156 94
158 153 93
160 155 92
157 153 89
155 151 88
161 155 96
158 154 93
156 151 90
161 155 95
154 149 90
158 153 92
165 159 95
161 155 89
159 153 92
152 148 90
163 157 93
163 156 95
161 156 93
154 150 90
151 147 88
155 149 92
207 228 255
207 228 255
207 228 255
206 227 255
206 227 255
207 227 250
210 229 254
208 228 250
209 228 252
208 228 249
210 229 250
210 229 252
209 228 249
209 228 252
209 228 250
209 228 248
209 228 246
209 228 248
209 228 249
208 227 249
207 227 244
206 225 240
207 226 240
206 225 241
208 227 248
207 227 249
207 226 244
207 227 245
208 227 246
208 227 245
205 225 241
208 228 250
209 228 252
206 226 240
209 229 252
208 227 245
208 228 246
208 227 248
207 227 244
210 229 250
209 228 249
210 229 254
207 227 248
206 226 244
208 228 246
207 226 244
205 225 242
210 229 252
207 227 245
209 228 249
208 227 244
210 229 253
208 227 246
210 229 253
206 225 238
207 226 245
209 228 248
209 229 250
207 226 248
208 227 246
210 229 253
207 227 250
209 228 250
206 225 242
208 227 250
208 227 248
208 227 250
207 227 246
207 226 244
209 228 248
206 225 240
207 227 246
206 225 246
206 226 241
207 227 246
207 226 248
207 227 245
207 227 248
208 228 249
205 225 244
209 228 248
207 227 246
206 226 248
205 225 244
207 226 246
207 227 249
206 227 246
207 226 242
207 226 244
206 226 242
207 227 249
207 227 248
208 228 252
206 226 249
207 227 246
207 227 249
206 226 245
207 227 246
205 226 242
205 225 244
205 225 241
207 227 250
207 227 249
203 223 240
204 225 246
205 225 242
205 225 245
203 224 238
204 225 242
206 226 246
206 226 246
203 225 245
203 224 246
204 225 244
203 225 245
203 224 244
203 225 246
202 224 242
201 224 244
201 223 242
202 224 245
202 224 246
205 226 252
202 224 245
202 224 248
201 223 244
200 224 255
196 222 255
197 222 255
198 223 255
199 223 255
200 224 255
202 225 255
203 226 255
204 226 255
206 227 255
208 228 255
210 229 254
212 230 255
211 229 250
213 231 255
213 231 255
213 231 255
213 231 255
213 231 255
213 231 255
213 231 255
213 231 255
213 231 255
213 231 255
213 231 255
213 231 255
213 231 255
213 231 255
213 231 255
210 228 254
94 122 182
61 97 163
62 98 160
62 98 159
62 98 162
62 97 156
62 98 160
62 97 156
62 98 162
61 97 157
63 99 162
62 98 157
61 97 164
62 97 153
63 98 162
62 98 159
62 98 160
62 98 159
62 97 158
62 98 157
62 98 160
63 98 159
63 99 160
61 97 156
63 98 160
61 97 158
61 97 153
61 97 152
62 97 151
61 97 150
62 98 162
61 97 156
61 97 156
60 96 154
61 97 154
61 97 156
62 98 158
61 96 149
62 97 160
62 98 159
61 97 151
61 97 155
62 97 158
60 95 148
61 96 151
61 97 157
61 97 161
60 95 144
61 96 152
61 97 154
61 97 155
62 97 155
60 96 149
62 98 159
62 99 164
61 96 147
62 97 154
63 99 162
62 97 148
62 97 156
61 97 159
61 97 159
61 96 149
62 97 152
61 97 155
61 96 156
62 97 160
59 94 149
61 96 152
61 96 148
63 98 160
60 94 149
61 96 154
62 97 163
62 97 162
60 95 149
61 96 154
60 95 144
60 95 150
61 96 159
60 94 153
58 92 144
60 93 150
61 95 153
59 93 153
59 92 151
59 92 152
78 105 154
206 224 248
213 231 255
213 231 255
213 231 255
213 231 255
213 231 255
213 231 255
213 231 255
213 231 255
213 231 255
213 231 255
213 231 255
213 231 255
213 231 255
213 231 255
195 209 227
134 131 88
123 121 79
127 125 85
116 115 77
119 118 81
118 117 79
116 116 81
134 134 92
120 121 84
129 129 88
130 130 91
130 131 90
127 127 89
133 133 91
136 137 94
134 134 92
131 130 89
139 138 94
142 141 95
146 146 99
127 128 89
138 137 93
145 143 97
151 149 101
150 148 99
157 154 101
150 149 99
152 150 99
153 152 102
155 152 101
149 147 96
155 152 101
158 155 102
156 154 100
161 157 103
161 157 103
157 155 101
162 159 105
158 155 100
157 154 99
163 159 100
160 157 101
162 158 104
158 155 100
163 160 102
162 159 102
165 162 102
169 164 104
168 163 106
163 159 104
171 167 105
166 162 105
168 165 106
169 164 105
167 162 101
173 167 106
170 166 107
163 158 102
167 163 104
165 160 100
169 164 105
171 166 104
170 165 102
169 163 99
165 161 103
174 169 106
170 166 107
171 166 102
169 165 103
166 162 100
168 163 100
170 165 103
170 165 104
170 164 103
175 170 107
170 165 102
171 167 103
173 167 104
172 166 103
165 160 100
170 165 103
171 164 103
168 163 101
170 164 101
169 165 103
164 159 98
169 164 99
170 165 103
172 166 104
168 162 100
166 162 97
169 163 100
177 170 108
170 165 101
170 164 100
169 163 101
163 157 95
170 163 101
166 162 102
168 163 100
166 160 98
167 162 97
163 159 93
171 165 103
170 164 104
165 158 95
162 156 97
164 160 94
165 159 99
167 162 102
165 159 99
167 160 101
168 162 101
164 158 95
162 156 95
165 160 97
163 158 94
166 161 103
160 155 95
162 156 92
161 155 90
164 157 93
161 155 95
165 159 97
162 157 94
157 151 90
165 160 95
155 150 90
147 142 87
162 156 93
154 150 85
154 149 90
162 156 92
157 152 91
158 154 90
155 150 89
150 146 84
148 144 85
154 149 88
150 145 87
208 228 255
207 228 255
207 228 255
207 228 255
207 227 253
209 228 248
210 229 253
210 229 252
209 228 249
209 227 246
209 229 250
209 228 248
211 229 252
209 228 249
208 227 248
209 228 248
209 228 246
208 227 245
208 227 245
204 224 233
207 227 244
207 227 244
207 226 241
207 226 241
206 225 241
208 228 249
209 228 249
206 226 242
205 225 236
207 226 240
208 227 244
207 226 245
207 226 245
207 226 242
205 224 241
207 226 245
206 225 245
205 225 241
207 226 244
206 226 241
207 226 244
208 227 246
208 227 245
206 225 238
207 226 245
210 229 252
210 229 253
209 228 252
207 227 244
210 229 252
206 225 241
209 228 249
209 228 248
210 229 249
209 228 252
209 228 249
209 228 250
209 228 252
207 226 246
207 226 241
207 226 245
207 226 241
208 227 246
208 227 249
208 227 249
208 228 252
209 228 252
209 228 245
210 229 252
207 226 246
208 227 245
209 228 252
210 229 253
207 227 246
208 227 249
207 226 246
209 228 249
208 227 249
210 229 250
209 228 253
209 228 250
207 227 250
208 228 248
208 227 246
207 227 246
207 227 246
205 225 238
206 226 241
208 228 252
207 227 245
207 227 249
209 228 250
207 226 246
209 229 252
204 225 241
208 227 249
204 225 240
204 223 240
207 227 248
206 226 249
206 226 244
207 227 250
208 228 253
206 227 249
207 228 252
205 226 242
206 226 246
204 224 244
206 226 245
205 225 246
203 224 240
204 224 245
203 224 238
203 225 244
205 226 246
201 223 236
204 225 245
203 224 244
202 223 238
204 225 249
203 224 244
201 223 240
202 224 244
203 225 245
205 226 250
202 225 249
202 224 246
201 224 252
197 222 255
198 223 255
199 223 255
200 224 255
201 224 255
203 225 255
203 226 255
205 227 255
206 227 253
208 228 255
211 230 255
211 229 253
213 231 254
214 231 255
214 231 255
214 231 255
214 231 255
214 231 255
214 231 255
214 231 255
213 231 255
213 231 255
213 231 255
213 231 255
213 231 255
213 231 255
213 231 255
161 181 217
61 97 162
61 97 156
62 98 164
61 96 156
62 98 158
62 98 158
62 98 161
61 97 156
62 98 161
62 98 161
62 97 157
61 97 155
62 98 158
61 97 157
62 98 157
61 96 150
62 98 160
62 98 162
62 98 162
62 98 160
62 97 158
62 97 155
61 97 154
61 97 151
62 98 160
62 97 150
61 97 156
62 98 159
62 98 161
62 98 159
61 97 148
63 99 162
62 98 157
62 98 156
61 96 150
62 98 158
61 97 157
61 97 151
62 98 159
61 96 141
62 98 158
60 96 147
61 97 155
61 97 153
61 97 149
62 97 156
61 96 152
61 97 151
62 97 151
63 99 168
61 97 155
61 96 146
60 96 146
61 97 154
62 98 156
62 98 160
61 97 155
61 96 155
62 97 158
62 98 158
61 96 152
61 96 154
61 96 150
60 96 153
61 96 152
61 97 151
61 96 145
61 96 159
61 96 156
61 96 153
60 95 150
61 96 156
61 96 155
60 94 147
60 94 150
61 97 154
61 96 155
61 96 154
61 96 156
59 92 147
60 95 153
61 95 156
58 91 143
59 93 152
59 91 148
60 93 148
58 92 156
55 87 142
154 173 208
213 231 255
213 231 255
213 231 255
213 231 255
213 231 255
213 231 255
213 231 255
213 231 255
214 231 255
214 231 255
214 231 255
214 231 255
214 231 255
210 227 248
152 154 135
123 120 78
130 128 86
128 127 87
110 112 78
127 127 87
128 129 89
127 128 88
125 125 85
125 126 87
120 120 83
118 120 85
132 132 93
135 134 92
138 138 94
127 127 88
142 140 92
143 142 96
142 141 94
127 129 91
139 139 95
145 143 96
149 147 98
149 147 98
137 137 93
150 148 100
150 148 98
150 148 98
149 147 97
157 155 104
155 153 102
155 153 100
155 152 103
162 160 106
165 161 105
157 155 101
161 158 102
153 150 98
167 162 104
163 159 103
163 159 103
156 152 96
162 160 101
163 159 101
163 160 104
166 161 103
159 155 99
169 164 103
164 161 104
169 164 102
168 163 106
170 165 108
172 168 109
165 161 105
167 164 103
166 162 106
172 166 103
165 161 99
169 164 105
173 168 105
171 166 102
171 166 104
173 167 102
176 170 107
171 166 106
167 163 101
170 166 100
175 169 106
172 166 103
171 166 104
172 166 103
171 165 104
171 166 104
171 167 106
170 164 101
171 166 103
169 164 101
166 162 101
171 166 104
166 161 99
173 168 106
169 165 103
172 167 103
172 166 102
171 166 101
168 163 101
162 158 95
168 162 101
166 162 101
170 164 101
167 161 99
170 164 101
170 164 103
169 164 101
169 163 100
169 163 100
168 162 99
168 162 101
171 166 100
169 163 100
162 158 98
170 164 101
164 158 97
169 163 101
167 161 95
170 163 101
164 159 97
164 159 99
161 156 95
165 159 95
164 159 94
166 160 96
160 155 93
163 158 98
164 160 95
162 156 93
166 159 96
160 154 95
160 155 95
160 154 95
157 152 92
157 152 87
159 152 94
162 156 96
164 158 92
157 151 91
159 153 92
160 155 96
161 155 90
162 156 97
167 160 95
157 151 92
154 150 84
163 157 97
155 149 85
155 150 88
158 153 93
152 146 87
148 144 84
154 149 87
152 147 87
208 228 255
208 228 255
208 228 255
208 228 253
208 228 246
210 229 253
210 229 249
209 228 245
211 229 253
210 229 249
208 227 246
211 230 253
210 228 248
210 229 248
209 228 245
208 227 245
211 229 253
210 229 252
207 226 237
209 228 249
206 225 236
207 226 242
207 226 244
207 226 240
209 228 248
209 228 248
208 227 245
207 226 242
209 228 245
208 227 242
208 227 242
207 225 248
210 229 252
209 228 250
208 227 245
209 228 248
211 230 253
208 227 248
210 228 248
211 229 252
209 228 246
208 227 244
208 227 246
210 229 249
208 227 245
207 226 242
205 225 236
210 229 252
206 225 240
210 229 250
209 228 245
208 227 245
209 228 248
209 228 248
208 227 244
210 229 252
208 227 244
209 228 245
210 229 250
206 225 240
208 227 245
210 229 250
207 226 245
204 223 246
208 227 249
210 228 248
206 226 245
206 225 242
208 227 245
209 228 249
209 228 249
209 228 248
209 228 248
208 228 249
209 228 250
209 228 248
210 229 249
207 226 246
209 228 249
209 228 246
209 228 245
209 228 246
209 228 250
209 228 249
206 225 244
206 225 245
208 227 246
207 226 244
208 227 249
208 227 244
205 225 244
207 226 244
208 227 248
206 226 245
209 228 252
207 227 244
208 227 248
210 229 253
207 227 248
206 227 248
206 226 248
205 225 246
207 227 250
207 227 249
206 226 246
207 227 249
208 228 253
206 227 249
206 226 248
205 225 242
203 224 238
207 227 249
205 225 244
205 226 246
206 226 249
206 227 249
203 224 246
204 225 244
203 224 238
202 224 242
201 222 234
203 225 245
202 224 242
202 224 244
204 225 245
204 225 245
204 225 252
204 225 248
200 223 249
198 223 255
199 223 255
200 224 255
201 224 255
202 225 255
203 226 255
204 226 255
206 227 255
207 228 255
210 229 255
212 230 255
212 230 254
214 231 254
214 231 255
214 231 255
214 231 255
214 231 255
214 231 255
214 231 255
214 231 255
214 231 255
214 231 255
214 231 255
214 231 255
214 231 255
198 217 244
75 108 177
62 99 167
62 98 159
61 97 155
61 97 152
60 96 150
62 97 151
61 97 160
62 98 164
61 96 154
63 99 161
62 97 157
62 98 162
63 99 165
62 98 154
61 97 153
62 97 151
63 99 166
61 97 157
62 97 156
62 98 159
61 97 152
62 98 155
62 97 156
62 98 160
61 97 149
61 97 154
62 98 156
63 98 156
61 97 151
61 96 147
62 98 159
61 97 152
61 97 153
62 97 151
61 96 148
63 99 166
61 97 155
62 97 157
62 97 151
61 97 154
61 97 149
61 96 151
61 97 149
60 95 143
62 98 163
61 97 155
62 98 157
61 97 147
62 98 160
63 98 158
63 98 161
61 96 150
61 96 145
62 98 153
62 98 154
61 97 160
62 98 154
62 98 152
61 97 152
61 96 155
60 95 152
61 97 155
61 96 150
61 96 153
62 98 158
61 97 158
61 97 159
61 96 158
61 97 158
61 95 149
61 95 148
61 97 158
60 94 152
59 93 149
60 94 149
61 96 153
61 96 153
60 94 151
60 94 151
61 96 150
61 96 150
60 94 156
60 93 151
58 92 144
60 93 152
58 91 151
57 89 140
58 90 145
69 97 149
201 219 243
214 231 255
214 231 255
214 231 255
214 231 255
214 231 255
214 231 255
214 231 255
214 231 255
214 231 255
214 231 255
214 231 255
214 231 255
171 180 182
128 127 82
115 114 76
130 128 87
126 125 85
119 119 83
106 108 76
119 119 82
131 132 90
114 115 79
124 124 86
131 132 92
124 124 86
125 126 89
123 124 86
135 136 95
131 131 90
132 132 93
131 131 89
140 139 95
151 150 101
139 139 93
145 143 96
141 140 94
154 152 101
135 135 92
149 147 98
144 143 95
148 147 99
159 156 101
149 148 100
160 157 103
156 153 103
151 149 98
156 153 100
151 149 100
159 155 102
156 154 100
166 163 105
160 158 103
162 159 101
162 158 104
164 160 102
168 165 108
161 156 103
166 161 104
165 160 100
168 164 103
170 165 104
169 164 104
162 159 101
165 161 102
172 166 105
169 164 105
173 167 103
171 165 104
170 164 101
169 164 105
168 164 106
171 167 104
174 168 106
172 167 103
169 164 106
172 167 103
172 167 106
171 165 103
171 166 104
173 168 106
174 168 103
168 163 100
167 162 100
169 163 103
176 169 106
171 166 100
170 165 104
172 167 103
171 166 102
172 166 105
172 166 106
164 159 93
173 167 104
171 166 104
171 166 103
170 165 97
172 165 103
169 163 99
164 160 97
168 162 100
172 166 104
172 167 101
174 167 101
169 164 101
171 164 100
165 160 96
172 165 101
166 160 95
168 162 98
169 164 103
160 156 95
167 162 99
161 156 93
166 162 98
166 160 98
164 159 98
172 167 103
164 159 93
168 162 93
164 159 99
169 163 99
159 153 92
155 150 90
167 161 97
167 161 99
166 161 95
170 163 97
160 155 94
169 163 99
161 156 93
164 158 97
163 158 93
162 157 96
159 154 90
167 161 93
165 159 96
165 159 98
162 158 95
158 153 90
165 158 97
166 159 95
158 153 89
163 156 95
158 152 93
154 150 88
159 153 91
158 152 90
157 153 93
159 154 93
155 149 87
157 152 89
160 154 93
153 148 87
152 147 89
208 228 255
208 228 255
207 227 253
211 230 254
209 228 248
210 229 250
212 231 255
211 229 252
210 228 246
210 229 253
210 229 249
209 228 246
210 228 249
210 229 252
210 229 249
211 229 250
209 228 246
208 227 245
209 228 246
206 225 234
208 227 240
208 227 245
209 228 248
207 226 241
208 226 243
208 227 244
208 227 244
207 226 241
209 228 245
209 227 246
208 227 249
210 229 248
208 227 246
210 228 249
209 228 248
209 227 248
209 228 250
208 227 244
207 226 244
209 227 248
209 228 244
208 227 241
208 227 244
210 229 250
209 228 248
207 226 244
209 228 246
210 228 245
209 228 248
210 228 249
208 226 245
210 229 248
208 227 246
206 225 242
208 227 242
209 228 246
209 227 244
209 227 245
208 227 245
211 229 249
211 229 252
209 228 250
209 228 252
211 230 254
207 226 245
210 229 252
210 229 248
210 228 252
208 227 246
211 229 253
209 228 244
209 228 250
209 228 248
209 228 248
211 230 253
209 228 248
210 229 249
209 227 249
207 226 245
206 225 241
209 228 248
207 226 242
210 229 252
208 228 246
209 228 250
208 227 249
209 228 249
209 228 252
209 227 244
207 226 248
209 228 250
208 227 248
206 225 246
208 227 244
208 227 248
208 227 248
207 226 245
207 227 246
208 227 244
208 228 252
209 228 245
207 227 245
208 227 246
206 226 246
207 227 246
208 228 252
208 228 250
206 226 244
209 228 250
207 226 246
206 226 246
207 227 252
207 227 249
206 226 242
206 226 248
205 225 240
204 225 238
207 227 252
205 226 248
204 224 238
204 225 244
205 226 252
202 223 240
202 224 242
200 222 230
206 227 250
204 225 249
203 225 245
202 224 248
201 224 252
199 223 255
200 224 255
201 224 255
202 225 255
203 225 255
204 226 255
205 227 255
207 228 255
209 228 255
210 229 254
212 230 253
212 230 254
215 232 255
214 232 255
214 232 255
214 232 255
214 232 255
214 232 255
214 232 255
214 232 255
214 231 255
214 231 255
214 231 255
214 231 255
123 147 196
61 98 161
61 97 157
62 98 162
62 97 156
61 98 160
62 98 162
62 98 159
62 97 154
61 97 153
62 98 159
61 97 152
62 97 153
61 97 155
62 98 162
62 97 155
62 97 155
62 97 158
61 96 145
62 98 157
62 98 160
62 97 151
62 98 154
60 95 144
62 98 158
60 96 149
62 98 160
60 96 147
61 97 154
61 97 153
61 96 149
62 98 158
62 98 158
60 96 147
62 97 153
62 98 157
60 96 149
62 97 155
61 96 147
61 96 147
62 98 156
62 97 155
61 96 151
61 97 150
62 98 156
62 98 159
60 96 139
61 96 151
61 96 152
61 97 147
61 96 148
62 98 156
61 97 153
62 97 151
61 97 149
61 96 153
61 96 149
61 97 151
62 97 154
59 94 147
60 96 147
61 96 146
62 98 159
62 98 158
61 97 152
63 99 164
60 96 150
61 96 150
60 94 140
62 97 159
61 96 153
61 95 152
61 95 151
61 97 160
60 94 144
62 97 157
61 96 151
60 94 150
60 95 153
61 95 153
61 95 154
59 93 143
61 96 155
59 93 145
59 93 146
58 91 147
58 91 147
58 90 143
59 91 143
59 92 145
57 87 130
148 168 203
214 231 255
214 231 255
214 231 255
214 231 255
214 232 255
214 232 255
214 232 255
214 232 255
214 232 255
214 232 255
214 232 255
195 208 224
120 119 82
112 111 74
126 125 83
98 99 70
119 118 81
123 123 85
121 122 86
122 123 85
120 121 86
120 121 84
114 115 79
122 123 85
122 122 83
125 125 86
122 123 86
134 133 91
132 132 91
135 134 92
144 143 96
131 130 88
144 143 96
139 138 90
143 141 94
141 139 94
138 137 95
147 145 97
147 145 95
150 148 98
155 152 102
153 151 100
150 147 96
151 149 97
157 153 97
155 152 97
155 153 99
149 146 95
158 155 101
159 157 98
152 149 96
159 156 100
162 158 102
165 160 102
165 161 103
166 162 103
167 162 102
161 157 100
167 164 105
163 158 98
165 161 101
173 167 108
161 156 100
164 160 102
161 157 98
169 164 100
173 167 104
163 159 100
172 167 106
170 165 102
166 161 101
168 163 104
170 165 102
170 166 105
171 166 105
170 165 102
176 170 105
171 166 103
168 163 100
171 166 101
175 168 103
171 165 105
165 160 95
170 165 101
175 168 104
171 167 105
172 166 104
173 167 103
173 166 102
170 164 103
171 165 103
174 168 104
172 166 99
171 165 99
170 166 104
168 163 97
175 169 103
169 163 101
165 161 95
173 167 101
170 164 99
170 166 99
170 164 97
169 163 100
165 159 91
172 167 101
167 161 100
172 166 101
165 160 95
167 161 95
171 165 101
172 166 103
162 158 92
170 164 98
158 153 91
163 157 94
167 162 99
162 156 93
166 160 96
171 164 98
171 164 97
168 162 102
169 164 99
170 164 99
162 157 93
159 154 97
167 161 100
167 160 95
160 155 90
166 160 95
161 155 87
162 158 96
169 162 95
162 156 91
160 155 90
161 156 89
162 156 93
162 156 89
159 153 90
161 156 93
163 157 93
164 158 95
159 153 87
163 158 99
156 151 89
155 150 90
158 152 89
161 155 93
163 158 93
156 150 85
162 157 95
161 154 91
150 145 86
157 151 87
209 229 255
209 229 255
211 229 252
211 230 253
212 230 254
209 228 245
211 230 254
212 230 249
210 228 246
211 229 252
211 229 248
210 229 248
210 228 246
210 229 249
211 229 252
210 229 248
210 228 249
206 225 241
207 226 241
207 226 238
208 227 241
208 227 242
209 227 244
210 228 245
210 228 246
209 228 244
210 228 248
208 227 241
209 228 245
208 227 240
208 227 242
210 229 248
210 229 248
209 228 244
209 228 248
211 229 250
210 228 250
209 227 241
209 227 244
210 228 244
211 229 250
209 228 244
209 227 244
212 230 252
210 229 248
210 229 249
208 226 241
209 227 245
209 228 246
209 228 246
209 228 245
212 230 254
208 227 245
209 227 246
210 228 249
208 227 241
209 228 242
209 228 246
209 228 248
210 229 249
210 229 248
209 228 249
207 226 244
209 227 248
211 230 252
209 228 248
206 225 241
208 227 245
208 227 245
208 227 246
210 229 246
205 224 242
209 228 248
210 229 248
211 229 252
210 228 248
210 228 249
210 229 252
208 227 246
206 225 245
210 229 249
208 227 245
207 225 248
209 228 246
210 229 250
209 228 249
208 228 246
207 226 246
209 227 245
210 229 253
207 226 244
209 228 249
209 228 248
207 226 248
209 228 250
210 229 252
210 229 250
207 226 242
209 228 248
209 228 249
207 227 245
210 229 250
208 227 246
208 227 248
207 227 245
208 227 245
209 228 250
208 228 248
208 228 252
208 228 249
207 226 240
208 228 250
207 226 244
207 227 246
206 226 246
205 226 245
206 227 246
206 226 248
207 227 250
205 225 242
203 224 238
204 225 242
203 224 237
202 223 236
204 226 249
203 224 241
206 226 248
205 226 249
206 227 253
203 225 249
201 224 255
200 224 255
201 224 255
202 225 255
203 225 255
204 226 255
205 227 255
207 228 255
208 228 255
210 229 255
212 230 255
213 231 254
214 232 254
214 232 255
214 232 255
214 232 255
214 232 255
214 232 255
214 232 255
214 232 255
214 232 255
214 232 255
214 232 255
202 220 248
68 102 171
61 98 161
60 97 158
61 97 152
61 97 154
62 98 161
62 98 159
62 98 158
61 97 159
62 97 158
62 98 158
62 97 148
62 98 154
62 98 155
61 97 158
61 97 149
62 98 157
62 97 151
61 97 160
62 97 154
62 98 158
62 98 155
60 96 140
62 98 155
62 98 162
62 98 155
62 97 154
60 96 152
62 98 157
62 97 152
61 97 153
62 97 157
62 98 157
62 98 161
62 98 154
61 97 150
60 95 139
62 97 148
61 96 149
62 98 161
62 98 156
62 98 160
61 97 153
61 97 157
61 96 150
62 98 161
61 96 149
62 97 161
62 97 155
62 98 158
61 97 155
61 97 153
62 97 154
60 96 147
61 96 146
61 97 152
61 97 154
62 97 153
61 97 149
63 99 167
62 98 157
62 97 152
61 96 149
60 94 140
61 97 153
61 96 152
62 98 159
61 96 154
61 96 155
61 96 150
62 98 160
61 95 158
61 96 148
61 95 151
60 94 148
61 96 152
61 96 155
62 97 159
62 96 153
62 97 163
60 93 144
60 95 155
60 94 147
59 92 142
59 93 146
60 93 151
59 93 141
58 90 140
60 94 156
57 90 143
57 87 141
64 93 143
199 216 242
214 232 255
214 232 255
214 232 255
214 232 255
214 232 255
214 232 255
214 232 255
214 232 255
214 232 255
213 231 254
137 140 121
118 117 79
116 115 78
108 109 76
114 115 81
116 116 80
111 111 76
113 114 78
118 119 83
126 126 86
123 124 87
116 118 83
127 128 89
121 122 84
116 118 84
129 130 91
131 130 89
125 126 88
134 134 90
135 136 94
128 128 88
138 137 93
148 147 100
134 133 91
136 135 89
139 139 93
152 149 98
154 152 101
152 151 100
146 145 93
154 151 102
153 151 99
148 147 99
152 150 100
158 155 100
156 154 98
155 153 101
156 153 98
159 155 98
148 145 93
161 158 100
164 160 100
169 165 104
161 158 101
156 153 95
163 159 102
162 158 101
166 161 102
164 161 99
172 168 104
165 160 102
169 164 103
162 158 97
171 166 104
170 164 104
169 165 104
171 166 105
173 167 103
163 158 100
173 168 105
173 167 101
172 166 103
174 168 104
170 165 103
174 168 103
170 164 100
170 165 99
170 164 101
176 170 108
170 165 103
173 167 103
174 168 103
174 167 101
174 168 103
173 167 102
174 168 103
172 167 101
172 166 99
172 166 101
170 165 101
171 165 99
175 168 103
174 168 101
171 166 105
170 164 99
171 165 102
173 167 103
170 165 98
167 163 98
171 165 99
170 163 97
166 161 99
164 159 100
170 165 101
165 160 96
169 163 97
172 166 97
171 164 97
169 163 98
167 161 99
166 161 99
170 164 100
165 159 95
170 165 99
170 165 99
168 162 98
162 157 93
169 165 103
163 158 93
171 165 101
169 162 95
167 161 93
166 159 92
166 160 94
162 156 90
161 156 87
166 161 96
164 158 93
166 160 94
162 156 93
167 162 99
163 158 95
166 159 93
165 159 93
156 150 87
165 158 95
165 159 95
157 152 85
164 158 95
162 157 89
161 156 94
158 153 90
164 157 95
162 155 89
156 151 90
155 149 89
154 149 88
161 155 95
158 153 94
161 156 90
150 145 85
159 152 87
155 149 87
209 229 255
211 230 253
210 229 249
211 229 248
213 231 254
211 229 249
212 230 252
211 229 250
211 229 246
212 230 253
211 229 250
212 230 252
212 230 250
210 229 246
212 230 252
211 229 252
208 227 242
207 226 240
207 226 237
207 226 240
209 227 244
206 225 237
208 227 244
208 227 242
209 228 242
210 229 248
210 229 248
210 228 242
208 227 245
208 226 242
209 227 245
211 230 250
211 229 249
208 227 242
210 228 244
211 229 252
209 227 245
211 229 249
210 228 248
210 229 248
209 228 248
210 228 244
212 230 250
212 230 252
211 229 249
211 229 252
209 227 241
209 228 242
211 229 249
210 229 248
209 228 245
210 228 245
211 229 249
211 229 249
209 227 246
208 227 244
208 227 244
212 230 250
207 225 242
207 226 240
209 228 244
210 228 246
210 228 248
208 227 245
209 227 249
208 227 244
210 229 252
208 226 244
211 229 250
209 227 248
208 227 246
209 227 245
211 229 248
210 228 249
210 228 248
211 229 250
209 227 244
211 229 250
212 231 255
210 228 248
210 228 250
209 227 248
209 227 244
207 226 244
209 228 248
207 225 241
209 228 246
207 226 244
208 227 248
211 229 252
211 229 252
209 228 246
208 227 248
208 227 245
208 227 246
207 226 241
210 229 252
208 227 248
209 228 252
208 227 248
207 226 245
208 227 245
207 226 246
210 229 252
209 228 246
208 228 248
208 227 244
208 228 245
208 227 246
205 225 241
207 227 246
207 227 246
206 226 241
208 228 248
207 227 245
207 227 246
206 226 242
207 226 244
206 226 245
207 227 250
205 225 238
205 226 244
206 226 246
204 225 242
205 225 244
205 226 248
203 224 240
205 226 249
206 227 250
205 226 250
202 224 248
201 224 255
201 225 255
202 225 255
203 225 255
204 226 255
205 227 255
206 227 255
208 228 255
210 229 255
211 230 254
212 230 254
213 231 254
215 232 255
215 232 255
215 232 255
215 232 255
215 232 255
215 232 255
215 232 255
215 232 255
215 232 255
215 232 255
135 156 197
62 98 165
61 97 156
61 97 154
62 98 160
62 97 154
61 96 157
62 97 156
62 98 159
61 97 154
62 97 153
61 96 147
60 96 152
63 98 158
61 96 149
60 96 150
62 97 154
62 97 155
62 98 156
62 98 153
62 97 154
60 95 135
62 98 158
62 97 151
62 97 153
62 97 153
62 98 154
61 96 145
61 97 153
61 96 151
61 97 156
61 97 149
61 96 150
61 97 150
61 96 145
61 97 150
61 96 150
61 97 152
61 96 142
63 98 159
62 97 149
60 96 143
62 97 150
62 97 157
61 97 153
61 96 149
61 96 150
61 97 148
61 97 148
62 97 156
61 97 155
62 97 151
61 95 145
64 99 160
62 97 156
62 98 160
62 97 154
60 95 142
62 97 153
62 98 160
61 95 151
61 97 154
60 95 149
62 97 154
61 96 153
62 97 159
60 94 142
62 97 155
61 97 154
61 96 151
61 95 146
60 95 155
61 96 151
60 95 142
60 95 152
60 95 144
62 97 155
59 93 144
61 96 154
60 95 143
59 92 141
60 94 149
59 92 147
59 93 139
60 93 148
59 92 153
60 93 145
60 94 153
57 90 141
57 89 141
59 91 142
56 88 137
58 90 141
140 159 193
215 232 255
215 232 255
215 232 255
215 232 255
215 232 255
215 232 255
215 232 255
215 232 255
215 232 255
191 205 220
123 120 78
123 122 80
126 124 83
122 121 84
119 120 83
119 119 81
118 119 82
123 124 86
109 111 78
115 117 82
110 112 79
124 125 87
121 121 86
125 125 86
136 135 92
128 128 88
124 125 85
135 135 92
125 126 88
133 133 91
140 139 94
131 131 90
147 145 97
152 150 99
147 145 95
142 140 91
141 139 90
149 147 99
151 148 98
145 144 94
151 149 96
150 148 95
149 147 94
152 149 95
152 149 99
153 151 99
154 152 95
153 149 96
160 157 99
152 150 95
150 148 96
162 159 102
168 163 103
160 156 100
160 157 97
160 157 99
163 159 102
162 159 101
163 159 99
166 162 102
171 166 107
163 159 100
163 159 100
173 168 107
165 160 102
166 162 101
171 165 105
170 165 103
163 158 99
170 164 100
176 169 105
170 166 103
167 163 100
173 168 103
171 166 100
174 169 106
173 167 100
169 165 101
171 166 102
169 164 100
174 168 105
173 168 103
169 164 98
173 167 97
174 169 106
171 165 99
167 162 97
170 164 99
171 165 100
170 164 101
171 165 100
169 163 99
173 167 99
175 169 102
173 167 100
175 169 104
174 168 105
172 168 104
172 167 98
171 166 100
167 162 96
168 162 100
169 163 97
169 163 98
176 170 104
167 161 97
166 161 101
168 163 93
167 161 96
166 160 97
167 162 97
168 162 98
169 164 98
173 168 103
166 161 96
165 159 98
176 170 105
165 159 99
160 155 90
167 162 95
165 158 96
164 157 93
166 160 95
164 157 94
168 162 97
164 160 98
165 158 90
171 164 97
161 156 93
164 158 88
168 162 99
155 150 84
167 161 93
164 159 95
166 160 97
166 160 93
165 159 94
159 153 90
159 154 89
161 155 95
161 155 90
161 155 93
161 156 85
158 152 89
155 150 87
157 152 93
155 151 88
154 149 85
158 153 87
155 149 84
159 153 91
158 152 93
152 147 82
210 229 254
212 231 254
213 231 254
212 230 252
211 229 246
212 230 254
211 229 246
211 229 249
212 230 253
212 230 250
211 229 248
211 229 250
211 229 249
210 228 248
213 231 253
210 228 244
208 227 238
208 227 238
208 227 237
210 228 245
208 226 237
208 226 241
211 229 248
209 227 240
207 226 238
211 229 249
208 227 244
208 226 241
209 227 248
211 229 248
210 228 246
210 228 247
211 229 246
210 228 246
211 229 249
212 230 252
209 228 245
211 230 250
208 226 236
211 229 248
210 228 246
211 229 246
210 228 244
212 229 248
210 228 244
211 229 249
211 229 245
211 228 249
212 230 252
211 229 249
209 227 244
210 228 245
212 230 250
208 226 245
212 230 254
209 227 246
208 227 245
213 231 253
211 229 248
209 227 244
210 228 248
209 227 249
212 230 252
212 230 253
210 228 248
210 227 248
210 228 244
207 226 244
212 230 254
208 227 242
211 229 249
212 230 253
208 227 242
210 228 250
209 227 248
207 226 244
208 227 244
210 228 252
210 228 246
207 226 245
211 230 252
208 227 244
211 229 249
207 226 245
209 227 246
209 228 250
208 227 246
210 228 248
211 229 250
210 229 252
209 228 246
210 228 245
210 228 248
208 227 245
210 228 248
210 229 252
207 226 246
210 229 249
209 227 241
209 228 252
208 227 248
210 229 249
207 226 244
209 228 250
207 227 241
209 228 249
209 229 250
210 229 249
210 229 249
211 230 254
206 226 237
207 227 244
206 226 238
206 225 241
209 228 250
209 228 252
206 226 245
206 226 241
206 226 242
208 227 248
206 226 244
206 226 245
207 227 246
207 227 252
207 227 248
204 224 240
204 225 242
207 227 252
206 226 250
204 225 249
206 226 252
204 225 254
201 225 255
200 223 254
202 225 255
204 226 255
205 227 255
206 227 255
208 228 255
209 229 255
210 229 255
212 230 255
212 230 253
214 232 254
215 232 255
215 232 255
215 232 255
215 232 255
215 232 255
215 232 255
215 232 255
215 232 255
196 214 241
68 103 169
61 98 161
61 97 162
61 97 156
62 98 158
62 98 158
62 97 156
60 96 149
62 98 157
62 98 160
61 97 151
62 98 154
61 97 152
61 97 158
62 98 156
61 97 156
61 96 150
62 98 157
62 97 150
61 97 150
61 97 151
62 98 158
62 97 153
61 97 152
62 98 153
62 98 156
61 97 149
61 96 151
61 96 147
62 98 156
62 98 156
61 96 151
61 97 150
61 97 149
61 97 150
61 97 151
61 96 150
60 96 154
60 96 144
61 97 149
62 97 154
61 96 140
62 97 156
62 97 154
61 96 151
61 97 153
61 96 154
62 97 157
62 97 153
62 97 156
61 97 150
61 96 145
61 96 154
61 96 145
60 96 150
60 95 143
61 97 152
61 97 151
61 96 145
59 94 138
60 95 152
61 97 150
60 96 149
61 96 143
61 96 149
60 95 144
62 97 156
60 95 150
61 96 148
62 96 150
62 97 157
60 94 141
60 95 148
61 96 148
61 95 156
60 95 148
61 96 149
61 95 145
61 96 158
60 93 144
59 93 143
60 95 151
58 91 143
59 92 143
59 92 150
60 94 153
58 91 144
60 95 154
57 90 136
57 89 140
57 90 142
58 90 146
55 86 139
61 91 142
198 215 239
215 232 255
215 232 255
215 232 255
215 232 255
215 232 255
215 232 255
215 232 255
213 230 253
137 139 121
117 116 76
117 117 79
109 109 74
117 118 82
98 100 68
108 109 77
109 110 77
109 112 80
108 111 80
114 115 80
121 122 84
120 121 86
131 131 90
123 124 86
135 136 95
125 126 86
125 126 87
132 132 91
139 138 93
133 133 88
123 125 86
133 134 89
143 143 95
145 144 95
138 138 92
142 141 93
141 140 93
150 148 99
147 145 92
143 142 92
155 152 98
154 153 99
153 151 97
158 155 100
154 151 95
152 149 95
152 150 96
161 158 101
155 152 96
162 159 102
158 154 97
165 161 100
158 154 97
162 158 102
163 160 103
163 159 97
168 163 102
166 162 102
165 161 97
166 160 101
159 155 101
169 165 105
169 164 102
169 164 102
166 162 99
168 163 102
171 165 101
173 167 102
166 162 99
171 166 101
170 165 102
170 166 100
166 161 98
176 169 101
174 169 105
171 165 102
173 167 103
173 167 102
169 164 100
168 163 99
175 170 105
172 168 103
171 166 102
172 166 103
174 169 106
169 163 98
174 168 103
174 168 101
172 167 101
170 164 101
168 163 94
172 165 101
163 157 95
169 164 99
171 165 101
167 162 96
172 166 99
174 168 99
173 167 100
172 165 101
169 163 99
174 167 103
168 162 95
173 167 103
167 161 95
161 156 87
173 168 101
171 165 97
171 164 99
168 161 94
166 161 99
160 155 90
163 158 95
167 160 99
160 155 87
168 162 98
165 160 93
166 160 93
170 163 99
166 161 94
163 157 91
168 162 93
163 158 95
171 166 99
164 159 95
167 161 99
166 160 96
164 158 95
165 159 94
163 156 93
161 156 90
159 154 90
167 161 96
167 160 93
163 157 93
151 145 81
162 156 94
157 151 93
164 157 93
161 155 90
164 157 95
158 153 87
165 158 92
155 151 84
160 155 89
157 152 88
157 151 88
158 152 91
161 155 92
155 150 87
161 154 91
150 144 82
155 149 84
212 230 252
212 230 252
213 231 253
211 229 248
212 230 252
214 231 253
211 229 248
213 231 254
213 230 250
214 231 254
211 229 246
212 229 248
212 230 249
212 230 250
213 230 252
209 227 240
207 225 235
210 228 246
211 229 245
209 227 242
210 228 246
209 228 241
208 227 242
211 228 246
211 229 248
211 229 249
211 229 249
211 229 246
212 230 249
209 227 248
210 228 242
210 228 246
207 225 242
212 230 249
210 228 248
212 230 249
211 229 245
211 229 245
211 229 250
210 228 246
212 230 252
210 228 245
212 230 249
212 230 252
211 229 248
210 228 246
210 228 245
211 229 249
212 230 249
211 229 248
210 228 242
206 224 241
213 231 254
213 230 250
209 228 248
212 230 252
211 229 248
212 230 250
212 230 252
208 226 242
211 229 248
212 230 248
210 228 249
205 223 240
210 228 249
211 229 252
210 228 245
211 229 249
209 227 246
210 228 249
209 227 245
210 228 245
209 228 246
212 229 250
211 230 250
209 227 244
208 227 238
207 225 238
208 227 241
210 228 248
210 229 248
212 230 253
210 229 250
209 227 246
211 229 249
209 228 244
211 229 249
210 228 245
208 227 244
211 229 246
210 228 246
211 229 249
208 227 245
208 227 246
210 229 250
211 229 249
209 227 242
210 228 248
207 226 244
209 228 248
210 229 249
209 228 249
209 228 245
210 228 246
209 228 248
211 229 252
209 228 245
208 227 245
208 227 244
208 227 245
210 229 249
209 228 249
209 228 250
209 228 246
209 228 249
208 227 242
208 228 248
208 228 249
207 227 246
206 226 241
208 228 248
206 226 244
208 227 246
206 226 244
207 227 248
204 224 240
203 223 238
200 221 240
203 224 248
198 218 240
204 225 242
205 225 250
197 219 248
194 217 248
198 220 251
201 223 253
205 226 255
206 227 255
208 228 255
209 229 255
210 229 255
212 230 255
213 231 255
215 232 255
214 231 252
215 232 255
215 232 255
215 232 255
215 232 255
215 232 255
215 232 255
215 232 255
153 173 209
61 97 155
61 96 148
62 97 159
61 97 153
61 97 155
61 97 156
61 97 155
63 99 165
61 96 152
61 97 150
61 96 147
61 97 154
62 97 151
61 96 150
61 97 153
60 96 150
61 97 152
61 97 149
62 98 156
62 98 157
61 97 150
61 97 155
60 96 143
61 97 150
62 98 157
61 97 152
62 97 153
61 97 153
61 97 152
62 97 152
61 96 147
61 97 149
62 98 157
62 97 156
61 97 148
62 98 148
60 95 141
61 96 143
61 97 153
62 97 147
61 97 155
61 97 154
62 97 156
62 97 153
61 96 142
61 96 142
62 97 154
62 97 152
61 96 155
60 96 150
61 97 158
61 97 152
60 95 140
61 96 151
61 96 150
61 96 153
60 95 141
62 97 152
61 97 153
60 95 148
61 95 152
60 95 149
61 97 158
63 98 159
61 97 152
62 97 158
61 95 150
62 97 149
62 97 157
60 95 141
63 98 161
60 95 152
60 95 147
61 95 156
61 95 150
61 96 151
59 92 136
60 94 139
61 95 148
59 93 148
60 94 147
60 94 143
59 93 149
60 95 153
59 92 145
61 95 154
59 92 143
59 92 148
58 91 135
59 92 148
58 91 141
58 91 146
58 89 144
57 88 139
153 170 198
215 232 255
215 232 255
215 232 255
215 232 255
215 232 255
215 232 255
215 232 255
175 187 199
108 107 72
111 111 76
101 101 68
100 102 72
111 111 78
114 114 78
106 108 76
105 107 75
107 108 75
120 122 85
110 111 77
104 107 74
119 120 83
114 117 83
131 132 91
120 122 83
118 119 82
125 125 85
122 123 83
141 141 96
132 132 91
135 135 92
133 132 87
132 130 85
140 139 91
142 140 91
142 140 93
142 141 92
139 138 90
145 143 93
141 139 94
152 149 98
154 153 98
148 145 96
151 149 97
151 149 96
159 157 98
159 155 98
151 148 96
156 152 98
151 149 95
163 158 102
157 154 97
163 159 99
164 160 102
163 160 99
163 160 99
160 157 97
166 162 103
169 163 98
168 164 104
167 163 102
169 164 103
166 161 96
167 163 105
174 168 101
170 165 103
168 163 99
171 165 98
171 166 103
170 164 101
172 167 104
171 166 103
170 165 100
175 169 104
174 168 105
170 164 100
175 168 100
175 168 98
172 166 100
171 165 99
167 162 97
171 165 99
174 168 100
174 169 100
173 168 103
171 165 98
165 160 94
172 165 99
175 169 101
172 166 97
168 163 98
175 168 103
175 168 103
173 166 99
174 168 101
173 168 106
168 162 93
168 163 93
172 166 100
172 168 100
171 166 96
175 169 101
172 166 101
170 164 97
171 165 100
171 165 98
168 163 100
168 162 93
165 159 96
161 156 91
168 163 97
164 158 91
168 163 100
173 167 99
165 160 92
161 156 88
167 161 92
165 159 93
166 160 97
170 164 93
171 164 97
161 156 92
163 157 92
159 154 90
165 161 94
169 163 99
166 160 93
167 160 93
172 166 99
157 151 86
160 155 87
164 157 90
166 160 93
161 155 91
162 157 95
166 159 93
159 154 87
155 150 90
158 153 87
163 157 87
159 154 92
158 153 84
162 155 88
157 152 86
160 154 92
156 151 86
158 152 88
163 157 91
159 155 93
160 154 88
161 155 87
159 153 88
152 148 87
214 231 254
213 231 253
214 231 252
212 230 250
214 231 253
211 229 248
213 230 253
212 229 249
212 230 250
212 229 249
214 231 253
213 231 252
212 230 250
213 230 252
211 229 246
210 228 241
210 228 242
211 229 248
211 229 247
210 228 244
211 229 245
210 228 245
211 229 245
211 229 245
210 228 241
212 230 249
211 229 245
211 229 246
210 228 242
210 228 247
211 229 245
211 228 249
209 227 243
212 230 250
210 228 246
210 228 244
211 229 252
212 229 250
211 229 245
212 230 249
211 228 245
212 230 250
209 226 240
212 230 250
209 227 240
212 230 248
211 229 245
213 230 249
209 227 245
211 228 249
212 230 250
211 229 245
211 229 248
213 231 253
214 231 254
211 228 249
208 226 242
210 228 245
212 230 250
211 228 249
208 226 244
211 229 250
207 224 242
210 228 249
212 229 249
212 230 249
209 227 246
210 228 249
210 228 246
212 230 250
208 225 244
212 229 248
211 229 250
210 228 248
207 225 241
212 229 252
210 228 250
208 226 242
210 227 248
209 227 248
211 229 250
209 226 248
211 229 248
211 229 246
211 229 250
208 227 242
209 228 248
209 227 242
211 229 245
210 228 248
210 229 249
208 227 242
211 229 248
210 228 244
211 228 248
211 229 248
211 229 249
210 228 245
210 228 242
208 226 240
208 226 246
209 228 245
211 229 249
212 230 249
210 228 248
210 228 246
208 226 240
209 228 242
208 227 246
209 228 245
209 228 245
210 229 248
208 227 246
209 228 246
210 229 248
209 228 246
209 228 248
207 227 245
207 226 240
208 227 245
208 227 246
208 227 242
206 226 240
206 226 243
207 226 244
202 222 239
201 221 233
198 218 232
201 221 246
203 223 248
205 225 248
204 223 250
201 222 247
198 220 250
199 221 252
200 222 252
202 223 253
203 224 253
207 227 254
209 229 255
210 229 255
212 230 255
213 231 255
215 232 255
215 232 254
216 232 255
216 232 255
216 232 255
216 232 255
215 232 255
215 232 255
213 230 254
92 120 170
62 98 161
62 98 162
61 97 154
62 97 153
62 98 160
61 96 153
61 97 154
61 96 147
60 96 147
61 96 148
61 96 151
61 97 159
61 97 149
62 97 153
62 98 156
62 98 157
61 96 145
61 97 157
62 97 155
61 96 148
61 96 147
61 97 151
61 96 150
61 96 155
60 96 148
61 96 153
60 95 151
61 96 145
61 97 153
61 97 149
61 96 142
62 97 151
61 97 149
62 98 154
62 97 147
62 97 150
62 97 152
61 96 143
62 97 157
61 97 150
60 95 139
61 97 152
61 96 148
60 95 145
63 99 162
61 97 149
62 97 152
62 97 144
61 96 152
62 98 160
62 97 154
63 98 161
60 95 151
60 95 139
61 97 156
60 95 140
60 95 149
60 95 144
61 96 151
60 95 142
62 96 150
62 97 152
61 96 158
60 95 146
62 97 159
61 96 149
60 96 149
62 97 151
61 96 150
61 96 146
62 97 157
59 94 139
61 95 146
62 97 161
60 94 142
61 95 151
59 93 140
61 96 152
60 95 146
59 93 142
61 96 155
59 94 142
59 93 144
59 92 145
57 90 131
59 92 142
59 93 144
59 92 141
58 91 140
59 93 141
57 89 140
57 88 133
58 90 142
55 85 134
65 89 124
214 231 255
215 232 255
216 232 255
216 232 255
216 232 255
216 232 255
215 232 254
122 122 98
117 115 75
102 102 70
115 113 77
110 110 75
101 103 73
99 102 72
110 110 75
100 104 75
109 111 78
101 104 73
112 113 78
110 111 77
126 126 86
129 130 88
117 119 81
118 120 86
121 122 85
116 118 79
128 128 86
134 132 89
137 136 91
140 139 93
136 136 91
135 134 88
137 136 93
138 136 91
139 138 90
139 136 90
147 145 95
143 143 96
149 147 96
148 145 92
147 145 93
155 153 99
154 151 98
156 153 96
161 156 96
160 156 97
151 149 95
166 162 99
165 160 99
166 162 101
156 154 93
159 156 95
162 158 99
163 159 102
167 163 103
160 157 97
166 163 103
163 158 96
164 159 96
164 160 99
167 162 101
163 159 96
164 160 95
164 159 96
171 166 100
166 161 98
173 167 104
170 165 98
170 165 101
172 167 104
172 166 101
170 165 101
167 162 95
167 163 100
173 168 104
169 163 98
170 165 98
174 168 104
171 165 98
173 167 104
172 165 99
170 165 100
174 167 100
169 164 97
174 168 101
177 171 108
169 164 95
171 166 101
171 165 97
172 166 97
173 167 101
170 164 97
173 167 97
173 167 101
167 163 97
172 166 100
173 167 99
170 164 97
175 169 105
176 169 102
170 163 95
167 162 96
172 166 95
168 162 99
170 165 100
170 163 93
171 166 95
167 161 93
169 163 97
168 162 93
168 163 97
165 159 98
168 162 95
163 157 89
171 166 99
174 167 97
167 160 97
175 168 99
166 160 92
172 165 98
165 159 94
160 154 89
163 157 93
162 156 87
158 152 88
162 157 93
170 163 97
167 162 98
173 166 100
153 148 81
167 161 95
160 155 90
164 157 95
163 157 89
153 148 84
165 159 92
160 154 86
159 153 89
159 153 89
162 155 90
162 155 92
162 156 93
159 153 91
155 150 87
164 158 93
162 156 90
165 159 93
154 148 87
159 153 87
158 152 90
167 160 95
155 149 80
213 230 250
213 231 252
213 231 252
213 231 252
214 231 253
212 230 249
213 231 250
214 231 254
213 230 249
212 230 248
212 230 248
215 232 254
213 230 249
215 232 254
209 227 238
210 228 241
209 227 242
210 228 242
210 228 244
212 229 246
210 228 240
210 228 240
212 230 249
211 229 244
211 229 246
212 230 248
212 229 246
213 230 249
212 229 246
211 229 244
210 228 244
213 230 249
213 231 252
212 230 248
210 228 244
209 227 240
211 229 245
213 230 249
211 229 249
212 229 248
211 228 244
212 230 252
212 230 248
209 227 241
213 230 250
208 226 242
210 228 246
210 228 245
211 228 246
211 228 248
212 229 246
212 229 248
213 230 250
213 231 254
210 228 246
212 229 249
211 228 245
209 227 248
211 229 246
209 227 244
211 229 249
211 228 246
209 226 246
212 230 248
212 229 250
209 227 245
211 228 248
209 227 241
210 228 245
211 228 248
211 229 246
210 227 245
208 226 244
209 227 244
211 229 250
213 230 250
209 227 248
211 229 245
210 228 248
211 229 249
210 228 246
210 228 246
211 229 250
209 227 245
210 228 244
209 227 244
211 228 246
211 229 246
213 231 253
211 229 249
210 228 244
212 230 249
213 231 252
211 229 248
211 229 249
210 228 244
212 230 253
209 228 242
209 227 241
210 228 246
210 228 242
208 227 242
210 228 245
211 229 246
209 227 242
209 228 244
210 228 245
211 229 246
209 228 242
210 229 249
211 229 245
209 228 245
209 228 246
209 228 245
210 229 249
210 229 248
211 229 252
210 229 248
209 228 248
208 227 245
210 228 248
208 227 244
206 226 242
204 223 242
198 218 236
202 221 239
202 222 238
206 225 248
204 223 243
203 223 248
206 225 248
206 225 247
203 222 246
204 225 254
202 224 254
202 224 254
199 221 251
202 223 252
201 222 251
207 227 254
210 229 255
212 230 255
212 230 255
215 232 255
216 232 255
216 233 255
216 233 255
216 233 255
216 233 255
216 232 255
216 232 255
198 215 240
61 96 155
61 96 155
61 97 155
62 98 161
62 97 154
62 98 161
61 97 155
61 96 152
61 96 151
61 96 145
62 98 156
61 97 153
61 96 154
61 97 149
61 97 154
61 96 149
60 96 142
61 97 150
62 97 152
61 97 154
61 97 157
62 97 150
60 96 147
61 96 142
62 97 154
62 98 155
62 97 155
61 97 150
61 96 142
61 96 145
62 97 154
62 97 153
60 95 141
62 97 154
61 96 153
61 97 152
61 97 148
60 95 143
61 97 152
61 96 155
61 97 156
61 97 149
62 97 152
62 98 155
61 96 147
61 96 148
59 94 133
60 95 141
60 95 150
61 97 150
61 96 145
61 97 150
62 97 151
61 97 152
60 96 143
60 96 147
61 96 141
61 97 150
60 96 145
60 95 139
61 96 145
61 96 140
59 93 136
60 95 140
61 96 154
60 95 143
61 96 146
61 96 150
59 93 129
59 93 138
59 94 139
60 95 140
61 95 149
59 93 137
61 95 146
61 96 150
60 95 148
61 95 156
60 94 142
60 95 153
61 96 152
59 93 144
59 93 144
60 93 141
59 93 148
60 93 141
59 92 143
59 92 146
58 91 145
58 90 143
57 88 126
58 92 138
55 85 130
58 91 145
53 82 126
54 83 127
190 206 231
216 232 255
216 232 255
216 233 255
216 233 255
216 233 255
190 201 208
120 118 74
108 108 74
116 115 77
87 89 62
104 105 72
111 112 76
102 104 73
101 103 74
99 102 71
104 106 76
100 104 75
107 110 78
120 121 83
112 113 80
115 117 82
110 113 80
123 124 85
124 125 86
129 128 87
130 130 87
140 139 91
133 134 90
122 124 84
128 128 87
134 132 88
137 136 88
142 140 91
137 136 87
140 138 90
151 148 94
147 146 96
151 148 93
156 153 96
143 142 89
147 145 91
154 151 90
159 156 99
157 154 98
148 146 94
154 151 97
158 155 91
155 153 98
159 156 97
161 158 103
156 152 97
159 156 98
159 156 93
165 160 101
163 159 97
166 162 98
168 163 103
171 166 104
168 162 99
172 167 103
163 159 99
168 163 99
167 162 99
168 164 99
169 164 96
170 165 98
171 165 101
172 166 100
172 167 101
171 166 101
172 166 99
172 166 100
174 168 100
172 166 98
173 167 98
172 166 99
175 169 101
170 164 95
171 166 102
172 167 100
170 164 94
175 169 100
172 167 99
175 169 99
170 165 101
173 167 102
172 166 100
170 164 95
174 168 101
174 168 98
171 165 95
169 163 93
170 163 97
170 164 98
168 163 99
173 168 100
171 164 95
174 167 101
176 169 100
168 163 90
169 163 95
165 160 93
168 162 96
171 164 97
166 161 97
168 162 95
170 164 100
172 166 99
170 164 101
169 163 90
174 168 99
167 162 97
165 160 97
167 162 96
166 160 97
169 164 95
163 157 88
167 160 93
164 157 87
167 161 95
165 159 93
168 162 97
170 163 97
163 158 87
170 163 93
170 163 98
161 155 87
168 161 97
167 160 93
164 158 90
165 159 95
167 160 95
162 157 91
163 157 94
162 156 87
167 159 94
166 159 93
151 146 78
157 151 90
163 157 92
163 156 93
162 157 95
153 148 83
161 155 88
164 159 91
158 153 87
159 153 91
157 152 89
153 147 81
160 154 87
154 149 85
214 232 254
214 231 254
214 231 252
214 231 252
212 230 245
213 230 248
214 231 250
213 231 252
213 230 248
212 230 246
215 232 253
214 231 253
214 232 254
211 229 244
208 227 234
212 229 245
210 228 238
212 229 244
210 227 242
211 229 244
208 226 237
213 230 250
210 227 241
212 229 245
213 230 249
212 229 248
212 230 248
211 228 245
211 228 244
211 229 245
211 228 245
213 230 249
213 230 252
211 228 244
212 229 246
213 230 253
213 230 249
213 230 250
210 228 241
215 232 254
211 229 241
212 230 246
212 229 244
211 229 245
211 229 245
211 228 246
209 227 244
212 229 249
211 228 246
208 226 240
213 230 250
209 227 242
209 226 245
212 230 248
209 226 245
212 229 248
212 230 250
209 227 244
212 230 249
212 230 249
210 228 248
212 230 248
209 227 246
209 226 246
213 231 249
211 229 248
209 227 248
209 226 244
212 229 245
213 230 253
211 229 244
209 226 245
211 229 245
211 228 248
210 228 249
210 227 246
213 230 249
211 229 250
212 230 252
213 231 252
210 228 245
211 229 245
213 231 252
213 231 254
210 228 246
211 228 249
213 230 252
212 230 249
208 226 241
208 226 241
212 230 250
212 230 248
211 229 245
211 229 246
212 229 249
212 230 250
213 231 252
212 230 249
210 228 246
210 228 245
212 230 250
212 230 252
211 229 248
212 230 249
210 229 245
212 230 250
211 230 250
211 229 250
211 230 250
210 229 248
211 229 246
208 227 240
209 228 245
212 230 250
210 229 246
210 229 248
209 228 244
211 229 250
210 228 248
207 226 243
208 227 244
205 224 238
203 221 239
197 216 234
209 228 250
201 220 238
196 216 228
200 219 234
198 217 233
200 220 235
205 224 243
202 221 247
202 222 246
203 222 246
200 221 252
204 225 254
202 223 252
201 221 251
199 220 249
198 218 248
202 221 249
211 230 255
213 231 255
214 231 254
215 232 255
216 232 254
216 233 255
216 233 255
216 233 255
216 233 255
216 233 255
140 161 201
61 97 160
61 97 157
62 98 158
61 96 153
62 97 155
62 97 158
61 97 157
61 96 151
61 96 147
61 96 148
62 97 153
62 98 151
61 96 151
60 96 153
62 97 151
61 97 150
61 96 151
61 97 154
61 97 143
62 97 152
61 96 145
61 97 147
62 97 149
62 97 155
62 98 156
60 95 142
60 95 145
61 96 148
62 97 153
61 97 150
62 98 154
61 96 145
61 97 148
59 95 141
60 95 144
61 97 148
60 95 139
63 98 156
61 97 149
61 96 144
62 97 152
61 96 151
61 96 145
62 98 151
62 98 157
62 97 154
60 95 136
60 95 148
61 96 148
60 95 142
61 96 141
62 97 151
61 96 152
60 95 145
61 96 143
63 98 155
61 95 140
60 95 144
62 97 147
60 95 139
62 97 156
61 96 152
62 97 153
61 95 149
62 97 151
60 95 148
61 96 143
62 97 155
61 95 146
61 96 152
61 96 154
60 95 143
59 94 146
59 94 142
60 95 150
60 95 140
61 95 146
60 94 149
60 94 148
59 94 143
58 91 138
60 94 151
60 95 141
60 94 145
60 93 142
61 95 148
57 90 134
59 93 145
58 90 133
59 92 139
58 91 140
56 88 133
59 92 151
56 87 140
57 89 141
55 85 130
141 158 186
216 233 255
216 233 255
216 233 255
216 233 255
216 233 255
142 147 141
104 105 71
103 103 67
102 102 70
93 95 67
93 96 68
100 102 71
98 101 74
90 93 66
97 100 72
95 98 69
102 105 76
112 115 82
110 110 75
118 120 81
115 116 79
106 108 77
116 118 83
111 114 80
131 131 90
135 134 87
121 123 84
128 128 85
133 133 90
134 132 86
139 138 94
140 139 91
145 143 92
145 144 95
147 145 97
145 143 90
139 137 88
146 145 94
139 138 83
145 144 93
147 145 94
144 141 85
159 155 97
153 150 94
156 153 97
149 147 93
154 151 93
159 155 94
160 155 97
161 156 97
159 155 96
168 163 98
158 156 100
164 160 96
165 160 98
167 163 101
163 159 101
170 164 100
169 165 104
162 158 99
171 165 101
164 160 99
168 164 101
173 168 103
168 163 101
170 164 92
172 166 99
173 167 101
170 163 98
168 163 102
168 163 99
166 162 99
174 169 106
170 165 100
169 165 98
173 166 99
172 166 96
172 166 101
169 164 98
176 170 105
171 166 98
169 164 100
176 169 101
169 164 95
174 167 97
170 164 93
173 167 100
172 166 99
172 166 99
172 167 102
176 168 97
167 162 96
174 168 97
174 168 98
172 166 99
173 166 102
167 161 93
171 165 94
174 168 99
169 162 93
170 164 97
169 163 96
172 165 99
169 164 94
168 162 98
171 164 96
169 164 95
170 163 95
165 159 89
170 164 92
172 165 95
167 161 94
170 165 98
168 162 97
166 161 91
169 162 98
168 161 95
158 153 87
159 153 87
164 159 90
167 161 95
163 157 91
163 158 90
167 161 87
164 159 95
166 160 92
165 158 90
169 163 96
166 160 92
165 158 93
158 153 89
161 155 90
160 153 93
162 155 89
163 158 88
165 159 92
161 156 89
166 159 92
164 158 92
154 148 83
163 157 90
157 151 86
158 152 89
163 156 90
160 154 85
159 154 80
158 152 87
160 155 88
159 154 88
158 153 89
155 149 84
214 231 253
214 231 252
213 230 249
215 232 254
213 230 248
215 232 253
214 231 252
215 232 252
214 231 250
214 231 252
213 231 249
214 231 250
212 230 246
213 230 248
211 229 246
211 229 241
212 230 246
211 229 241
213 230 245
213 230 248
211 228 246
213 231 249
212 230 245
212 229 244
211 229 241
212 229 245
211 228 238
208 226 238
212 229 245
211 229 244
212 229 246
213 231 248
212 229 244
212 229 247
212 229 246
211 228 246
214 231 249
213 230 252
213 230 250
214 231 250
209 227 237
211 229 246
213 231 249
212 229 244
210 227 241
213 230 249
214 231 252
213 230 246
212 230 249
212 229 246
211 229 248
214 231 250
209 226 244
211 229 244
213 230 252
211 228 244
213 230 249
214 231 253
214 231 249
211 228 250
212 229 249
210 227 245
213 230 249
212 229 246
212 229 248
210 227 246
209 227 244
209 226 245
213 230 246
208 225 245
212 229 246
213 230 250
210 228 245
208 225 242
210 228 245
211 228 245
210 228 245
213 231 253
213 230 249
211 229 249
213 230 252
211 229 248
210 228 242
212 230 250
208 225 240
208 226 244
209 227 244
214 231 253
210 228 244
212 230 249
210 228 245
212 230 249
211 228 246
211 229 245
211 229 249
212 230 253
213 230 249
210 228 242
210 228 242
211 229 248
212 230 249
210 228 240
212 230 252
209 228 240
210 229 245
212 230 249
210 228 244
212 229 249
211 229 248
211 229 246
213 230 253
212 230 248
213 230 252
212 230 250
211 229 249
213 231 254
210 228 245
211 229 246
207 225 246
209 227 246
201 220 238
202 221 243
202 221 238
197 216 234
202 220 237
205 223 241
200 219 234
200 219 231
201 220 240
200 219 231
205 224 244
202 221 240
201 220 246
205 224 246
206 226 247
202 223 252
205 226 254
203 223 252
204 224 252
199 218 246
201 220 249
205 224 251
212 231 255
214 231 255
215 232 255
216 233 255
216 233 255
216 233 255
216 233 255
216 233 255
215 232 254
77 108 162
62 98 165
61 97 158
61 97 154
61 97 155
61 96 145
60 95 148
61 96 149
61 97 156
61 96 145
62 97 155
61 96 143
61 97 154
62 97 147
60 95 137
61 96 151
61 96 148
62 97 154
60 95 145
61 97 148
61 96 142
62 97 147
62 98 154
62 97 157
62 97 151
62 98 153
62 98 155
62 97 153
60 94 137
61 97 151
61 97 155
60 96 143
60 95 139
62 98 152
61 96 144
62 97 152
61 96 149
61 96 145
61 96 147
60 95 137
60 94 139
60 96 141
61 96 144
61 96 155
61 96 147
60 95 137
61 95 146
62 98 156
59 94 141
61 96 156
60 96 145
61 96 143
62 97 150
61 96 149
61 97 148
60 95 143
61 96 147
62 97 156
60 95 145
60 95 150
62 97 153
61 97 150
60 95 143
60 95 143
61 96 144
61 96 158
61 96 148
61 96 146
61 96 151
60 95 142
59 93 137
62 96 153
60 95 139
60 95 142
60 93 145
59 92 140
60 95 147
61 95 148
58 93 143
59 93 144
60 94 144
61 95 154
61 95 144
60 94 139
59 93 150
59 93 136
59 93 139
60 94 142
59 92 138
58 91 142
59 91 142
59 91 134
58 91 147
56 88 135
56 86 132
53 82 122
56 86 134
67 90 124
209 225 249
216 233 255
216 233 255
216 233 255
206 222 242
120 117 76
102 100 63
103 104 70
86 88 63
94 96 68
100 102 73
85 90 67
94 95 66
101 104 75
106 106 73
101 104 73
100 104 74
107 109 74
101 104 75
105 108 77
107 110 76
118 118 82
124 125 84
114 115 77
126 127 87
123 124 83
132 131 87
132 132 88
133 132 85
131 130 87
122 123 82
138 137 89
142 141 90
144 143 93
144 142 91
147 145 91
154 151 97
148 146 93
139 137 84
144 142 93
153 150 92
153 149 95
155 151 93
159 156 97
158 154 91
158 154 95
160 157 99
157 154 94
157 154 94
157 153 97
158 155 96
161 157 93
162 157 95
168 163 100
170 165 97
160 156 95
167 162 97
164 159 96
163 158 96
167 162 96
170 165 100
172 168 102
169 164 95
167 162 98
161 157 94
169 164 98
170 165 96
171 165 96
176 169 104
174 167 99
164 159 90
169 163 93
173 166 99
174 168 102
167 163 94
168 163 93
170 164 97
170 165 97
172 166 95
171 165 96
171 166 93
170 164 95
173 166 99
171 165 98
172 167 99
169 164 95
173 167 100
171 165 98
174 168 99
174 168 101
165 160 95
169 162 96
174 168 99
172 167 98
172 165 96
165 160 90
170 165 98
170 164 99
168 163 92
172 165 95
171 165 95
170 165 97
172 166 95
163 158 89
165 160 90
167 162 97
169 162 93
169 163 95
169 164 97
169 163 93
170 164 90
168 162 95
172 165 95
171 164 96
159 153 87
163 158 90
163 157 91
169 163 96
164 158 93
166 161 95
165 159 89
164 157 93
169 163 97
166 161 90
163 156 83
163 157 92
164 158 90
165 159 92
166 160 91
161 155 90
161 156 87
164 159 94
169 163 95
164 157 87
165 158 92
166 160 93
167 161 93
166 160 95
164 157 93
161 156 90
163 157 93
154 149 84
165 159 91
160 154 89
166 159 93
161 155 86
161 156 90
157 152 84
165 159 90
155 149 79
159 154 87
215 232 255
214 231 249
213 230 246
214 231 250
213 230 249
215 232 253
214 231 249
215 232 250
214 231 250
214 231 250
214 231 250
214 231 250
214 231 250
213 230 246
211 229 242
211 229 245
214 231 252
211 228 241
210 227 238
208 225 234
211 228 242
210 228 236
212 229 242
212 229 246
212 229 248
211 228 240
212 229 246
212 230 247
209 227 236
215 232 252
212 229 247
214 230 249
212 230 246
210 227 244
212 230 248
213 230 245
212 229 246
213 230 245
213 230 245
214 231 250
214 231 252
212 229 246
215 232 252
214 230 250
214 231 249
212 229 248
213 230 246
214 231 250
213 230 246
214 231 250
214 231 252
212 229 248
211 228 244
215 232 254
213 230 246
214 231 252
212 229 246
210 227 245
215 232 253
210 227 246
208 225 244
212 229 250
209 226 242
211 228 248
213 230 252
213 229 249
214 231 249
213 230 245
211 228 245
207 224 242
212 229 245
211 228 245
210 227 244
213 230 249
214 231 252
212 229 249
210 227 244
211 229 244
213 230 248
209 227 244
210 228 245
215 231 254
214 231 252
211 228 245
212 230 249
210 228 245
212 230 245
213 230 250
211 229 248
213 230 245
213 230 249
213 231 250
209 227 244
212 230 250
211 229 245
212 230 248
213 230 248
209 227 241
214 231 250
211 229 248
211 228 248
212 229 250
211 229 248
212 229 249
211 229 245
213 230 249
213 230 250
211 229 246
211 229 245
213 231 253
212 230 248
208 227 240
210 228 241
211 229 245
214 231 254
210 228 240
212 230 250
210 228 251
209 228 243
208 226 241
204 222 240
205 223 240
203 221 238
203 221 240
205 223 242
202 220 237
203 221 234
196 215 237
200 219 236
201 220 232
196 216 230
204 223 242
200 219 246
205 224 249
204 223 246
196 217 246
202 222 252
201 222 251
205 225 252
203 223 251
205 224 251
201 220 248
209 227 252
214 231 255
214 232 255
216 232 254
217 233 255
217 233 255
217 233 255
217 233 255
181 199 228
61 97 158
62 98 156
62 97 154
61 96 150
62 98 158
61 97 156
62 98 159
61 97 154
62 97 152
61 96 143
61 96 145
62 98 158
59 95 140
62 97 152
62 98 157
61 96 155
61 97 155
61 97 150
61 96 140
61 96 151
61 96 149
61 96 143
61 96 141
62 98 155
60 96 144
61 96 145
61 96 145
61 96 144
61 96 145
60 95 142
61 96 145
61 96 143
60 95 137
61 96 150
60 95 136
61 97 147
62 97 153
61 97 151
61 96 149
61 97 148
61 96 145
61 96 147
61 96 150
61 96 150
60 96 152
60 95 140
61 96 149
60 95 140
61 96 149
61 96 143
60 95 146
61 96 150
61 97 149
61 96 146
62 97 152
61 95 145
60 96 145
61 96 148
62 98 154
61 97 150
60 95 145
60 95 143
60 96 145
60 95 140
59 94 140
61 97 156
61 96 140
60 95 148
61 95 144
59 93 140
61 95 146
61 96 143
59 93 140
60 94 146
61 95 142
61 96 152
61 96 151
61 95 150
60 95 145
60 93 141
60 95 140
61 95 152
59 94 148
59 92 143
60 94 148
61 96 155
60 95 148
58 91 134
59 93 149
59 93 143
59 92 141
59 92 141
57 89 134
58 91 137
58 89 136
57 88 134
53 82 123
53 81 120
175 191 218
217 233 255
217 233 255
217 233 255
161 168 165
91 91 60
106 104 67
92 93 64
86 89 66
99 100 70
71 75 56
97 99 71
90 95 72
89 92 65
98 100 70
100 103 74
101 106 76
104 107 75
106 109 78
102 105 76
109 111 78
107 108 72
115 117 80
110 112 73
117 118 78
124 125 85
129 128 83
128 128 84
136 133 86
123 125 84
137 137 87
136 135 89
138 137 84
135 133 86
138 138 87
147 145 95
144 143 88
148 144 89
144 143 89
143 140 88
151 149 94
152 149 95
154 151 89
151 149 92
160 156 96
160 156 95
157 154 95
151 149 92
163 159 97
154 151 91
162 158 99
154 151 89
162 158 95
168 163 102
158 154 92
160 156 91
163 158 93
167 162 100
167 162 98
163 159 93
167 162 96
173 167 102
173 167 102
172 166 97
170 165 97
168 163 96
171 166 100
164 159 90
170 165 98
170 165 99
170 166 98
173 167 97
173 166 99
172 166 96
170 165 97
169 164 95
170 164 100
173 167 95
173 167 97
168 163 96
172 167 98
171 165 96
171 164 93
174 168 97
172 166 99
172 165 93
169 164 97
174 167 98
172 167 96
173 167 96
170 164 95
169 163 96
174 168 97
170 163 93
175 168 102
174 168 95
172 166 97
169 163 93
169 164 93
170 164 91
171 165 94
165 159 92
171 164 94
170 164 97
169 162 95
175 167 93
170 164 94
165 159 91
166 160 86
168 162 91
169 162 90
165 160 94
170 163 90
170 164 97
171 164 100
166 161 91
169 162 90
165 159 87
164 159 87
167 162 92
163 158 87
166 160 91
166 160 94
155 150 81
167 161 93
162 156 88
161 156 90
158 152 88
163 157 90
165 159 93
163 157 92
169 164 95
162 156 90
165 158 92
169 163 94
158 152 85
163 156 91
161 156 88
157 151 87
165 159 90
167 160 86
154 148 84
158 152 80
157 152 83
164 158 93
156 150 80
160 154 87
160 153 87
155 150 81
154 149 82
157 151 84
215 232 253
215 231 250
216 232 253
215 232 252
215 232 253
216 232 254
215 232 253
215 232 250
215 232 252
215 232 253
214 231 248
215 232 250
214 231 249
212 229 242
211 228 240
213 230 246
213 230 246
211 228 240
212 229 244
213 230 246
213 230 248
209 226 239
211 228 246
214 231 250
213 230 247
215 231 250
213 230 248
212 229 242
213 230 248
213 230 245
209 227 237
214 231 248
214 231 250
212 229 244
212 230 247
212 229 242
212 229 241
214 231 248
212 229 242
214 231 252
210 227 242
214 231 249
211 228 244
213 229 245
211 228 242
213 230 246
214 231 248
212 229 246
214 231 250
214 231 249
215 232 252
211 228 244
212 228 245
210 227 244
213 229 248
215 232 253
213 230 246
214 231 253
213 230 248
212 229 248
210 227 244
209 226 244
212 229 246
211 228 246
211 228 248
213 230 252
209 226 245
210 227 245
214 231 249
213 230 250
209 226 245
210 227 246
211 228 245
212 229 245
211 228 246
212 229 248
213 230 249
209 227 245
212 230 250
214 231 249
210 228 244
211 229 248
210 228 245
209 226 241
211 228 242
211 228 244
213 230 249
213 230 252
214 231 250
211 229 245
213 230 252
213 230 245
213 231 253
213 230 246
212 230 248
212 230 248
213 231 252
213 230 250
211 229 244
213 230 249
212 230 248
213 231 252
209 227 238
212 230 248
212 230 246
210 228 241
211 229 242
211 229 245
211 229 246
212 230 249
212 230 248
212 229 249
212 230 248
212 230 249
212 230 248
209 227 240
205 223 236
206 224 241
208 225 242
211 229 246
205 222 246
202 220 239
207 225 242
204 222 236
203 222 237
203 222 240
202 220 233
206 225 241
205 224 240
201 220 232
201 220 234
204 222 241
202 220 246
208 227 247
204 223 248
205 224 248
205 225 253
206 226 254
207 226 253
203 223 250
207 226 253
201 220 247
205 223 250
211 228 254
214 232 254
216 232 255
217 233 255
217 233 255
217 233 255
217 233 255
142 162 201
62 98 157
61 97 154
62 98 160
61 97 150
61 97 149
62 98 154
62 97 155
61 97 147
61 96 148
61 97 153
61 96 153
61 97 151
62 97 150
60 95 139
61 97 150
60 96 140
61 96 145
61 97 150
60 95 141
61 96 145
61 97 144
61 96 143
62 97 149
61 97 148
60 95 136
62 97 149
61 96 151
62 98 157
61 97 152
62 98 159
62 97 154
61 96 148
61 96 145
62 98 149
61 97 148
61 97 147
60 95 141
61 96 149
61 96 143
61 96 139
62 98 157
61 96 145
61 97 152
62 97 144
61 96 142
60 95 143
61 97 148
61 96 144
61 96 143
61 95 141
61 96 146
60 95 142
61 95 145
61 96 147
61 96 145
59 93 130
60 94 135
62 98 156
62 97 153
61 96 147
60 95 144
60 96 146
61 96 145
61 96 148
61 96 153
62 98 157
60 95 147
62 97 152
60 95 147
60 94 144
62 97 152
60 95 143
60 94 143
61 96 146
60 94 140
62 96 152
60 95 143
59 93 143
60 94 140
60 94 142
59 93 143
60 95 146
60 95 147
58 92 139
59 93 144
58 91 131
59 92 138
58 91 137
59 92 140
58 92 137
58 90 132
59 92 140
56 87 128
56 87 132
57 88 132
53 83 122
57 89 138
55 85 137
136 153 181
217 233 255
217 233 255
217 233 255
126 127 101
108 106 70
95 95 65
94 94 63
89 90 61
97 99 70
80 85 64
102 104 73
80 85 62
87 91 67
95 97 68
103 105 74
98 102 72
111 115 82
100 103 72
106 107 76
124 124 84
120 122 84
125 126 86
111 113 77
122 123 81
131 131 84
124 125 85
135 134 90
134 135 91
131 131 85
134 133 88
143 142 93
137 137 87
134 132 84
147 144 92
146 143 89
144 142 88
148 146 94
148 146 92
149 147 93
145 142 89
149 146 91
154 151 96
154 150 91
150 148 92
148 146 87
161 157 95
155 152 91
156 153 93
160 157 89
160 156 97
159 155 92
161 157 93
160 157 94
164 160 93
163 159 101
165 160 93
163 159 92
164 160 94
170 165 97
165 160 92
166 162 99
170 165 97
169 164 96
172 166 97
167 163 94
170 165 91
166 161 97
174 167 100
172 166 96
174 168 99
171 165 97
173 168 101
172 166 91
171 165 95
172 165 99
173 166 94
170 164 94
170 165 93
171 165 94
170 165 95
172 166 95
174 166 97
170 163 95
172 166 95
172 166 98
173 167 98
172 166 97
175 168 100
175 168 99
174 167 97
173 167 96
173 166 94
172 166 94
169 164 95
174 168 98
171 165 96
170 164 93
171 164 97
172 166 93
170 165 97
169 164 93
167 161 91
168 162 95
171 165 93
169 163 96
169 163 92
171 165 95
170 164 96
173 166 95
166 160 91
168 162 96
160 155 85
168 163 93
167 161 91
169 163 95
169 163 95
167 161 91
169 163 93
164 158 90
166 160 93
162 156 87
162 156 90
170 164 96
168 161 97
169 162 95
169 162 92
161 156 87
162 157 90
166 159 87
162 156 87
165 159 90
169 162 92
168 161 96
167 160 93
158 152 87
165 159 89
157 151 84
159 153 90
158 153 81
154 149 86
157 152 81
155 149 84
161 154 84
162 157 90
166 159 90
161 154 91
167 160 93
161 156 85
161 155 86
158 152 84
215 232 250
216 233 254
217 233 254
214 231 248
215 232 250
216 233 254
216 232 252
216 233 255
215 232 250
215 231 249
214 231 249
216 232 253
216 232 252
215 231 249
214 231 248
214 231 246
213 230 246
212 229 241
212 230 242
212 229 246
213 230 246
214 231 249
214 231 248
214 230 249
214 231 246
215 232 250
212 229 242
215 232 250
214 231 249
216 233 255
214 230 246
213 230 246
213 230 248
213 230 247
215 231 250
215 231 250
212 229 242
213 230 248
213 229 244
215 231 252
213 230 246
214 231 249
213 230 248
214 231 249
211 228 244
213 230 245
213 229 248
215 232 252
215 231 250
210 227 244
212 229 246
213 230 249
213 230 249
213 230 245
212 229 249
209 226 244
214 230 252
212 229 246
213 230 249
207 223 244
211 227 246
212 229 245
210 226 245
212 228 248
210 226 246
210 226 245
208 225 242
210 227 242
212 229 245
210 227 242
213 230 249
210 227 245
211 228 246
211 228 244
214 231 253
213 230 248
212 228 244
212 229 245
212 229 248
211 228 242
214 231 253
213 230 244
214 231 250
209 227 244
209 226 241
213 230 248
213 230 249
214 231 253
212 229 248
213 230 245
214 231 249
214 231 250
214 231 249
214 231 248
211 229 244
211 229 245
213 230 245
215 232 252
213 230 248
212 230 244
213 230 246
215 231 252
212 229 244
211 228 244
210 227 242
213 230 248
211 229 246
211 229 244
214 231 252
210 228 242
214 231 249
212 230 248
211 229 246
213 230 248
212 230 249
206 224 239
213 230 250
209 226 242
211 228 245
206 224 243
203 221 240
202 220 236
202 220 240
209 226 246
209 226 244
205 223 239
203 221 238
198 216 238
202 220 238
207 225 244
203 221 240
208 225 242
202 220 239
204 223 244
200 219 241
206 224 243
173 194 231
204 224 252
206 225 252
204 223 250
208 226 253
206 225 251
201 219 246
192 211 239
215 232 255
216 232 255
217 233 255
217 233 255
217 233 255
217 233 255
96 123 170
62 97 154
61 96 154
62 98 159
62 98 157
61 97 151
62 97 148
61 96 153
62 97 154
61 97 152
61 96 148
61 97 151
62 97 149
61 96 143
60 96 145
62 97 147
61 97 151
61 96 151
60 95 139
61 96 147
61 96 143
61 97 149
61 96 152
61 96 153
60 95 141
61 96 142
60 95 149
60 96 143
62 97 147
60 95 135
61 97 152
61 96 148
61 96 141
61 97 147
61 96 147
60 96 145
60 95 137
63 99 162
60 95 144
61 96 147
61 97 147
62 98 152
61 96 142
60 95 141
62 97 154
62 97 149
61 96 143
62 97 149
62 98 152
61 96 143
63 98 158
61 96 151
60 95 145
61 96 152
61 95 142
61 96 147
61 96 144
61 96 143
60 95 144
59 93 134
60 94 145
60 95 142
60 95 145
60 95 146
61 96 142
60 95 140
61 95 148
59 94 145
62 98 152
61 95 146
60 94 134
61 95 145
59 94 134
61 96 147
61 95 149
58 91 132
61 95 145
60 95 143
59 92 135
60 95 140
60 94 142
58 91 126
59 91 133
59 93 144
59 92 140
60 94 140
59 93 140
59 93 145
58 91 132
58 90 132
59 92 142
58 90 137
55 87 124
57 88 131
56 87 132
56 87 135
57 89 136
55 84 125
53 82 125
83 105 142
215 231 254
217 233 255
192 205 221
96 95 63
95 94 63
104 104 71
96 97 67
86 86 59
89 93 68
85 89 64
81 84 58
83 87 64
95 98 70
97 100 72
93 97 68
88 93 67
94 97 67
99 102 71
109 111 75
110 111 74
104 106 72
114 115 76
115 117 79
113 116 77
119 120 81
129 129 83
136 134 86
135 134 87
125 126 80
133 132 86
138 137 88
128 128 77
140 139 82
142 140 89
138 137 87
148 145 88
147 144 90
148 146 89
154 151 94
153 150 88
146 143 88
154 151 96
162 157 99
154 151 92
156 152 88
159 155 97
157 153 86
148 146 92
158 156 94
161 156 93
165 161 94
163 158 92
161 157 97
161 157 92
166 161 98
164 159 96
167 162 96
165 160 97
164 160 96
168 163 97
165 161 95
173 167 101
170 164 98
169 163 95
170 164 100
171 166 101
171 165 95
171 166 95
169 164 100
169 164 95
174 168 95
171 165 94
171 166 97
168 163 91
169 164 89
171 166 93
175 169 103
173 167 95
172 166 90
170 164 96
171 164 99
175 169 101
173 167 99
169 163 93
171 166 99
171 166 93
174 168 101
169 164 87
171 165 97
172 165 97
176 169 98
172 166 98
172 166 97
172 165 95
168 162 90
169 163 95
166 160 86
170 165 97
175 168 102
171 165 96
172 165 93
169 164 94
173 165 92
168 163 92
170 163 93
171 164 91
168 162 94
173 167 98
164 159 87
171 165 95
170 163 88
168 163 91
165 160 90
164 160 91
167 161 92
167 161 94
163 157 87
167 160 88
169 162 93
162 156 88
160 155 85
162 156 90
171 164 90
166 160 86
166 159 90
164 158 94
165 159 90
164 159 90
172 165 96
151 146 84
162 155 89
165 158 92
160 155 84
164 158 91
165 158 89
162 156 86
165 158 90
162 156 92
164 158 91
158 152 87
163 157 93
163 157 85
162 156 90
156 151 84
156 151 83
155 149 84
158 154 83
155 149 82
157 152 87
162 158 88
216 232 252
215 232 252
216 232 252
217 233 255
216 232 250
215 232 249
216 232 250
217 233 255
217 233 254
214 230 244
215 231 249
215 231 249
215 232 249
217 233 254
210 228 236
213 230 244
215 231 249
214 231 246
215 232 250
214 230 244
213 230 244
213 230 244
214 231 246
213 230 245
214 231 246
212 228 244
214 231 248
212 229 242
212 229 243
216 232 252
214 231 248
211 228 241
215 231 249
215 231 249
213 229 244
214 231 246
213 229 246
213 230 246
214 230 245
214 231 246
213 230 245
215 232 249
214 231 250
213 230 248
213 230 248
212 228 244
214 231 249
213 230 248
213 230 246
212 228 245
212 228 241
211 227 245
211 228 242
211 227 248
214 231 250
210 227 246
211 227 248
211 227 248
208 224 242
212 228 249
211 227 246
207 223 242
211 227 248
213 230 250
209 225 244
210 226 248
216 232 253
209 226 246
205 221 238
207 223 241
211 228 246
212 228 248
211 227 246
212 229 245
215 231 250
213 230 248
211 228 246
211 228 241
213 229 248
210 227 241
214 231 250
214 230 250
210 227 241
213 229 246
213 230 250
216 232 254
211 228 241
214 231 252
214 231 250
214 231 248
210 227 236
211 229 244
212 229 244
213 229 245
213 230 248
212 229 246
213 230 248
211 228 241
213 230 246
210 228 241
211 228 241
215 231 249
213 230 246
214 231 248
214 231 249
214 231 252
212 229 246
212 229 241
213 230 246
213 230 248
215 232 253
214 231 252
211 229 241
213 230 246
211 228 243
209 227 243
209 226 240
210 227 245
210 227 248
202 220 236
200 218 235
208 225 241
203 221 234
199 217 239
208 226 244
204 222 238
206 224 240
205 223 240
201 219 243
203 221 236
202 220 236
200 218 225
206 224 245
208 226 248
208 226 248
210 228 250
152 173 211
170 190 224
206 225 252
203 222 250
201 220 246
205 223 250
204 222 248
202 220 246
204 222 248
216 233 255
217 233 255
218 234 255
218 233 255
204 221 246
61 97 154
62 98 160
61 96 150
60 95 142
61 97 156
62 97 156
61 96 147
62 98 151
61 97 152
62 97 152
61 97 151
60 95 140
61 96 147
62 97 155
61 97 152
62 97 151
61 97 145
60 94 137
61 96 147
61 96 144
61 96 144
61 97 149
61 96 148
62 97 156
61 96 143
61 96 144
62 97 152
62 98 156
62 97 152
61 96 141
62 97 144
60 95 150
60 95 139
61 96 144
61 96 144
59 93 139
60 95 142
61 96 141
60 95 135
62 97 148
61 96 136
60 95 137
61 96 142
61 96 148
61 96 145
61 96 142
62 97 150
60 94 140
60 94 136
60 94 141
61 96 141
61 96 147
60 95 143
60 95 146
60 95 134
60 95 141
61 96 149
62 97 151
61 96 146
60 95 140
60 95 148
61 96 147
60 95 142
60 94 130
59 93 130
60 95 145
60 95 133
62 96 147
60 95 148
60 95 142
61 96 151
60 95 141
60 95 142
61 95 145
60 95 145
60 94 144
59 93 137
59 92 133
60 95 145
60 93 139
61 96 152
59 92 138
59 93 141
60 94 147
60 94 145
58 92 137
59 92 140
59 92 143
59 93 139
60 94 140
57 89 127
58 90 136
58 90 134
57 89 125
55 86 129
56 87 128
57 88 132
54 83 132
53 83 120
52 79 119
203 219 244
218 234 255
172 181 184
95 95 59
91 93 61
87 86 60
81 83 60
87 89 61
81 84 61
70 74 57
79 83 59
69 76 59
74 79 57
90 94 68
102 105 74
118 120 82
96 99 68
113 115 80
94 98 72
105 107 73
120 121 79
108 110 74
111 113 77
127 127 86
122 123 84
123 123 79
129 128 81
138 136 86
127 127 79
130 130 80
132 132 86
135 133 82
141 140 90
144 142 89
147 146 91
147 145 90
157 153 93
144 142 88
149 146 88
146 144 90
149 145 90
150 148 85
149 147 93
140 138 82
157 154 95
160 156 93
159 154 92
154 151 91
167 162 97
160 156 91
157 154 93
162 157 94
160 155 95
161 157 91
166 160 95
163 159 93
165 160 98
169 164 95
168 163 99
170 164 98
170 165 101
167 162 96
166 161 94
170 164 97
170 165 95
169 163 97
173 167 101
169 164 93
167 162 94
166 161 91
171 165 94
171 164 90
171 165 96
169 164 94
164 159 91
170 164 96
172 166 93
170 165 97
174 169 101
172 166 97
172 165 93
171 165 98
174 168 103
169 164 96
174 167 94
169 162 93
171 165 97
171 166 95
172 166 95
168 163 85
171 165 96
168 162 90
175 168 95
170 164 97
168 162 90
174 167 98
170 164 94
171 165 90
172 165 97
169 163 90
168 162 89
167 161 90
171 165 91
175 167 97
162 156 85
166 160 94
167 160 90
167 161 95
168 162 93
161 156 86
169 162 91
169 163 90
167 161 90
162 156 90
167 161 91
170 164 99
170 163 96
169 163 93
163 157 89
158 153 84
169 162 91
165 159 92
166 160 87
165 159 92
168 162 91
166 159 88
167 160 90
167 161 93
164 158 91
159 154 84
159 153 84
164 158 90
163 156 89
164 158 88
161 155 87
167 161 88
159 154 78
161 154 84
162 156 90
161 156 81
159 153 87
160 155 84
162 156 88
160 155 87
156 151 84
152 146 81
165 159 91
157 151 87
156 150 86
160 154 87
217 233 255
217 233 253
216 233 253
214 231 245
215 232 249
217 233 253
215 232 252
215 231 249
217 233 254
215 232 250
217 233 255
214 230 245
216 232 249
214 231 248
213 230 242
214 230 245
211 228 237
211 228 239
215 232 250
213 230 244
214 230 247
213 230 241
214 231 245
216 232 253
214 230 247
214 230 245
214 231 247
213 230 245
215 231 248
213 229 242
216 232 249
214 231 246
214 230 246
215 231 249
214 231 245
215 232 250
212 229 242
214 231 246
216 232 252
214 231 248
214 231 248
212 228 241
215 231 249
213 229 242
216 232 250
212 229 242
214 230 250
214 230 246
214 230 248
215 232 249
214 230 250
213 230 248
212 229 246
209 225 244
213 229 246
216 232 250
210 226 245
209 225 245
212 228 249
214 230 252
207 223 244
212 228 248
207 223 244
206 222 242
214 230 252
213 228 250
210 226 242
211 228 245
211 227 248
205 221 238
213 229 249
209 226 244
213 230 250
212 228 246
211 227 246
214 231 252
213 230 248
214 231 250
216 232 252
214 230 253
214 231 250
210 227 240
211 227 244
210 227 246
213 230 245
215 232 252
212 229 245
215 231 253
214 231 250
213 230 245
213 230 245
215 231 249
214 231 248
215 231 252
213 230 248
214 231 249
211 228 241
214 231 250
215 232 252
214 231 248
213 230 246
213 230 242
212 229 244
213 230 245
215 232 252
211 228 246
215 231 252
213 230 245
213 230 246
214 231 249
215 232 252
213 230 244
214 231 248
209 227 243
207 224 237
212 229 248
211 229 246
209 226 246
205 222 240
205 222 239
206 223 240
204 221 236
202 219 236
204 221 245
207 224 236
207 224 240
209 226 244
203 220 242
204 222 239
204 222 237
207 224 244
195 214 233
202 220 245
201 219 238
207 225 246
202 220 243
193 211 238
76 109 174
193 212 241
206 224 250
209 227 252
205 223 250
204 222 247
199 217 243
205 222 248
214 231 254
217 233 255
218 234 255
218 234 255
178 196 227
61 97 156
62 97 157
60 96 148
62 98 161
61 96 143
61 96 151
62 97 145
62 98 155
62 96 144
61 96 145
61 97 148
62 97 155
61 96 147
61 96 141
62 97 150
62 98 155
60 95 142
60 95 150
60 96 145
61 96 144
60 95 141
60 94 137
60 95 136
60 95 144
61 96 142
61 96 142
61 96 139
60 94 143
61 96 144
62 97 148
61 97 154
60 96 147
60 95 151
63 98 152
61 96 142
59 94 139
61 95 142
60 95 136
61 96 140
60 95 137
60 95 144
61 95 141
61 96 144
61 96 142
62 97 150
61 96 142
60 96 143
62 98 156
60 95 141
61 96 142
60 95 140
60 94 134
60 95 144
60 95 133
61 96 145
61 95 144
60 96 147
60 95 143
60 95 136
61 96 149
61 96 152
60 95 143
60 95 147
61 96 151
61 96 146
60 95 142
60 95 139
60 94 141
60 94 139
61 95 148
59 93 143
61 95 141
60 94 143
61 95 142
61 96 150
60 94 141
61 95 149
59 94 139
59 93 145
60 95 139
59 92 142
59 92 134
59 92 142
60 94 139
58 92 138
59 92 143
59 92 125
59 92 134
57 89 132
57 89 129
58 91 139
57 88 125
57 89 124
58 89 131
57 88 129
56 87 124
56 87 137
54 82 120
51 79 109
53 82 127
181 196 220
218 234 255
141 147 142
97 95 59
84 83 56
84 84 56
89 90 61
84 86 60
66 70 50
85 88 62
91 93 64
82 86 64
88 91 65
89 91 63
77 82 60
91 95 68
90 95 68
110 112 76
107 108 73
100 103 73
120 121 81
121 122 83
115 116 76
121 122 81
118 120 80
125 125 79
135 134 87
135 134 79
137 136 90
139 137 87
133 131 83
136 134 84
128 128 79
144 142 89
141 139 87
142 140 90
145 143 87
143 142 87
147 144 90
152 149 90
155 151 89
154 150 92
155 152 93
152 149 90
155 151 91
154 151 88
156 152 93
151 148 90
161 157 94
158 155 94
160 156 90
167 161 95
161 157 91
162 158 94
168 163 95
165 160 92
166 161 94
169 164 96
170 164 95
161 158 92
167 162 93
164 159 91
173 166 92
169 164 97
173 166 96
172 166 96
169 163 93
166 161 92
168 163 94
172 166 94
170 164 93
170 164 96
171 165 93
172 166 93
166 162 93
175 168 98
171 164 97
173 167 93
173 166 98
170 165 96
176 170 103
168 162 90
174 168 98
171 165 93
168 162 90
167 162 89
170 165 88
171 165 95
172 166 93
168 162 89
170 165 96
172 166 91
170 163 92
172 166 89
170 164 95
171 165 93
165 160 86
173 167 93
168 163 90
172 165 95
172 165 93
170 164 94
174 168 100
165 161 85
171 164 92
167 161 89
168 163 94
166 160 90
172 166 93
167 161 93
164 158 87
171 164 93
167 162 90
166 161 87
166 160 88
167 161 87
160 155 86
167 160 89
160 155 87
163 158 89
169 162 87
161 155 90
163 157 87
161 155 84
168 162 91
162 156 85
167 161 88
165 159 93
161 156 83
163 158 86
166 160 87
159 154 84
168 162 95
160 153 84
162 156 90
163 157 90
155 150 82
160 153 84
160 153 86
159 153 86
168 161 90
162 156 84
146 142 76
154 148 75
158 152 84
165 160 89
158 151 88
149 143 82
159 153 83
152 146 75
218 234 255
217 233 254
216 232 250
216 233 252
216 232 250
216 232 250
218 233 254
216 232 254
216 232 254
217 233 253
216 233 252
216 232 249
218 233 255
216 232 250
217 233 253
214 230 245
215 231 248
214 231 245
213 230 241
216 232 250
214 230 246
215 231 248
212 229 242
210 227 241
214 230 246
213 229 246
213 230 240
214 230 245
214 230 245
215 232 248
216 232 250
214 230 246
216 232 252
215 232 249
216 231 250
217 233 253
214 230 246
214 231 245
214 230 246
215 231 246
216 232 250
215 231 249
214 231 248
214 230 248
215 232 249
210 226 240
213 230 246
213 230 246
213 229 248
215 231 250
214 231 248
215 231 250
212 229 241
214 230 250
209 225 243
211 228 246
210 226 246
209 225 244
213 229 248
208 224 244
211 227 249
210 226 247
207 223 242
212 228 250
212 228 249
209 225 245
212 228 248
215 231 253
209 225 244
207 223 241
211 227 244
213 229 250
217 233 254
213 229 248
213 229 248
214 230 249
214 230 250
211 227 244
214 230 250
213 229 248
213 230 244
212 229 245
215 231 249
213 229 245
210 227 242
215 232 249
215 232 252
214 230 246
214 230 246
215 231 250
213 230 246
213 230 248
213 230 245
214 231 246
212 228 245
215 232 249
214 231 246
214 231 246
213 230 246
214 231 248
213 230 246
216 232 252
213 230 244
214 231 248
216 232 253
215 232 250
215 232 250
215 232 252
214 230 248
215 232 250
213 230 246
212 229 243
213 230 248
210 227 242
207 224 243
207 224 244
212 229 246
207 224 242
210 226 247
206 222 242
207 225 241
206 223 240
206 223 239
208 225 242
209 226 243
203 221 236
205 222 237
203 220 237
208 225 246
209 227 243
204 221 237
205 223 240
208 225 244
206 223 243
209 226 243
202 220 240
206 224 248
116 140 187
110 135 187
204 222 248
204 222 247
209 227 252
204 222 248
203 221 248
206 223 248
212 228 251
217 233 255
218 234 255
218 234 255
146 166 199
62 97 157
60 96 148
61 96 151
62 97 153
62 98 158
61 97 152
61 96 140
62 97 152
61 96 150
61 97 153
61 97 150
61 96 142
61 96 147
61 96 143
60 95 137
61 96 144
61 96 148
62 97 148
61 96 145
62 98 156
61 96 144
62 98 152
60 95 143
61 96 145
61 96 143
62 97 149
60 95 142
60 95 140
62 97 151
60 95 139
62 97 152
60 96 142
60 95 142
60 95 135
61 96 148
61 96 142
61 96 141
60 94 134
61 96 147
62 97 154
60 95 139
61 96 148
61 95 136
62 97 140
61 96 144
61 95 142
61 96 142
61 95 137
62 98 162
60 95 137
60 95 143
61 96 149
60 95 142
61 96 142
62 97 153
61 97 150
60 95 139
61 96 144
61 96 142
60 95 136
59 94 134
61 96 143
62 97 150
62 97 150
61 96 148
61 96 147
61 96 143
58 91 128
60 95 140
62 96 144
60 94 142
61 95 141
61 95 142
60 94 144
60 94 138
59 94 135
58 93 136
60 94 137
59 93 136
61 96 143
61 95 148
59 93 143
59 94 147
59 93 140
60 93 141
58 91 132
59 93 133
60 93 139
59 93 141
56 87 115
60 95 146
58 90 140
57 87 128
57 89 136
57 87 135
56 87 130
57 87 131
56 86 128
51 79 117
52 80 126
132 148 167
218 232 252
110 110 79
86 85 56
79 80 53
90 91 62
74 77 55
76 80 59
63 68 50
82 85 61
82 86 62
71 76 57
86 89 63
85 91 66
94 99 71
85 90 63
97 100 68
93 98 69
92 97 67
97 99 63
102 104 70
110 113 75
106 108 74
119 120 77
121 122 80
135 134 82
126 125 80
127 126 80
126 126 81
142 139 91
127 126 81
142 140 86
145 142 85
137 136 82
137 135 82
145 143 87
141 139 85
150 147 91
145 143 87
155 151 93
154 150 91
151 148 83
155 151 89
155 151 92
154 152 88
161 156 88
158 155 94
160 156 92
156 153 92
154 151 89
151 148 89
163 159 93
165 160 93
160 156 96
152 149 87
166 160 91
169 163 95
167 161 95
168 162 91
168 163 96
167 162 91
165 160 95
165 160 93
172 166 96
174 168 97
166 161 89
170 164 95
169 163 97
171 165 93
172 166 96
164 159 87
174 167 96
171 165 94
172 166 96
174 168 93
174 168 97
173 166 95
175 168 97
173 166 96
170 164 91
171 165 94
169 163 92
169 163 93
172 167 93
173 167 93
172 166 94
173 166 95
172 166 95
173 166 93
169 163 89
174 167 93
174 166 93
166 161 88
167 161 85
168 162 94
170 165 96
173 167 94
173 167 96
170 164 94
171 165 97
169 163 90
167 161 91
166 159 81
172 166 92
169 163 91
168 162 89
171 164 96
165 158 87
166 160 90
163 158 87
169 162 90
171 165 92
173 166 95
164 158 86
168 162 90
169 163 95
160 154 89
166 160 87
168 162 91
167 161 90
164 158 86
163 158 84
170 163 93
164 158 89
160 153 86
166 160 87
161 155 84
166 160 94
170 163 97
161 156 87
165 160 87
156 152 84
154 149 84
164 158 90
161 155 84
164 158 85
168 162 89
163 157 86
161 156 84
163 156 86
164 158 87
158 152 80
166 160 87
161 154 87
160 153 81
161 155 84
159 153 83
156 150 86
157 152 85
154 149 84
216 232 252
215 231 250
217 232 252
218 233 253
217 233 252
216 232 250
217 233 253
217 233 253
215 231 251
218 233 253
218 234 254
218 234 255
217 232 252
217 233 252
216 232 249
216 232 250
214 230 242
215 231 248
215 231 245
215 232 248
215 231 246
215 231 245
216 232 248
215 231 244
212 229 242
216 232 249
213 229 240
215 232 248
216 232 248
216 232 250
212 228 238
214 231 245
214 231 244
214 230 244
214 230 245
215 231 248
216 232 249
215 231 246
217 233 253
216 232 249
214 231 244
215 232 248
216 232 249
215 231 245
215 231 246
214 230 246
215 231 248
215 231 249
215 231 248
217 233 252
213 229 245
212 228 248
214 230 248
213 228 248
214 231 250
214 230 250
209 226 244
209 225 245
213 229 250
211 227 248
208 224 244
209 225 246
212 228 249
205 220 240
211 226 247
207 223 244
212 228 250
213 229 251
210 226 246
209 225 245
209 224 244
214 230 250
214 230 249
214 230 248
216 232 253
214 230 248
215 231 250
217 233 253
217 233 252
212 229 242
215 231 249
215 231 248
215 231 249
216 232 250
215 231 246
213 229 248
213 229 244
213 229 244
214 231 248
214 230 244
214 231 246
214 230 244
212 228 241
211 228 240
216 233 253
215 231 246
214 230 249
213 230 246
214 230 244
216 232 250
213 230 244
214 231 249
213 229 242
216 233 253
214 230 244
214 231 248
215 231 249
214 230 248
215 231 248
215 232 250
212 228 238
213 230 244
210 226 244
213 230 248
212 228 246
211 228 243
213 230 248
209 226 243
203 219 238
206 223 243
206 223 238
206 223 242
205 222 239
207 224 242
210 226 247
207 224 245
205 223 243
202 219 235
206 224 236
207 225 238
199 217 235
205 222 238
207 224 240
208 225 244
209 226 249
210 226 248
201 218 243
160 179 211
80 110 173
166 186 222
208 226 252
204 222 247
205 222 248
202 220 246
201 218 244
205 221 245
218 234 255
218 234 255
219 234 255
114 138 174
61 97 156
60 95 145
62 97 151
62 97 156
61 96 144
62 97 152
61 96 148
60 95 141
62 97 151
62 97 150
62 97 152
62 97 150
60 95 147
60 95 148
60 95 134
60 95 144
61 96 150
61 96 151
61 96 148
61 96 148
61 96 143
60 94 131
60 95 145
60 95 139
60 95 139
62 97 150
61 96 147
61 96 148
61 96 151
61 95 144
60 95 139
60 95 140
60 95 139
60 94 133
60 95 136
61 96 149
62 97 151
62 97 145
61 96 141
62 97 150
60 95 133
63 98 155
60 94 133
61 96 140
60 95 141
60 94 130
60 95 143
60 95 139
62 97 149
60 94 136
60 94 144
60 95 138
61 96 149
60 95 140
61 97 147
60 94 139
61 96 148
61 96 142
59 94 136
59 93 132
60 94 134
60 94 142
61 95 147
61 96 141
61 96 148
61 96 141
61 96 141
60 95 142
60 95 143
61 95 150
61 95 140
60 94 138
59 93 139
60 93 137
61 95 141
61 96 152
60 94 138
60 94 141
59 92 136
59 93 139
60 93 144
61 95 146
59 94 139
59 93 132
58 90 127
60 94 143
58 92 140
57 89 125
58 90 134
58 90 124
58 91 137
58 91 131
58 89 129
57 88 131
56 87 125
55 86 125
55 85 134
55 85 130
52 80 113
51 79 113
99 117 141
199 212 227
97 96 56
82 82 55
83 84 57
73 74 52
74 77 56
73 77 54
81 84 59
64 69 53
75 79 57
73 78 58
88 93 66
71 77 55
81 86 61
85 89 60
100 103 71
103 106 73
101 103 68
102 104 68
113 114 72
111 114 77
116 117 69
110 111 73
111 113 76
119 121 77
127 125 78
135 132 82
132 131 83
127 127 82
131 131 84
141 139 86
135 134 79
141 139 86
147 144 89
135 135 86
148 146 89
151 147 92
153 150 88
143 142 85
152 149 84
150 147 89
157 153 88
153 149 89
154 150 85
153 150 88
161 157 94
157 153 90
158 154 90
158 154 88
166 161 91
160 156 93
166 160 92
166 160 93
159 155 92
161 156 89
169 162 92
164 159 87
171 165 98
166 161 96
162 157 92
170 165 91
167 162 96
166 161 90
168 163 94
173 167 95
169 163 93
169 163 89
172 166 96
172 165 94
173 167 96
168 163 87
173 167 93
170 164 89
169 163 93
169 164 94
170 164 92
169 163 90
171 165 91
170 164 93
170 165 92
171 165 93
172 166 95
174 168 94
177 169 102
174 167 95
168 162 85
171 164 91
178 170 101
170 164 93
173 166 97
170 164 95
169 162 80
169 163 87
169 163 91
171 165 92
166 160 85
171 165 91
171 164 93
168 163 89
170 163 88
172 166 96
174 167 97
170 164 93
168 162 87
160 155 84
168 162 86
173 166 95
167 160 84
164 159 87
173 166 98
170 163 93
169 163 90
159 155 83
166 160 87
168 161 92
164 159 86
171 164 93
168 162 91
166 159 93
171 164 95
162 156 82
156 151 77
164 157 87
168 162 90
164 157 90
160 154 90
166 159 90
154 150 80
162 155 89
164 157 89
160 154 90
162 158 88
164 158 88
162 156 87
162 156 85
157 151 82
158 152 83
155 150 83
162 156 86
161 155 83
162 156 83
159 153 80
158 152 84
157 152 85
151 145 81
154 149 77
158 152 84
151 145 80
154 148 77
218 234 255
218 233 254
218 234 254
218 233 253
217 233 250
218 234 254
218 233 254
218 233 253
218 234 254
219 234 254
218 233 253
218 234 254
218 234 255
218 233 253
216 232 246
217 233 250
218 233 253
215 231 248
213 229 242
215 231 247
213 229 244
215 231 245
215 231 246
215 231 246
214 230 245
217 232 249
216 232 250
216 232 248
215 231 246
216 232 245
215 231 244
216 232 249
218 233 253
217 233 250
216 232 248
216 232 248
215 231 245
216 232 249
216 232 248
214 230 242
217 232 249
213 230 240
217 232 250
217 233 250
214 230 245
215 231 245
213 229 242
217 233 250
214 230 246
217 233 252
217 233 252
216 232 252
215 231 248
213 228 245
211 227 246
209 225 245
212 228 249
214 230 251
213 229 250
210 226 247
210 226 246
213 229 250
216 232 254
212 227 248
213 229 250
210 225 246
212 227 249
208 224 245
213 229 249
210 225 246
211 227 247
211 227 246
213 229 248
213 230 241
215 232 250
211 227 244
213 228 240
215 230 249
215 231 246
213 230 245
216 232 250
215 231 246
215 231 248
212 229 245
214 230 244
215 231 248
216 232 252
217 233 253
214 230 245
213 230 245
214 230 246
215 231 248
212 229 241
209 226 234
215 232 249
212 228 238
214 231 245
214 230 244
216 232 249
215 231 248
214 231 245
213 230 244
215 232 248
215 231 246
215 231 245
214 230 242
214 231 245
216 232 249
215 231 246
213 230 241
215 231 248
215 232 248
209 225 241
207 224 240
213 229 250
210 227 238
214 230 250
211 227 248
204 221 237
204 221 236
210 226 243
205 222 234
207 224 241
209 225 244
204 221 238
201 218 229
210 226 247
208 225 242
200 217 233
209 226 240
209 226 242
208 225 242
205 222 243
196 213 233
213 229 251
209 226 248
208 225 248
183 201 228
64 98 163
100 126 178
203 221 248
204 221 247
204 221 244
206 223 247
198 215 240
203 219 243
213 229 252
219 234 255
219 234 255
73 104 155
62 97 156
61 96 143
61 96 148
61 96 150
62 97 149
61 96 143
60 95 143
61 97 155
60 95 136
62 97 149
62 97 148
60 96 141
60 95 133
61 96 143
60 95 139
61 96 148
61 96 150
61 96 145
58 93 133
59 94 127
61 97 156
59 94 129
60 95 140
60 95 141
60 95 134
61 96 147
61 96 141
61 96 145
62 98 152
61 96 147
60 95 143
61 96 145
61 95 142
60 95 142
61 96 148
61 96 141
60 95 141
60 96 143
62 98 153
61 96 144
60 95 141
61 96 141
60 95 141
60 95 143
61 96 140
61 96 137
60 96 150
61 96 139
61 96 147
61 95 140
61 95 147
61 96 147
60 94 135
60 95 143
61 96 145
60 95 140
61 96 143
61 96 144
59 93 128
61 95 137
60 95 135
60 95 135
61 96 146
62 97 147
60 94 134
59 93 134
60 95 137
61 96 145
60 94 139
60 94 140
60 94 143
59 94 137
59 93 138
59 93 138
60 95 145
60 95 144
60 94 145
59 93 139
57 90 127
61 94 135
59 93 139
60 94 145
58 91 137
59 93 134
60 94 144
58 91 129
59 93 139
56 87 126
57 89 125
57 89 129
56 89 132
57 90 130
58 90 132
57 88 123
58 90 136
55 85 118
56 87 127
54 84 122
54 81 120
53 81 118
60 82 113
180 189 196
91 88 56
79 78 50
83 83 54
62 65 46
66 70 50
74 77 55
68 72 51
69 73 52
75 82 61
64 71 53
79 83 61
80 85 58
95 97 67
94 98 68
87 91 65
102 105 75
115 116 75
110 112 74
91 95 64
112 113 72
113 114 73
110 111 75
105 108 72
115 116 73
118 120 75
118 119 76
131 130 83
135 134 80
127 127 78
128 129 81
140 138 80
138 138 84
144 142 88
133 132 85
140 138 80
145 142 81
146 144 84
140 138 81
151 147 90
151 148 88
147 143 85
157 152 89
157 152 87
147 144 83
154 151 89
157 153 84
159 154 88
154 152 89
166 162 96
159 155 90
162 158 93
162 158 90
162 158 93
166 161 89
164 160 89
161 156 87
163 157 87
163 158 88
159 154 88
168 162 89
163 159 89
169 164 99
167 162 93
167 161 86
169 164 92
166 161 89
175 167 95
172 166 95
171 165 94
172 165 93
174 167 92
174 167 91
174 168 98
172 166 94
170 164 90
173 166 94
165 160 88
174 167 94
173 167 93
165 159 86
170 164 91
172 166 91
172 165 93
170 163 91
170 164 94
171 165 90
169 163 85
171 164 90
174 167 93
168 162 86
172 166 94
170 164 94
172 165 88
166 160 91
169 162 90
170 163 91
171 164 94
171 165 97
169 163 88
172 166 93
170 163 90
166 160 85
170 164 93
165 159 87
166 160 85
167 162 89
167 161 90
167 161 90
169 163 91
167 161 83
165 159 85
175 168 101
166 159 87
169 162 90
166 159 90
165 158 85
167 160 85
170 163 90
162 158 87
166 161 89
167 160 95
164 158 84
162 156 83
163 157 86
159 154 83
158 153 84
163 157 88
158 154 78
159 154 81
166 160 88
158 152 83
163 157 85
161 155 86
158 152 82
160 154 83
169 162 89
154 150 75
160 154 81
160 154 83
168 162 87
160 154 80
160 154 84
161 156 87
158 152 87
159 153 85
152 147 83
160 153 85
151 145 75
218 233 253
218 234 254
218 233 253
218 234 254
218 234 254
219 234 254
217 232 252
219 234 255
217 233 249
218 234 254
218 233 253
219 234 255
219 234 255
218 234 254
219 234 254
218 233 253
217 233 250
216 232 248
217 233 252
215 231 246
213 229 234
216 232 246
215 230 244
215 231 245
212 229 236
217 233 252
217 233 250
217 233 250
216 232 246
217 233 250
216 232 246
216 232 246
215 231 244
216 231 245
216 232 248
214 230 245
217 232 250
214 230 240
217 233 249
216 232 246
215 231 244
218 233 252
217 232 248
214 230 241
218 233 252
217 232 249
216 232 249
216 232 248
216 231 250
216 232 252
216 231 248
213 229 248
214 229 248
212 228 250
209 225 244
217 232 254
211 227 248
214 230 251
210 226 247
209 225 246
209 225 246
210 226 246
214 230 250
211 227 248
210 226 246
210 226 248
210 226 247
210 226 246
210 226 247
213 228 248
213 229 250
209 224 246
215 231 250
215 231 250
216 231 249
212 228 242
213 229 246
211 227 238
215 231 248
213 229 244
216 232 249
215 231 245
218 234 254
218 233 253
215 231 248
214 231 244
215 231 248
216 232 248
217 233 252
216 232 250
213 229 242
213 230 244
218 234 254
216 232 249
216 232 248
215 231 245
216 232 249
215 231 246
215 232 246
215 231 245
213 229 242
215 231 246
216 232 249
213 229 241
215 231 246
214 230 242
214 231 245
216 232 250
214 230 246
213 229 242
214 231 245
213 229 242
212 229 244
214 230 248
211 227 243
211 227 246
212 228 242
208 225 239
213 229 246
204 221 237
206 223 236
201 219 231
203 219 240
210 226 241
212 229 244
206 222 238
210 227 246
211 227 246
206 222 245
209 226 243
208 225 238
209 226 245
203 219 238
205 222 243
212 228 250
208 224 245
210 227 248
197 214 239
87 116 177
76 108 171
160 180 217
211 228 252
204 221 245
204 221 246
205 221 245
204 221 246
205 221 244
219 234 255
211 226 249
61 97 157
60 95 147
61 97 153
63 98 154
61 96 149
62 97 147
61 97 147
62 97 149
59 94 137
62 97 156
61 96 143
62 97 145
62 98 156
61 96 144
61 96 151
61 96 150
60 95 144
61 96 135
60 95 140
61 97 150
61 96 145
61 96 151
60 95 141
61 96 149
61 96 140
60 95 137
61 97 148
61 96 141
61 96 145
59 94 135
61 96 145
61 97 147
61 96 141
60 95 139
61 95 142
61 96 145
60 95 139
61 96 148
60 95 140
61 96 143
60 95 139
61 96 145
60 95 137
60 95 140
60 95 139
62 97 151
61 96 144
61 96 147
60 94 135
60 95 137
59 94 131
61 96 142
60 95 140
60 95 141
60 95 145
61 96 145
59 94 129
59 94 136
61 97 148
60 95 145
61 97 148
61 96 141
61 95 141
60 94 143
60 95 142
60 94 135
60 94 132
60 95 141
58 92 136
60 94 139
61 96 144
60 94 135
60 95 139
59 93 132
60 94 140
60 94 142
59 93 141
60 95 147
61 95 147
58 91 131
59 93 137
60 94 142
57 91 141
59 93 134
59 93 128
59 93 139
59 91 141
58 92 134
58 90 123
60 93 141
57 90 125
58 91 131
58 90 133
57 89 132
58 89 128
59 90 131
55 86 126
57 88 128
55 85 125
52 80 119
53 82 119
47 72 101
138 145 143
86 84 54
86 85 55
68 69 48
61 65 48
50 55 42
77 81 58
66 71 53
62 67 51
67 73 54
65 69 49
73 78 57
83 88 60
79 82 56
89 93 64
89 93 65
109 111 75
95 98 66
90 92 61
107 109 71
112 114 76
113 114 69
112 113 67
112 114 70
112 113 74
119 120 72
127 126 78
129 129 82
136 134 82
131 131 78
120 121 73
139 138 87
129 129 79
123 123 74
143 141 87
150 147 86
136 135 80
151 148 90
145 143 87
144 142 80
143 141 76
150 145 82
155 151 89
156 152 92
156 152 89
151 148 84
155 151 90
159 156 90
157 153 85
157 154 91
158 153 89
156 153 95
165 160 88
162 158 88
165 159 90
159 155 90
165 159 89
163 159 86
162 158 87
160 156 89
168 162 89
169 163 94
165 160 94
168 163 92
172 165 94
164 160 86
169 163 87
158 155 81
166 161 90
173 167 97
168 163 91
169 162 93
171 165 96
174 167 95
174 167 95
169 162 92
171 165 91
169 163 91
173 167 91
170 164 90
170 164 89
172 166 94
172 165 94
169 163 90
172 165 92
170 164 92
173 166 93
177 168 95
171 163 88
172 166 93
168 163 88
168 162 91
169 162 88
174 167 92
171 164 88
173 166 96
167 161 90
168 162 86
171 163 90
166 160 86
166 159 88
170 163 88
168 162 89
174 166 94
166 159 87
164 158 87
171 165 92
166 161 88
164 158 91
168 162 92
168 161 91
172 165 95
158 153 80
165 159 87
174 166 95
166 160 87
170 163 90
166 160 84
164 157 90
164 158 82
165 159 84
156 151 80
165 158 89
161 154 83
164 158 82
164 158 83
169 161 87
162 155 88
165 159 87
169 162 88
162 156 85
160 155 87
163 157 81
156 150 83
162 156 83
161 155 87
159 153 85
163 156 87
164 158 83
153 147 80
156 151 80
158 152 88
161 155 85
159 153 80
155 149 82
158 152 77
156 150 81
161 155 83
158 152 83
219 234 254
219 234 255
219 235 255
219 234 255
219 234 255
216 231 252
219 234 254
218 234 253
219 234 254
219 234 255
219 234 255
218 234 252
219 234 254
218 233 250
219 234 255
219 234 255
219 234 255
218 233 252
218 233 250
217 233 250
218 234 252
214 230 246
218 233 252
215 231 241
216 232 249
215 230 244
216 232 249
216 232 245
215 231 246
217 232 251
217 232 249
217 233 249
216 231 247
217 232 248
216 232 246
217 233 249
217 233 249
217 232 248
217 233 249
216 232 245
216 232 245
217 233 249
217 232 249
214 230 242
217 232 249
217 233 249
215 231 246
215 231 245
215 230 250
212 228 246
217 232 250
214 230 248
209 225 245
212 227 248
212 227 248
212 227 250
212 227 247
214 229 252
210 226 247
208 224 243
213 228 249
213 228 248
213 228 250
212 228 248
213 228 249
211 226 246
213 229 250
213 228 249
213 228 248
213 228 248
210 226 246
211 227 248
212 228 248
211 227 246
215 230 249
216 231 250
215 231 245
214 230 244
215 230 245
215 231 245
215 231 246
215 231 244
217 232 252
217 233 249
216 231 248
216 231 246
214 230 242
216 232 249
216 232 246
216 232 249
215 231 242
215 231 242
216 232 249
217 232 249
216 232 248
216 232 246
217 233 250
217 232 249
216 232 246
215 231 248
217 232 252
216 232 249
215 230 246
215 231 244
215 231 248
214 230 241
215 231 244
217 232 249
214 231 242
215 231 244
216 232 250
212 228 244
212 228 246
211 227 244
213 229 245
210 226 243
202 218 230
210 226 244
211 227 244
210 226 241
202 218 235
210 226 242
206 222 235
205 221 239
203 220 228
210 226 244
207 224 244
207 223 240
206 223 240
202 219 235
213 229 245
206 222 242
209 225 242
212 228 246
206 222 245
211 227 249
210 226 247
206 223 245
109 134 181
74 105 165
123 146 193
207 224 247
213 229 251
205 221 246
206 222 244
201 218 242
202 218 240
219 234 255
194 210 236
61 95 145
62 97 152
61 97 152
60 94 137
61 96 148
61 96 148
61 96 144
61 96 143
61 96 151
61 97 148
59 94 136
61 97 148
60 95 143
62 97 152
61 96 144
62 97 154
59 94 136
61 97 153
61 96 147
60 95 140
60 95 142
60 95 141
60 95 137
59 93 139
61 96 145
61 96 143
60 95 141
60 95 136
61 96 147
59 93 130
59 94 131
60 95 133
59 93 137
60 95 144
61 96 141
58 93 135
59 94 140
60 95 141
60 95 139
60 95 144
60 94 140
60 95 136
60 94 127
61 96 148
61 97 150
59 94 131
60 95 133
61 96 144
61 97 148
59 94 135
59 94 138
59 94 137
61 96 145
61 95 136
60 95 144
60 94 141
61 96 136
60 95 139
60 95 139
60 95 139
59 93 135
60 95 137
60 95 137
59 94 140
61 96 143
58 92 128
61 96 147
59 93 130
60 95 144
61 96 149
60 94 138
60 94 142
61 96 142
60 94 140
59 93 144
60 94 138
57 90 124
61 95 143
60 94 138
58 92 131
59 93 133
59 93 147
59 92 136
57 90 130
59 91 133
57 91 135
59 92 141
59 91 134
58 91 135
57 90 128
58 91 130
57 90 129
57 88 129
57 89 124
57 89 129
57 90 131
59 91 137
56 85 114
55 85 119
52 81 110
52 79 112
48 74 102
91 93 79
87 87 56
66 69 46
79 79 49
56 59 40
61 65 46
65 67 45
56 61 44
71 76 55
63 67 45
75 80 56
73 78 56
73 77 56
89 93 62
67 74 53
91 95 64
100 102 67
104 106 71
104 106 72
98 101 64
99 102 64
106 108 66
100 102 60
115 116 72
111 112 70
122 121 68
110 111 68
125 125 79
142 139 84
131 130 80
127 126 75
140 137 83
133 132 82
123 123 74
140 138 82
140 138 78
138 136 77
145 142 84
145 143 79
149 146 84
150 146 80
159 155 92
153 150 89
144 141 82
149 145 82
148 145 82
162 157 91
155 151 82
159 155 86
156 152 87
160 155 87
161 156 88
165 160 91
158 154 86
172 167 99
168 162 94
166 160 89
165 160 91
162 157 83
161 156 90
161 157 87
164 159 91
167 162 88
169 162 89
169 163 93
174 167 94
174 168 97
172 165 91
172 165 90
169 163 90
172 165 91
168 162 89
171 165 93
167 162 89
165 160 86
168 162 93
170 164 86
170 164 87
172 166 90
170 163 89
174 167 87
168 162 89
171 165 91
171 165 89
170 164 89
171 165 91
169 163 87
172 165 93
169 163 90
171 165 89
170 164 88
168 162 93
175 168 96
167 161 87
174 167 94
171 164 88
170 163 90
169 163 90
170 163 93
169 163 84
170 163 90
167 161 86
166 161 85
171 165 90
174 166 94
165 159 87
167 161 88
167 160 90
170 163 91
165 159 84
164 157 83
163 157 86
165 159 90
170 163 91
159 154 75
168 162 90
164 157 86
164 158 87
162 157 77
163 157 86
165 158 87
163 158 87
160 154 80
165 158 85
162 155 83
169 162 94
163 157 86
163 157 83
166 159 85
165 158 83
160 155 80
161 154 84
158 152 82
163 157 84
162 156 85
159 154 85
161 155 84
154 148 83
164 157 87
162 156 83
162 156 84
160 153 80
157 151 85
154 149 78
159 152 80
163 157 83
157 151 83
154 149 74
156 151 79
219 235 255
219 235 255
220 235 255
220 235 255
220 235 255
220 235 255
220 235 255
220 235 255
220 235 255
220 235 255
220 235 255
220 235 255
219 234 253
219 234 253
217 232 252
220 235 255
220 235 255
218 233 254
219 234 254
219 234 254
217 232 252
219 234 254
219 234 254
218 233 253
217 232 248
217 232 248
217 232 249
216 231 247
218 234 253
218 233 250
216 231 244
215 231 242
217 232 248
218 233 250
216 232 245
219 234 253
218 233 252
218 233 250
216 231 244
217 232 248
215 230 240
216 232 245
215 231 241
216 231 244
217 233 250
216 232 245
219 234 252
214 229 248
215 231 250
217 233 252
211 226 245
208 224 241
213 228 249
212 227 248
210 225 245
212 227 246
216 231 252
210 225 246
215 230 251
210 225 247
216 232 252
215 231 251
213 228 249
212 227 248
211 226 246
210 226 247
211 226 248
215 230 251
212 227 246
211 226 248
214 229 250
214 230 251
214 229 250
211 227 245
214 229 248
217 232 250
217 232 250
215 230 248
216 231 248
216 232 249
216 232 249
214 229 245
217 232 248
217 232 248
216 231 245
215 231 242
215 231 245
216 231 246
217 232 249
216 232 248
214 230 241
216 232 245
216 232 248
217 233 249
215 231 242
217 232 248
217 233 250
216 232 245
215 231 244
217 233 249
217 233 250
216 231 246
218 233 253
218 234 253
217 233 249
217 233 249
216 232 246
215 231 247
217 232 248
215 231 242
216 232 252
212 228 243
210 226 238
214 230 246
212 228 246
212 227 244
204 220 235
210 226 242
208 224 239
209 225 242
205 222 236
207 224 235
210 226 243
209 224 241
213 229 242
204 220 233
207 223 241
210 226 241
209 225 242
212 228 243
204 221 240
203 219 239
211 227 248
213 228 248
207 223 245
210 226 246
210 226 248
214 230 252
135 155 194
78 110 169
81 110 168
199 216 242
213 230 252
210 226 250
211 227 250
203 219 246
199 215 241
218 233 255
187 203 230
61 97 147
61 96 153
61 96 144
61 97 152
60 95 141
60 95 136
61 96 145
61 96 149
60 95 149
60 95 142
62 97 153
61 97 151
61 96 139
62 97 148
60 95 140
61 96 147
61 96 148
61 96 141
61 96 145
61 96 148
61 96 143
61 96 135
61 96 142
60 95 143
59 93 137
62 97 145
60 95 142
62 97 147
61 96 142
60 95 137
61 95 136
61 95 139
61 96 148
61 96 144
62 97 147
61 96 142
59 94 135
60 95 136
61 96 139
61 95 148
61 95 139
60 95 134
61 96 142
60 95 135
60 95 142
61 96 143
60 95 143
61 96 135
60 94 143
60 95 136
60 95 136
60 94 131
60 94 135
60 95 140
59 93 133
62 96 150
60 95 139
61 96 145
60 94 136
59 94 136
60 94 124
59 93 134
60 94 133
60 94 137
60 94 135
61 96 147
61 95 149
60 95 142
61 96 148
61 96 141
59 93 137
60 95 144
61 96 142
59 93 135
60 94 137
61 96 141
60 94 140
60 94 136
60 94 135
60 94 137
59 91 135
58 91 130
61 95 142
58 91 134
61 95 142
58 90 123
58 91 129
58 91 132
59 92 128
58 92 132
59 93 136
58 90 137
56 89 131
57 90 131
58 90 130
58 90 134
55 86 123
55 84 126
53 82 113
55 85 122
50 78 107
50 75 95
89 92 81
85 84 53
59 60 40
59 61 39
61 63 44
50 53 38
50 55 39
54 60 41
50 55 38
66 71 47
60 65 45
65 73 54
69 75 53
75 81 54
87 90 62
94 97 66
96 99 63
89 92 59
92 95 61
102 105 70
105 106 67
113 115 73
111 113 74
120 120 74
119 119 75
112 114 68
126 124 74
144 141 88
115 116 73
133 132 81
130 129 80
130 129 74
141 139 84
139 137 84
147 144 85
140 137 78
149 146 83
141 140 79
139 137 81
146 143 81
151 148 82
154 150 88
155 151 88
153 149 85
159 155 94
151 147 87
148 144 82
155 152 80
157 152 89
161 157 84
160 155 86
155 151 82
162 156 85
159 154 80
157 153 81
158 153 80
161 156 85
165 159 90
162 157 89
164 158 86
169 162 90
169 162 87
167 162 93
167 162 90
168 162 86
165 160 87
165 160 87
173 166 90
164 159 87
175 168 91
168 162 86
168 163 89
170 164 88
172 166 94
168 163 88
166 161 88
165 160 83
173 167 92
176 168 96
168 162 86
170 164 88
170 164 87
172 165 94
171 165 90
174 167 93
171 164 90
169 163 87
171 165 87
170 164 85
171 165 93
170 162 90
171 164 90
168 162 81
169 162 89
169 162 83
171 163 88
170 163 89
171 164 87
169 163 89
171 165 93
173 165 93
172 165 89
167 161 87
171 164 90
171 164 90
167 161 91
165 159 87
167 162 84
165 158 82
166 159 84
168 162 85
165 159 85
165 158 82
170 163 88
165 160 84
159 154 80
162 156 86
163 157 84
168 161 84
161 154 81
165 159 87
163 157 85
166 160 91
160 154 82
167 160 87
162 155 80
161 155 85
166 160 85
164 158 85
161 155 84
162 156 85
162 156 87
164 158 87
159 153 82
170 164 95
157 150 76
161 154 84
162 157 84
163 158 84
158 152 84
160 152 83
166 159 87
162 156 81
155 149 80
150 145 75
163 157 88
158 154 82
154 148 77
161 155 80
220 235 255
219 234 255
220 235 255
220 235 255
219 234 255
220 235 255
219 234 255
220 235 255
220 235 255
220 235 255
220 235 255
220 235 255
220 235 255
220 235 255
220 235 255
218 233 254
220 235 255
219 234 254
219 234 254
219 234 255
219 234 255
220 235 255
219 234 255
220 235 255
219 234 254
219 234 254
220 234 254
219 234 253
220 235 255
219 234 253
219 233 252
217 232 246
219 234 252
217 232 248
216 232 244
217 232 246
218 233 248
216 232 245
218 233 249
217 232 245
217 232 246
215 231 241
219 234 250
217 232 246
215 231 242
218 233 250
215 230 247
215 230 248
212 228 245
215 230 248
215 231 249
210 226 248
214 229 249
219 234 254
214 229 250
215 230 251
215 230 250
211 227 246
218 233 254
209 224 242
215 230 251
214 230 250
215 230 250
212 228 250
213 229 250
213 228 248
212 227 247
210 225 246
213 228 250
215 230 250
206 221 244
214 229 250
209 224 245
215 231 252
212 227 246
215 231 246
214 230 240
217 233 248
216 231 245
216 231 242
218 234 252
216 231 244
218 233 250
216 231 244
218 233 250
217 232 246
218 233 250
219 234 253
218 234 252
217 232 246
216 232 244
216 231 244
218 233 250
216 232 249
216 232 248
216 232 245
216 232 245
215 231 241
216 231 242
218 233 252
217 233 249
216 231 244
214 230 237
217 232 248
218 233 249
217 233 250
217 232 248
217 233 249
217 232 248
214 230 238
216 231 248
216 231 250
215 230 245
212 227 240
209 224 243
212 226 237
209 225 240
209 225 240
209 225 241
210 226 240
205 221 236
209 225 238
208 224 240
205 221 238
209 225 240
213 228 246
213 228 244
203 219 239
206 222 236
214 229 247
201 216 237
207 223 246
212 228 250
210 225 246
207 223 243
214 230 252
211 226 248
210 226 245
159 178 212
80 109 160
75 107 168
171 189 219
214 230 252
205 221 247
207 223 247
208 223 244
194 210 236
216 231 253
166 184 216
61 96 148
60 95 141
62 97 151
60 95 145
62 97 144
60 95 147
61 96 143
60 95 136
61 97 143
61 96 150
62 98 155
62 97 148
61 96 141
62 98 154
63 98 153
61 96 142
59 93 131
62 97 148
60 95 142
62 97 147
61 95 144
59 94 136
60 94 134
60 95 140
60 95 139
61 96 139
62 97 149
62 97 147
60 94 141
61 96 150
60 95 136
61 96 145
60 95 142
59 94 125
61 96 144
60 95 135
60 95 143
60 94 137
58 92 120
60 95 142
61 95 135
60 95 141
60 95 136
62 97 151
61 96 141
59 93 125
60 94 139
59 94 129
60 95 141
60 95 144
59 94 140
61 96 142
59 93 135
59 94 126
60 94 140
61 96 147
60 95 145
61 96 141
60 95 144
59 93 135
59 94 135
61 97 145
60 94 139
60 94 137
60 94 136
61 96 144
59 93 138
60 94 133
60 94 137
58 91 129
61 95 147
59 94 137
60 94 145
58 92 134
58 91 131
59 93 134
60 94 138
60 94 138
60 95 132
59 93 137
58 91 127
58 92 124
59 92 131
58 91 128
60 93 137
59 93 134
58 90 128
57 89 138
58 90 128
58 90 129
57 90 129
58 91 128
57 89 121
55 86 114
57 87 122
57 89 126
57 88 130
56 87 127
55 85 127
53 81 112
53 82 118
48 72 96
71 80 82
85 84 54
84 83 55
49 51 34
52 54 36
41 48 36
33 41 31
50 55 39
50 56 38
49 56 40
58 65 48
74 79 53
69 75 55
62 69 48
74 80 57
75 81 52
97 99 63
107 109 71
106 108 67
111 112 69
103 104 64
115 116 73
118 118 77
123 122 73
114 114 67
120 119 68
125 125 82
121 121 74
126 125 73
137 135 84
121 122 74
135 133 76
142 140 83
140 138 79
134 133 76
134 133 78
146 142 83
148 145 82
137 135 77
157 153 88
147 143 82
149 145 83
147 143 85
156 152 86
155 151 83
157 153 86
160 156 89
151 147 82
159 155 87
157 152 82
153 148 82
155 152 80
165 160 86
162 157 91
162 157 91
164 159 87
165 159 87
164 158 85
166 160 88
161 157 87
166 161 91
163 158 93
168 161 89
165 159 85
162 157 85
167 162 85
172 165 96
167 162 84
166 160 86
168 162 87
173 166 95
170 163 94
169 162 82
170 164 88
169 163 87
168 161 85
168 162 89
173 166 92
171 164 87
173 167 93
170 163 86
170 164 91
172 165 87
168 162 89
169 163 85
170 163 82
169 163 87
169 162 86
166 159 85
170 164 88
169 163 86
171 164 88
171 164 89
167 160 84
165 159 76
171 164 93
163 157 84
167 161 87
171 165 93
167 160 81
169 163 94
172 164 90
164 158 85
166 159 87
166 161 84
169 162 86
169 162 87
171 163 87
166 160 87
164 159 80
166 159 90
164 157 84
164 157 84
165 159 83
168 161 88
167 161 81
170 162 89
170 163 87
168 161 89
166 160 84
164 159 84
160 153 85
168 161 87
168 162 87
163 157 86
158 152 74
165 159 89
162 155 82
161 154 83
167 161 88
158 151 84
160 153 80
159 153 80
156 150 82
159 152 79
158 152 80
156 150 80
162 156 81
159 153 80
163 156 84
161 154 78
161 156 83
157 151 77
160 154 83
163 157 84
158 152 80
148 143 68
156 150 79
157 150 81
220 235 255
220 235 255
220 235 255
220 235 255
220 235 255
220 235 255
220 235 255
220 235 255
220 235 255
220 235 255
220 235 255
219 234 255
219 234 254
220 235 255
220 235 255
220 235 255
220 235 255
220 235 255
220 235 255
217 232 252
220 235 255
219 234 255
220 235 255
219 234 255
220 235 255
220 235 255
220 235 255
220 235 255
221 235 255
219 234 255
219 234 255
220 235 255
220 235 255
220 235 255
220 235 255
220 235 255
220 235 255
219 234 250
220 235 254
220 234 253
219 234 250
219 234 252
218 233 249
219 234 250
217 232 245
217 232 245
216 231 249
217 232 250
215 230 246
216 231 248
216 231 252
215 230 250
216 231 250
214 229 249
207 222 243
207 222 241
217 232 253
212 227 248
212 227 248
214 228 248
213 228 250
215 230 252
213 228 248
213 228 248
215 230 251
213 228 248
213 228 247
216 231 252
206 221 241
209 224 243
216 231 251
211 227 246
211 226 246
213 228 249
214 230 250
217 232 252
217 232 245
218 233 249
218 233 250
217 232 248
217 233 246
217 232 246
217 232 245
216 232 244
217 232 246
218 233 248
216 231 242
216 232 244
215 231 240
218 234 250
217 232 245
217 232 246
219 234 252
216 232 244
218 234 250
218 233 250
218 233 250
216 232 244
219 234 252
218 233 248
217 232 245
217 233 248
217 233 248
217 232 246
218 234 250
216 232 244
218 233 249
218 233 248
217 232 246
217 232 246
214 230 248
215 230 248
213 228 240
208 224 233
206 221 237
208 223 235
212 228 246
210 226 239
212 227 242
205 221 236
204 220 236
207 222 244
211 227 243
219 234 252
211 226 244
214 230 244
206 222 245
213 228 250
212 227 249
216 231 253
212 227 249
213 228 249
213 228 248
213 229 250
214 229 251
211 227 250
214 229 250
213 229 252
168 186 217
72 104 156
69 102 160
146 166 206
207 223 246
215 230 251
209 224 246
202 218 243
193 208 232
210 225 248
166 183 211
61 96 142
60 95 134
61 96 150
62 97 148
61 96 140
59 94 135
61 96 144
60 95 141
59 94 135
59 94 135
60 95 135
60 95 140
60 95 141
62 97 144
60 95 139
60 95 131
61 96 141
61 96 143
60 95 139
59 94 136
60 94 133
61 96 144
61 96 148
60 95 139
60 94 126
61 96 142
60 95 135
61 96 144
60 95 148
60 95 140
60 95 127
61 96 144
61 96 140
60 94 143
62 97 143
61 97 148
61 96 143
60 94 130
59 94 135
60 95 140
60 95 142
60 95 140
61 96 139
60 94 140
60 95 136
60 95 137
60 95 144
60 95 137
60 95 136
60 95 136
62 96 140
60 94 134
59 94 133
60 95 132
61 96 142
58 92 129
60 95 140
61 96 147
61 95 139
60 94 136
58 91 126
61 95 142
59 94 136
62 97 149
60 94 137
60 94 135
60 94 132
60 95 143
61 96 136
61 96 148
60 95 136
60 94 132
58 91 129
59 92 134
60 94 133
58 91 125
60 93 140
59 94 139
60 93 136
58 91 135
59 92 133
60 94 130
60 94 142
59 92 127
60 94 139
58 90 129
59 92 132
58 90 124
57 89 121
57 88 126
57 89 127
57 89 128
58 89 125
58 89 134
56 86 113
56 87 128
57 87 119
53 82 118
52 79 109
52 81 115
51 78 98
51 77 102
60 69 77
64 64 41
64 65 41
58 60 41
55 58 39
56 61 43
43 51 38
50 57 43
54 60 45
60 66 44
61 66 46
74 79 53
71 76 52
69 75 49
77 82 50
88 92 60
75 79 52
60 69 54
95 96 62
103 105 68
118 117 74
104 105 69
101 104 59
116 117 68
132 131 81
121 120 73
121 120 68
127 126 70
116 117 71
140 137 77
129 128 72
131 129 73
136 134 80
142 138 81
135 133 75
136 134 77
150 147 84
143 140 82
141 138 79
142 141 82
144 142 85
147 145 86
151 147 84
160 156 92
153 150 86
151 148 80
151 148 83
154 150 80
156 153 85
166 161 90
157 153 83
160 155 86
160 155 91
155 152 84
162 157 85
163 158 90
162 157 79
163 157 86
159 154 79
163 159 83
164 159 81
170 163 88
167 161 84
165 159 81
168 162 91
169 163 94
160 156 80
168 162 83
168 163 80
165 159 81
167 161 90
168 162 87
170 164 86
172 165 90
168 162 88
172 165 91
170 164 88
169 163 89
174 167 89
168 162 87
171 165 86
169 163 88
167 162 87
172 165 90
168 161 84
173 166 87
170 164 87
170 164 86
172 166 92
168 162 87
169 163 87
168 161 86
168 162 86
172 165 89
167 161 87
168 162 83
168 161 84
167 161 85
171 164 90
170 164 88
168 162 89
167 161 82
168 162 82
167 161 87
168 162 83
167 160 83
167 160 87
163 157 80
168 161 87
165 159 84
160 154 82
167 160 89
168 161 88
166 159 86
162 157 78
162 156 81
167 160 87
165 158 86
166 159 84
170 163 90
165 159 83
169 163 93
161 155 80
162 156 79
166 159 86
166 159 90
165 158 83
159 154 79
159 153 75
162 154 88
163 157 87
161 154 82
164 158 85
160 154 82
159 153 81
151 146 75
160 154 81
161 154 82
151 147 75
161 156 80
165 158 89
158 151 80
159 153 83
164 157 82
155 150 74
161 154 84
150 144 75
155 149 76
157 150 84
221 235 255
221 235 255
221 235 255
221 235 255
221 235 255
221 235 255
220 235 255
221 235 255
221 235 255
221 235 255
221 235 255
220 234 254
221 235 255
221 235 255
221 235 255
221 235 255
219 233 254
220 235 255
220 234 255
220 234 255
220 234 255
220 234 255
221 235 255
220 234 254
221 235 255
220 234 254
220 234 255
221 235 255
221 235 255
220 234 255
221 235 255
221 235 255
221 235 255
221 235 255
221 235 255
221 235 255
221 235 255
221 235 255
221 235 255
221 235 255
221 235 255
221 235 255
221 235 255
221 235 255
221 235 255
220 234 254
218 233 254
216 231 253
216 231 252
220 234 254
215 230 250
213 228 249
213 228 248
211 226 248
212 227 248
209 224 246
215 230 250
209 224 244
215 230 251
211 226 247
214 229 248
213 228 248
214 229 249
214 229 250
213 228 249
214 229 248
215 230 250
208 223 245
213 228 248
216 231 251
214 229 248
211 226 247
214 229 248
217 232 252
216 231 252
218 233 252
218 233 251
218 233 249
218 233 249
218 233 249
220 235 254
218 233 246
219 234 250
219 234 252
220 234 253
218 233 248
218 233 246
218 233 249
219 234 252
219 234 253
220 234 253
219 234 250
219 234 250
220 235 253
218 233 249
218 233 249
218 233 248
218 233 248
219 234 250
219 234 250
219 233 249
219 234 250
218 233 252
219 234 252
219 234 252
218 233 249
218 233 249
218 233 250
216 232 242
218 232 249
214 228 243
216 231 247
218 233 252
218 233 253
212 226 242
214 228 248
213 228 246
212 227 247
211 226 245
208 224 243
209 224 245
216 230 252
208 223 246
214 229 250
212 227 248
215 230 250
213 228 248
213 228 249
213 228 249
207 222 244
214 229 250
216 231 252
215 230 251
215 230 252
213 228 249
212 227 248
217 232 254
209 224 246
178 195 224
75 106 165
69 102 156
117 139 183
209 225 247
205 221 244
211 227 248
201 216 241
201 217 241
207 222 244
164 181 208
60 95 143
61 96 142
62 96 145
62 98 149
61 96 140
61 97 154
61 96 141
61 96 145
61 96 144
59 94 139
60 95 135
60 95 133
61 96 150
61 95 144
62 97 148
61 96 140
59 94 131
61 96 136
60 96 140
61 96 147
61 96 142
61 97 145
59 94 136
60 94 136
60 95 136
60 95 137
60 95 134
60 94 139
60 95 134
61 96 150
60 95 133
62 97 142
61 96 145
59 94 133
59 93 129
59 93 133
62 97 147
60 94 129
59 93 127
61 95 142
60 95 137
61 96 143
61 96 140
62 97 144
61 96 142
60 95 131
60 94 135
59 94 133
60 94 127
60 95 139
61 96 144
59 92 124
60 95 140
60 95 140
59 94 131
60 94 139
59 93 134
60 94 134
62 97 149
60 94 136
59 94 129
59 93 136
60 94 132
58 92 127
60 94 127
60 94 139
59 93 133
59 94 133
61 95 143
59 93 140
60 94 136
60 93 132
59 93 140
59 94 130
59 94 136
59 92 127
60 94 134
59 93 140
60 94 132
57 90 128
60 94 139
58 92 133
60 94 137
59 92 131
60 94 136
55 86 119
59 92 136
58 92 130
58 90 126
58 92 128
58 90 134
57 88 123
58 91 139
58 90 132
56 87 120
58 91 133
56 87 126
54 83 110
55 85 119
54 82 111
51 78 116
52 79 104
71 78 76
62 61 36
60 61 36
47 51 32
54 57 38
45 50 35
46 52 36
51 57 40
54 60 42
51 58 42
64 68 45
67 71 44
65 72 50
73 80 56
86 89 58
90 94 57
85 87 52
95 97 61
101 103 63
102 103 61
91 93 56
103 105 67
109 110 68
120 119 70
111 111 62
119 120 72
122 121 66
114 114 67
121 120 68
114 114 68
134 132 79
131 130 74
130 128 74
135 133 81
133 132 78
131 130 76
142 138 79
148 143 80
130 129 67
143 140 83
149 146 81
147 144 85
159 154 90
149 146 84
152 148 82
142 139 81
150 146 84
146 142 81
157 152 85
164 159 89
160 154 90
154 149 78
159 155 83
164 158 86
160 155 88
161 155 83
162 156 82
166 160 85
166 160 89
164 158 87
165 160 84
171 165 89
165 161 86
169 163 90
169 163 87
167 161 87
168 162 82
164 159 86
165 159 88
167 162 93
166 161 87
171 164 91
169 163 87
171 165 90
169 162 83
167 162 87
170 164 84
170 163 84
171 164 84
169 162 83
169 163 87
168 162 80
172 165 87
171 165 87
172 164 93
166 160 83
169 162 83
168 163 82
172 165 90
171 164 88
169 162 84
166 161 84
169 163 88
171 164 87
170 163 87
169 162 90
163 157 80
170 163 82
171 164 89
163 157 81
168 162 90
169 162 87
167 160 89
169 163 83
169 162 83
168 161 87
167 161 81
169 162 84
170 163 85
165 160 81
168 162 79
167 160 87
171 164 90
168 161 84
165 159 77
163 157 84
163 157 84
165 158 80
168 162 86
163 158 87
166 159 82
165 159 81
168 161 90
165 159 82
161 155 79
164 157 85
164 157 79
160 154 80
164 158 87
162 156 79
159 153 75
161 155 84
161 155 83
156 150 78
162 157 80
162 156 87
158 152 78
156 151 80
165 158 88
156 150 79
155 149 81
156 150 81
162 155 80
163 158 84
156 151 74
150 144 72
149 143 69
155 149 83
157 151 78
221 235 255
220 234 255
221 235 255
221 235 255
220 234 255
221 235 255
221 235 255
221 235 255
220 234 255
221 235 255
221 235 255
221 235 255
221 235 255
221 235 255
221 235 255
221 235 255
219 233 254
220 234 254
219 233 254
220 234 254
220 234 255
221 235 255
221 235 255
221 235 255
221 235 255
221 235 255
221 235 255
220 234 255
220 234 254
221 235 255
221 235 255
221 235 255
221 235 255
221 235 255
221 235 255
221 235 255
221 235 255
221 235 255
221 235 255
221 235 255
221 235 255
220 234 255
221 235 255
221 235 255
221 235 255
221 235 255
217 231 253
216 231 252
216 230 251
221 235 255
213 227 250
218 232 253
215 229 250
214 228 250
214 228 250
217 231 252
212 226 250
213 227 248
218 232 252
217 231 252
218 232 254
215 229 250
216 230 250
214 228 250
217 231 252
216 230 250
213 228 249
216 230 252
214 228 249
214 229 249
210 225 247
213 228 248
211 226 247
208 223 246
215 229 251
218 232 253
220 234 254
221 235 255
221 235 255
221 235 255
221 235 255
221 235 255
221 235 255
221 235 255
221 235 255
221 235 255
221 235 255
221 235 255
221 235 255
220 235 254
221 235 255
221 235 255
221 235 255
221 235 255
221 235 255
221 235 255
221 235 255
221 235 255
221 235 255
221 235 255
221 235 255
221 235 255
221 235 255
221 235 255
221 235 255
221 235 255
221 235 255
221 235 255
220 234 255
220 235 254
217 231 249
218 232 254
216 230 251
216 230 250
214 228 245
209 223 242
219 233 254
212 227 249
213 227 249
214 229 250
210 225 248
209 224 247
210 225 244
211 226 248
211 226 247
214 228 251
210 225 247
210 225 247
214 228 250
213 227 249
210 225 246
215 229 251
208 223 244
213 228 249
214 228 249
213 228 250
209 224 243
209 224 247
189 205 230
77 107 157
67 99 154
113 137 184
214 229 252
210 225 247
212 227 248
204 219 241
197 213 237
208 223 245
148 167 197
62 97 149
61 96 142
60 95 139
61 96 145
61 96 146
61 96 150
60 95 139
61 96 140
61 97 145
60 94 134
60 95 137
61 97 141
62 97 147
60 95 137
61 96 142
61 96 147
62 98 147
62 97 140
59 93 135
60 94 130
60 95 141
59 94 134
59 94 127
61 96 144
60 95 139
61 96 143
61 95 129
60 95 136
60 95 129
60 94 134
63 98 152
61 96 140
60 95 126
60 94 140
60 94 140
61 95 141
59 94 135
60 94 137
60 95 139
59 93 130
60 95 136
60 95 136
59 94 134
60 95 144
60 94 136
59 93 136
61 95 141
60 95 133
60 95 137
61 96 140
61 96 143
59 93 134
61 95 140
60 94 136
59 94 134
61 96 142
60 95 131
60 94 135
59 93 134
59 93 130
60 95 139
60 95 143
60 94 138
62 97 149
61 96 144
59 93 131
60 95 134
59 94 137
61 95 139
61 96 145
60 94 135
58 92 129
59 94 134
59 92 122
59 93 133
59 92 126
60 94 143
60 93 134
58 91 136
59 94 135
57 90 119
57 90 125
58 91 120
60 94 140
58 90 123
59 92 126
59 93 126
58 91 125
59 91 135
57 88 127
57 89 125
59 92 135
57 88 119
58 89 119
55 85 113
55 85 121
57 89 133
56 86 123
57 88 133
56 86 122
52 79 102
50 76 105
59 71 77
70 70 41
67 67 39
61 62 42
40 43 26
42 46 30
47 52 36
44 51 39
41 50 38
59 64 46
69 73 48
63 68 42
66 73 52
65 71 47
77 81 53
75 80 53
87 91 57
102 103 63
96 98 58
93 97 55
96 97 52
103 104 58
115 115 63
117 117 67
107 109 64
117 117 69
125 124 64
119 120 68
121 121 67
124 123 74
114 115 66
128 128 73
141 139 78
128 126 71
128 127 75
138 136 76
131 130 67
141 140 73
131 130 71
149 146 83
154 149 80
149 146 81
149 145 78
144 141 81
139 136 73
159 153 81
152 148 82
155 150 78
158 153 86
153 148 80
158 153 82
155 152 79
161 156 84
164 159 87
159 154 79
165 159 90
156 152 80
165 159 87
164 159 85
165 159 81
163 157 83
169 161 86
165 159 84
165 159 84
169 163 84
163 158 81
166 160 81
167 161 84
164 160 85
169 163 84
165 160 81
162 157 78
170 164 85
166 160 85
167 161 81
169 162 87
170 164 86
170 163 83
171 164 86
167 162 88
166 160 86
171 164 90
167 161 81
165 160 83
164 159 84
170 164 87
163 158 77
170 163 84
172 165 90
169 163 86
163 158 82
176 169 99
166 159 81
170 163 90
173 166 90
163 158 72
164 158 80
167 162 88
171 164 90
170 163 87
169 163 86
168 162 82
165 159 77
166 160 84
174 166 89
169 162 90
167 162 84
160 154 76
169 161 87
164 157 84
168 162 88
165 160 80
164 158 83
164 157 78
165 159 86
165 160 81
164 157 77
160 154 75
157 151 77
171 163 87
163 156 82
160 154 80
165 159 84
160 153 78
165 159 86
158 151 75
161 155 80
161 155 83
160 154 82
164 158 87
154 148 75
155 149 76
161 155 78
156 151 79
166 159 80
156 149 76
161 155 81
160 154 82
159 152 79
159 152 77
161 156 84
165 158 79
158 150 80
150 145 75
157 151 78
157 150 75
157 150 81
161 155 83
155 149 79
220 234 254
221 236 255
221 236 255
221 236 255
221 236 255
220 235 255
221 236 255
221 236 255
221 236 255
221 236 255
221 236 255
221 236 255
221 236 255
221 236 255
221 236 255
221 236 255
221 236 255
221 236 255
220 235 255
221 236 255
218 233 253
221 236 255
220 235 255
221 236 255
221 236 255
221 236 255
219 234 254
221 236 255
221 236 255
221 236 255
221 236 255
221 236 255
221 236 255
221 236 255
221 236 255
221 236 255
221 236 255
221 236 255
221 236 255
221 236 255
221 236 255
221 236 255
221 236 255
221 236 255
221 236 255
220 235 255
219 234 254
213 227 249
220 235 255
217 232 252
218 233 252
214 229 250
215 230 250
212 227 250
214 229 250
208 223 247
220 235 255
214 229 250
217 231 252
216 230 251
206 221 245
219 233 254
217 232 253
214 229 250
218 233 253
210 224 246
216 230 250
217 232 252
218 233 253
211 225 246
216 230 250
213 227 247
215 229 250
210 225 248
213 227 248
213 228 249
219 234 254
221 236 255
221 236 255
221 236 255
221 236 255
221 236 255
221 236 255
221 236 255
221 236 255
221 236 255
221 236 255
221 236 255
221 236 255
221 236 255
221 235 255
221 236 255
221 236 255
221 236 255
221 236 255
221 236 255
221 236 255
221 236 255
221 235 255
221 236 255
221 236 255
221 236 255
221 236 255
221 236 255
221 236 255
221 236 255
221 236 255
221 236 255
220 234 254
219 233 251
215 229 248
218 232 253
218 233 252
212 226 247
211 225 241
217 231 249
214 229 251
210 225 246
214 228 247
214 229 250
216 230 250
208 222 244
215 230 250
217 231 252
215 229 250
214 229 249
214 229 250
210 225 246
212 226 248
214 229 249
212 227 248
211 225 246
213 228 249
216 231 252
210 224 245
214 228 249
210 224 246
214 229 251
184 200 226
74 104 157
79 108 158
131 152 196
218 233 254
213 227 250
216 231 252
211 226 248
205 220 244
205 221 244
159 177 207
61 96 142
61 96 145
60 95 141
61 97 145
62 97 144
60 95 133
61 96 142
62 97 148
60 95 137
61 95 134
60 94 134
60 94 131
61 95 136
61 95 143
60 95 131
60 95 137
61 96 144
61 96 143
60 94 137
60 95 140
60 95 140
59 94 133
60 95 139
60 95 136
61 96 135
60 95 139
61 96 131
59 94 141
60 95 134
60 94 131
60 94 137
60 95 136
60 94 133
59 93 129
59 93 130
61 96 134
60 94 130
59 94 129
61 97 147
61 96 140
59 93 134
60 94 133
61 95 143
59 94 122
61 95 135
59 94 131
61 95 130
61 96 137
60 95 136
59 93 127
60 94 138
61 96 144
60 95 137
59 94 139
60 95 134
59 94 129
59 94 139
60 95 141
60 94 139
61 96 141
58 92 126
59 93 129
60 94 124
59 94 131
59 94 130
60 94 134
58 92 128
60 95 143
59 93 130
60 94 130
58 93 125
61 95 136
59 93 129
59 93 133
58 91 124
60 94 138
58 92 132
58 91 133
58 92 131
59 91 125
58 91 132
59 93 132
59 93 139
57 89 124
56 88 124
58 91 129
58 91 133
58 91 133
57 89 125
58 91 129
58 91 137
58 90 129
57 90 131
58 88 126
56 88 131
54 84 111
55 86 117
55 84 113
55 85 120
55 85 125
51 78 113
47 72 90
70 78 69
78 76 37
62 62 34
57 57 31
51 54 26
42 47 29
44 49 32
44 49 23
48 55 38
49 55 36
56 62 41
48 55 38
69 74 46
68 73 46
81 85 53
75 79 49
82 87 56
83 86 50
89 89 54
94 95 57
108 109 66
108 109 63
116 115 68
110 111 62
111 112 60
111 110 66
120 119 69
120 119 69
124 123 69
116 116 69
131 128 68
132 131 75
131 129 75
137 135 76
126 126 63
134 130 72
139 136 74
130 129 69
146 143 80
136 133 77
151 147 77
144 142 76
148 144 78
143 140 73
154 150 82
145 141 75
155 151 79
148 144 78
160 156 84
157 153 81
161 156 86
156 151 79
162 157 83
159 154 85
160 154 84
152 148 76
155 151 82
162 156 83
157 151 78
165 160 83
166 159 82
166 160 82
168 162 88
166 159 79
165 160 87
166 160 84
165 160 82
161 156 76
169 162 83
165 160 78
169 162 85
170 163 85
161 156 75
168 162 85
166 160 84
165 160 84
169 162 82
167 160 83
164 158 82
168 162 86
169 162 78
171 164 88
172 165 89
170 163 81
171 164 87
169 162 80
171 164 87
165 160 78
169 162 79
163 158 80
172 165 87
167 161 84
170 163 87
170 163 84
170 164 85
172 165 93
169 163 86
164 159 79
169 162 85
170 163 91
165 158 75
164 158 82
170 163 87
166 159 80
168 161 84
161 156 75
169 161 93
164 156 80
156 151 75
164 158 79
167 162 86
170 162 87
168 161 87
172 164 95
161 155 75
170 163 83
171 164 92
166 160 84
164 157 82
163 156 80
162 155 83
165 159 84
162 156 84
166 159 85
163 158 80
156 151 75
161 154 77
158 152 78
161 155 76
153 146 68
165 158 82
162 156 80
156 150 78
157 151 75
165 158 85
160 154 76
166 158 84
160 155 82
160 154 72
157 151 80
153 147 72
156 150 82
157 151 80
163 156 83
154 148 73
155 150 75
154 147 78
156 149 75
150 144 75
222 236 255
222 236 255
222 236 255
222 236 255
222 236 255
222 236 255
220 235 255
222 236 255
221 236 255
222 236 255
222 236 255
222 236 255
221 236 255
222 236 255
220 235 255
222 236 255
221 236 255
222 236 255
221 236 255
219 234 254
220 235 255
221 236 255
221 236 255
221 236 255
221 235 255
221 236 255
222 236 255
220 235 255
221 236 255
221 236 255
220 235 255
221 236 255
220 235 254
221 236 255
221 236 255
221 236 255
221 236 255
221 236 255
221 236 255
221 236 255
221 236 255
221 236 255
221 236 255
221 236 255
221 236 255
220 235 254
219 234 254
216 231 252
219 234 254
218 233 254
218 233 253
213 228 249
214 229 251
211 226 248
215 230 252
216 231 251
214 229 251
215 230 251
215 230 251
216 231 251
217 232 253
214 229 248
215 230 252
216 231 251
215 230 250
210 224 245
215 230 251
217 232 252
214 229 250
214 229 251
211 226 248
216 231 250
215 230 251
215 230 250
219 233 252
221 235 254
217 232 253
222 236 255
222 236 255
221 236 255
222 236 255
221 235 254
221 236 255
221 236 255
222 236 255
221 236 255
222 236 255
221 236 255
221 235 254
221 236 255
221 236 255
221 236 255
222 236 255
221 236 255
221 235 254
221 236 255
221 236 255
222 236 255
222 236 255
221 235 254
222 236 255
221 236 255
220 235 253
222 236 255
221 235 254
221 235 254
222 236 255
221 236 255
221 235 255
219 233 253
219 234 254
218 233 252
217 232 251
215 229 249
212 226 244
214 228 245
213 227 248
211 225 245
217 232 251
212 227 248
209 224 245
214 229 249
213 228 248
211 226 247
209 223 244
207 221 243
215 230 249
216 231 251
214 229 249
209 224 243
218 233 253
210 225 246
213 228 248
218 232 252
215 230 250
212 227 248
211 226 249
217 231 252
173 189 217
70 101 153
69 101 153
125 146 187
216 230 252
206 221 240
211 226 245
208 222 243
205 219 242
217 232 252
172 188 213
62 96 148
63 98 154
59 94 134
60 95 136
61 95 147
60 95 136
61 96 144
61 95 137
60 95 137
62 97 147
60 95 136
61 96 135
59 94 129
60 94 131
61 97 142
60 95 141
60 95 136
59 94 127
60 94 131
60 94 129
61 96 141
60 94 130
60 94 137
61 97 150
59 94 127
59 94 134
60 95 136
58 92 127
59 94 134
61 95 140
59 94 134
60 94 133
61 96 145
59 93 127
60 95 134
60 94 134
60 94 129
61 95 135
59 94 126
60 95 140
60 95 135
61 96 142
59 94 125
61 96 148
59 94 130
61 95 139
60 96 143
61 95 140
61 95 144
60 95 134
61 96 142
59 93 131
61 95 140
59 93 129
60 95 137
61 95 142
60 95 137
60 95 131
60 94 134
59 93 127
58 92 125
59 93 125
59 93 129
58 92 127
59 93 129
60 94 131
60 94 134
60 94 127
58 92 119
60 94 139
58 91 131
58 92 125
59 93 124
59 92 130
59 92 128
60 94 134
59 92 134
59 93 129
60 94 137
59 92 123
58 91 131
60 94 140
59 91 131
59 93 130
59 92 127
59 92 133
58 91 129
56 88 122
59 91 134
55 86 119
55 87 117
57 89 123
57 89 124
55 86 119
58 90 121
56 86 114
55 84 115
52 81 107
54 83 106
52 81 99
51 78 100
48 73 102
64 75 77
80 78 39
46 47 29
43 45 29
45 47 27
47 51 35
34 41 22
46 52 32
35 43 29
60 66 35
48 56 40
58 65 43
66 72 49
64 68 45
73 74 41
81 86 54
87 90 53
82 86 53
98 99 57
99 101 63
88 89 53
96 99 61
103 105 63
98 100 56
116 116 68
118 117 67
111 111 64
122 121 66
126 124 68
122 121 67
117 117 66
136 134 76
120 119 61
136 134 75
141 138 77
140 137 70
138 136 71
142 139 75
152 148 88
144 141 77
144 140 71
150 146 81
154 150 81
150 146 73
140 138 67
153 149 78
151 147 80
157 152 87
149 145 73
154 149 76
152 148 77
149 146 67
150 147 77
161 156 86
158 153 80
167 161 91
163 157 81
167 161 89
158 154 81
163 158 83
164 158 84
164 158 78
167 160 87
163 158 83
160 155 78
167 161 83
164 158 85
167 160 86
161 155 72
163 158 77
167 161 84
159 154 71
166 160 77
164 158 81
172 165 87
167 161 85
167 161 88
167 161 85
171 164 85
168 162 84
162 157 77
166 160 86
169 163 84
173 166 90
170 164 84
169 162 85
167 161 83
171 164 86
170 163 86
172 165 90
170 163 88
170 162 90
166 158 83
167 161 82
170 164 84
169 164 81
162 157 78
168 162 80
165 159 78
166 160 80
169 162 89
167 160 83
166 160 81
167 161 84
166 159 77
163 157 76
164 158 87
168 161 85
165 159 84
162 156 78
157 150 76
165 159 80
166 161 87
165 157 81
164 157 79
158 153 75
165 158 77
161 154 80
168 161 87
163 157 84
164 157 84
162 156 80
165 159 87
164 158 81
163 157 78
160 154 76
161 155 76
158 152 78
166 159 84
165 157 82
157 152 67
152 146 72
157 151 78
157 151 75
164 158 84
155 149 76
162 156 79
165 159 84
162 155 82
156 149 76
155 150 73
157 153 70
161 155 79
161 155 79
155 148 79
157 151 81
144 138 63
158 151 80
155 148 76
222 236 255
222 236 255
222 236 255
222 236 255
222 236 255
222 236 255
221 235 255
222 236 255
222 236 255
222 236 255
222 236 255
221 235 255
222 236 255
222 236 255
222 236 255
221 235 255
222 236 255
221 235 255
222 236 255
222 236 255
220 234 254
221 235 255
222 236 255
222 236 255
221 235 255
219 233 253
222 236 255
221 235 255
220 234 254
222 236 255
222 236 255
222 236 255
222 236 255
221 235 254
222 236 255
222 236 255
222 236 255
222 236 255
222 236 255
222 236 255
222 236 255
222 236 255
222 236 255
222 236 255
222 236 255
222 236 255
217 231 252
219 233 253
219 233 254
218 232 253
215 229 249
217 231 252
216 230 250
219 233 254
218 232 252
221 235 255
217 231 252
215 229 251
213 227 248
217 231 251
216 230 251
216 230 250
219 233 253
216 230 249
219 233 254
213 228 248
219 233 253
216 231 250
206 220 241
215 230 249
217 231 252
217 231 252
213 227 248
217 231 251
217 231 252
216 230 250
216 231 251
222 236 255
222 236 255
221 235 254
221 235 254
222 236 255
222 236 255
221 235 254
222 236 255
222 236 255
220 235 252
222 236 255
222 236 255
222 236 255
221 236 255
221 235 254
222 236 255
221 235 253
222 236 255
221 235 254
222 236 255
222 236 255
222 236 255
222 236 255
222 236 255
221 235 254
222 236 255
222 236 255
221 235 254
222 236 255
221 235 253
222 236 255
221 235 254
220 234 253
216 230 249
220 234 254
215 230 250
219 233 253
213 226 241
217 232 251
210 225 243
214 229 247
216 230 252
216 231 251
216 230 251
214 228 248
217 231 251
216 230 250
212 227 248
215 229 251
214 228 248
214 228 247
217 231 251
218 232 251
213 227 247
207 222 243
217 231 252
213 228 248
213 227 249
218 232 252
209 223 244
217 231 251
176 193 219
66 99 153
76 106 156
138 158 196
214 229 250
217 231 250
211 225 244
212 226 247
205 220 242
209 224 244
152 170 197
61 95 143
61 96 148
61 96 144
62 96 148
62 96 140
60 95 135
61 96 140
62 97 140
59 94 126
61 96 143
60 94 134
60 95 135
60 95 131
61 95 139
60 95 140
59 93 130
60 95 140
60 95 136
60 95 135
58 92 134
62 96 145
60 95 139
60 94 135
60 94 133
61 96 140
60 95 140
60 95 136
60 95 137
61 96 136
60 94 130
61 96 144
61 96 134
59 93 134
60 94 137
60 94 134
60 94 135
61 96 137
60 94 135
59 94 133
62 96 141
59 93 134
61 95 137
61 96 147
60 94 135
58 93 127
59 94 134
60 95 135
60 94 130
58 93 124
59 93 129
62 96 143
60 95 135
60 94 129
60 95 136
60 94 135
59 94 133
59 93 124
58 92 122
59 92 134
60 95 139
58 92 128
59 94 129
60 95 138
61 95 135
60 94 139
60 95 136
60 94 131
59 93 127
58 92 131
59 93 133
57 90 119
60 94 139
60 95 136
59 93 130
59 93 133
59 94 140
60 94 138
58 91 126
59 92 131
60 94 137
58 90 134
59 93 135
57 90 124
58 91 125
58 90 130
58 90 122
57 89 122
57 89 128
57 88 122
55 87 113
56 88 119
58 90 123
56 87 122
55 86 113
55 85 115
55 84 119
55 85 114
55 85 119
53 82 109
55 84 115
51 79 103
48 74 107
59 69 70
61 61 32
44 46 16
49 51 26
47 49 23
43 46 23
43 49 31
48 54 39
47 54 32
50 57 39
49 57 33
49 57 36
55 61 37
73 78 46
73 78 44
77 81 51
81 84 45
86 90 52
102 103 59
98 101 58
98 100 49
122 121 66
93 96 55
109 109 63
110 111 63
113 113 62
120 120 70
124 124 75
135 131 67
124 123 72
126 124 71
132 129 75
128 126 71
129 128 71
138 136 80
134 132 71
142 139 78
130 130 73
145 142 80
141 139 69
147 143 78
146 144 75
144 141 74
143 140 70
152 147 77
148 144 76
159 153 80
162 155 82
156 151 85
158 153 81
149 145 73
154 149 83
158 154 82
160 155 80
158 153 78
156 151 79
161 155 83
165 159 82
166 160 85
165 159 84
161 156 82
162 157 80
162 157 80
168 162 88
166 161 85
163 157 76
163 158 77
166 160 83
163 158 81
168 162 85
167 160 79
168 161 90
167 161 86
170 163 83
165 158 80
166 160 77
169 163 84
164 158 82
165 159 83
170 163 87
167 160 87
169 162 85
170 163 81
173 165 90
164 158 80
168 162 84
169 161 82
171 164 81
170 164 83
164 158 78
166 159 84
170 162 87
172 165 92
169 163 86
165 159 70
171 164 86
168 161 84
169 162 81
160 154 79
167 161 80
168 161 84
168 161 80
165 158 83
156 152 72
167 160 87
163 157 84
160 154 74
169 161 80
163 157 75
164 158 80
171 164 90
167 161 84
162 156 75
164 159 80
165 160 78
157 151 75
160 153 78
163 157 81
167 159 84
165 158 80
160 153 83
165 158 83
165 159 77
165 158 83
164 158 84
162 156 81
151 146 76
158 153 75
162 156 79
161 153 80
161 154 75
161 154 79
155 148 76
154 148 77
158 153 75
157 152 71
163 157 81
160 154 80
153 148 75
158 151 76
155 148 77
160 154 79
157 151 80
157 151 75
156 150 75
150 144 71
156 150 79
163 157 77
153 147 80
222 236 255
222 236 255
222 236 255
222 236 255
222 236 255
222 236 255
222 236 255
222 236 255
221 235 255
222 236 255
222 236 255
222 236 255
222 236 255
221 235 255
222 236 255
221 235 255
221 235 255
221 235 255
222 236 255
220 234 254
222 236 255
221 235 255
221 235 255
222 236 255
222 236 255
222 236 255
221 235 254
221 235 255
222 236 255
221 235 255
222 236 255
222 236 255
222 236 255
222 236 255
222 236 255
222 236 255
222 236 255
222 236 255
222 236 255
222 236 255
222 236 255
222 236 255
222 236 255
222 236 255
222 236 255
222 236 255
219 233 254
220 234 254
219 233 254
220 234 254
215 229 251
213 227 250
215 229 251
212 226 248
216 230 251
214 228 249
216 230 250
216 230 250
218 232 252
217 231 251
218 232 252
215 230 249
216 231 250
216 230 250
215 230 249
217 231 251
213 228 246
211 225 244
215 230 248
212 226 247
218 232 252
211 226 243
213 227 247
212 227 244
215 229 246
218 232 248
218 233 245
221 235 253
220 234 249
221 235 250
221 235 253
221 235 252
220 234 249
220 234 249
220 234 250
219 234 248
221 235 252
217 232 240
219 233 246
220 234 249
220 235 252
220 234 249
220 235 250
220 234 249
221 235 252
220 234 250
219 233 246
219 233 246
219 234 246
219 233 246
218 232 242
219 233 246
221 235 252
219 233 246
220 235 250
219 233 246
217 232 241
219 233 245
220 235 250
220 234 249
220 234 254
216 230 249
219 233 253
217 231 249
214 227 245
218 231 250
215 230 250
216 230 251
214 228 248
214 228 249
214 228 248
218 232 250
213 227 247
214 228 248
212 226 247
217 231 251
217 231 252
216 230 251
212 226 246
216 230 248
215 229 249
214 228 248
213 227 247
210 224 245
213 227 248
212 226 247
216 230 250
211 225 245
169 185 213
83 111 151
77 107 147
152 170 199
213 227 247
209 223 242
208 222 244
206 220 241
189 205 229
211 225 245
167 183 210
60 94 137
60 95 139
61 96 147
61 96 139
60 94 133
61 96 141
60 94 136
60 95 137
60 94 131
61 95 139
61 95 135
60 95 141
61 97 145
61 96 133
61 96 142
60 94 133
59 93 133
61 96 139
59 93 131
61 95 147
61 96 143
59 94 129
61 96 141
60 94 131
58 92 127
61 96 137
60 95 134
60 94 131
61 95 136
59 94 127
60 94 137
61 95 135
61 95 137
60 94 137
60 95 135
60 95 134
61 95 141
57 91 115
61 96 140
59 93 129
60 94 129
61 96 136
59 93 121
59 93 131
59 93 129
60 94 127
58 93 134
58 92 122
59 94 130
60 95 141
61 95 137
59 94 136
60 94 137
60 95 139
60 94 133
60 95 129
60 94 134
59 94 135
60 94 133
60 94 138
58 92 129
60 95 138
61 95 138
60 95 136
59 93 134
59 93 129
59 93 126
60 94 139
59 93 129
58 92 132
59 93 135
58 92 123
59 94 134
58 91 122
58 91 126
58 91 129
60 94 134
59 93 134
59 93 134
58 91 128
60 94 139
58 90 123
58 92 130
58 90 127
59 92 127
58 91 129
59 92 131
56 88 121
57 88 104
57 89 120
57 88 115
56 87 121
55 86 115
57 88 121
56 86 113
55 86 117
53 81 99
55 85 127
54 82 110
52 81 104
51 78 107
49 74 90
69 75 63
68 67 29
50 51 29
51 52 30
34 39 22
38 42 21
38 43 24
43 47 27
53 58 32
49 55 31
61 65 40
62 67 39
72 76 44
59 66 39
69 75 42
80 83 48
71 77 44
86 90 55
80 84 50
103 104 57
100 101 56
101 102 51
105 106 60
116 116 60
111 111 61
112 112 64
116 116 63
124 123 63
112 111 59
126 123 68
120 119 60
126 125 68
128 127 65
123 122 65
144 140 75
138 134 71
127 126 64
141 139 68
147 143 76
138 135 68
140 136 69
145 141 73
149 145 74
149 145 76
150 146 76
145 142 73
147 143 72
157 151 83
145 141 74
148 145 70
155 150 74
153 149 70
153 149 75
158 153 76
158 153 74
164 158 78
158 154 78
164 159 83
161 155 78
157 153 80
163 158 84
159 154 74
161 155 75
164 158 85
162 156 78
168 162 84
172 165 90
164 158 76
161 156 77
159 152 78
168 162 89
167 161 81
163 157 82
172 165 90
166 160 84
164 158 74
166 160 85
165 159 75
165 160 78
168 161 84
168 160 80
165 160 75
163 157 77
169 162 85
171 164 87
174 167 87
170 163 86
164 158 75
166 159 80
167 159 83
164 158 83
166 159 80
167 160 86
167 160 82
161 156 72
167 160 87
167 160 83
168 161 86
166 159 84
163 157 79
165 159 80
165 158 82
163 157 77
170 164 85
169 162 84
168 162 82
169 162 83
169 162 84
163 157 82
170 163 87
171 164 85
171 164 84
161 154 75
168 162 85
161 155 67
169 162 84
164 158 77
162 155 80
160 153 77
163 156 81
162 156 78
164 157 78
156 151 72
160 154 75
159 152 79
159 152 75
160 154 80
155 148 75
159 152 72
159 153 76
163 156 79
161 155 82
166 159 83
164 158 82
163 156 80
160 154 76
160 154 80
156 151 70
159 153 76
153 148 71
161 154 85
155 149 75
151 146 67
162 155 80
154 148 75
156 149 78
148 143 74
155 150 76
163 157 81
222 236 255
222 236 255
222 236 255
222 236 255
222 236 255
222 236 255
221 235 254
222 236 255
223 236 255
222 236 255
222 236 255
222 236 255
222 236 255
222 236 255
221 235 255
221 235 254
222 236 255
222 236 255
221 235 255
223 236 255
221 235 255
221 235 255
222 236 255
222 236 255
222 236 255
221 235 255
223 236 255
222 236 255
222 236 255
222 236 255
222 236 255
222 236 255
222 235 254
222 236 255
222 236 255
222 236 255
221 235 253
222 236 253
221 235 253
222 236 255
222 236 254
220 235 254
221 235 253
221 235 252
222 236 254
222 236 254
219 233 245
216 231 246
218 232 248
217 231 249
217 231 249
214 228 244
216 230 244
217 232 245
213 227 246
215 230 242
211 226 238
210 224 242
216 230 245
211 226 242
215 229 244
217 232 250
218 232 248
209 224 235
217 231 249
212 227 235
210 225 241
218 233 242
205 220 225
209 224 240
213 227 241
212 226 238
211 226 236
211 226 239
216 230 242
217 232 244
217 232 240
218 233 245
219 233 245
218 232 242
221 235 252
219 233 245
217 232 242
218 232 242
218 233 244
219 233 245
219 233 245
219 233 245
218 233 244
219 234 246
217 232 241
220 234 249
219 233 245
219 233 244
219 233 245
218 233 245
216 231 241
219 234 248
218 233 242
219 234 248
217 232 241
216 231 236
219 233 245
220 234 249
218 233 244
216 231 236
220 234 249
219 233 246
220 234 250
216 231 237
215 230 237
209 224 233
215 229 245
217 231 250
215 229 244
212 225 243
215 229 250
212 226 246
210 224 241
210 224 243
217 232 251
212 226 246
210 224 244
214 228 247
212 226 246
217 230 249
220 233 253
213 227 248
212 226 246
219 232 252
216 230 250
217 231 249
213 227 246
212 226 245
212 226 245
215 229 248
215 229 248
210 225 239
160 177 194
73 102 133
66 97 125
186 202 212
219 232 250
212 226 244
214 228 248
211 225 243
198 213 232
214 228 247
164 181 203
60 95 133
59 93 129
61 96 141
61 95 131
60 95 133
60 95 139
59 93 130
62 97 149
60 95 134
61 96 145
60 95 139
61 96 140
61 96 141
60 95 137
60 94 131
61 96 134
60 94 130
59 94 133
62 97 145
60 95 135
60 95 133
60 95 136
60 95 133
58 91 120
60 94 133
60 94 134
59 93 120
60 94 140
62 97 150
61 95 135
59 94 131
58 93 135
59 93 131
58 93 124
60 94 125
58 92 126
60 94 136
59 94 122
59 94 131
59 94 127
59 93 122
60 95 139
60 94 131
58 92 121
61 95 142
61 96 139
59 92 133
60 94 130
60 95 137
58 91 124
60 95 139
59 94 133
60 94 131
61 96 140
60 95 135
60 95 136
60 94 130
61 95 134
60 95 133
61 95 139
60 94 135
59 93 129
58 93 114
59 93 132
59 94 136
58 92 124
60 94 131
60 94 134
60 94 124
59 93 121
59 93 125
59 93 127
59 92 131
59 93 125
59 93 136
59 92 130
59 93 134
58 92 127
58 91 127
57 90 131
59 92 136
57 89 132
57 88 121
59 92 137
59 92 130
58 92 125
58 90 128
57 88 125
56 88 116
57 88 127
55 86 114
56 88 123
55 85 109
55 85 121
57 88 125
56 86 121
54 84 118
56 86 113
54 82 110
51 78 100
52 78 100
46 69 82
61 67 54
68 67 30
46 47 21
54 55 24
35 40 22
35 42 25
35 40 19
40 44 24
41 48 26
49 55 33
41 50 36
51 58 29
65 70 39
67 72 37
69 71 41
86 89 52
81 83 51
83 87 47
86 89 46
101 102 56
108 109 58
92 93 52
115 115 59
109 109 58
101 103 59
115 114 64
118 117 59
108 108 57
122 121 66
118 118 64
128 126 59
127 126 65
119 117 57
125 123 66
139 136 73
122 121 70
143 139 74
141 137 71
135 132 69
137 134 71
141 138 62
152 148 74
150 146 78
149 144 73
152 148 77
146 142 72
151 147 75
155 150 79
148 144 77
151 147 77
151 146 65
158 153 85
156 150 77
156 151 76
157 152 75
159 154 78
159 155 76
161 155 79
158 154 76
170 163 87
162 157 84
161 156 77
163 157 78
159 154 71
164 158 78
158 154 77
166 160 84
162 156 79
165 160 85
162 156 74
167 161 80
166 160 84
164 159 78
166 160 81
169 163 82
165 158 79
162 156 76
163 157 76
162 157 74
168 161 85
167 161 84
160 155 74
167 160 86
164 158 76
167 162 80
162 157 79
165 159 77
163 157 75
163 158 79
167 160 80
167 160 79
168 162 78
166 159 81
168 162 77
167 160 77
171 165 85
165 159 81
167 159 76
164 158 83
166 160 80
167 160 85
163 157 78
165 158 74
169 162 84
163 157 77
171 164 83
162 157 79
167 160 78
167 160 80
166 160 79
158 152 76
162 155 80
163 157 75
164 158 78
161 155 75
163 158 75
163 156 76
162 156 80
162 156 77
162 155 81
163 158 75
161 154 75
165 157 80
162 156 80
163 157 78
162 155 81
163 156 83
162 156 80
164 157 81
156 151 74
164 158 80
159 153 75
160 154 80
156 151 77
164 157 82
156 149 73
162 155 77
151 146 69
157 149 84
159 152 76
167 159 84
154 149 72
151 147 69
160 154 80
159 152 80
159 153 77
159 153 73
158 153 73
162 154 81
223 237 255
222 236 255
223 236 255
223 236 255
223 237 255
223 236 255
223 236 255
223 236 255
223 236 255
223 236 255
223 236 255
223 236 255
223 236 255
223 236 255
222 235 255
223 236 255
223 236 255
222 236 254
223 236 255
222 236 253
222 236 255
220 234 253
222 236 253
221 235 253
221 235 252
219 233 247
221 235 252
220 234 249
220 234 249
221 235 252
221 235 250
220 234 251
221 235 252
221 235 250
218 233 242
220 234 248
220 234 248
217 232 240
220 235 250
219 233 246
219 233 245
218 233 244
219 234 246
218 233 242
219 234 246
219 234 246
218 233 245
216 230 248
215 230 240
220 234 250
219 233 247
213 227 239
216 230 245
209 224 243
210 225 237
216 230 245
212 227 238
217 231 248
211 226 242
211 226 239
214 229 242
216 230 242
213 228 242
211 225 236
214 229 238
212 226 244
214 228 244
210 225 233
212 226 244
215 230 240
216 231 244
208 223 232
215 229 242
216 231 241
209 224 233
220 234 246
219 234 248
215 230 234
217 232 241
218 233 244
220 234 248
220 234 249
219 233 245
216 231 237
219 234 248
218 233 242
220 235 250
219 234 248
218 233 244
218 233 241
220 234 248
218 233 242
219 233 246
218 233 245
216 231 240
216 231 238
219 233 246
219 234 246
220 234 248
219 233 246
218 233 244
218 233 244
218 233 245
217 232 241
218 232 242
217 231 240
220 234 246
219 233 245
219 233 250
220 234 249
219 233 245
215 230 244
217 231 250
214 229 242
217 231 246
213 227 245
216 229 248
212 226 246
213 227 244
213 227 246
215 229 249
219 233 254
216 230 248
212 226 245
212 226 246
220 234 254
218 231 250
214 228 248
213 227 245
215 229 248
204 218 236
217 231 250
216 229 250
211 225 246
213 227 242
205 221 214
193 211 182
190 208 176
120 141 139
71 101 130
60 93 108
160 183 82
181 202 110
196 212 197
214 228 245
211 225 244
197 211 233
221 235 253
183 198 217
57 91 115
59 94 140
59 93 130
60 95 131
60 94 134
59 93 125
62 97 148
60 95 135
59 94 126
62 97 145
61 95 136
59 94 136
60 94 135
61 96 140
59 94 134
60 94 134
59 94 127
59 94 127
58 92 118
61 96 139
59 93 129
59 93 131
60 95 133
59 94 125
59 94 131
59 93 122
58 92 129
59 94 131
60 94 130
60 94 134
60 95 135
59 93 129
59 94 135
60 95 135
59 93 126
60 94 129
59 94 133
61 96 137
60 94 136
60 94 122
61 96 142
59 93 125
58 91 124
60 95 134
59 93 122
60 94 136
60 94 134
60 95 134
59 93 131
59 94 122
60 94 133
59 93 126
58 92 127
60 95 129
61 95 141
59 94 124
61 95 136
59 93 129
60 94 130
61 95 136
59 93 125
60 94 137
59 93 129
58 91 130
60 94 133
58 92 125
58 92 128
59 93 137
60 95 138
59 93 130
58 92 129
59 92 132
58 90 121
60 93 128
59 93 131
58 91 125
60 94 135
59 92 128
59 92 128
57 89 120
58 91 128
57 90 129
55 87 110
56 88 120
56 88 121
57 89 118
58 91 121
57 89 123
57 88 118
57 89 116
56 87 117
56 88 126
55 86 113
56 87 121
54 84 122
55 85 117
55 86 116
53 81 111
53 82 105
52 79 107
50 77 97
45 69 87
77 79 46
81 79 41
43 45 23
62 61 27
50 50 25
53 54 20
31 38 20
49 52 21
49 54 27
45 51 23
64 69 35
50 55 34
60 66 40
56 61 37
80 82 43
68 72 43
88 90 49
86 88 48
88 92 47
92 94 47
97 98 49
92 95 55
104 104 53
106 106 53
106 106 59
117 116 64
108 110 57
118 118 65
110 110 55
121 120 62
123 121 66
118 117 60
136 134 69
119 118 61
144 140 73
133 130 63
133 131 67
135 131 66
138 134 70
137 134 73
139 136 69
138 135 71
146 143 73
140 138 72
138 136 69
149 146 74
151 145 76
159 153 83
156 150 78
151 148 74
152 147 72
147 144 65
155 150 76
159 153 78
161 157 80
156 151 70
158 153 77
157 153 79
163 156 82
164 158 80
159 154 71
164 157 79
160 155 74
158 153 76
164 158 80
165 159 80
164 158 77
160 156 75
159 154 73
164 159 80
165 159 81
160 154 74
166 159 81
165 159 84
168 161 80
166 160 77
164 159 77
166 159 78
162 157 75
162 157 74
168 161 75
168 162 78
166 159 78
168 162 83
173 166 87
167 160 82
169 162 79
167 159 83
172 165 82
167 160 86
167 161 75
169 162 86
167 160 75
168 162 80
168 161 84
160 155 69
165 159 77
166 160 80
163 156 80
167 160 76
163 157 73
164 157 75
164 158 76
165 158 81
161 155 78
161 155 76
166 160 84
163 156 79
166 160 76
165 157 72
164 157 81
166 160 76
166 159 82
164 157 78
170 163 84
162 155 75
158 152 70
166 160 79
166 160 80
160 155 70
159 154 75
161 154 80
157 151 70
165 159 83
166 158 84
162 156 85
158 151 74
160 153 75
167 160 85
159 153 73
156 150 78
160 154 75
162 155 75
159 154 73
158 151 72
157 150 80
151 145 69
162 155 83
157 151 73
153 147 74
152 147 73
152 146 76
159 152 75
154 149 78
161 155 80
161 154 73
161 155 73
159 151 81
158 152 79
223 237 255
223 237 255
223 237 255
222 236 253
223 236 254
222 236 253
223 237 255
220 234 250
221 235 250
221 235 249
223 237 255
221 235 249
222 236 252
220 234 246
219 233 244
219 234 246
219 233 245
220 234 248
220 234 248
217 231 239
219 233 242
218 233 245
221 235 249
218 233 244
221 235 252
218 232 238
220 234 251
218 232 242
220 235 249
218 233 244
220 234 246
219 233 245
218 232 243
219 234 246
219 233 245
218 233 242
220 234 248
220 234 248
218 233 244
220 234 248
220 234 248
217 232 238
219 233 245
221 235 250
217 232 241
218 232 241
219 234 246
220 234 248
214 229 242
215 230 244
218 232 241
217 232 240
215 230 242
216 230 242
209 223 239
211 226 240
210 225 235
209 224 232
214 228 241
215 229 240
212 227 236
210 225 233
214 228 240
210 225 236
211 226 242
210 225 240
204 219 234
211 225 243
210 225 238
205 220 235
210 224 239
211 226 237
214 228 238
214 229 240
218 233 246
221 235 250
219 234 248
218 232 244
220 234 248
217 232 241
218 233 242
218 233 245
219 234 246
219 233 244
218 233 242
218 233 242
219 234 246
217 232 240
219 233 245
219 233 244
220 235 249
218 233 245
219 233 246
217 232 244
218 233 242
216 231 237
223 236 254
217 232 241
220 234 246
219 233 245
219 233 244
218 232 242
220 234 246
217 231 241
218 232 242
219 233 244
218 233 242
217 232 242
217 231 242
219 233 245
216 230 238
219 233 250
213 227 240
220 233 249
214 228 244
217 231 246
215 229 246
212 226 244
216 230 247
211 225 245
214 227 245
215 229 248
216 229 248
208 222 240
217 231 250
216 230 248
212 226 246
217 231 252
220 234 252
217 231 249
212 225 238
205 221 215
197 214 190
182 202 134
182 203 117
174 196 110
180 201 124
180 201 142
92 119 139
68 98 107
105 131 112
168 192 40
176 197 88
170 193 67
189 208 167
209 222 239
197 212 228
211 227 220
200 214 237
59 93 124
58 92 114
60 95 134
60 94 134
62 97 142
61 96 140
60 94 129
61 95 142
59 94 125
61 95 139
58 92 120
60 95 141
59 93 126
59 94 133
61 95 135
60 94 134
60 95 130
61 96 145
60 95 124
60 94 127
60 95 142
60 94 130
60 95 137
61 96 140
60 94 131
61 95 140
59 93 127
60 95 131
59 94 131
62 96 139
60 94 130
59 93 139
58 93 126
60 95 130
60 94 129
60 95 135
59 93 124
61 95 131
60 95 135
61 95 140
60 95 133
60 95 136
59 94 130
60 95 131
60 94 134
59 94 129
60 93 131
61 96 142
60 94 137
60 94 135
60 95 130
59 94 131
60 94 131
60 95 135
60 94 133
59 94 132
58 91 117
60 95 134
58 92 129
61 95 130
60 95 136
61 95 139
59 93 129
60 94 131
60 93 134
59 93 136
58 91 129
59 94 135
59 93 129
57 90 128
59 92 132
57 90 115
58 91 122
57 89 119
59 93 129
59 93 124
60 94 139
57 90 114
58 90 126
58 92 126
59 92 131
59 92 126
56 88 120
59 93 136
58 89 125
58 90 125
57 88 120
58 90 123
56 88 116
56 87 115
55 86 113
55 86 113
57 88 123
56 87 118
55 86 116
55 85 109
52 81 99
53 83 105
52 79 100
51 77 97
46 70 78
46 70 97
90 94 76
67 67 25
66 66 25
66 65 30
54 56 25
47 49 16
43 47 17
47 51 23
51 56 30
36 42 23
49 56 33
45 52 32
60 63 35
58 63 41
57 62 32
87 89 51
73 77 44
93 94 47
81 85 43
96 96 50
101 102 49
97 98 53
103 103 50
111 110 53
102 102 57
105 105 55
110 111 59
114 113 61
112 111 59
114 114 60
120 119 53
126 124 58
127 126 65
125 123 60
133 130 64
138 134 67
126 125 58
136 133 73
141 138 73
132 130 64
133 131 65
144 141 75
146 142 75
146 143 72
147 142 72
152 147 66
157 151 76
149 144 76
152 147 75
147 143 72
145 142 68
154 149 76
159 153 82
152 148 72
158 153 74
157 152 75
157 153 70
170 163 85
156 152 74
163 156 74
164 159 80
160 155 74
160 154 78
166 160 77
160 155 75
165 159 79
161 155 72
163 158 79
157 152 68
166 160 78
167 161 80
166 160 79
160 155 70
161 155 76
166 161 83
166 160 78
164 158 75
168 162 82
165 158 75
167 160 77
161 156 76
168 162 77
164 158 76
168 160 78
169 162 84
167 160 80
166 159 75
166 160 77
165 160 77
167 161 77
165 159 78
166 160 76
167 161 77
168 161 84
162 156 78
165 158 80
169 162 84
166 160 79
161 155 77
171 163 87
165 158 81
166 160 78
165 159 75
166 159 82
164 158 79
163 157 76
165 159 78
166 159 78
166 159 74
161 155 76
163 157 75
162 156 71
160 153 80
160 154 74
167 160 80
162 156 78
166 159 79
160 154 75
160 154 74
162 154 74
161 155 75
163 156 83
166 159 81
157 151 70
158 152 77
164 158 79
163 156 87
158 152 77
160 154 75
154 148 68
161 154 82
155 149 68
156 150 69
161 154 82
158 152 80
155 149 71
151 146 61
156 151 75
156 150 68
165 158 79
152 147 65
157 150 77
157 150 80
156 150 75
156 149 74
157 151 80
152 145 73
148 142 74
156 149 77
221 235 250
221 235 249
219 233 242
220 234 245
217 232 238
219 233 241
220 234 246
219 233 245
220 234 246
222 236 252
220 234 246
221 235 249
220 234 248
220 234 246
219 233 242
220 234 246
221 235 249
217 232 240
220 234 248
219 233 244
218 233 240
219 233 244
219 233 246
220 234 249
220 234 246
220 234 248
218 232 242
220 234 246
217 232 241
217 231 237
219 233 245
215 230 236
221 235 250
219 233 244
220 234 248
219 234 245
219 234 245
218 233 241
220 234 246
221 235 249
221 235 249
220 234 246
217 232 238
221 235 249
217 232 240
221 235 249
219 234 246
219 234 245
217 232 243
215 229 244
211 226 234
215 230 242
216 230 238
210 225 235
216 230 247
208 222 241
213 228 241
217 231 244
220 234 250
215 229 246
214 228 236
213 228 238
214 229 244
205 220 227
206 221 234
212 227 242
207 222 231
212 227 233
214 229 236
212 226 241
215 229 239
215 229 244
217 231 246
218 233 244
218 233 244
219 233 245
220 234 249
219 233 245
220 234 248
220 234 248
217 232 240
219 233 244
217 232 238
221 235 252
219 234 248
218 233 245
216 231 236
220 234 246
219 233 245
221 235 250
219 233 245
219 233 244
219 233 244
221 235 250
220 234 248
219 234 245
217 232 240
219 233 245
220 234 246
218 233 241
220 234 248
219 234 248
217 231 241
217 231 242
218 232 244
218 232 241
220 234 248
217 231 245
219 233 248
216 230 244
222 235 252
218 232 244
218 232 248
217 230 244
217 231 246
216 230 244
221 234 251
213 227 244
215 229 247
214 228 248
212 226 246
215 229 248
213 227 246
216 230 250
214 228 241
209 224 227
202 218 206
190 208 165
181 202 130
174 196 107
172 194 86
170 193 67
174 196 88
171 193 100
177 198 121
177 198 117
181 203 124
179 200 121
66 97 110
63 96 115
141 164 82
171 194 0
167 191 54
170 193 57
167 189 54
183 200 182
199 214 223
210 226 217
211 225 236
58 92 122
59 93 127
60 94 131
59 93 122
59 94 127
59 93 117
60 94 124
60 94 130
59 94 124
60 94 129
61 96 134
58 92 124
58 92 129
59 93 130
60 95 136
59 93 124
59 92 118
59 93 118
60 95 136
59 93 127
59 93 129
61 96 141
61 96 145
61 95 136
58 92 131
61 96 143
60 94 130
59 94 130
60 94 125
59 93 131
58 91 124
59 93 135
58 92 130
61 95 137
59 93 122
60 95 137
60 94 134
60 95 125
59 93 131
59 93 134
60 94 130
60 95 134
59 93 127
59 92 118
60 94 130
59 93 126
59 93 126
59 93 129
59 93 133
60 94 133
59 92 122
59 93 135
60 95 142
58 92 126
61 95 135
60 95 134
58 91 121
60 94 129
59 93 134
60 94 129
58 92 120
60 93 131
60 94 127
60 94 135
59 94 127
58 92 118
60 94 133
61 95 140
60 94 128
59 92 128
59 92 125
57 90 124
58 91 112
59 93 121
59 93 129
58 92 124
57 91 121
57 89 115
57 90 123
61 95 144
58 91 124
59 93 132
59 92 124
56 88 120
57 89 119
56 89 112
56 88 119
56 87 115
57 89 127
56 87 118
57 89 120
57 89 115
57 88 120
56 87 115
54 84 104
53 83 113
55 84 111
52 80 96
54 82 104
51 78 91
48 74 91
49 74 92
137 143 140
67 66 30
66 66 31
59 60 28
40 43 17
47 51 24
46 51 26
58 61 24
58 62 24
55 60 26
51 55 26
65 69 25
64 67 35
69 72 33
77 77 35
71 74 41
79 82 41
90 91 42
83 87 45
86 89 44
90 92 51
95 98 55
102 103 47
109 108 54
115 113 57
115 114 54
108 109 56
116 115 57
117 116 56
113 113 55
124 123 60
121 120 60
114 114 57
125 122 55
138 135 68
126 124 63
135 132 68
136 133 66
140 136 60
127 125 67
143 139 66
140 136 71
146 142 72
149 145 71
146 143 72
149 145 74
143 140 60
147 141 75
156 150 74
153 149 68
148 144 70
150 145 67
157 151 79
154 149 80
150 146 68
158 153 73
157 152 75
162 156 77
159 154 76
163 156 80
159 154 81
157 153 75
159 154 81
163 157 81
163 157 83
167 161 77
169 162 86
159 153 74
160 154 75
171 164 88
171 165 80
162 156 75
160 155 75
164 157 75
160 155 73
163 157 78
162 157 69
165 158 79
161 155 70
167 161 78
164 158 78
169 161 78
164 158 79
169 162 82
165 159 79
167 161 77
164 158 78
167 161 78
165 158 72
168 161 81
161 155 72
166 160 80
166 159 78
167 160 74
163 157 75
167 160 77
165 158 77
166 159 78
161 155 75
162 156 77
166 160 79
163 157 79
168 161 81
166 159 82
164 157 77
167 161 80
161 154 74
163 157 70
162 157 73
165 157 79
160 154 75
164 157 80
165 158 78
165 158 77
163 157 75
161 155 75
158 153 75
164 157 75
163 157 83
165 158 75
160 154 78
164 157 81
162 155 80
158 151 74
159 154 75
161 155 76
162 156 83
159 154 75
163 156 80
163 156 75
164 156 85
163 156 81
156 149 72
149 143 66
155 149 69
156 150 74
152 145 68
154 148 72
161 154 73
162 156 74
157 151 75
152 146 73
148 141 76
147 142 61
157 151 74
151 146 73
155 149 73
162 155 79
160 153 76
222 235 250
219 233 241
219 233 244
220 234 246
218 233 241
218 232 240
220 234 245
219 233 241
220 234 246
222 235 250
222 235 252
222 235 250
219 233 242
218 232 237
216 231 234
220 234 246
221 234 246
223 236 253
219 233 246
219 233 244
219 233 246
217 232 244
218 232 237
216 231 239
220 234 246
218 232 242
219 233 246
220 234 246
220 234 248
219 233 242
220 234 245
222 236 252
221 235 248
219 233 244
220 234 245
220 234 246
219 233 245
219 234 245
220 234 246
220 234 245
221 235 249
219 234 245
217 232 237
219 233 242
219 233 242
221 235 250
221 235 249
219 234 246
219 234 246
217 231 239
214 229 240
217 232 242
213 228 233
217 231 238
214 228 240
214 228 242
219 232 247
215 229 243
214 228 244
215 229 242
211 225 240
215 229 240
218 232 249
213 228 240
217 231 246
208 223 236
215 229 247
214 228 233
216 230 242
212 226 238
216 230 246
216 230 243
216 231 242
217 231 237
217 232 238
219 234 246
220 234 249
218 232 241
218 232 238
218 232 242
221 235 248
220 234 246
214 229 231
217 232 242
217 231 238
220 234 245
222 235 250
218 232 242
219 233 245
220 234 248
217 232 242
217 232 240
220 234 245
220 234 250
219 234 245
220 234 248
220 234 249
218 232 244
219 233 245
217 232 241
218 232 240
219 233 244
220 233 248
221 235 250
217 231 242
220 234 245
218 232 242
216 229 241
220 233 250
219 233 246
213 227 234
218 231 244
212 226 240
218 232 245
220 233 250
214 229 240
216 230 244
205 220 217
196 212 195
194 211 181
188 206 168
186 206 133
179 200 129
173 195 82
176 198 82
173 196 57
169 192 47
172 195 72
176 198 94
173 196 76
172 194 84
170 193 84
177 199 95
175 197 117
175 197 107
177 198 115
183 203 144
159 180 99
61 93 96
88 116 105
170 193 31
172 195 18
171 194 47
167 190 62
167 190 60
168 191 102
209 224 227
207 224 207
218 233 241
85 112 141
58 92 121
58 92 120
60 94 129
57 90 110
58 92 114
59 94 131
59 93 130
58 92 103
60 94 133
58 93 118
58 92 118
59 94 127
60 95 129
60 94 129
60 94 134
60 94 127
59 93 121
60 95 117
60 94 130
60 94 125
59 93 124
59 94 127
59 93 124
59 93 120
60 94 126
59 94 122
58 93 130
59 92 126
58 93 126
59 94 129
59 93 130
58 92 120
60 95 130
60 95 129
59 93 130
58 92 118
60 94 140
60 94 129
58 92 120
59 94 127
61 96 140
58 92 122
58 92 121
58 92 129
60 94 137
60 94 125
60 94 129
59 94 126
59 93 127
58 92 118
59 94 117
58 92 122
59 93 129
60 94 131
61 95 136
58 92 126
59 93 130
59 93 130
60 94 134
58 92 127
60 95 134
59 93 129
59 93 133
60 94 131
59 93 125
59 94 131
60 94 132
58 92 121
58 92 117
59 93 123
58 92 120
59 93 135
57 90 127
61 95 139
57 90 117
60 93 135
58 91 128
59 91 123
57 90 121
57 90 116
58 91 123
56 87 116
59 92 130
58 91 123
58 91 118
59 92 127
56 88 118
56 88 117
55 86 118
55 85 122
55 85 113
56 87 119
54 83 109
55 86 121
53 82 112
52 80 106
54 83 116
49 76 93
51 78 98
49 76 101
81 99 115
165 172 175
78 77 35
57 60 19
53 52 18
46 48 14
39 43 18
36 38 8
45 48 18
50 55 20
57 60 19
55 59 22
60 64 30
57 64 26
63 68 30
68 73 34
72 76 41
96 97 45
88 89 36
83 85 38
94 95 50
97 99 55
92 94 51
89 93 48
98 100 52
106 106 58
101 102 52
101 101 51
111 111 54
123 120 63
130 126 62
121 120 56
126 124 66
136 134 64
130 127 63
130 127 62
129 127 65
133 131 61
129 127 61
140 137 66
144 141 70
141 137 70
144 140 70
143 140 70
143 140 67
144 140 66
148 145 65
141 138 63
146 141 62
149 145 71
149 144 76
155 149 72
148 144 64
155 150 74
151 146 69
152 149 72
156 151 75
151 146 67
156 151 73
155 149 72
155 149 70
164 158 70
162 156 76
162 156 71
158 152 68
157 152 67
161 155 73
155 150 71
163 156 74
166 160 71
158 152 75
169 162 83
161 155 68
165 159 71
161 156 66
163 156 73
162 156 75
165 159 74
162 155 74
165 158 74
165 158 78
161 155 75
163 158 75
161 155 74
162 156 71
166 159 72
170 162 74
168 162 83
167 159 79
165 159 74
169 162 84
168 162 78
158 153 72
165 158 72
163 157 79
162 155 76
164 157 72
164 158 75
159 153 69
166 160 81
166 159 82
164 158 68
158 153 72
160 154 74
160 155 74
163 156 75
161 154 78
165 157 75
158 152 67
163 157 72
161 154 75
169 162 81
163 156 77
164 158 74
161 155 76
161 156 72
159 153 75
166 159 85
167 160 81
158 152 80
161 156 77
165 159 75
160 154 76
161 154 75
166 159 82
163 157 78
153 147 65
160 155 69
160 155 75
157 151 74
165 159 79
163 157 77
167 161 80
164 157 71
159 153 67
152 147 66
165 157 81
148 143 68
156 148 71
153 146 70
158 151 74
160 153 73
153 147 75
164 157 76
152 146 73
153 146 76
152 146 75
154 147 71
151 146 67
153 147 72
216 231 233
219 233 241
218 232 238
220 234 244
221 235 248
223 236 250
223 236 253
220 234 245
221 235 246
220 234 245
221 234 248
218 232 238
220 234 244
220 234 245
222 236 252
220 234 244
220 234 246
222 235 249
219 233 244
221 234 250
220 234 245
219 233 242
221 234 246
219 233 246
220 234 246
222 235 250
216 230 235
217 232 240
220 233 245
220 234 246
221 235 248
220 234 250
218 232 238
220 234 246
220 234 248
223 236 253
217 232 238
221 235 246
217 232 238
219 233 244
219 233 242
221 235 249
220 234 245
221 235 249
219 234 245
217 232 240
218 233 242
218 232 241
220 234 248
219 234 245
220 233 250
219 233 246
212 227 240
219 233 243
214 228 239
217 231 245
216 230 242
213 227 241
213 226 244
212 226 240
215 229 238
211 225 237
219 232 245
210 224 234
217 231 241
216 230 243
212 226 238
216 230 242
212 227 239
218 232 242
214 228 236
220 234 249
221 235 250
219 233 245
220 234 246
217 232 240
219 233 245
219 233 244
219 233 244
219 234 246
219 233 242
217 232 241
217 232 240
221 235 249
218 233 244
213 229 231
219 234 248
217 231 242
219 233 246
217 231 241
220 234 248
219 234 244
221 235 250
218 232 241
218 233 241
218 232 244
219 233 244
219 233 246
221 235 249
219 233 245
220 234 249
218 232 245
218 233 244
214 229 228
213 229 230
209 225 214
212 227 221
204 220 201
196 213 181
197 215 181
195 214 165
188 207 144
183 204 126
180 201 126
172 195 88
174 196 62
171 194 70
173 196 67
170 193 76
168 191 72
172 195 80
171 194 76
174 196 67
175 198 88
172 195 70
173 196 67
166 189 67
173 196 95
171 194 78
170 193 97
173 195 86
176 198 108
176 198 113
171 194 84
170 193 99
180 200 135
175 198 88
135 158 112
64 95 88
132 156 66
166 189 57
169 192 36
166 190 25
166 189 52
169 193 57
163 186 68
208 224 208
203 221 193
218 232 238
114 135 157
57 91 115
57 90 115
59 93 124
60 94 133
60 95 134
59 93 118
58 92 121
60 94 125
59 93 130
60 94 135
59 93 134
59 94 125
59 94 124
59 93 124
58 92 115
60 94 120
57 92 115
58 92 122
60 95 133
60 94 129
59 94 124
59 94 133
58 92 114
60 94 135
59 93 121
59 93 125
59 93 125
58 92 120
60 94 131
60 95 135
59 94 126
60 94 127
60 95 140
59 94 125
58 92 124
58 92 118
58 92 121
60 94 133
59 93 126
60 94 131
61 96 139
59 94 134
58 92 118
59 93 121
60 94 131
58 92 117
59 93 122
59 93 126
61 96 141
58 92 129
60 95 131
58 93 125
59 93 122
59 93 126
58 91 126
58 92 120
59 93 120
59 93 125
61 96 136
59 93 127
59 92 129
58 91 127
59 92 129
58 92 124
59 92 130
59 93 130
59 93 124
57 91 126
59 93 130
57 90 114
57 90 115
58 91 124
56 89 115
57 90 114
58 92 121
58 91 109
59 92 125
59 93 135
58 91 119
58 91 128
58 91 117
59 93 132
59 92 131
57 90 123
57 90 127
58 90 126
58 90 128
57 89 122
54 84 112
57 88 121
55 85 105
53 82 101
53 82 105
53 82 99
53 83 100
54 83 106
53 81 100
52 80 96
48 75 89
50 75 105
124 137 150
204 215 229
83 81 37
59 58 23
47 49 16
47 48 13
44 47 12
53 56 15
60 62 18
40 47 23
60 64 25
58 63 28
48 54 23
64 67 33
53 58 31
62 68 33
75 78 36
80 81 35
83 84 44
82 85 44
93 93 49
94 94 47
88 90 36
106 106 53
111 110 51
107 107 51
115 113 59
117 115 58
106 106 49
116 116 61
119 117 47
119 117 53
120 120 59
120 119 58
125 123 60
127 125 61
129 128 61
131 128 60
128 127 55
142 138 70
143 139 73
127 126 57
133 131 63
143 140 64
149 145 69
146 142 69
144 140 65
146 142 63
146 141 64
145 140 72
150 145 68
149 146 72
154 149 67
153 148 74
152 147 76
159 153 76
152 148 69
148 144 73
161 155 75
154 149 68
157 152 71
158 152 71
154 149 67
158 153 72
157 152 69
165 159 82
163 157 75
161 155 71
158 153 66
157 151 72
165 158 80
160 154 70
163 156 72
163 158 78
165 159 75
162 156 68
166 159 79
163 156 69
160 154 72
162 157 66
163 158 69
169 161 80
163 156 77
166 160 81
168 161 79
159 154 69
163 157 79
168 160 80
168 161 75
168 161 79
167 161 76
162 155 71
165 159 78
165 160 73
163 156 77
164 158 66
165 158 77
165 158 75
159 153 65
156 150 65
165 158 76
160 154 74
164 158 78
162 156 75
170 163 82
164 158 78
160 154 71
165 158 75
167 160 77
162 156 73
161 155 75
157 150 78
166 159 78
162 155 76
163 156 75
154 147 66
160 155 74
165 158 76
158 150 73
162 156 75
156 151 68
155 150 71
161 155 76
163 156 83
161 155 73
164 157 81
160 154 70
160 154 73
162 155 75
164 156 78
154 148 69
160 154 79
161 154 75
159 153 74
162 156 76
171 163 90
163 156 74
152 146 70
157 150 70
154 148 70
163 156 79
156 151 72
144 138 63
147 142 64
160 154 73
159 152 82
152 147 70
158 150 80
149 144 66
152 146 71
191 211 144
188 209 130
191 210 144
194 213 153
198 217 175
205 221 191
204 221 199
211 227 218
214 228 226
220 234 244
221 235 248
221 235 246
216 230 233
217 232 242
221 235 248
221 235 250
220 234 242
220 234 247
217 231 244
220 234 248
215 230 233
220 234 246
220 234 245
219 233 244
218 232 237
218 232 244
221 235 250
219 233 246
219 233 241
219 233 241
218 232 245
220 233 248
220 234 248
219 234 244
217 231 236
220 234 248
219 234 244
219 233 244
221 234 248
219 233 242
219 233 241
221 235 248
220 234 248
220 234 246
219 234 245
220 234 246
218 232 242
219 233 242
217 231 236
218 233 242
216 231 236
218 233 241
217 231 239
219 233 246
218 232 241
212 227 236
215 229 243
216 230 246
218 232 246
214 229 239
216 230 244
214 228 241
210 226 226
218 232 246
215 229 242
205 219 234
214 228 244
219 233 248
219 233 246
220 234 249
220 234 246
220 234 245
219 234 246
219 234 245
220 234 248
220 234 245
221 235 248
220 234 248
219 233 244
219 233 246
220 234 248
220 234 248
219 233 242
218 232 241
218 232 244
221 235 246
221 235 250
215 230 231
215 230 233
208 225 217
210 226 215
209 225 214
206 222 199
205 222 201
199 217 181
195 213 161
197 216 177
192 212 151
195 214 161
188 207 140
185 205 111
181 204 105
178 200 92
177 199 92
175 198 67
175 198 72
178 201 88
175 199 67
170 193 62
175 197 62
175 198 67
172 195 76
175 197 51
170 193 88
171 194 82
170 193 65
174 196 60
169 191 74
172 194 54
171 194 88
169 192 76
163 186 70
169 192 65
170 194 68
172 194 67
171 194 62
174 197 80
166 188 88
171 193 78
170 194 70
173 196 80
172 195 76
173 196 95
172 194 117
181 202 140
174 195 118
177 199 97
104 128 85
92 119 99
164 188 40
163 186 25
170 194 40
165 188 31
164 187 68
165 188 57
171 195 47
204 221 194
199 217 181
223 236 253
155 172 195
59 93 126
59 93 131
58 92 118
58 92 120
60 95 137
59 94 127
57 91 114
59 93 127
59 94 125
59 93 122
60 94 126
58 92 115
59 94 133
59 93 120
59 93 124
59 93 125
60 94 130
58 92 121
60 95 129
59 93 120
59 93 129
60 95 135
58 92 118
58 93 118
60 94 131
60 94 129
59 93 125
59 93 127
59 93 127
60 95 129
60 95 131
59 93 131
60 94 134
60 94 126
58 92 124
59 93 130
60 94 131
59 94 134
59 93 122
60 94 124
59 94 135
56 90 117
60 94 130
60 94 130
59 93 135
57 91 114
60 94 136
58 92 129
60 95 130
59 93 121
59 93 127
58 90 118
59 93 133
60 94 135
59 93 132
60 93 133
60 94 130
60 95 130
57 90 113
56 89 115
59 92 124
57 91 120
59 94 132
59 93 112
59 92 124
59 93 133
57 91 118
59 93 127
59 93 127
58 91 129
59 93 129
58 91 120
56 88 108
55 87 111
56 88 113
58 92 124
56 88 114
56 88 112
58 91 118
57 90 117
59 92 128
57 90 122
58 91 124
57 89 121
56 87 120
57 89 118
57 89 112
57 89 130
54 85 111
56 88 126
55 86 111
54 84 99
55 85 105
54 84 112
53 82 99
54 83 104
52 80 103
49 75 84
49 75 89
47 72 82
151 164 179
219 231 248
100 97 41
72 70 28
67 66 21
42 44 7
54 56 21
52 54 19
48 50 17
52 56 14
40 45 20
59 63 23
64 68 23
61 64 22
64 69 29
69 71 34
71 74 35
66 69 34
84 86 36
83 86 38
77 80 35
88 89 43
93 94 46
96 96 42
104 104 43
102 103 45
94 94 45
115 113 47
111 111 48
118 116 56
120 119 54
121 120 59
125 122 55
132 129 64
130 127 57
130 128 64
134 131 62
133 130 60
126 125 57
139 135 69
129 127 63
134 130 63
148 143 70
150 143 69
138 136 69
142 138 71
146 142 65
143 140 68
147 142 72
152 148 71
146 142 66
159 153 76
145 142 63
147 143 65
155 149 72
156 151 66
145 141 59
157 152 76
157 152 67
152 147 68
159 153 74
159 152 77
159 153 72
160 155 77
161 156 77
163 157 75
161 155 75
157 151 70
161 155 71
169 162 82
165 158 73
161 156 77
165 158 78
161 155 73
158 152 67
164 158 71
162 156 74
164 158 78
163 157 74
168 162 78
166 158 76
163 157 71
166 158 80
163 156 69
165 158 78
161 154 73
168 161 77
169 162 80
164 158 77
165 158 76
164 157 75
165 159 75
160 153 68
158 153 66
165 158 77
164 157 75
161 156 72
156 149 73
166 160 70
158 152 74
164 159 75
163 157 69
169 162 81
162 155 75
166 159 79
162 156 75
163 157 73
155 149 63
164 158 75
163 157 72
162 155 74
161 154 76
160 153 73
158 151 70
165 158 75
162 156 80
157 151 75
159 153 75
154 149 68
163 156 76
158 150 75
162 156 78
160 153 77
167 160 81
159 153 72
157 150 76
166 159 76
157 150 75
161 154 75
163 156 72
160 154 76
167 160 77
154 149 69
151 145 63
152 146 66
160 153 76
152 146 63
157 150 79
156 150 70
153 147 69
163 156 78
153 147 78
154 148 74
156 149 72
149 143 64
150 145 65
154 148 73
154 148 74
151 145 66
152 146 69
189 209 137
186 207 122
187 207 122
181 203 84
185 206 108
183 204 99
182 204 102
182 203 107
177 200 72
178 200 72
182 203 107
187 207 126
188 209 137
189 210 140
198 217 175
194 213 160
200 218 185
204 221 196
205 222 198
207 224 204
212 227 220
209 225 214
211 226 215
215 229 229
214 229 228
217 232 237
221 234 246
218 233 240
220 234 247
220 234 247
219 233 244
220 234 244
220 234 246
221 235 248
218 232 237
219 233 242
220 234 246
221 235 248
219 233 242
222 236 253
220 234 246
219 233 241
219 234 246
220 234 245
219 233 245
221 234 248
218 232 240
219 233 242
221 235 249
217 232 238
221 234 246
221 234 248
222 235 248
220 234 246
218 233 241
220 234 244
219 233 244
220 233 247
215 229 246
217 231 240
216 231 235
216 230 238
215 229 235
215 230 231
210 225 225
208 224 213
212 228 225
207 224 206
206 222 204
200 219 186
207 224 204
207 223 204
203 221 194
201 219 188
201 219 184
201 219 184
194 213 161
192 212 157
194 214 167
188 209 140
190 210 142
181 204 102
181 203 88
180 202 84
179 202 80
177 200 80
175 199 76
176 199 67
175 199 62
175 199 76
176 199 51
174 197 57
177 200 67
175 198 44
177 199 57
177 200 57
176 199 57
175 198 72
175 199 67
173 197 36
176 199 72
175 198 67
175 198 51
176 200 72
174 198 67
173 197 57
173 196 72
177 199 67
174 198 57
173 195 76
171 194 44
175 198 76
178 201 72
168 191 60
174 197 84
170 193 51
173 196 67
171 195 80
167 191 40
172 195 72
165 189 70
171 195 90
172 194 92
166 189 78
170 193 82
166 189 65
174 197 76
162 185 65
169 193 86
166 189 86
170 193 100
172 195 97
169 192 86
171 193 100
176 197 122
178 200 117
164 186 95
74 102 100
154 178 40
165 189 36
162 185 38
169 192 25
162 185 36
164 188 62
169 191 62
172 196 0
203 220 191
201 219 186
219 233 238
180 197 194
58 92 114
58 91 114
58 92 115
58 92 114
59 93 127
60 95 129
59 93 124
60 94 128
58 92 122
59 93 130
59 94 127
58 92 118
59 93 118
59 93 113
59 93 127
59 93 114
58 91 113
59 93 124
59 92 124
60 94 129
59 93 120
59 93 126
58 92 115
59 93 115
59 93 127
58 92 127
61 95 135
60 95 135
59 94 129
59 94 131
59 93 124
59 94 127
60 94 135
59 93 120
60 94 130
57 90 111
58 92 126
58 92 118
58 92 117
59 94 139
61 96 143
59 93 122
58 92 127
57 90 118
59 92 120
61 95 140
58 92 130
59 93 131
60 94 131
57 91 110
58 92 121
57 90 126
58 92 127
59 93 133
58 92 120
59 93 133
59 93 126
61 96 137
59 92 121
60 94 130
58 91 127
58 91 125
59 93 127
58 92 117
60 94 135
58 91 121
60 94 133
58 92 123
59 93 129
57 90 118
58 90 122
57 90 118
58 91 124
58 91 123
59 92 126
57 90 118
58 90 122
56 89 113
58 90 129
57 89 117
56 87 113
58 90 126
59 91 125
57 89 112
56 88 117
56 88 112
57 88 114
55 86 112
58 90 120
55 86 111
56 86 116
57 89 115
53 83 107
53 83 106
57 89 125
54 84 106
52 79 103
52 81 106
49 75 95
49 74 86
172 186 180
218 232 236
128 131 109
80 77 25
65 65 29
58 59 25
61 60 10
57 59 25
57 57 12
44 49 15
61 64 22
65 69 27
54 58 23
66 69 25
60 65 26
65 68 27
77 80 36
81 81 27
90 91 43
91 93 43
101 101 42
98 99 35
106 106 50
100 102 51
98 100 46
102 102 45
109 108 48
115 114 52
114 112 54
115 114 54
116 114 53
127 124 55
120 119 52
118 117 56
125 123 56
126 124 54
123 121 54
143 139 64
134 131 61
131 129 57
135 131 65
142 137 63
133 130 63
138 135 58
152 147 75
141 137 63
147 143 63
145 141 67
151 147 73
152 148 70
144 140 68
151 147 69
147 143 66
151 147 74
153 148 67
152 147 70
150 146 65
158 152 70
151 145 65
153 149 69
154 148 68
159 153 72
161 155 71
154 149 73
162 155 76
161 155 68
158 153 64
162 156 80
164 158 72
160 154 69
159 153 71
163 157 72
165 159 75
160 154 69
163 156 73
160 154 72
159 154 75
167 160 77
163 158 75
164 157 71
161 155 70
166 159 76
165 158 78
161 155 69
161 155 71
168 161 78
169 162 80
164 157 70
165 158 76
158 153 65
163 157 76
164 157 78
167 159 79
162 156 69
166 159 74
161 155 74
161 155 65
164 158 69
164 157 75
161 155 71
163 157 75
161 155 75
168 161 80
168 161 76
155 148 67
160 155 69
159 154 74
166 161 77
162 155 75
158 152 67
161 153 76
155 149 67
162 155 74
159 152 73
159 153 67
157 150 68
167 160 76
165 158 75
157 152 67
152 145 66
164 158 77
160 153 71
155 149 69
151 146 68
159 154 72
161 154 76
154 147 71
154 149 67
157 150 75
162 155 76
162 155 80
154 148 73
159 152 72
153 147 70
152 147 65
151 146 62
162 156 72
158 152 69
156 149 71
154 148 71
151 145 69
153 147 66
153 147 71
152 146 68
153 147 71
158 152 71
157 150 75
154 148 74
155 148 72
150 144 67
189 209 133
186 207 122
188 208 129
181 203 95
186 207 120
181 203 95
185 206 108
179 201 80
183 204 99
180 202 88
180 202 84
180 202 72
180 202 84
178 201 76
180 203 95
179 202 92
177 200 67
181 202 80
178 201 80
179 201 80
181 203 84
180 202 90
174 197 40
177 201 90
174 197 51
177 199 40
177 200 76
177 200 62
178 200 62
177 200 72
182 203 88
178 201 72
179 202 80
183 205 117
180 202 80
181 203 95
182 204 102
185 206 114
184 205 114
187 208 125
186 207 127
185 206 120
185 206 114
185 206 120
185 206 125
184 205 111
183 204 105
184 205 105
182 204 105
183 204 99
181 202 95
181 203 99
180 203 92
179 201 72
181 203 92
176 200 62
177 200 67
178 201 92
176 199 67
176 200 67
174 198 57
177 200 72
177 200 62
173 197 44
176 199 80
176 199 57
175 199 44
180 202 88
178 201 84
177 200 84
177 200 62
177 200 51
177 200 62
177 200 67
177 200 84
174 198 25
177 200 67
178 201 80
177 200 80
179 201 84
176 199 62
178 200 80
174 198 36
177 200 67
175 199 72
177 200 62
175 198 62
175 199 72
175 199 51
176 199 72
176 200 62
177 200 76
176 199 72
174 198 67
175 198 67
177 201 80
174 198 76
175 197 62
176 199 51
176 200 76
178 200 80
176 199 62
176 199 76
176 200 72
176 200 80
177 200 72
175 199 67
176 199 72
174 198 72
174 197 84
173 196 72
177 200 72
174 197 76
170 194 51
174 197 76
173 197 84
172 195 60
174 197 67
170 194 54
173 197 78
177 200 94
173 196 84
173 197 99
165 189 80
169 192 76
171 194 67
173 195 97
171 194 74
168 190 74
172 195 72
173 196 92
171 194 86
170 193 102
176 198 110
173 195 97
180 201 97
138 160 82
125 149 65
163 186 31
165 188 18
164 188 25
166 190 25
161 184 40
156 179 70
168 191 51
175 197 44
205 222 199
183 204 108
175 198 0
165 188 49
57 91 115
58 92 105
57 91 112
58 91 114
58 92 118
57 91 113
58 92 115
60 94 127
60 94 125
60 94 124
59 93 125
60 94 129
58 92 117
59 93 125
59 93 131
59 93 117
59 93 121
58 92 120
59 93 127
59 92 130
60 94 131
59 93 131
58 92 118
59 93 122
60 94 136
61 95 133
61 96 140
58 92 120
60 94 135
57 91 117
58 92 117
57 91 121
59 93 118
59 93 126
58 92 117
60 94 130
59 94 131
59 93 124
60 94 130
59 93 129
59 93 126
58 92 125
57 91 121
60 94 136
57 89 118
57 91 111
58 92 117
58 93 121
58 91 127
59 93 127
59 93 136
59 92 126
59 93 124
58 91 124
58 92 124
59 93 129
58 91 126
58 91 115
59 93 121
58 92 117
57 90 117
58 91 127
60 94 133
58 91 115
58 92 117
58 90 120
58 91 124
60 94 130
57 90 112
58 92 117
57 91 120
58 90 124
57 90 115
59 93 124
57 89 115
58 90 121
57 90 117
59 92 114
57 89 110
60 94 130
56 88 105
58 90 127
55 87 112
57 90 115
56 88 109
57 89 122
56 88 120
56 87 120
54 84 104
55 86 111
55 85 112
54 83 105
53 84 105
53 83 99
53 82 102
51 80 88
52 80 97
49 75 90
50 76 91
46 69 68
160 182 28
176 199 0
140 152 39
84 81 34
79 77 33
65 66 21
67 67 18
53 55 20
57 58 17
60 62 14
43 49 21
44 51 21
53 58 27
58 62 22
59 64 25
69 71 36
63 66 23
86 87 38
73 75 30
92 93 41
87 88 39
97 96 40
94 95 42
96 95 40
95 96 32
103 102 51
108 106 46
117 115 53
102 101 44
114 114 46
116 116 48
128 125 55
123 121 55
117 116 48
123 122 56
130 127 60
118 117 48
124 122 51
132 129 53
131 128 59
131 129 57
144 139 68
147 143 66
140 136 61
139 135 58
143 141 62
141 136 59
148 144 69
145 142 62
149 143 64
146 142 62
150 146 61
142 139 60
154 149 71
155 149 71
148 144 62
153 147 70
155 149 64
153 149 70
154 149 60
152 147 70
156 150 73
153 148 67
157 152 61
158 152 71
157 152 67
158 153 71
161 155 74
159 153 71
160 154 73
162 155 73
151 146 61
162 155 76
163 158 77
159 153 72
159 154 71
159 154 63
165 158 75
161 155 72
165 157 69
166 159 76
163 158 72
164 157 72
161 154 67
165 160 69
161 156 74
162 155 70
166 158 76
160 153 65
164 156 75
163 156 73
166 159 74
158 153 70
161 155 71
165 159 72
162 156 73
166 160 79
164 157 67
162 156 70
163 156 75
169 162 79
160 153 67
159 153 79
163 157 72
167 160 79
158 150 70
159 152 69
157 151 72
161 155 76
160 154 77
161 155 72
161 154 70
159 153 77
165 157 78
163 156 73
159 153 73
155 149 62
158 151 74
159 152 66
166 159 77
158 153 74
163 157 72
162 156 67
156 151 65
159 153 72
150 144 62
159 153 69
160 153 76
157 151 66
159 153 74
160 153 79
155 149 67
157 150 69
162 156 78
153 147 68
155 148 71
148 142 66
156 151 71
161 154 75
154 148 69
159 153 75
157 151 70
149 142 64
150 144 68
156 150 74
150 144 68
151 146 65
153 147 73
156 150 69
153 146 67
187 207 125
187 208 127
185 206 117
184 205 114
182 204 107
184 205 102
183 205 105
181 203 99
178 201 84
183 205 105
181 203 84
178 201 72
177 199 44
177 200 67
179 201 78
180 202 84
177 200 67
177 200 51
178 201 72
179 201 76
177 199 65
179 202 84
178 201 72
175 198 70
176 200 62
176 199 51
177 200 88
174 197 57
178 201 80
177 200 62
175 199 51
176 199 76
179 202 84
177 200 62
177 199 44
176 199 70
179 201 67
176 199 44
178 201 72
177 200 67
175 199 51
179 202 84
175 199 62
177 200 67
176 199 57
175 199 57
177 201 84
178 201 72
177 200 76
174 198 44
175 198 57
176 200 67
174 198 36
177 200 62
176 200 67
179 202 99
178 201 72
176 200 76
175 199 51
174 198 44
177 200 57
176 199 57
175 199 62
177 201 92
179 201 76
174 197 25
175 198 62
175 198 62
176 199 62
176 200 67
177 200 62
177 201 80
175 199 62
176 199 62
175 199 67
174 198 44
176 200 84
178 201 80
174 198 51
174 198 57
174 197 44
177 200 76
175 199 51
173 197 36
175 199 44
175 200 80
176 199 62
174 197 36
175 199 80
175 198 51
175 199 84
176 199 80
177 200 76
175 197 57
175 199 57
176 199 36
173 196 57
174 198 72
173 197 44
176 199 72
173 196 72
174 197 57
174 198 62
172 196 51
175 198 67
175 199 76
175 198 80
172 195 62
171 194 76
177 199 57
173 197 57
172 196 57
176 199 88
171 194 44
177 200 76
172 195 76
172 195 84
167 190 57
173 196 62
166 189 47
169 192 65
173 196 76
171 194 40
167 191 65
172 195 57
170 193 62
173 196 88
169 193 70
171 194 84
171 193 67
171 193 105
176 198 107
173 196 84
172 193 115
174 195 118
176 197 108
137 160 51
161 184 44
164 187 25
160 183 36
167 189 25
169 192 31
160 183 36
168 191 57
173 197 40
176 199 51
200 218 182
177 200 62
177 199 0
175 197 0
80 109 102
58 92 117
58 92 111
58 92 126
58 93 114
57 90 113
59 93 117
58 92 127
60 94 124
60 94 131
58 92 126
58 93 130
59 93 131
59 94 124
58 92 114
60 94 127
59 93 125
59 93 124
59 93 118
58 92 122
59 93 131
60 94 133
59 94 125
60 95 131
58 92 117
61 95 137
60 94 130
58 92 122
58 92 122
58 92 121
59 93 122
60 95 127
60 94 131
58 93 113
60 94 134
59 94 121
57 91 111
59 92 124
59 93 125
59 93 115
60 94 134
59 93 124
58 93 114
59 94 120
60 94 124
59 93 115
58 91 111
59 93 122
58 92 125
59 93 129
58 92 124
59 92 116
57 90 118
59 94 130
58 92 124
58 92 122
58 92 124
59 94 131
57 90 114
57 91 113
57 91 115
59 93 125
59 93 130
58 91 115
58 92 118
58 92 124
57 91 117
57 90 118
57 89 117
57 89 110
60 93 128
58 91 117
58 91 124
58 92 127
57 89 124
59 93 131
58 91 130
59 92 127
57 90 119
58 91 126
56 88 120
57 89 117
58 91 120
57 89 120
56 88 109
55 85 112
57 89 119
56 87 117
56 88 120
57 88 117
53 83 103
54 85 113
54 83 93
52 81 96
54 84 103
51 78 95
50 77 82
49 74 90
48 74 92
74 94 71
175 198 0
175 198 0
160 180 23
88 87 38
77 75 24
50 50 12
52 53 9
64 65 20
58 59 18
65 65 14
67 70 22
46 51 20
65 69 25
63 66 25
59 62 18
68 71 23
69 72 24
74 76 28
73 76 35
84 86 36
93 93 44
83 84 36
95 96 32
98 100 46
98 98 41
105 104 46
107 105 48
108 108 44
108 107 46
106 106 49
108 107 47
114 112 52
129 126 55
117 114 55
127 125 53
122 120 49
129 127 56
126 123 59
135 130 62
127 125 50
135 132 59
139 136 63
140 136 61
128 126 60
138 135 67
143 138 53
143 139 71
144 140 61
141 136 64
142 137 69
137 133 57
147 143 67
153 149 60
155 150 66
149 145 66
152 147 68
154 150 68
155 149 64
150 145 63
155 150 63
152 147 69
155 150 71
154 149 68
154 149 62
155 150 67
161 155 68
159 155 65
158 152 75
158 152 68
163 157 67
164 158 78
154 150 59
161 154 73
164 157 71
162 156 65
162 157 71
161 155 70
159 153 65
163 157 73
158 152 74
162 156 66
165 158 72
155 150 59
163 156 73
160 154 66
159 153 66
161 156 66
162 155 70
162 156 73
155 149 59
167 160 78
160 154 71
160 155 65
169 162 78
167 160 76
162 155 67
161 154 70
164 157 69
160 154 69
167 161 79
164 157 75
161 155 75
167 160 77
159 152 68
160 154 72
159 153 68
165 158 75
152 145 63
157 151 61
161 155 70
164 157 78
160 153 68
157 151 68
158 151 67
157 151 73
164 157 80
165 158 74
158 152 65
157 151 71
159 154 70
161 153 71
162 155 67
161 155 74
159 153 66
159 152 72
148 144 65
156 150 67
164 157 75
158 152 74
155 150 66
159 153 68
159 151 74
156 151 77
154 147 69
154 148 64
158 152 68
156 149 74
159 152 75
150 143 63
159 153 74
156 149 70
148 143 64
162 155 78
156 150 70
147 142 65
153 146 70
158 150 75
153 147 71
152 147 67
154 147 66
191 211 147
189 209 130
181 203 95
185 206 117
184 206 111
180 203 95
181 203 88
184 205 111
177 199 92
178 201 76
179 202 76
179 201 80
181 203 95
179 201 80
179 202 76
179 201 86
178 201 72
179 201 76
176 199 62
181 203 95
176 200 67
180 203 99
177 200 78
174 197 62
178 201 74
179 201 90
179 202 88
178 201 82
178 201 90
178 200 67
178 200 67
178 201 76
178 201 67
176 199 70
175 199 57
178 201 62
178 201 80
176 200 72
177 200 72
177 200 72
178 201 80
178 201 76
175 199 44
178 201 76
177 200 72
180 202 88
175 198 36
177 200 76
178 200 51
175 199 72
176 200 67
177 200 57
177 200 57
175 198 51
177 200 76
177 200 67
178 201 67
177 200 76
175 199 72
176 199 67
175 199 62
176 200 76
177 200 76
177 200 80
177 201 88
176 200 62
175 198 62
177 200 80
175 198 57
179 201 72
177 200 72
177 200 67
178 200 72
178 201 57
175 198 51
174 198 51
178 200 76
177 199 67
178 201 105
178 201 76
175 198 57
174 197 57
174 197 62
174 197 62
177 200 76
174 198 57
175 198 67
174 198 57
176 200 95
176 200 80
174 198 62
175 198 67
176 200 84
177 200 76
176 199 44
175 198 72
175 198 57
176 199 67
176 199 76
175 198 51
176 199 36
173 197 44
175 199 72
176 199 62
174 197 62
176 199 84
171 195 36
174 197 76
174 197 72
171 194 51
174 197 57
172 195 62
173 196 62
170 194 62
171 194 72
171 194 76
170 194 76
171 194 47
166 188 44
172 195 44
165 189 67
171 194 78
173 196 72
173 196 84
172 195 57
171 194 82
173 196 95
171 194 105
168 191 74
170 193 80
174 197 90
171 194 113
172 193 111
177 198 105
166 188 100
161 183 80
156 179 36
161 184 18
159 183 25
169 192 36
162 186 31
156 179 54
158 182 31
170 193 47
174 197 25
183 205 108
195 214 163
173 197 0
173 197 0
175 198 0
113 138 92
58 92 116
58 91 114
58 92 120
57 91 115
59 93 115
58 92 121
58 93 118
59 93 124
59 93 135
60 94 127
58 93 124
59 93 121
59 94 120
59 93 122
60 94 134
59 93 127
58 92 120
59 92 125
57 91 113
61 95 131
60 94 124
59 94 122
58 92 115
58 92 107
57 91 108
57 90 114
58 91 115
59 93 121
59 93 124
58 92 117
59 92 126
59 92 122
58 92 117
59 93 125
58 92 115
57 90 117
57 91 114
58 92 115
59 93 130
56 90 117
60 94 126
59 93 126
60 95 131
59 93 120
58 92 124
57 91 124
58 91 121
56 89 108
60 94 129
57 90 121
59 93 130
60 94 134
59 93 126
57 89 113
60 95 130
59 92 115
58 92 124
59 92 121
57 90 114
56 89 101
60 94 129
59 93 129
58 92 121
58 91 124
58 91 124
57 90 121
56 87 113
58 92 117
60 94 129
57 90 118
57 90 117
58 91 123
56 88 115
59 92 125
57 89 113
59 92 129
57 89 122
59 92 118
57 89 125
56 88 104
57 88 106
58 90 125
58 91 116
55 86 108
56 87 112
59 91 119
55 86 119
57 88 115
55 84 105
54 85 98
55 84 104
56 86 110
52 81 94
53 82 106
55 85 110
50 78 100
52 80 106
47 71 70
116 137 57
173 197 0
176 199 0
173 197 0
119 122 41
81 80 28
69 68 22
68 68 23
70 69 25
62 63 10
56 58 15
61 63 25
66 69 23
67 68 23
66 69 28
60 63 20
56 60 19
65 69 27
66 68 22
77 79 28
79 81 32
80 83 32
90 90 33
99 97 44
86 89 38
89 90 40
100 102 39
113 110 39
111 110 43
113 112 52
103 104 42
111 109 45
111 111 46
126 125 56
119 117 49
136 133 59
127 125 55
117 116 50
138 134 62
128 124 53
135 134 57
134 130 58
138 134 61
125 123 50
138 134 58
136 134 63
142 138 64
145 140 63
137 133 57
146 143 56
145 141 67
142 138 64
148 143 66
148 144 58
150 144 67
151 145 64
152 147 70
149 145 60
150 144 62
142 138 49
152 147 64
154 149 55
154 150 67
156 150 64
153 148 66
156 150 66
158 153 69
151 146 55
157 151 66
151 146 60
158 153 65
166 160 80
164 158 72
163 157 69
160 155 69
155 149 62
159 152 65
153 147 67
164 157 69
168 160 76
157 150 69
162 155 63
161 154 71
161 154 67
162 156 69
163 157 72
159 153 67
159 153 60
158 152 62
155 150 57
161 154 66
159 153 70
163 156 68
162 155 70
166 160 71
167 161 75
164 158 69
161 154 76
166 159 75
157 150 68
160 154 75
158 153 62
159 152 72
163 157 70
164 158 75
161 155 69
162 154 75
162 155 68
157 152 68
161 155 66
159 153 66
162 156 70
158 151 68
161 154 68
160 154 74
161 154 67
163 156 76
159 152 65
156 149 65
156 150 69
153 146 72
158 151 67
160 153 72
151 144 65
159 152 71
158 149 72
162 156 72
159 152 69
153 147 72
156 149 65
156 149 74
156 149 69
157 151 65
155 149 64
152 147 61
162 155 80
154 148 66
153 147 70
156 150 72
158 152 66
153 148 64
154 148 66
157 152 75
151 146 65
158 152 74
150 145 65
152 146 71
156 150 74
156 151 65
153 146 65
148 142 61
186 207 120
189 209 135
185 206 117
182 204 108
189 209 133
183 205 105
182 204 115
184 206 117
182 204 105
182 204 105
180 202 84
179 202 84
178 201 86
178 201 90
177 200 72
178 201 76
177 200 72
176 200 72
179 202 92
180 202 88
176 200 67
180 202 84
175 198 54
176 199 51
178 201 72
177 201 76
177 200 86
178 201 67
178 201 76
177 200 70
178 200 62
174 197 40
176 199 51
177 200 76
176 199 57
176 199 72
177 200 67
176 199 62
174 198 51
176 199 57
176 199 57
178 201 88
176 199 51
180 202 95
175 199 51
178 201 67
174 198 72
176 200 67
175 198 51
176 199 67
174 197 51
177 200 72
175 198 67
175 198 44
178 201 88
177 200 67
175 199 76
177 200 67
174 198 62
177 199 44
175 199 51
177 201 95
175 198 62
176 199 51
174 198 76
177 200 72
176 200 72
176 199 57
177 200 62
176 199 57
175 199 76
173 197 36
176 199 76
175 199 62
177 199 44
176 200 80
178 201 84
176 200 72
178 201 80
174 198 57
177 200 57
176 199 67
172 196 44
176 200 76
175 199 76
173 197 36
174 198 72
175 199 72
174 198 67
175 199 57
174 197 72
174 198 72
176 199 25
175 198 72
176 200 80
176 199 72
173 197 57
173 197 51
175 199 88
171 195 44
172 196 57
172 197 76
172 196 72
171 194 51
176 199 72
176 199 62
173 197 76
172 196 76
174 197 62
170 194 62
172 196 51
171 195 57
175 198 76
174 198 72
173 196 51
171 195 67
170 193 62
170 192 80
171 194 67
169 192 102
168 191 72
166 190 67
166 189 57
169 193 57
171 194 78
170 193 72
169 193 74
169 193 70
165 187 88
171 193 65
172 194 92
173 195 102
176 197 120
173 196 86
169 192 99
167 191 57
151 174 25
162 185 31
156 178 40
162 185 18
164 186 25
161 185 33
170 193 60
173 196 44
175 198 36
191 211 147
186 206 122
172 197 0
173 197 0
173 197 0
149 173 60
57 91 105
57 91 107
59 93 113
58 92 115
58 92 115
58 92 120
57 90 94
58 91 111
57 89 108
58 92 108
58 92 117
57 90 114
57 91 107
57 91 118
60 95 126
57 90 110
59 94 122
58 91 115
59 94 124
58 92 122
59 92 118
58 92 118
57 91 111
59 93 131
59 92 124
59 93 125
56 90 111
61 95 133
59 93 125
58 92 114
58 92 124
60 95 130
59 93 124
59 93 124
59 93 115
58 92 121
59 93 124
58 92 120
59 93 129
57 91 121
56 89 105
59 92 118
56 89 110
58 92 117
58 92 127
60 95 127
59 92 118
59 93 133
58 92 120
57 90 120
59 93 134
58 92 115
59 93 124
58 92 126
59 93 125
59 92 122
59 92 130
59 93 126
60 93 126
58 92 128
59 93 126
59 92 131
58 91 124
59 93 124
58 91 123
57 90 123
55 87 107
57 89 121
60 94 131
57 89 123
58 91 123
57 90 123
60 93 135
57 90 117
59 91 122
58 91 120
58 91 129
57 89 117
58 90 120
56 88 112
58 90 121
56 88 118
56 88 113
55 86 109
55 86 115
54 85 104
57 88 114
56 86 110
53 82 104
57 88 114
54 84 107
53 82 95
55 85 106
54 83 97
52 79 94
51 77 83
50 78 98
47 72 75
147 169 37
175 198 0
173 196 0
174 197 0
139 154 11
85 83 33
74 74 23
89 87 35
66 65 15
63 65 19
58 59 10
54 56 15
61 64 21
50 56 19
66 67 10
52 57 21
69 71 17
68 71 29
74 76 25
81 83 34
84 86 28
89 90 31
89 92 43
96 97 44
86 87 29
103 101 40
106 105 41
100 100 37
105 104 38
105 103 46
120 118 49
107 106 43
117 116 52
107 106 45
124 120 52
117 116 50
119 117 47
123 121 46
132 130 59
125 123 50
124 121 51
126 123 39
129 126 52
133 129 50
135 131 58
149 143 66
137 132 63
149 144 57
134 130 50
145 141 62
135 132 52
141 137 62
147 142 54
146 142 54
149 144 64
139 135 50
141 136 60
149 143 64
151 145 66
156 150 70
151 145 61
155 149 67
154 149 57
149 144 58
156 151 62
152 146 65
150 145 57
161 156 70
156 149 65
156 151 64
168 160 75
158 152 66
160 153 66
156 149 70
162 155 71
158 153 65
160 154 72
160 154 66
162 156 68
153 147 69
163 156 70
161 156 70
159 153 68
159 153 65
160 153 69
158 152 68
153 147 59
161 154 67
159 154 59
160 155 64
154 149 65
165 159 72
160 154 68
165 159 77
162 156 68
159 154 69
161 155 70
157 151 64
159 153 70
159 153 64
161 155 63
156 151 65
160 154 67
163 157 69
159 152 68
156 149 67
166 159 80
158 151 64
163 156 73
152 147 65
158 153 65
161 154 67
160 153 74
159 153 68
153 148 66
158 152 77
157 150 71
162 156 68
160 154 67
158 151 69
159 153 72
158 153 70
156 151 68
156 150 72
160 154 69
154 148 72
154 148 67
155 148 65
154 148 64
166 159 68
152 147 65
155 149 64
158 153 69
160 154 72
152 147 62
151 145 67
156 150 65
154 148 68
150 144 69
156 149 66
155 148 68
153 147 61
155 148 72
162 155 74
153 147 69
153 147 72
155 149 70
151 144 66
149 142 64
155 149 71
141 135 59
182 204 95
189 209 137
188 209 135
188 208 130
183 204 105
183 205 111
183 205 114
184 205 111
179 202 88
183 205 105
180 202 88
181 203 95
178 200 72
181 203 99
179 202 84
176 200 67
180 202 84
177 200 80
179 202 76
179 201 76
176 199 74
177 200 78
176 199 54
177 200 80
177 200 67
178 201 95
177 201 84
177 200 72
178 201 80
175 199 57
176 199 51
176 199 57
176 199 57
179 201 62
177 199 80
177 200 62
178 201 84
176 199 72
175 198 51
178 201 67
177 200 57
176 199 44
176 199 67
177 200 57
176 200 62
176 199 25
176 199 51
176 199 57
176 199 57
178 201 72
176 199 44
176 200 67
177 200 51
177 200 62
176 199 57
175 198 67
176 199 80
173 197 36
178 201 72
177 200 76
176 200 72
176 199 57
176 199 80
177 200 72
176 199 67
175 198 62
176 200 67
174 198 76
174 198 57
177 201 88
175 199 80
175 198 57
171 196 62
175 199 62
176 199 57
175 199 62
175 199 51
176 199 51
176 200 62
173 198 72
175 199 62
175 198 57
175 199 76
174 198 62
174 198 36
176 199 57
174 199 76
175 198 57
174 197 62
174 198 62
174 198 57
177 200 80
174 198 36
176 200 84
173 196 51
173 196 80
171 194 67
173 197 72
170 195 44
174 198 84
173 197 67
172 196 57
174 196 51
177 200 51
171 195 62
172 196 72
172 196 72
174 198 76
171 194 72
174 197 67
176 199 72
169 192 36
172 195 72
173 196 72
168 191 44
174 197 62
176 199 72
169 193 67
172 194 80
170 194 65
173 196 76
168 190 72
172 195 80
167 191 88
168 192 62
171 194 90
174 197 102
167 190 78
177 199 94
170 193 95
172 194 105
176 197 117
178 199 129
171 193 80
166 188 86
149 173 18
157 178 18
158 180 0
150 174 36
167 191 25
155 178 18
167 190 0
172 196 44
170 194 44
175 198 62
194 213 163
176 199 67
175 198 0
175 198 0
174 197 0
170 193 18
71 102 96
58 91 105
59 93 114
58 91 120
59 93 120
57 91 105
58 92 110
57 91 115
58 92 110
58 92 114
58 92 113
58 92 117
57 91 105
58 91 117
59 94 126
58 92 107
59 93 111
59 93 127
59 93 126
59 93 127
59 93 120
57 90 107
55 88 105
59 93 114
58 92 121
59 93 120
59 93 118
59 93 122
58 92 117
59 93 125
58 92 114
57 90 122
58 92 122
59 93 114
60 94 129
59 93 117
59 93 126
60 94 127
59 93 126
59 94 125
59 93 126
58 92 127
58 92 120
58 92 122
58 91 110
58 93 120
57 90 113
60 93 130
58 92 130
60 94 131
58 92 111
59 93 126
58 91 120
59 93 131
58 91 113
59 92 120
58 91 120
58 92 118
57 90 108
59 93 129
59 93 129
59 93 123
58 91 120
59 92 120
57 90 114
58 91 123
56 89 117
59 93 133
56 89 109
57 89 118
58 90 119
57 89 108
59 92 124
57 91 118
56 88 116
57 89 119
58 90 120
56 89 113
54 85 98
56 88 115
58 90 119
58 91 123
57 88 113
57 89 119
55 87 119
54 84 100
56 86 114
54 83 95
52 82 97
54 84 108
53 82 97
53 83 105
50 76 82
52 80 92
51 79 96
51 78 97
45 67 75
55 77 84
170 193 0
174 197 0
174 197 0
174 197 0
161 181 21
86 83 34
80 79 28
67 67 22
69 68 19
66 64 16
55 56 11
51 55 17
61 63 16
57 57 18
53 55 19
72 75 27
68 69 23
70 71 19
84 85 26
71 75 28
78 79 23
87 88 31
98 98 36
92 91 28
107 105 43
99 100 44
87 88 31
95 97 38
112 110 36
108 107 49
113 111 53
118 116 48
117 115 50
115 114 45
124 122 51
115 114 49
121 119 44
125 123 52
128 125 53
133 130 58
134 131 58
133 129 60
142 137 59
130 127 52
134 130 53
134 130 55
133 129 53
136 132 55
143 139 59
144 139 57
147 143 60
151 146 60
143 138 53
146 141 56
150 145 57
152 146 67
154 148 67
147 142 65
146 141 55
153 148 64
146 142 63
159 153 70
155 149 64
153 147 66
146 142 59
156 150 64
152 148 58
156 150 65
156 151 60
148 144 47
159 153 66
153 148 63
162 156 67
158 152 67
161 154 70
158 151 60
152 146 56
163 155 71
156 151 62
153 147 56
159 152 66
159 153 70
154 148 58
157 152 61
155 149 67
153 148 60
161 155 73
163 156 74
165 158 69
164 158 67
162 157 66
162 155 72
162 155 74
160 153 67
161 155 64
163 157 73
161 154 68
160 154 65
161 155 73
161 153 69
156 150 66
156 150 63
162 155 67
156 151 61
160 154 66
157 151 72
162 155 68
160 154 71
154 149 63
162 154 71
164 157 75
160 154 68
156 151 71
161 155 71
156 150 67
159 153 72
160 155 65
152 148 57
159 153 64
153 147 64
155 149 67
154 148 65
152 147 57
158 152 68
152 147 62
161 154 69
149 145 59
159 153 66
153 147 57
161 154 71
158 152 75
162 155 75
157 150 66
157 151 65
154 149 67
159 153 71
152 146 69
158 151 74
148 141 69
150 145 63
155 149 73
155 148 74
155 149 72
164 158 78
156 149 71
150 143 69
151 145 64
147 141 68
157 150 72
150 143 73
156 150 73
181 203 95
183 205 108
191 211 144
185 206 124
185 206 125
183 204 99
183 204 102
180 202 80
178 201 80
179 202 92
183 205 114
178 201 72
185 206 111
176 199 51
181 203 92
178 201 67
178 201 84
175 198 72
181 203 92
178 200 62
180 202 80
177 200 74
180 203 92
176 200 67
174 198 54
177 200 72
178 201 82
174 197 44
175 199 78
176 199 70
179 202 84
176 199 74
175 199 57
176 199 57
179 201 90
176 199 62
178 201 80
176 199 51
178 201 84
177 200 62
175 198 67
176 199 67
175 199 62
176 199 62
175 198 36
178 200 67
180 202 99
176 199 57
177 201 80
175 198 51
176 199 72
175 198 62
174 198 51
178 201 76
176 200 72
175 198 36
175 199 62
178 201 88
176 200 67
175 199 62
176 199 57
177 200 72
175 199 72
175 199 67
176 200 62
176 199 51
176 199 67
176 200 67
173 197 36
177 200 72
175 199 72
177 200 92
177 200 57
175 199 57
175 198 36
178 200 72
172 196 36
173 196 51
175 199 67
174 198 67
176 199 57
174 197 67
177 200 62
175 198 67
174 197 72
173 197 51
175 199 62
176 200 72
174 198 67
173 198 92
175 199 67
173 197 67
174 198 72
176 199 80
173 197 62
175 198 51
170 193 57
171 195 51
174 198 80
173 197 80
174 198 84
174 197 44
175 198 62
171 196 72
174 198 84
173 197 51
175 198 62
173 196 84
171 195 67
176 200 99
173 197 76
172 196 51
174 197 72
172 195 67
176 200 84
172 196 72
171 195 57
172 195 88
173 196 76
170 194 62
172 195 60
170 193 72
167 190 62
167 190 57
171 194 92
166 190 90
171 193 105
170 193 86
173 196 90
169 191 95
172 194 86
171 193 72
173 196 99
169 191 95
154 177 54
141 165 25
148 171 25
156 179 31
159 182 36
161 185 18
158 182 18
171 194 0
173 196 25
171 194 25
178 200 76
192 211 149
174 198 0
173 196 0
175 198 0
173 197 0
174 197 0
110 135 95
57 90 107
58 92 130
58 92 108
58 92 113
59 92 117
59 93 122
58 92 118
57 91 111
60 94 131
58 92 120
60 94 115
57 91 115
58 92 111
58 92 124
58 91 110
58 92 113
58 93 115
57 91 103
59 92 117
58 92 108
58 92 124
60 94 125
58 92 111
59 94 125
58 91 120
58 92 114
59 93 120
58 92 124
59 93 122
58 92 129
59 93 115
59 93 117
60 94 122
59 93 124
59 94 127
59 93 126
58 91 126
57 91 118
57 90 108
57 90 113
58 91 117
57 90 122
59 92 125
58 91 121
57 90 108
57 89 115
59 92 120
58 91 114
59 92 117
58 92 120
57 90 116
59 93 134
58 91 127
58 91 117
58 91 116
57 91 126
57 90 110
61 95 130
56 89 115
58 92 123
58 91 116
58 92 122
57 90 113
56 89 111
58 92 120
57 89 120
60 93 135
58 91 123
59 92 116
55 88 118
57 89 110
58 91 111
57 89 111
56 88 113
58 91 117
58 91 116
57 89 122
55 87 115
57 90 111
55 86 100
56 88 116
56 88 112
55 87 101
55 86 124
57 88 117
53 81 103
55 85 104
56 87 112
53 82 89
55 85 103
53 81 101
51 79 100
52 81 103
52 79 100
49 75 85
49 75 83
102 121 44
174 197 0
174 197 0
175 198 0
173 196 0
175 198 0
120 127 37
93 91 32
80 78 28
77 75 26
65 66 16
66 68 23
72 74 21
66 66 16
68 69 5
57 59 16
74 75 20
75 76 18
71 74 29
62 66 22
79 80 28
75 77 38
79 80 35
84 84 27
95 96 40
101 100 39
86 87 32
105 104 43
96 96 38
96 96 39
104 104 41
107 106 50
116 114 47
113 113 43
115 113 44
116 114 46
125 123 42
118 117 49
125 123 44
123 121 48
120 118 44
123 122 49
133 129 60
131 128 54
137 134 53
135 131 50
138 135 55
143 138 54
130 127 56
137 134 56
135 132 50
146 140 56
145 142 57
144 139 66
152 147 67
131 127 54
141 137 58
148 142 58
152 146 61
151 146 64
156 150 65
153 148 58
151 145 60
151 146 62
152 146 57
156 150 63
153 148 63
152 147 60
148 143 57
155 149 65
157 151 64
163 157 73
150 144 59
161 154 71
159 153 69
160 155 65
160 153 71
155 149 63
156 150 64
153 148 52
160 153 65
161 155 65
162 155 65
154 148 64
158 153 65
157 151 67
158 151 65
160 153 65
158 152 60
156 151 59
159 153 66
157 151 59
164 157 66
161 154 72
153 147 53
158 151 66
164 157 73
163 157 66
161 154 74
161 154 74
150 145 61
161 154 68
160 154 68
157 151 64
165 158 75
159 153 65
162 155 73
156 151 59
160 154 70
154 148 59
162 156 67
167 159 75
160 153 70
155 149 66
156 150 69
162 156 68
158 151 69
163 156 69
158 151 68
153 148 65
161 154 71
159 153 67
158 151 68
151 146 60
156 150 70
156 151 59
153 147 59
165 157 78
153 146 63
161 155 66
160 152 73
151 145 63
155 148 71
154 148 67
149 143 60
157 151 69
158 152 71
157 150 69
158 151 71
148 142 62
158 151 72
147 141 60
157 151 68
150 145 69
159 153 71
150 145 64
156 150 71
151 146 65
155 148 74
141 135 54
151 145 67
149 143 62
179 202 84
183 204 99
180 202 102
186 206 125
187 207 130
182 204 95
181 204 105
185 206 114
182 204 102
182 204 102
182 204 102
177 200 76
176 199 74
179 202 88
179 202 84
179 201 80
178 201 72
178 201 76
177 200 57
179 201 76
179 202 84
176 199 57
173 197 44
174 198 57
176 199 51
176 199 67
176 200 76
178 201 97
176 199 57
176 200 62
177 199 57
174 197 60
175 198 54
177 200 67
176 200 72
177 200 84
176 200 80
177 199 44
176 200 80
179 202 88
177 200 80
178 201 76
175 197 36
175 198 62
178 201 76
175 198 57
177 200 62
174 198 44
177 199 72
176 199 57
175 198 44
176 200 67
176 200 57
173 198 62
176 200 72
177 200 62
176 200 72
176 199 51
175 199 62
177 200 88
176 199 62
175 199 62
174 199 72
175 199 67
173 198 57
177 201 80
174 197 57
174 197 62
177 201 80
175 199 67
171 195 67
174 198 72
175 198 57
175 199 62
174 199 76
174 198 44
172 196 51
176 199 67
175 198 51
175 199 76
175 199 72
174 198 67
174 199 67
175 198 76
174 198 62
176 199 72
174 198 80
173 197 67
174 198 72
174 198 44
173 197 62
172 195 57
175 200 102
174 197 57
174 197 57
175 199 67
174 197 44
173 196 62
173 196 76
173 196 72
172 195 51
172 195 44
172 197 67
173 197 67
175 199 72
174 198 76
175 198 57
175 198 80
172 196 76
174 198 72
173 196 62
172 196 44
173 197 72
171 195 57
177 200 84
169 193 76
168 192 67
167 190 62
165 188 57
173 196 80
171 194 57
169 191 62
170 193 72
172 195 92
169 192 72
170 193 60
170 193 84
173 195 95
174 196 90
174 196 111
163 185 80
173 195 99
174 195 100
159 181 74
134 157 18
142 164 0
151 174 0
155 178 0
162 186 18
164 187 0
166 188 0
169 192 25
170 193 36
172 195 57
186 207 120
182 203 95
174 198 0
174 198 0
175 198 0
174 197 0
174 198 0
138 163 67
58 92 117
57 91 113
59 93 117
55 88 98
57 91 107
58 92 117
58 92 113
57 91 107
59 93 113
59 93 122
58 92 111
57 90 105
58 92 120
56 89 100
58 91 111
56 89 103
57 90 110
58 91 115
57 90 115
58 92 114
59 93 117
58 91 110
56 89 108
57 91 115
57 91 117
59 93 135
59 93 122
58 92 121
58 92 115
58 91 118
59 93 117
59 93 124
57 90 114
58 91 131
59 93 127
56 89 108
58 91 126
57 91 122
57 90 110
57 91 118
58 92 115
57 90 110
58 91 120
60 94 127
59 92 124
58 92 122
58 91 114
60 95 135
60 94 135
58 92 122
57 91 114
58 92 117
56 89 102
59 93 122
57 90 114
57 89 122
56 88 110
58 91 120
57 90 118
57 90 113
58 91 120
57 90 110
57 89 108
57 90 114
59 93 125
58 92 121
56 89 102
59 92 121
57 91 108
56 88 110
58 91 117
58 90 119
57 91 116
56 87 106
55 87 100
58 90 116
53 84 104
56 87 114
57 89 113
57 89 116
55 87 115
57 90 120
55 86 104
55 86 98
57 89 116
52 82 96
56 87 108
53 83 97
52 82 99
54 84 105
54 83 110
52 80 97
53 81 98
49 74 75
48 73 75
46 70 75
143 164 45
173 197 0
173 197 0
175 198 0
173 197 0
172 196 0
146 164 19
87 85 36
75 74 21
74 72 18
63 63 19
76 76 24
65 66 12
74 74 20
77 76 20
64 65 17
56 58 19
78 79 22
69 70 19
84 87 28
78 80 33
83 84 21
83 83 18
88 89 24
86 86 26
96 96 30
96 96 31
102 102 34
107 106 32
105 105 38
108 108 35
111 109 43
112 112 35
115 112 48
115 113 49
117 115 42
120 116 50
126 124 51
121 119 46
123 121 55
127 123 54
134 130 57
126 125 39
133 127 54
131 128 47
139 135 60
138 134 59
131 128 53
137 133 49
129 126 52
149 143 56
133 129 57
147 142 50
148 143 62
143 138 57
146 141 54
146 142 55
153 148 64
144 139 60
153 148 57
146 142 53
150 145 62
152 148 64
151 146 60
159 153 67
149 145 56
157 151 65
158 153 67
147 142 64
159 153 64
159 152 63
153 147 57
150 146 60
158 152 58
153 148 63
154 148 64
161 155 67
152 147 57
154 149 64
152 147 65
153 147 54
160 153 60
157 151 63
164 157 68
164 157 72
160 154 63
158 151 61
155 149 65
162 155 66
163 155 68
161 154 68
161 154 64
155 149 59
164 157 74
161 155 68
155 149 61
166 159 73
156 151 59
162 155 68
161 155 71
164 157 73
163 156 70
158 152 71
159 154 59
158 152 69
155 149 54
158 151 65
162 155 69
154 148 67
166 157 76
163 156 71
154 148 59
160 154 64
164 156 71
163 156 71
157 150 68
155 148 68
158 152 65
160 152 67
158 152 69
156 151 64
155 148 69
161 154 71
156 150 66
163 156 72
152 147 59
150 146 56
159 152 65
160 153 67
157 151 67
156 150 59
159 152 65
153 147 66
161 153 77
149 143 61
159 153 68
160 153 72
146 140 59
151 144 59
153 147 67
150 144 65
156 149 69
154 147 63
161 154 79
159 152 65
144 137 62
151 145 66
152 146 70
147 141 58
150 145 64
146 141 65
149 142 67
179 202 84
184 205 111
184 206 117
177 200 80
186 207 117
186 207 120
186 207 124
183 204 108
183 205 105
180 202 95
180 203 88
181 203 92
181 204 105
178 201 76
181 203 88
178 201 90
180 202 92
177 199 67
178 201 72
180 202 72
178 201 92
180 202 80
177 200 65
177 200 72
176 199 70
178 200 76
177 200 72
178 201 76
178 200 84
179 201 80
176 199 90
176 200 76
175 199 65
176 199 57
175 198 80
178 201 84
178 200 57
176 199 51
175 198 65
175 198 67
177 201 76
175 199 57
178 201 88
177 200 67
174 197 57
176 199 44
176 199 51
176 199 51
177 200 72
176 199 57
175 198 44
177 200 67
177 200 80
173 198 76
175 198 62
175 199 72
172 196 44
176 199 62
176 200 72
175 199 57
175 199 67
175 199 51
173 197 57
174 197 57
176 199 67
177 201 80
176 200 62
175 199 80
175 198 76
175 198 72
177 200 67
175 199 72
175 199 72
172 196 51
174 198 72
174 198 67
175 199 80
175 199 62
175 199 72
173 197 62
173 198 72
175 199 67
175 199 67
173 197 51
178 201 88
174 198 67
173 196 44
175 199 67
174 198 72
172 197 72
176 200 76
173 197 44
175 199 62
174 197 62
171 195 51
174 198 76
173 196 57
174 198 80
175 199 72
172 196 80
173 196 57
176 200 84
174 197 44
174 198 76
171 195 62
173 197 76
173 197 62
174 198 44
173 196 67
172 195 51
171 195 51
174 197 72
171 195 57
172 195 72
169 192 80
170 194 62
173 197 57
166 188 76
169 192 72
169 192 67
171 194 44
167 190 57
171 194 76
168 190 57
167 190 88
171 194 97
168 190 90
169 192 100
167 189 92
172 195 105
176 197 114
172 194 92
165 188 70
145 167 36
150 172 18
142 165 18
149 173 25
159 182 25
155 179 25
165 188 25
167 190 0
171 193 44
174 197 51
171 195 36
196 215 167
172 196 0
174 198 0
174 198 0
174 197 0
175 198 0
175 198 0
172 196 0
71 100 99
57 90 108
56 90 105
58 92 120
56 89 115
56 90 97
58 92 118
56 89 100
56 90 105
59 93 121
58 92 118
57 90 121
57 91 114
58 92 118
56 89 108
58 92 122
59 93 129
58 92 121
57 91 114
58 92 114
57 90 115
58 92 114
57 90 117
59 94 124
58 91 122
58 92 118
58 91 114
59 93 131
57 91 118
58 92 114
57 91 111
58 92 121
57 90 115
58 91 117
57 91 120
57 89 108
57 90 114
59 93 125
58 91 115
58 91 120
58 92 115
57 91 125
58 92 126
58 92 115
57 90 111
58 90 115
60 94 125
57 90 115
57 91 108
59 93 126
54 87 100
57 91 113
56 89 110
56 89 115
58 91 113
57 90 110
56 89 103
58 91 111
57 89 110
59 93 121
56 89 105
57 90 114
56 89 111
59 93 120
57 89 117
58 92 120
57 90 116
57 89 116
58 91 115
56 89 120
56 88 116
58 91 121
57 89 117
57 89 116
55 87 102
55 86 107
58 91 121
56 89 110
54 84 112
56 87 112
55 87 106
56 87 110
55 86 104
55 87 102
54 84 111
55 86 116
51 81 91
54 84 104
53 82 97
50 77 91
54 83 95
51 79 91
53 81 104
50 76 96
45 70 88
71 89 52
172 195 0
173 197 0
173 196 0
171 194 0
174 197 0
171 195 0
170 194 0
109 112 39
83 81 23
93 91 28
68 66 10
71 70 16
78 74 14
66 67 17
67 67 13
74 74 17
69 72 10
70 73 20
78 81 22
78 78 19
74 74 26
89 90 31
74 77 24
88 87 32
98 97 32
94 93 33
96 95 27
97 97 25
97 98 33
92 92 29
103 103 42
103 102 44
101 100 39
118 115 41
113 110 43
104 103 32
116 114 33
120 119 41
127 124 46
120 118 42
125 123 44
121 118 44
128 124 41
132 129 54
133 128 49
140 135 57
143 138 60
137 133 57
142 138 53
130 127 50
131 128 45
135 132 55
133 129 51
154 148 63
141 137 51
145 140 55
142 138 59
148 143 48
145 141 59
153 147 66
144 139 59
154 149 61
150 145 55
152 146 53
154 149 65
150 144 60
159 153 57
153 148 62
150 146 57
154 149 57
156 149 60
154 148 61
149 143 57
152 147 61
150 144 54
153 147 59
153 148 58
153 149 64
151 146 54
159 152 64
158 152 62
159 152 63
159 152 66
159 153 66
162 155 69
155 150 63
154 148 58
164 157 69
152 147 60
157 152 61
154 147 62
158 151 62
156 150 65
155 150 60
159 153 65
164 158 68
157 151 60
160 153 71
160 153 65
152 146 58
153 148 63
155 149 59
155 149 61
153 146 57
162 155 70
158 153 63
155 149 64
154 148 60
155 148 54
165 158 72
159 152 70
153 147 62
153 147 64
158 151 70
163 155 72
156 150 62
156 150 62
157 151 62
157 151 64
157 151 69
158 152 66
153 147 63
158 152 65
153 146 63
152 147 60
155 149 57
149 143 64
154 147 61
159 152 72
145 140 52
166 159 75
159 152 74
155 149 67
160 152 69
155 149 67
153 148 60
155 148 70
151 146 65
152 146 63
155 149 67
152 146 59
154 148 64
159 152 68
155 149 68
148 142 63
155 149 67
154 148 67
158 151 69
146 140 64
154 148 64
149 143 62
143 138 65
183 205 102
181 203 92
185 206 114
179 202 88
183 205 102
188 208 130
185 205 114
184 206 121
184 206 114
178 201 76
180 202 100
179 201 84
183 204 105
180 202 92
179 202 88
179 202 84
176 199 36
178 201 84
177 200 67
178 200 67
178 201 72
176 199 62
176 199 67
177 200 82
179 202 72
173 197 80
177 200 72
176 200 62
176 200 80
176 199 74
174 198 62
174 198 51
176 200 74
176 200 62
175 198 62
178 201 72
177 200 70
177 200 84
177 200 72
176 200 72
175 199 67
177 200 67
176 200 72
176 200 62
176 200 72
176 199 57
176 200 67
178 201 76
174 198 76
177 200 67
177 200 62
175 198 44
175 198 57
175 199 67
176 199 62
178 201 80
178 201 76
176 200 84
176 200 62
176 199 51
177 201 80
175 198 36
174 198 62
173 197 57
173 197 57
176 199 84
176 199 76
178 201 84
175 199 72
173 197 36
175 199 62
175 198 67
173 198 72
176 200 67
176 200 80
174 198 44
175 199 80
175 199 76
174 198 72
175 199 57
173 197 57
174 198 72
173 197 67
175 199 67
176 200 99
171 196 25
174 198 72
176 199 67
174 198 76
176 199 80
176 199 80
173 197 72
173 198 72
175 198 57
171 196 36
173 197 67
171 195 51
174 198 84
174 198 72
171 195 57
174 197 76
177 201 88
171 196 72
172 196 84
171 195 51
172 196 51
173 197 76
172 196 80
169 192 76
173 197 80
171 194 62
172 195 62
171 195 44
173 197 57
172 194 67
168 192 36
171 193 44
172 196 76
173 197 80
170 194 62
170 193 84
168 192 72
169 192 67
168 191 72
172 195 84
170 192 95
166 188 67
170 192 86
170 192 102
165 187 92
166 189 72
164 186 80
151 173 36
140 163 18
145 168 0
155 177 0
150 172 0
157 180 0
165 188 0
168 191 0
169 191 25
172 196 62
174 196 62
182 203 111
179 201 80
173 197 0
171 195 0
170 194 0
174 197 0
174 197 0
175 198 0
175 198 0
122 145 79
57 90 105
58 92 113
56 89 92
57 91 102
56 89 105
56 89 107
59 93 127
58 91 107
56 89 113
56 90 112
58 91 113
58 92 118
58 91 105
57 90 111
59 93 126
58 92 108
57 90 108
58 91 114
56 89 114
59 93 133
58 92 120
57 90 108
58 92 115
55 89 108
57 90 111
58 92 111
59 92 121
59 92 127
58 92 103
56 90 115
58 91 122
58 92 120
57 91 108
57 91 120
57 91 118
59 93 121
59 92 114
57 90 107
57 91 120
58 91 108
58 91 120
60 94 124
59 92 122
58 93 114
58 91 118
59 93 127
58 92 120
60 94 126
58 91 115
55 88 105
57 90 115
57 91 115
56 89 113
54 85 92
56 88 98
56 89 110
58 92 117
56 89 110
57 90 120
57 90 114
59 92 124
57 90 121
57 89 107
56 89 105
54 85 102
56 89 113
57 91 114
56 89 117
55 86 110
55 87 98
56 88 110
56 89 113
57 89 116
57 89 113
57 89 116
58 91 119
53 83 101
55 87 107
53 84 105
56 87 108
56 87 103
56 87 106
55 87 110
54 84 107
53 82 100
52 82 82
52 81 83
53 82 101
54 83 110
50 78 85
53 81 95
51 79 96
48 72 72
49 75 86
117 137 44
172 195 0
173 196 0
172 196 0
171 195 0
169 193 0
173 196 0
174 197 0
153 169 28
95 93 34
86 83 26
73 72 24
65 66 14
70 71 18
56 58 16
68 70 15
75 76 18
77 77 15
77 78 16
78 77 14
79 77 16
82 82 19
90 87 26
85 85 17
88 88 27
92 89 24
96 94 23
83 84 24
94 93 33
94 93 27
104 103 33
97 96 29
115 114 41
103 100 40
115 113 42
115 112 36
106 104 34
115 113 42
118 115 35
121 117 48
122 119 47
122 119 44
117 116 45
135 131 47
143 137 56
130 125 46
132 129 45
128 124 50
136 132 54
136 132 49
133 130 49
144 138 60
145 141 53
133 129 53
141 136 53
151 145 63
137 132 45
139 135 53
141 137 53
148 144 52
140 135 54
148 143 51
144 140 59
149 144 56
144 139 51
156 150 62
149 144 54
152 147 55
150 145 52
155 150 58
155 148 57
154 149 65
150 146 54
159 152 66
149 144 55
149 144 49
157 150 64
154 148 64
152 147 56
158 152 65
155 149 57
157 152 57
157 153 65
158 151 59
157 151 60
154 148 60
162 156 70
159 152 62
161 156 64
152 147 51
156 150 59
154 148 60
160 152 64
153 148 62
160 154 66
156 149 58
164 156 68
155 149 60
164 158 67
160 153 63
165 158 69
152 146 61
158 152 65
155 150 62
155 149 57
157 150 57
161 153 72
160 153 74
159 153 66
155 150 62
155 148 63
155 149 66
159 153 65
155 149 63
153 147 69
160 154 69
158 151 69
154 147 66
155 150 65
154 149 60
162 155 74
155 149 66
154 149 64
156 149 63
157 151 69
158 151 67
148 142 53
155 149 69
152 146 59
149 143 63
159 152 63
154 148 66
153 147 62
160 154 67
156 150 62
148 142 54
154 147 69
155 149 66
154 148 66
159 153 70
150 143 70
162 154 72
150 144 62
149 143 66
150 145 59
153 146 65
153 148 65
151 144 62
145 140 60
150 144 70
147 141 68
157 152 70
149 142 58
179 202 84
179 202 80
180 202 82
180 202 80
176 200 62
183 204 99
186 207 122
185 206 114
181 203 95
183 204 105
182 204 108
179 201 76
177 201 76
181 203 95
178 201 80
178 201 88
180 202 84
177 200 72
177 200 82
176 199 62
176 199 72
177 200 67
177 200 67
176 199 62
176 198 36
178 201 80
177 199 74
175 199 67
179 201 80
178 201 80
175 199 57
175 198 62
175 198 62
177 200 62
176 199 51
174 198 51
180 202 92
178 201 67
174 198 57
175 198 57
177 201 84
175 199 62
178 201 84
177 200 67
177 201 88
176 199 67
176 199 51
174 197 57
177 200 72
175 198 62
174 198 76
175 198 57
174 198 67
176 199 36
176 200 72
176 200 72
176 199 51
173 197 72
175 198 67
175 199 57
175 199 72
176 199 72
174 199 72
177 201 84
176 199 76
177 200 76
173 198 44
176 200 72
175 198 67
175 199 67
172 195 44
172 196 62
175 199 62
175 198 67
173 198 76
175 200 80
175 198 62
173 198 80
177 201 92
175 198 62
174 199 62
173 196 57
171 195 57
176 200 80
174 198 57
176 200 67
174 198 76
171 195 72
176 199 76
176 200 76
173 197 57
174 198 57
176 199 84
170 194 67
176 199 84
175 199 62
171 195 51
174 197 51
174 198 51
170 194 67
173 197 76
172 197 67
171 195 51
173 196 36
173 196 57
173 196 44
173 196 57
171 195 44
169 193 62
173 196 72
171 195 57
176 200 84
171 196 80
171 194 72
171 194 44
172 195 76
171 193 62
172 196 51
176 199 72
171 194 80
169 193 72
168 190 62
175 198 57
170 194 76
169 192 84
165 187 76
170 193 84
170 192 114
174 195 102
174 195 105
161 183 84
157 178 76
147 169 0
137 159 0
150 172 0
155 178 0
163 187 0
160 182 0
162 185 0
165 188 25
171 194 51
173 196 44
171 195 25
183 204 120
173 196 0
173 197 0
173 197 0
174 197 0
174 197 0
171 195 0
173 196 0
174 197 0
165 189 31
61 93 90
57 91 113
58 92 116
57 90 118
56 89 108
58 91 111
58 91 115
55 87 99
58 91 111
58 92 115
57 90 100
58 91 110
58 92 120
58 91 114
57 91 118
56 90 103
57 91 118
59 93 122
58 91 118
58 91 122
60 94 122
58 91 115
59 93 115
55 87 105
58 92 115
57 90 105
56 89 100
58 91 115
55 88 110
59 93 127
56 89 103
58 91 124
57 91 115
57 91 118
58 91 117
56 90 113
57 90 113
57 90 121
58 92 110
58 91 114
57 91 117
57 91 118
59 93 121
58 91 111
58 92 115
58 92 105
58 92 124
59 93 121
55 87 110
57 90 108
56 89 113
57 90 118
58 91 120
58 91 122
56 89 111
58 91 118
59 92 124
59 93 120
56 89 100
56 89 120
57 90 111
56 88 107
58 92 115
57 90 117
58 91 117
57 89 109
55 88 110
56 89 102
56 88 111
56 88 108
56 88 107
58 91 115
56 88 114
57 89 112
56 87 113
55 86 102
55 86 105
57 90 119
55 87 99
56 88 117
55 87 107
56 87 110
53 82 98
51 80 100
53 83 103
55 86 103
55 86 103
52 81 94
53 81 96
54 83 105
49 75 79
48 74 67
48 73 79
58 80 76
163 185 26
173 196 0
172 195 0
170 194 0
173 196 0
173 195 0
173 196 0
169 193 0
171 194 0
108 113 28
88 86 25
91 87 29
77 75 21
88 86 12
72 70 18
86 84 18
64 65 14
71 72 17
78 79 20
71 71 18
78 78 12
75 74 23
82 82 20
87 87 27
88 88 23
72 72 27
82 83 30
93 93 30
89 90 28
107 105 37
99 98 32
100 100 37
101 101 40
111 109 37
110 108 34
112 111 42
123 118 40
117 114 45
117 114 44
122 120 41
130 126 51
126 123 46
116 113 45
120 117 38
129 126 39
126 123 46
126 122 43
122 120 50
132 129 50
139 134 48
124 122 38
136 133 48
148 142 46
137 134 42
144 139 51
138 134 48
142 138 55
147 141 55
138 134 47
138 134 47
145 139 55
152 147 61
152 147 57
147 141 53
146 142 48
146 141 53
150 144 60
152 147 53
143 139 53
147 142 57
153 146 58
146 140 53
145 140 56
154 148 59
154 148 61
159 151 65
160 151 69
154 149 61
152 146 53
156 150 62
154 147 58
157 151 61
151 146 59
155 149 54
158 152 66
158 151 64
155 150 62
154 147 59
149 144 57
159 153 60
159 151 65
157 151 67
161 155 60
159 152 62
157 150 58
154 148 65
155 149 54
148 143 47
152 146 57
156 150 54
148 142 60
157 152 63
151 145 63
159 153 63
157 152 67
154 148 60
156 151 57
155 149 62
157 151 60
153 147 60
154 147 67
154 147 62
156 150 57
154 148 58
163 154 70
159 153 62
153 147 62
154 148 59
156 150 66
154 148 69
157 151 62
155 149 63
156 149 66
152 146 61
154 147 62
153 147 60
150 145 58
159 153 63
156 149 62
153 147 69
150 143 66
155 149 62
161 154 68
144 139 52
153 147 69
147 140 60
152 146 63
158 152 66
149 143 64
157 151 66
149 143 59
151 145 63
152 145 62
157 151 72
156 150 70
154 149 65
152 146 61
147 141 65
143 137 61
145 138 64
139 134 51
148 143 58
147 141 58
173 197 0
180 202 84
182 204 108
177 200 84
180 203 99
179 202 88
182 205 111
183 204 110
188 208 127
186 207 130
178 201 76
180 202 88
178 200 82
179 201 84
180 202 94
181 202 76
176 199 62
179 202 84
180 202 84
178 201 76
177 200 72
179 202 88
175 199 72
180 202 88
176 199 60
177 201 84
178 201 80
175 198 72
177 200 90
176 199 62
177 200 72
175 199 80
177 200 67
176 199 57
172 196 36
176 200 67
176 199 57
175 198 62
177 200 82
178 201 76
175 199 70
176 199 76
177 200 67
176 199 72
174 198 44
176 199 67
177 200 67
178 201 84
179 201 80
177 201 84
176 200 80
176 199 51
174 198 57
176 199 76
174 198 51
176 200 105
175 198 44
174 198 67
174 198 62
177 200 62
175 199 62
177 200 88
173 197 51
175 199 92
175 199 67
174 198 67
172 196 67
174 197 57
176 200 76
176 199 80
175 199 57
174 198 76
172 196 51
176 199 62
173 197 62
176 200 67
175 198 57
175 199 88
173 196 51
176 198 57
173 197 62
172 197 72
173 197 57
174 198 72
175 199 57
174 199 76
174 197 57
174 198 67
174 198 36
174 198 76
171 196 62
177 200 76
172 196 67
172 196 72
174 198 80
174 197 44
172 196 67
174 197 62
171 195 62
174 197 72
173 198 76
173 196 51
172 196 84
171 196 62
171 195 67
175 199 57
173 196 76
172 196 57
174 198 88
169 194 80
167 190 57
165 189 57
174 197 72
170 194 62
172 195 62
169 193 84
170 193 80
174 196 57
164 187 57
166 189 51
171 194 72
172 196 88
170 193 72
172 195 92
174 196 102
163 185 92
168 190 92
170 191 99
172 194 76
161 182 72
160 182 84
139 161 25
142 164 0
146 167 0
150 172 0
157 179 0
155 178 0
156 179 0
167 191 25
168 191 25
173 196 57
174 196 44
178 200 95
180 202 84
172 196 0
174 198 0
174 197 0
173 196 0
174 198 0
173 196 0
175 198 0
173 196 0
171 195 0
116 141 77
56 89 103
57 91 107
56 88 95
58 92 113
57 90 107
57 90 110
57 91 108
58 91 117
57 90 108
57 91 105
58 92 114
55 87 99
57 90 103
58 92 117
57 91 110
59 93 117
59 93 121
58 91 114
57 91 122
59 92 125
58 91 115
58 92 114
58 91 118
57 90 111
59 92 117
57 90 115
57 90 113
58 92 117
58 92 111
57 91 102
56 90 113
58 92 118
59 93 125
59 93 122
57 90 120
58 91 118
58 92 125
58 92 117
57 90 105
57 90 110
58 91 120
58 91 120
58 92 115
58 92 120
59 93 117
57 90 107
59 93 124
57 90 117
57 90 114
56 89 102
58 91 120
56 89 113
56 88 99
57 90 114
56 88 110
57 90 107
56 89 115
57 91 111
58 91 118
58 92 117
54 85 99
56 88 111
57 88 113
58 90 120
57 89 110
57 89 108
58 91 120
58 91 119
55 87 105
55 87 114
57 89 125
55 87 104
55 87 100
56 87 107
54 85 99
55 86 111
56 86 115
56 87 112
53 83 95
56 88 109
55 86 112
54 85 94
54 85 110
55 85 96
53 83 102
53 83 97
52 82 91
52 80 102
50 77 90
46 72 72
48 74 74
47 72 76
104 124 45
171 195 0
168 191 0
174 197 0
172 195 0
171 194 0
172 195 0
170 193 0
173 196 0
174 197 0
156 172 33
91 87 36
87 86 24
84 83 13
85 82 17
87 85 18
70 70 19
88 86 14
70 70 8
76 75 14
64 67 16
75 75 18
72 74 21
82 83 24
75 75 20
86 85 16
94 94 31
92 92 25
91 93 21
101 98 31
98 96 36
96 96 32
103 103 42
95 94 29
106 105 36
104 104 40
110 108 30
113 111 30
104 104 35
114 111 36
121 115 48
113 111 40
122 120 42
132 129 42
121 118 39
122 120 40
123 120 35
128 125 42
123 120 48
129 126 43
133 129 48
137 132 53
139 134 53
134 130 48
139 135 54
141 137 53
137 132 41
136 132 47
145 139 48
137 133 38
138 133 44
142 137 52
131 127 47
151 143 63
146 142 50
139 136 48
148 142 48
137 132 49
152 146 58
155 149 57
151 145 52
156 150 51
152 147 58
156 149 62
147 142 53
150 144 57
149 145 50
150 144 51
155 149 60
158 150 68
161 155 68
153 148 62
160 154 63
155 150 58
156 150 61
155 150 63
154 148 59
153 148 59
160 154 60
149 143 59
158 153 61
157 152 60
159 151 63
156 149 66
156 149 59
154 150 53
159 153 61
159 152 62
154 148 54
161 154 68
157 151 63
157 151 64
150 145 53
152 146 59
164 157 64
156 149 64
148 142 57
154 148 58
156 149 58
151 146 57
161 154 72
153 146 63
158 151 66
161 154 67
158 152 57
149 143 54
152 147 69
157 151 64
159 153 65
157 151 53
158 152 71
161 154 75
156 149 59
151 145 62
154 148 65
157 150 59
151 145 53
150 143 56
146 142 52
154 147 68
158 151 66
158 152 61
154 149 61
152 145 66
148 142 68
149 143 60
149 144 59
155 148 63
155 148 65
154 148 65
157 150 68
161 154 71
150 143 65
157 151 69
150 145 60
152 146 64
149 143 64
156 149 65
150 144 68
146 141 59
143 138 60
144 138 62
142 136 59
142 136 58
173 197 0
174 198 0
179 201 82
178 201 84
179 201 76
178 201 80
181 204 99
179 202 92
185 206 114
183 204 108
182 204 105
179 202 84
182 205 114
179 201 84
181 203 95
179 202 88
177 200 84
180 202 80
179 202 84
177 201 76
175 198 80
179 201 72
176 199 72
176 200 67
177 199 72
178 201 76
176 200 67
177 200 86
177 200 72
174 197 70
175 198 62
175 199 82
176 200 80
174 198 72
175 199 62
176 199 70
175 199 51
173 196 44
178 201 84
174 198 51
176 199 70
178 201 80
177 200 76
176 200 72
176 199 62
177 199 57
178 201 84
176 200 62
178 201 76
175 199 80
173 197 62
176 199 92
175 198 36
174 198 57
175 199 67
175 199 76
174 198 44
173 197 44
178 201 84
175 199 92
174 198 51
177 200 84
176 199 84
173 197 57
175 199 95
173 197 57
175 199 76
175 198 62
174 198 80
172 196 76
176 199 57
175 199 76
174 198 67
173 197 51
175 200 84
177 200 72
176 200 95
173 197 62
172 196 51
173 197 51
173 198 67
171 196 76
173 197 62
173 197 62
174 197 57
171 195 67
175 199 67
171 195 44
174 198 76
173 198 95
171 195 76
175 198 57
172 196 62
173 197 62
172 196 57
174 198 62
173 197 72
167 192 67
171 196 36
173 197 67
172 196 67
172 195 62
173 197 62
171 195 62
172 197 80
170 194 67
172 195 62
174 198 62
171 195 57
170 194 36
170 193 80
171 196 80
169 193 51
173 196 99
168 192 67
173 196 76
170 194 62
165 189 51
168 191 72
171 194 72
167 190 57
168 190 76
175 197 88
172 195 84
174 196 105
168 190 88
174 197 105
170 191 84
163 185 67
172 194 95
140 161 44
140 161 0
150 172 0
153 176 0
154 177 0
155 178 0
159 182 25
160 184 0
162 185 0
167 190 51
170 194 25
172 196 44
179 200 108
173 196 0
170 194 0
168 191 0
174 197 0
173 197 0
172 197 0
174 197 0
173 197 0
174 197 0
170 194 0
162 185 31
57 89 86
57 91 107
57 91 108
57 90 88
59 93 127
58 91 105
57 90 105
56 89 102
58 92 122
56 90 103
56 90 111
57 90 99
58 92 114
56 89 99
57 90 100
57 90 108
56 89 108
57 90 111
58 92 110
57 90 113
57 90 117
59 93 120
57 91 115
59 93 118
58 92 122
57 90 107
56 89 111
57 91 114
57 90 113
58 92 117
59 93 117
57 91 107
58 92 115
58 92 124
56 89 108
58 91 113
58 91 121
57 90 110
57 90 120
58 92 107
57 91 105
58 91 115
57 91 105
57 91 120
58 91 124
58 91 111
58 91 120
58 92 117
59 93 122
58 91 124
58 92 116
56 89 105
56 88 111
56 88 99
58 92 123
57 90 108
58 91 114
56 88 105
58 92 125
58 92 113
59 93 126
55 87 110
58 91 116
58 91 113
57 90 111
56 88 107
56 88 99
56 88 107
58 91 115
57 90 123
57 90 117
57 89 110
56 88 116
59 92 122
56 88 124
54 84 104
56 86 112
55 86 100
54 85 101
55 85 100
55 85 99
55 85 103
54 84 97
52 82 103
52 80 89
54 83 105
50 78 80
48 75 86
49 76 84
51 78 88
49 75 87
44 67 49
155 177 25
169 191 0
171 194 0
172 196 0
172 196 0
170 193 0
169 192 0
173 196 0
171 195 0
171 194 0
169 191 0
125 131 42
80 78 27
77 76 21
97 94 27
81 79 19
72 70 12
77 76 16
78 76 8
77 77 16
72 73 22
82 82 18
79 78 14
79 79 14
85 85 20
85 87 27
80 81 16
86 86 24
103 101 26
98 97 26
94 93 22
105 104 34
100 99 38
101 99 24
102 101 28
114 111 40
107 106 29
105 103 32
111 109 38
121 120 32
122 118 42
127 123 38
124 121 41
125 121 46
121 119 37
131 127 42
126 123 37
135 131 50
126 123 43
131 126 45
135 131 43
126 122 49
141 138 54
135 131 42
136 132 44
136 133 51
140 136 44
140 137 45
137 131 49
143 139 50
143 137 49
148 142 50
139 135 54
135 131 43
143 139 45
142 138 49
142 138 49
143 139 45
146 141 55
149 144 57
145 141 49
146 140 54
142 137 44
154 147 60
156 149 61
143 139 41
148 142 47
148 143 54
152 147 54
156 150 57
155 149 58
151 144 52
150 145 48
157 151 58
152 144 62
154 148 58
149 143 56
155 150 60
157 150 64
149 143 54
151 146 51
159 152 64
153 147 53
158 152 58
159 152 66
153 145 57
162 156 64
156 149 64
161 153 63
159 152 67
151 146 61
147 143 47
156 151 56
150 145 53
155 149 53
157 150 64
149 143 57
148 143 49
154 149 52
148 142 64
155 149 60
150 145 53
155 148 58
149 143 56
157 150 63
159 152 61
149 143 53
153 148 57
153 147 53
151 145 63
156 150 66
149 142 63
153 147 54
152 147 58
155 148 61
148 143 52
161 154 70
151 144 61
155 149 59
153 147 61
153 146 66
152 146 65
150 144 58
146 140 60
158 151 68
150 144 60
156 150 61
155 149 60
154 148 60
150 144 58
147 140 59
148 141 61
149 143 58
143 137 58
149 142 65
151 145 63
143 137 58
139 133 59
144 138 63
152 144 67
151 145 58
143 137 52
141 135 61
149 143 63
175 198 0
172 195 0
177 199 51
178 201 76
183 204 111
179 202 95
179 201 80
178 201 80
179 201 88
185 206 111
183 204 110
180 203 102
181 203 92
181 203 95
180 203 99
179 202 88
177 199 72
178 201 67
177 200 80
180 203 92
179 202 95
178 201 78
179 202 84
179 202 92
177 200 67
177 200 84
179 201 92
179 201 67
177 200 82
178 201 76
176 199 44
175 198 65
175 198 57
177 200 82
175 199 74
175 199 67
175 198 47
177 199 65
176 200 80
174 198 67
176 199 67
174 198 44
177 200 62
175 198 72
175 199 72
176 199 62
175 199 57
177 201 92
175 199 62
177 200 67
170 195 51
175 198 36
177 200 62
176 200 72
173 197 62
173 196 57
174 198 67
176 200 67
174 198 80
171 195 67
173 198 51
172 196 67
173 197 62
175 199 57
175 198 44
175 199 57
173 196 36
173 198 51
175 198 76
172 195 44
174 198 62
173 198 80
175 199 72
175 199 67
173 197 36
172 197 80
175 199 67
172 196 76
173 197 62
173 197 67
173 198 84
174 198 57
173 197 62
173 198 80
170 193 44
173 197 67
174 198 80
174 198 72
174 198 67
175 199 57
173 198 62
174 198 62
175 199 67
173 196 72
174 198 51
172 196 51
174 197 51
170 194 67
169 193 44
172 195 51
174 197 62
175 199 57
171 195 51
169 193 76
174 197 67
171 196 72
170 193 51
170 194 80
170 193 51
172 196 76
171 195 76
173 197 76
169 193 84
169 192 44
171 193 57
169 192 67
173 196 95
170 193 57
170 193 67
175 197 80
171 195 72
169 192 80
172 194 99
171 194 67
176 199 99
166 188 95
174 195 108
169 191 95
165 187 84
160 181 51
146 167 0
129 150 0
148 170 0
152 175 0
145 167 0
154 176 0
155 179 0
161 184 0
164 188 44
167 189 67
167 190 25
182 204 108
175 198 51
173 197 0
170 193 0
172 195 0
170 194 0
171 194 0
174 198 0
170 194 0
172 196 0
171 195 0
173 196 0
173 196 0
122 147 90
57 91 103
55 88 105
56 88 105
58 92 114
58 91 107
56 89 100
58 91 114
58 92 102
59 94 117
57 90 102
56 89 97
55 88 108
56 89 107
57 90 110
56 89 97
58 92 114
57 91 108
57 90 103
58 92 120
57 90 114
58 91 108
57 90 114
59 92 111
59 93 117
57 90 114
58 92 113
57 91 117
58 92 122
58 92 120
57 90 103
55 88 108
58 92 118
59 93 122
58 92 108
57 90 111
59 93 126
57 90 108
56 89 110
57 89 120
57 90 110
55 88 100
58 92 110
58 91 121
58 91 124
57 90 103
55 87 97
57 90 121
58 90 113
56 88 107
56 89 108
57 91 115
58 92 122
58 90 113
58 92 115
56 89 113
59 93 132
55 87 100
58 92 110
56 89 105
54 85 94
56 88 102
56 87 118
57 89 105
57 90 115
58 91 120
57 88 112
57 89 111
57 90 117
57 90 117
55 86 109
55 86 108
57 89 108
53 84 92
54 84 109
56 87 105
56 88 101
53 84 101
54 84 104
51 79 98
52 81 97
54 84 95
53 82 104
54 84 102
52 82 98
52 81 101
51 80 98
51 80 87
51 79 83
49 75 86
46 72 71
109 130 48
171 193 0
170 193 0
171 193 0
170 193 0
171 194 0
169 192 0
172 195 0
172 195 0
170 192 0
172 196 0
169 192 0
163 184 16
86 84 25
83 80 35
88 85 22
78 74 22
80 78 21
76 75 16
64 64 17
81 79 16
83 81 4
73 72 18
85 84 20
74 75 14
82 82 22
84 83 14
90 90 23
95 93 21
92 90 31
94 94 24
93 95 30
99 97 31
102 101 32
105 102 25
107 106 27
116 112 30
103 102 21
102 99 26
116 113 42
115 115 30
118 115 30
117 114 28
120 117 37
124 120 38
122 120 37
121 119 42
118 115 38
125 121 37
132 128 37
133 129 40
128 124 42
137 133 51
129 127 37
132 128 48
142 137 49
143 137 47
134 129 42
135 131 40
139 133 47
141 136 42
143 139 45
131 127 41
140 136 53
135 132 34
142 138 47
139 132 52
145 139 56
146 140 58
145 140 46
144 138 49
141 136 42
149 144 52
147 140 56
153 147 52
148 142 56
148 142 42
146 141 49
149 143 49
151 144 59
147 142 48
143 137 51
152 147 52
150 145 57
150 145 49
152 146 59
155 149 56
153 148 57
153 147 59
160 153 66
147 142 52
156 151 59
157 152 59
154 148 56
152 147 51
160 153 60
154 147 48
149 144 59
151 146 54
152 146 54
151 147 52
158 151 65
152 146 51
146 140 48
154 148 57
153 147 63
159 152 63
149 143 57
157 151 61
150 145 53
152 145 53
150 145 58
159 153 54
158 151 62
153 147 62
158 150 64
160 153 70
156 150 62
152 146 59
150 144 51
161 153 66
155 147 64
151 144 58
154 148 61
153 146 57
158 152 69
144 138 68
158 151 61
150 144 59
152 146 72
153 146 64
147 142 56
159 152 73
151 145 59
149 143 56
155 149 67
150 145 53
155 148 54
150 144 60
149 142 59
148 143 57
154 147 65
155 147 67
148 142 57
155 148 67
145 139 61
150 143 60
137 131 45
155 148 60
146 140 58
148 142 61
146 140 59
146 140 60
148 142 59
154 147 66
172 196 0
173 197 0
173 196 0
175 198 57
182 204 102
181 203 88
181 203 95
179 202 80
177 200 72
184 205 108
184 206 111
181 203 100
181 204 105
184 205 122
176 199 62
183 204 105
178 200 62
183 205 111
179 202 84
178 201 80
178 202 95
177 200 84
178 201 86
179 201 76
177 200 72
177 201 76
179 202 76
174 198 80
176 200 72
177 200 76
176 199 51
176 200 72
176 198 70
175 199 80
176 199 82
175 198 51
177 200 99
175 198 70
177 199 51
176 200 80
174 198 62
177 200 62
175 199 72
178 201 84
173 196 51
178 201 76
176 199 67
176 199 62
176 199 51
173 197 57
175 199 80
173 198 62
176 200 80
175 199 62
174 197 51
176 200 84
174 199 67
174 198 67
173 196 67
171 195 72
174 198 80
177 200 76
172 197 57
173 197 51
174 197 44
174 198 51
171 194 44
173 197 51
173 198 62
173 198 72
175 198 67
173 197 67
170 194 51
173 197 72
174 198 72
173 197 51
173 197 57
174 198 72
169 193 44
175 199 67
175 199 72
173 197 25
171 195 51
174 198 51
172 196 44
172 197 67
174 198 62
171 195 57
169 194 62
173 198 84
175 199 67
171 195 44
172 196 72
173 198 72
173 197 62
172 196 72
173 198 72
172 196 72
173 197 62
173 197 72
168 192 62
173 197 80
169 194 57
172 197 72
175 198 62
175 199 76
174 197 67
174 199 84
168 192 44
172 195 67
169 194 80
169 192 67
165 189 44
167 191 62
169 193 62
167 190 67
170 192 51
166 189 84
171 194 80
173 197 88
169 192 76
163 186 76
170 192 72
170 193 99
170 192 102
170 191 92
164 186 84
158 180 67
145 167 57
141 162 0
143 165 0
145 167 0
147 169 0
150 172 0
154 177 44
157 178 25
160 183 0
162 186 0
167 190 36
174 197 44
175 198 62
181 203 108
172 196 0
170 193 0
171 194 0
169 193 0
168 193 0
172 196 0
173 197 0
173 196 0
169 194 0
171 195 0
166 188 0
170 194 0
160 184 36
61 94 107
57 89 105
56 89 113
56 90 110
56 89 107
58 91 107
58 91 110
55 88 99
58 92 113
56 90 110
57 91 107
58 92 117
58 91 108
58 92 118
56 89 108
57 91 108
58 91 114
58 92 110
57 89 103
58 91 107
57 90 103
57 91 107
58 91 125
57 91 114
57 91 107
57 91 108
56 89 94
56 89 103
58 91 113
59 92 115
57 89 108
57 90 107
55 88 105
56 89 100
56 90 108
57 90 102
57 91 120
57 90 114
58 91 118
58 92 111
59 92 110
57 90 115
56 89 114
58 91 118
56 89 111
56 89 105
55 87 102
57 90 111
57 89 115
57 91 114
58 91 120
57 90 120
56 88 102
56 89 107
57 90 122
55 88 99
57 91 108
57 90 110
57 89 104
57 89 110
56 89 110
58 91 114
57 89 110
56 88 107
56 89 101
53 83 102
56 89 108
58 91 119
54 85 98
54 85 101
56 88 107
54 85 96
54 85 99
53 83 96
53 83 103
55 85 108
55 87 105
55 86 111
54 85 103
53 83 96
53 83 108
52 82 98
55 85 100
52 81 93
53 82 98
49 76 82
50 77 85
50 78 80
47 72 70
58 79 49
154 176 25
170 193 0
169 192 0
169 192 0
172 195 0
174 197 0
169 192 0
171 194 0
171 193 0
168 190 0
171 193 0
172 194 0
171 194 0
133 144 22
96 93 12
87 86 14
83 82 24
80 79 25
71 71 20
75 74 14
83 81 25
74 75 14
81 79 4
78 78 18
75 74 16
81 80 19
92 92 27
95 93 18
81 80 18
90 88 22
97 94 18
104 101 24
96 92 24
100 98 25
106 104 28
106 104 24
104 102 35
108 106 31
114 112 33
110 107 28
112 110 38
123 119 38
116 114 21
121 118 30
111 109 34
125 121 35
129 125 45
121 117 37
133 129 41
130 126 36
118 116 37
134 130 37
128 124 43
130 125 47
137 133 42
128 124 34
131 127 42
138 134 44
132 128 37
136 132 43
135 132 45
140 135 47
138 133 48
145 139 49
150 144 46
141 138 49
150 144 54
141 136 49
148 142 44
140 136 44
140 136 48
148 143 48
143 139 51
144 139 49
150 144 45
150 145 54
153 146 61
151 145 53
152 147 57
146 141 49
151 146 57
142 137 45
147 140 53
148 143 54
153 148 47
150 145 54
155 148 55
154 148 57
150 144 56
152 145 57
153 148 48
150 144 49
153 147 59
146 142 52
153 147 54
152 145 53
150 145 48
146 141 45
159 153 64
155 149 52
151 146 54
147 142 48
154 149 58
143 136 52
155 149 53
155 148 57
159 152 66
153 148 60
155 148 58
146 141 51
146 139 48
157 149 65
147 141 53
157 151 66
155 148 67
160 153 66
144 139 52
155 148 61
156 149 64
152 146 62
144 139 52
152 147 51
147 140 54
148 142 54
156 148 65
148 144 52
152 146 57
146 141 53
151 145 66
154 148 56
149 144 60
142 136 51
147 141 54
154 147 61
154 147 58
154 146 57
153 147 58
145 140 57
152 144 57
150 144 57
145 139 58
150 144 58
152 146 65
154 148 61
151 145 61
156 150 64
149 143 60
152 145 71
143 137 58
154 148 67
152 144 67
148 142 56
148 142 59
152 146 63
148 141 62
172 196 0
173 197 0
174 198 0
171 194 0
178 200 67
183 204 99
181 203 102
181 202 84
180 202 92
177 200 76
180 202 94
182 204 102
181 203 102
183 205 111
182 204 105
183 205 120
177 201 76
176 199 92
180 202 99
181 203 88
177 200 76
180 203 95
179 202 84
178 201 92
178 200 67
176 199 67
179 202 95
176 200 80
177 200 76
178 202 102
177 200 51
175 199 67
176 199 72
176 200 76
176 200 67
176 199 51
175 198 57
175 199 76
175 199 67
176 200 67
176 199 57
175 199 62
176 199 67
174 199 67
173 197 57
176 199 51
174 198 72
175 199 72
174 198 72
176 199 57
174 198 57
174 198 72
175 198 44
173 197 51
176 201 92
174 198 57
173 197 80
174 198 57
173 197 51
174 198 62
175 199 67
173 197 51
174 198 62
174 198 62
175 199 76
173 197 76
174 199 62
172 196 76
173 196 67
173 197 57
175 199 84
172 196 72
172 197 57
173 198 88
174 198 62
174 197 57
172 196 62
173 198 84
171 195 51
173 198 62
173 197 62
174 199 62
170 194 80
173 197 80
169 192 51
173 197 62
172 196 72
173 197 51
174 197 44
174 198 72
170 195 67
172 196 76
175 198 80
172 196 67
174 198 67
171 195 72
168 192 62
170 194 51
170 194 72
172 197 72
168 192 67
171 196 95
170 194 51
170 194 36
172 196 67
171 194 84
168 191 76
168 191 57
167 191 76
167 191 80
172 196 80
174 197 84
168 192 76
168 192 72
173 197 105
167 191 57
169 193 57
168 191 72
169 192 51
168 190 80
166 188 67
171 193 99
169 190 99
173 194 111
168 190 84
166 189 67
161 183 72
158 181 57
150 172 0
146 168 0
153 175 0
145 167 0
149 171 0
158 181 0
155 178 0
155 178 0
167 190 25
168 191 44
164 187 44
171 194 44
183 204 114
174 196 25
169 191 0
174 197 0
170 194 0
171 195 0
173 196 0
172 196 0
170 193 0
171 193 0
172 195 0
169 192 0
166 190 0
171 194 0
167 191 0
123 147 74
54 86 94
55 87 86
57 90 111
57 91 95
57 90 108
58 91 117
56 89 105
56 89 106
58 91 107
55 87 102
57 90 94
56 89 110
58 91 113
56 89 105
58 92 113
59 93 121
57 90 107
58 92 115
57 91 95
57 90 115
57 90 110
56 89 103
57 90 114
60 94 122
56 89 111
56 88 102
57 90 102
57 90 111
57 90 111
58 91 110
56 89 94
57 90 107
56 89 97
56 89 108
59 92 115
58 91 113
57 91 110
56 89 114
56 89 107
56 89 113
58 91 118
54 86 88
55 87 103
56 88 102
57 90 107
59 92 118
56 88 110
55 87 102
57 90 102
55 88 107
57 90 103
57 90 121
57 91 117
55 88 99
57 90 113
58 90 113
58 91 116
57 90 112
55 87 104
56 89 113
55 87 105
55 87 111
54 86 99
58 91 113
54 85 96
55 86 101
55 87 107
57 90 113
56 88 106
53 84 98
55 85 102
56 88 107
55 86 114
55 86 103
54 85 107
56 88 111
55 85 109
51 80 99
53 82 99
52 81 80
51 80 89
51 81 87
52 80 85
51 79 85
49 77 86
49 75 69
48 74 67
48 73 70
113 136 57
172 194 0
167 191 0
168 191 0
169 191 0
168 190 0
167 189 0
171 193 0
167 190 0
169 190 0
168 191 0
168 191 0
169 192 0
166 189 0
167 190 11
114 116 28
87 83 19
87 84 19
83 80 22
76 74 24
79 76 8
84 82 23
77 77 11
82 82 11
83 81 8
68 68 12
80 80 14
95 93 5
83 83 20
103 101 29
91 88 12
95 94 21
96 95 19
92 91 29
96 94 30
111 107 28
113 109 28
98 97 26
108 106 29
112 111 25
109 107 24
110 108 34
116 114 35
109 108 26
117 116 40
123 120 37
117 116 33
123 119 37
131 126 42
132 128 45
125 122 37
130 126 35
126 123 41
134 129 45
140 135 53
133 130 44
132 127 36
127 124 36
124 121 32
131 128 41
143 139 47
135 130 38
138 133 45
135 132 35
136 131 37
137 133 49
138 133 46
136 133 39
134 130 49
145 140 52
148 142 49
144 139 51
144 138 50
135 131 36
147 142 49
150 143 54
140 137 40
151 145 56
143 137 49
146 140 51
150 145 51
152 146 54
153 148 48
150 145 57
150 143 58
151 146 47
159 153 57
155 148 58
153 147 58
149 142 52
151 144 51
154 147 54
151 147 49
157 149 61
151 146 57
145 140 45
157 150 59
152 145 47
147 140 51
150 144 52
148 142 49
149 144 51
158 153 60
152 146 51
154 148 58
153 146 49
150 143 56
155 149 53
153 147 51
148 143 45
154 149 60
157 150 63
146 140 54
160 153 63
153 145 62
156 150 63
145 140 49
150 143 61
152 146 63
145 138 53
147 142 59
149 144 58
154 148 63
153 147 62
153 146 62
149 143 52
150 143 54
146 141 53
149 143 62
148 141 53
146 140 58
149 143 59
154 148 60
149 143 54
144 138 56
147 142 53
156 149 59
147 141 52
149 143 60
147 141 49
155 148 67
147 143 56
154 147 67
146 140 58
142 138 49
140 135 53
146 140 59
144 139 51
145 139 57
155 149 63
143 138 61
151 145 63
147 142 52
147 140 59
146 140 57
156 149 67
174 197 0
176 198 0
176 198 0
174 197 0
174 197 0
179 201 88
179 202 95
182 204 99
180 202 80
179 201 80
180 202 95
177 200 84
187 208 133
183 205 111
184 206 114
183 205 111
183 205 111
181 203 88
177 200 84
183 205 117
180 202 84
180 203 99
178 200 67
179 202 84
177 199 57
176 199 80
179 202 92
176 199 67
179 202 95
180 202 88
176 199 51
181 203 95
175 198 62
176 199 62
176 199 72
175 199 67
176 199 67
176 199 76
175 199 57
175 199 62
175 198 62
178 201 88
176 199 57
175 198 72
177 200 62
173 197 67
175 199 76
175 199 67
173 196 57
174 198 44
174 198 67
177 200 76
174 197 67
176 199 72
172 195 62
173 196 67
175 198 67
176 199 67
172 196 62
174 198 62
175 199 72
173 197 51
176 200 102
169 193 51
174 199 67
172 197 57
176 199 76
172 195 51
174 198 51
173 197 51
172 196 57
175 198 62
173 197 62
174 197 62
170 195 25
172 197 62
172 195 51
173 198 62
175 198 36
174 197 51
174 198 57
171 196 62
171 194 57
173 197 57
171 195 76
175 198 72
173 197 67
172 196 67
170 194 51
172 196 57
169 193 57
167 191 51
171 195 67
171 196 72
170 194 57
174 198 84
173 197 80
172 196 76
172 196 67
173 197 57
168 192 51
175 199 80
172 195 67
167 191 62
169 193 62
172 196 72
172 195 62
169 193 67
170 194 57
167 192 92
166 189 62
170 194 57
170 195 72
170 193 67
170 193 57
173 195 88
166 190 76
165 188 72
168 191 72
167 190 51
170 192 114
169 190 84
169 190 102
172 194 88
157 180 57
164 186 80
160 182 62
146 167 0
136 158 0
148 169 0
150 172 0
157 180 0
150 172 0
160 183 0
162 184 0
163 186 0
163 187 0
158 181 25
166 189 57
181 202 111
177 198 72
174 197 0
172 195 0
171 194 0
168 192 0
170 193 0
170 193 0
170 194 0
171 196 0
173 196 0
167 191 0
168 192 0
170 193 0
169 192 0
169 192 0
165 189 18
67 97 88
57 91 111
57 89 106
54 86 86
58 92 114
59 92 117
56 89 97
57 90 105
56 89 105
55 88 102
58 91 113
58 91 111
56 89 102
55 87 102
57 90 95
56 88 103
58 92 118
56 90 99
56 89 99
56 89 94
57 91 113
56 89 103
58 92 110
56 89 102
57 91 115
58 92 115
58 92 113
56 89 107
57 90 99
57 90 115
57 90 100
59 93 125
57 90 117
58 91 115
59 93 125
57 90 113
57 89 110
58 90 117
57 90 108
56 88 105
57 90 115
55 87 95
57 91 105
57 91 113
57 90 120
56 89 116
56 89 108
57 89 105
55 87 90
55 88 105
56 88 99
57 90 114
57 90 104
55 86 97
55 88 105
56 88 100
57 90 107
57 89 110
53 85 86
52 83 96
58 90 114
55 87 107
54 85 102
55 86 104
56 88 108
56 88 105
56 88 107
54 85 104
55 85 103
54 85 98
56 88 115
54 85 101
55 86 103
54 85 96
56 87 109
53 84 98
52 81 87
52 82 97
52 83 92
53 83 99
52 82 96
50 78 84
50 77 88
48 75 71
48 74 76
48 74 87
51 78 85
68 89 58
162 184 19
167 191 0
167 188 0
165 188 0
165 187 0
170 192 0
168 192 0
169 192 0
171 193 0
166 188 0
167 190 0
165 187 0
171 196 0
168 190 0
168 192 0
156 174 16
99 99 24
90 88 25
94 91 32
68 67 8
83 83 23
80 79 18
72 73 16
97 93 21
84 82 9
90 88 8
85 84 8
71 71 18
74 74 20
84 83 12
96 94 14
88 87 13
89 89 14
95 93 20
91 89 18
106 104 20
101 99 16
107 105 31
105 103 26
112 110 29
118 116 31
107 104 31
105 104 26
120 117 27
121 119 31
123 120 33
121 117 46
114 112 29
128 124 39
125 121 38
132 127 43
129 125 45
123 118 38
136 131 43
124 120 36
130 126 42
134 129 31
129 125 32
140 135 39
130 125 36
132 126 40
136 132 49
130 125 45
129 124 38
142 138 43
143 138 39
140 134 51
144 138 42
142 136 45
148 142 48
141 136 47
143 138 37
151 146 49
144 138 46
151 144 56
147 141 45
146 141 53
147 142 49
144 140 36
148 142 45
155 148 56
149 143 51
156 150 60
154 148 53
150 144 42
148 141 54
153 146 61
147 141 49
148 144 48
145 141 37
149 142 57
148 144 45
148 142 52
146 140 48
153 147 56
148 143 45
150 144 51
157 150 56
152 145 52
153 147 49
152 145 56
152 146 49
149 144 44
152 147 58
152 145 56
147 140 52
150 144 58
154 148 53
150 142 57
148 143 49
155 148 58
150 146 52
154 147 57
146 140 51
155 149 59
154 148 58
152 145 62
149 142 54
152 146 45
145 140 45
150 145 54
154 148 59
151 145 52
149 143 58
146 141 54
158 150 61
151 144 61
153 146 66
147 141 52
152 146 54
148 142 59
147 140 53
147 142 52
147 141 54
153 145 67
158 150 65
154 147 59
151 146 54
149 143 57
147 141 56
150 143 63
147 140 56
149 144 58
153 147 64
152 146 66
145 139 59
148 143 57
143 139 52
148 141 57
146 139 60
150 143 60
152 146 61
145 139 54
151 145 65
144 136 54
138 132 61
176 199 25
173 197 0
173 196 0
171 196 0
174 197 0
173 196 0
175 198 72
178 200 80
182 203 92
181 202 95
176 199 57
179 201 95
176 199 72
181 203 99
183 205 114
181 203 102
181 204 105
177 200 72
184 205 108
179 201 102
178 201 88
175 198 62
177 200 62
179 202 84
175 199 67
178 200 72
173 198 57
179 202 92
176 199 62
175 199 67
179 202 92
176 200 76
174 198 44
178 201 72
173 197 36
176 199 95
176 200 57
176 200 80
177 201 80
173 197 36
174 198 67
175 199 76
174 198 84
176 199 72
176 200 67
174 197 51
176 199 72
177 200 80
173 197 62
176 199 72
174 198 67
175 198 67
173 197 62
174 198 84
172 196 44
173 198 57
175 199 80
173 197 67
175 198 76
176 200 88
172 196 62
173 197 57
175 199 67
172 196 67
173 197 62
175 197 44
173 198 62
175 199 72
172 196 51
174 198 72
174 198 88
172 196 51
172 196 57
174 198 72
174 198 57
171 195 76
173 197 72
175 198 67
174 197 57
171 195 51
173 198 92
173 197 57
174 198 36
170 195 72
171 195 44
171 195 62
171 196 57
171 196 76
172 196 44
176 199 72
170 194 72
173 197 80
173 197 67
172 196 51
170 193 88
171 195 84
170 194 67
168 192 88
172 196 62
175 198 76
172 195 67
169 192 51
171 195 57
170 193 62
171 195 62
168 193 76
174 198 76
170 194 80
175 198 99
171 195 80
172 195 76
171 194 62
167 190 51
168 191 76
176 199 95
170 193 80
168 191 76
176 198 102
169 191 95
175 198 111
169 190 108
176 197 120
165 188 84
163 185 84
166 187 80
161 183 67
131 152 0
140 161 0
149 171 0
152 174 0
152 174 0
148 171 0
149 171 0
154 176 0
161 184 25
164 187 0
162 185 51
171 193 36
175 197 62
177 200 95
169 193 0
167 191 0
169 192 0
171 195 0
171 195 0
169 192 0
169 193 0
167 190 0
167 190 0
171 194 0
171 193 0
169 193 0
168 192 0
171 195 0
167 191 0
170 194 0
140 163 47
55 88 94
55 87 97
56 89 103
55 87 90
56 89 95
57 91 102
57 90 102
56 89 105
55 88 90
56 89 108
58 92 115
56 90 100
57 90 111
54 87 97
56 89 102
57 90 114
58 92 114
57 91 105
55 86 97
55 88 108
57 90 111
56 88 97
57 90 108
55 88 97
56 90 103
55 87 94
56 89 115
57 90 118
56 89 103
56 88 110
57 90 118
57 90 121
57 89 115
56 89 103
56 89 114
57 89 102
57 90 100
58 91 124
56 89 103
57 90 114
57 90 115
55 87 102
56 88 108
56 87 95
56 89 105
55 87 99
55 87 108
58 90 125
54 85 95
57 90 113
55 87 96
57 90 105
56 88 105
59 92 118
56 88 120
57 90 114
57 90 114
56 88 107
57 90 103
57 90 120
56 89 104
54 85 99
56 88 103
56 88 112
56 87 113
54 84 99
55 86 105
54 85 98
55 86 113
54 84 97
55 87 104
56 88 116
56 87 92
56 87 100
51 80 89
53 83 83
54 83 94
53 83 96
53 82 92
51 80 85
51 80 83
50 79 93
53 83 80
49 75 78
48 74 64
42 65 58
146 169 37
168 190 0
164 187 0
168 191 0
168 191 0
165 187 0
164 185 0
165 187 0
163 183 0
166 187 0
166 189 0
167 189 0
170 193 0
165 186 0
170 192 0
167 189 0
164 184 0
125 135 22
106 101 41
95 91 30
90 85 27
82 81 12
91 88 12
86 82 18
71 69 8
79 78 14
76 75 11
85 83 18
82 81 16
85 83 16
91 89 17
78 77 26
94 92 4
94 92 18
97 96 14
91 90 16
96 96 21
103 101 22
101 99 14
95 94 32
117 114 28
100 100 29
116 110 28
121 119 26
112 109 25
124 119 34
121 117 34
105 102 29
125 121 28
120 117 33
111 109 30
116 112 28
118 116 30
111 109 31
128 125 26
131 126 37
124 120 30
126 124 36
129 126 25
134 129 43
123 118 46
131 127 45
135 130 40
131 127 41
137 132 44
143 138 40
143 138 45
143 137 35
148 143 49
140 135 42
140 135 44
141 136 51
139 135 34
144 139 44
139 135 39
143 138 46
146 142 47
144 139 45
147 141 44
147 141 48
145 141 42
146 142 48
146 141 56
151 144 49
154 148 53
149 143 48
148 142 52
139 133 34
157 149 59
149 141 48
152 146 57
151 144 52
158 151 62
154 148 45
145 140 47
144 139 47
151 146 45
146 140 51
154 147 58
146 141 44
144 139 47
152 146 60
153 146 63
150 144 56
145 139 52
155 150 62
144 138 47
156 148 58
150 144 51
147 141 53
146 141 42
148 142 45
152 146 56
150 145 48
153 147 61
154 148 57
154 148 52
149 142 61
151 145 60
150 144 57
145 139 51
146 141 47
145 138 57
151 145 56
148 143 53
152 145 62
153 146 58
151 144 59
147 141 51
148 141 52
150 145 56
147 142 56
156 149 64
149 144 58
145 139 54
151 143 62
148 141 56
148 142 52
147 141 54
146 140 51
149 142 61
150 143 59
154 147 60
149 143 56
147 140 57
145 140 58
155 148 65
141 136 56
148 143 49
147 140 62
152 146 60
141 134 61
135 131 41
142 137 51
140 134 44
146 140 53
139 133 59
176 198 0
174 197 0
172 196 0
172 196 0
174 197 0
172 195 0
173 196 0
175 198 62
181 202 92
179 201 76
181 203 95
179 201 84
180 202 92
178 201 88
178 201 88
187 208 130
184 205 114
181 204 102
185 206 117
180 202 88
180 202 88
179 202 95
178 201 80
181 203 92
176 200 84
178 201 80
173 197 67
177 199 72
178 201 92
178 201 84
180 203 105
177 199 80
175 198 57
177 200 72
177 200 76
175 198 62
177 200 80
177 200 62
170 195 62
176 199 88
174 197 92
174 198 67
175 198 67
175 198 67
174 197 76
175 199 62
177 201 84
174 198 44
176 200 76
175 198 76
177 199 80
174 198 72
173 197 62
172 197 72
175 198 62
173 197 76
177 200 84
173 197 57
175 199 51
177 200 84
171 196 67
174 197 51
174 199 72
171 195 36
174 198 67
174 199 84
172 197 84
174 198 76
168 193 72
170 194 51
173 197 57
171 194 62
174 198 95
174 198 67
171 196 67
173 197 62
174 198 67
171 195 67
174 197 62
172 198 76
170 195 67
170 193 67
170 193 57
174 197 44
173 198 80
173 197 62
173 196 72
164 188 67
172 196 62
169 194 67
173 198 80
170 193 36
170 195 67
169 193 62
171 195 80
171 195 72
172 196 67
171 195 76
171 195 80
173 196 84
170 193 44
169 193 44
166 189 51
169 193 51
173 197 72
175 198 80
171 195 84
172 196 72
173 196 67
169 193 88
168 192 62
167 191 88
165 188 44
171 194 84
169 192 67
169 192 72
167 190 84
168 191 88
169 191 76
171 193 108
171 192 114
165 186 76
165 186 67
164 184 92
162 184 67
144 166 0
137 159 0
142 164 0
138 160 0
149 170 0
160 183 25
149 170 0
152 174 0
164 187 0
160 182 0
159 182 36
171 194 44
175 198 62
181 203 114
170 193 0
168 192 0
171 194 0
171 195 0
169 193 0
167 190 0
171 195 0
169 192 0
171 194 0
169 194 0
168 191 0
171 194 0
167 190 0
169 193 0
170 193 0
170 193 0
167 191 0
170 193 0
101 127 74
53 85 86
56 89 97
57 90 107
56 88 100
57 91 108
56 89 92
56 90 104
55 87 99
56 89 100
57 90 114
55 88 105
56 89 102
57 91 115
57 89 103
56 89 103
58 91 108
54 86 105
55 87 102
57 90 107
57 90 108
58 92 108
56 89 100
56 89 103
55 88 115
56 89 111
57 90 100
57 90 105
56 88 105
59 93 122
58 91 115
57 91 113
56 89 102
56 89 103
58 91 115
56 88 103
56 89 114
58 92 122
57 91 108
54 86 107
56 89 105
54 86 108
55 87 100
55 87 105
56 88 107
55 87 99
55 87 110
56 88 107
58 92 115
54 86 102
56 89 110
56 88 112
56 89 111
56 89 110
55 87 101
57 89 107
55 86 104
57 90 108
56 89 113
56 88 110
56 88 100
56 88 100
55 87 94
54 85 110
55 87 90
55 87 94
53 84 90
55 86 96
56 88 104
57 90 113
53 83 96
52 82 97
55 87 103
54 85 102
55 86 100
50 79 82
53 83 99
51 80 86
52 81 87
54 84 94
49 76 80
51 78 93
46 72 61
49 76 88
46 72 64
107 126 64
169 191 0
163 186 0
163 185 0
166 187 0
165 187 0
168 190 0
165 188 0
168 191 0
169 189 0
165 187 0
165 186 0
170 191 0
165 188 0
165 188 0
163 185 0
168 188 0
164 187 0
165 185 0
118 122 28
82 79 16
89 86 20
89 86 28
86 83 18
87 84 18
84 82 8
72 72 16
86 85 14
80 78 3
87 83 25
86 84 16
89 87 16
79 77 10
96 95 20
103 98 16
88 86 25
88 87 8
101 99 24
85 84 14
104 102 22
97 96 16
103 100 28
110 106 30
110 107 27
105 102 25
115 112 36
114 111 27
112 109 33
113 110 28
110 107 21
117 115 34
123 119 32
132 127 30
122 117 25
120 118 36
134 130 37
127 123 38
130 124 36
134 129 39
119 117 33
130 126 38
134 129 42
136 131 42
127 124 30
131 127 37
134 128 48
138 134 34
137 132 35
136 133 34
141 135 43
144 139 42
135 129 36
134 130 34
134 130 45
135 128 37
134 128 32
142 136 44
144 139 41
145 140 42
136 132 36
142 136 36
143 137 49
142 138 45
143 136 45
141 136 43
144 140 48
147 141 53
153 148 51
144 140 36
143 138 48
151 146 49
142 136 42
144 137 51
147 141 53
154 149 52
148 143 42
147 141 44
147 141 47
144 139 47
151 145 47
153 148 49
153 147 57
151 145 53
148 140 57
154 147 56
150 144 54
153 147 53
154 147 54
149 143 52
149 143 45
148 143 48
154 147 58
153 145 65
146 141 51
142 135 52
151 145 56
153 147 56
144 139 44
147 142 51
151 143 62
155 149 57
145 139 44
151 145 51
150 144 58
144 138 51
151 144 53
154 147 61
149 143 47
151 145 61
151 144 53
149 143 54
152 145 62
148 143 54
148 142 57
153 147 60
151 145 58
150 143 62
144 138 54
143 137 53
149 143 53
145 138 54
138 132 51
149 143 59
151 145 62
148 143 59
157 150 65
150 145 62
151 144 59
152 145 62
146 140 58
146 140 59
146 140 52
149 141 61
139 133 49
150 143 65
144 138 52
157 150 65
144 137 61
172 196 0
175 198 0
172 196 0
175 198 0
173 196 0
173 196 0
173 197 0
171 195 0
177 199 44
177 200 76
180 202 95
180 202 88
178 200 88
178 201 84
177 199 72
183 205 108
183 205 111
182 204 117
180 202 108
181 202 95
181 203 108
178 200 67
178 201 84
178 200 84
178 201 80
178 201 84
177 200 84
177 200 80
180 202 92
176 199 80
178 201 92
175 198 62
177 200 84
176 199 67
177 200 76
176 199 62
174 198 67
177 200 76
174 197 62
175 199 67
177 200 72
174 198 67
175 199 57
175 199 72
174 198 76
173 197 72
175 199 67
174 198 92
175 199 67
172 196 92
177 200 84
174 198 67
175 198 57
173 196 57
177 200 88
175 198 62
175 199 80
175 198 51
176 200 76
173 196 67
174 198 67
172 195 44
171 195 72
172 196 51
171 196 80
173 197 57
173 196 62
173 197 80
170 194 25
174 197 67
173 197 62
174 198 57
170 195 76
175 198 57
172 196 62
172 197 76
176 199 76
172 195 72
170 194 62
176 200 72
174 197 62
172 196 72
172 196 62
170 194 51
172 196 67
172 197 67
171 195 57
168 193 67
170 193 72
171 195 51
173 197 72
171 196 67
172 196 67
165 188 67
170 194 67
172 197 84
171 195 72
171 194 80
172 196 84
167 191 67
170 194 72
169 192 67
168 192 62
166 190 51
174 197 62
169 193 62
170 194 67
168 192 67
167 190 76
170 193 72
170 193 72
173 196 88
165 188 80
173 196 99
173 196 80
168 190 92
171 194 92
167 188 84
167 189 62
172 193 114
169 190 88
164 186 72
164 186 80
155 176 51
148 168 0
146 168 0
147 169 0
151 173 0
151 172 0
148 170 0
159 181 0
160 182 0
153 176 0
159 182 0
165 188 44
166 188 51
168 191 36
174 196 88
172 195 51
167 190 0
168 191 0
171 193 0
171 195 0
165 188 0
168 191 0
167 191 0
168 191 0
167 191 0
167 190 0
168 192 0
167 190 0
169 193 0
169 193 0
168 191 0
170 194 0
169 193 0
161 184 0
157 181 31
84 109 70
54 86 84
54 87 95
55 87 102
56 89 95
56 89 102
58 92 111
57 90 107
54 86 92
58 92 117
56 90 107
55 87 90
54 86 110
55 87 99
56 89 102
57 91 111
56 89 110
56 88 94
57 90 102
58 91 111
56 89 108
57 90 111
56 89 111
55 88 99
55 87 108
54 87 97
57 90 108
55 87 100
56 89 97
55 88 103
55 87 108
56 89 110
58 91 117
57 90 108
54 87 94
57 90 113
55 88 108
56 89 107
57 90 102
55 87 102
57 90 113
53 84 90
57 90 88
56 88 108
55 87 100
56 89 105
55 87 108
56 89 111
56 89 118
56 89 101
56 89 108
56 88 111
56 89 103
55 87 100
56 89 105
55 86 107
55 86 104
54 86 100
55 86 102
56 88 110
54 85 95
56 88 113
56 88 111
52 81 99
57 89 111
55 87 100
54 85 104
54 86 111
51 80 88
55 86 103
54 84 97
55 86 104
52 82 92
51 80 83
53 83 97
51 80 83
51 80 96
49 77 89
52 80 103
50 79 85
50 78 86
49 75 90
46 71 70
75 96 51
157 178 0
163 185 0
158 180 0
167 187 0
158 178 0
160 181 0
164 185 0
162 183 0
161 183 0
158 179 0
161 181 0
165 186 0
166 186 0
165 186 0
162 182 0
167 187 0
168 189 0
163 184 0
167 186 0
162 183 11
114 114 36
90 86 28
84 81 22
85 82 22
73 71 16
88 85 18
87 83 11
85 82 14
83 81 11
85 83 16
84 83 18
93 92 20
99 95 18
99 96 8
95 92 11
90 88 14
88 87 14
90 89 16
105 102 16
95 95 19
106 104 14
107 105 17
106 104 30
115 113 17
106 103 24
110 107 24
110 108 19
115 111 21
116 111 19
111 109 25
117 113 37
116 113 30
118 115 36
118 115 25
127 124 29
131 126 38
124 121 32
129 124 31
122 121 28
128 123 40
131 127 38
137 132 45
128 125 37
136 132 41
132 128 36
136 132 39
133 129 41
133 129 40
137 132 38
142 137 37
132 128 44
143 138 41
135 130 37
133 129 34
142 136 48
145 139 52
142 138 45
146 140 39
136 131 42
144 139 51
138 133 41
146 140 49
144 139 45
151 145 45
148 143 51
151 145 49
147 142 47
146 140 53
144 138 52
148 143 47
144 138 45
146 139 51
148 143 48
148 142 45
149 144 48
146 140 52
145 139 45
145 140 51
152 146 56
141 136 48
146 139 51
143 138 37
146 140 42
148 141 52
141 136 48
146 140 54
149 143 52
146 141 44
152 147 48
151 146 45
151 144 59
146 140 47
146 141 48
145 139 37
151 145 53
151 145 56
152 146 58
144 138 36
151 144 58
148 141 47
138 133 37
149 144 47
154 149 51
145 139 51
143 136 47
150 145 56
144 138 59
151 144 58
144 138 56
148 142 56
149 141 61
155 149 60
148 141 60
148 142 57
144 139 51
148 142 52
149 143 62
144 137 49
144 138 52
152 145 62
152 145 63
147 142 56
147 141 53
147 141 54
146 140 59
146 138 56
150 143 62
152 147 53
147 140 59
141 135 52
135 130 49
149 143 61
145 138 58
142 136 53
143 136 49
140 134 53
139 133 58
153 147 61
175 198 0
173 197 0
173 197 0
174 197 0
174 198 0
173 197 0
173 197 0
173 196 0
175 197 0
172 195 25
178 201 72
176 199 80
182 204 105
180 202 88
178 201 84
177 199 92
180 202 84
179 202 102
181 203 120
182 204 114
176 199 72
180 202 92
183 204 120
176 199 97
180 202 95
180 203 108
179 202 95
179 201 84
177 199 72
176 199 92
176 199 62
177 200 102
176 199 76
178 201 76
176 199 57
175 198 80
175 199 92
175 198 88
177 200 88
177 200 67
177 200 67
173 198 62
173 197 62
177 200 67
175 198 51
176 199 72
176 199 72
174 198 62
175 199 62
177 201 84
174 198 72
174 197 51
175 199 84
176 200 67
172 196 72
173 197 67
173 197 51
176 199 62
173 197 72
175 199 80
172 196 62
175 198 80
174 198 62
172 196 84
174 197 62
177 199 44
173 197 57
172 196 44
172 196 88
175 198 62
173 197 67
173 197 84
173 197 51
173 197 72
172 196 36
176 199 57
174 199 84
173 197 67
171 196 57
176 200 76
170 195 72
170 193 62
173 197 57
173 198 72
173 198 67
174 197 62
172 196 62
173 196 36
172 196 72
172 196 76
172 196 67
172 196 62
170 195 67
172 197 88
170 193 57
171 194 51
172 195 51
169 193 80
168 192 57
166 189 62
173 197 76
169 193 62
170 195 72
172 196 80
172 195 76
173 196 80
171 194 76
172 195 76
164 188 80
165 187 57
168 190 84
171 193 92
165 187 67
173 195 80
169 191 76
171 193 80
170 191 111
175 197 108
167 187 108
167 188 72
164 185 92
160 182 76
157 178 51
148 169 0
149 170 0
153 174 0
156 178 0
156 178 0
149 171 0
157 178 0
157 180 0
156 179 0
161 184 0
162 185 25
163 185 57
167 189 44
169 191 67
177 199 80
166 189 0
169 192 0
170 193 0
168 192 0
170 194 0
169 193 0
166 188 0
167 191 0
163 187 0
167 190 0
166 189 0
170 194 0
168 191 0
164 188 0
168 192 0
169 192 0
164 188 0
162 186 0
167 190 0
167 190 0
154 178 36
61 92 104
54 86 82
55 87 86
56 89 99
54 87 85
54 87 95
55 88 100
56 89 102
56 89 110
54 86 95
55 88 102
57 90 100
55 87 94
56 88 90
58 91 110
55 88 95
55 88 99
57 90 107
54 86 99
55 87 97
57 90 102
57 90 108
56 89 97
56 88 100
56 89 105
55 88 102
56 89 102
55 87 90
55 87 103
55 87 105
55 87 102
58 91 113
56 88 103
57 90 110
57 90 117
55 87 102
57 90 105
56 88 102
56 89 113
55 88 111
59 92 118
57 90 115
55 88 103
57 90 113
56 88 111
55 87 105
54 86 101
57 90 108
57 91 117
56 89 111
56 88 99
56 89 114
56 88 104
56 89 90
54 85 94
54 85 100
55 87 97
55 87 102
55 86 111
54 85 111
54 85 94
55 87 108
52 82 99
53 83 100
54 85 101
54 84 87
54 86 105
55 86 99
53 84 90
51 80 87
51 81 81
55 86 109
52 81 79
51 79 84
53 82 80
51 79 92
50 78 91
52 80 85
49 77 71
46 71 71
49 75 83
49 72 61
144 166 46
163 184 0
159 180 0
156 178 0
160 180 0
155 175 0
164 185 0
155 177 0
167 188 0
159 180 0
157 179 0
167 188 0
164 186 0
161 182 0
164 184 0
160 182 0
164 185 0
160 180 0
158 180 0
157 179 0
162 183 0
150 168 11
101 97 38
87 82 24
82 80 20
83 80 11
74 73 16
89 84 18
85 81 11
75 74 16
90 87 18
99 93 14
88 85 16
83 81 12
87 84 12
85 83 0
87 83 16
101 98 24
97 95 16
92 89 8
102 98 23
112 108 16
107 102 19
101 99 26
111 108 21
114 110 20
104 101 14
99 98 18
109 107 19
114 110 32
120 117 26
117 113 25
116 113 38
126 120 32
123 117 34
117 114 20
129 124 42
123 119 29
126 121 41
126 123 28
127 123 33
125 122 31
137 132 38
137 133 32
132 128 35
136 130 45
124 120 32
134 130 43
128 124 37
146 140 48
134 128 36
136 131 41
139 133 30
141 136 37
140 135 39
139 134 35
142 135 42
147 141 54
136 132 36
146 140 46
143 137 40
136 131 41
150 143 44
139 134 49
143 138 44
138 134 32
147 142 46
147 141 49
144 139 36
147 141 45
147 142 52
142 137 44
149 143 54
147 141 47
139 133 41
142 135 42
148 142 49
143 137 45
149 143 47
149 143 42
153 146 45
154 147 51
152 146 59
150 144 54
147 142 47
150 143 53
151 144 52
145 139 47
147 142 52
141 136 47
147 141 56
146 140 49
140 133 44
149 144 49
154 147 51
147 142 52
146 139 49
146 140 53
142 137 42
143 137 54
151 145 56
142 137 45
143 137 48
145 140 53
149 143 56
153 146 60
142 137 42
154 147 59
153 145 57
152 145 61
149 143 54
142 137 44
150 143 52
146 140 45
150 143 60
142 136 52
150 143 48
146 139 52
151 145 57
152 144 61
152 145 62
153 145 57
145 138 56
148 140 56
149 143 57
151 145 58
142 136 44
147 142 54
150 144 54
146 140 53
149 144 57
144 137 53
145 138 57
136 130 51
143 138 56
136 132 49
141 136 49
141 136 56
152 145 69
173 197 0
173 197 0
176 199 0
176 199 0
173 196 0
175 198 0
175 198 0
174 197 0
173 196 0
175 198 0
173 196 36
178 200 62
179 201 88
180 202 95
181 203 99
176 199 76
173 196 57
180 202 102
178 200 76
185 205 114
184 205 120
184 205 117
180 202 95
179 201 102
177 200 92
179 202 102
179 201 95
179 201 84
179 202 99
177 200 62
177 200 80
177 200 84
176 199 76
178 201 88
173 197 67
175 199 84
177 200 76
179 202 92
176 199 76
175 198 76
175 199 67
174 198 62
176 199 72
176 199 95
175 198 62
174 198 72
176 200 72
176 200 80
173 196 36
173 196 76
173 197 88
176 200 88
172 196 72
174 198 57
172 197 51
174 198 76
174 198 57
176 200 92
172 196 76
175 199 80
171 195 36
174 197 44
173 197 72
175 199 80
174 198 51
171 196 72
174 198 72
171 195 51
172 195 57
172 196 67
173 197 76
172 195 57
173 197 57
172 196 57
174 198 76
172 196 72
173 196 67
173 198 76
168 193 76
172 197 76
170 194 72
172 196 62
170 194 72
175 199 57
173 196 51
171 195 62
172 196 67
171 195 95
171 195 84
173 197 84
171 194 72
173 197 67
168 193 62
168 192 57
170 193 76
172 195 72
171 194 67
170 193 80
172 195 57
171 195 95
169 192 84
171 194 72
172 195 72
171 194 88
169 192 88
169 192 84
172 194 76
166 188 57
171 194 76
168 190 57
172 195 84
163 184 57
173 195 92
166 187 95
172 193 105
167 189 92
176 197 102
171 193 80
165 187 88
172 193 95
158 179 76
142 164 44
153 175 0
153 174 0
153 175 0
151 171 0
158 180 0
150 172 0
157 179 0
159 181 25
153 176 0
156 178 0
160 183 25
159 182 44
170 193 57
171 193 72
173 196 57
167 191 0
163 187 0
166 189 0
169 191 0
164 188 0
167 190 0
166 189 0
167 190 0
164 188 0
167 189 0
166 189 0
167 190 0
171 194 0
166 189 0
164 188 0
164 187 0
170 193 0
164 188 0
163 187 0
161 185 0
166 189 0
164 187 0
124 147 54
54 85 84
55 87 88
55 87 107
54 86 95
56 88 88
54 86 90
54 86 97
55 87 102
57 90 102
57 90 110
57 90 103
56 89 105
56 89 107
55 87 95
56 89 103
56 89 107
57 89 111
55 87 99
58 91 105
57 90 110
56 89 107
55 87 94
56 88 108
58 91 107
56 89 108
55 87 100
54 86 92
58 91 115
55 87 102
56 89 107
57 90 121
55 87 94
56 89 108
54 86 99
57 90 107
56 89 103
54 86 102
56 88 105
57 90 111
56 88 113
56 89 111
54 86 90
54 86 94
55 87 100
56 88 103
54 85 99
54 86 103
55 87 94
55 87 108
55 87 104
55 86 114
55 87 97
53 84 88
55 86 97
56 87 107
56 88 111
55 87 99
54 86 102
53 84 92
56 88 101
58 90 118
55 87 111
55 86 102
55 86 108
53 84 97
54 85 105
57 88 106
52 81 84
55 86 109
51 81 87
54 83 95
54 84 108
48 76 81
49 78 78
51 79 92
48 75 76
49 77 77
47 74 87
46 70 75
48 75 83
123 143 54
159 181 0
157 178 0
154 174 0
157 176 0
159 178 0
160 181 0
161 181 0
157 178 0
164 184 0
161 180 0
162 183 0
163 183 0
160 180 0
158 178 0
167 188 0
156 177 0
162 181 0
162 183 0
158 180 0
163 183 0
163 184 0
161 181 0
137 151 16
96 92 36
96 91 31
94 90 19
89 85 16
96 91 30
85 82 14
81 78 16
90 85 18
82 79 0
76 76 11
92 89 14
76 76 14
91 88 8
86 84 14
91 88 8
89 88 8
107 103 18
112 109 14
107 103 24
106 105 11
101 96 16
109 104 14
107 103 20
121 117 25
111 108 21
114 111 21
119 113 32
113 110 36
113 110 28
114 111 26
129 124 24
122 118 22
109 106 33
121 118 26
122 119 21
115 112 31
125 121 31
127 122 32
133 128 35
134 127 38
125 121 29
116 113 35
134 128 33
130 126 32
136 131 39
136 131 37
134 130 41
131 127 37
133 129 37
135 131 34
138 132 39
135 129 31
135 131 37
141 135 36
140 136 39
139 133 41
142 136 41
139 133 42
138 134 37
138 134 41
143 138 47
143 137 49
143 138 45
142 136 47
142 136 44
143 138 41
142 135 42
139 133 41
145 141 44
143 138 41
145 139 51
150 143 49
145 140 45
141 134 44
147 140 44
142 137 45
146 140 49
151 144 49
150 144 49
149 144 49
147 142 41
147 142 44
143 138 39
144 138 49
150 144 53
140 136 39
155 149 56
148 143 47
147 141 53
150 144 51
144 139 49
137 132 42
147 142 45
147 140 49
140 133 48
153 147 53
150 143 54
148 142 48
148 142 48
146 140 49
149 144 57
148 142 54
149 143 53
141 136 48
147 142 51
138 134 47
143 138 49
148 142 49
141 135 42
148 142 57
155 146 63
148 142 58
145 138 51
149 141 53
152 145 58
141 136 48
145 139 57
148 141 61
148 142 61
149 143 49
145 139 53
148 141 64
150 143 64
150 142 57
143 137 45
144 137 52
146 140 59
144 137 59
141 135 53
145 139 57
144 138 49
136 131 44
144 137 53
137 131 53
140 135 47
143 136 58
172 196 0
174 198 0
171 195 0
173 197 0
173 196 0
173 196 0
173 196 0
173 197 0
172 196 0
173 197 0
174 197 0
171 195 0
173 196 62
181 203 102
179 202 92
179 201 76
179 201 72
176 199 67
176 199 57
176 200 84
182 203 99
181 203 99
184 205 108
181 203 108
181 203 92
180 203 102
181 203 99
177 200 80
178 201 95
177 200 80
178 200 80
177 200 72
179 202 99
177 200 95
180 202 88
175 198 80
175 198 88
174 198 72
176 198 76
177 200 88
176 199 76
175 199 88
176 200 92
177 200 84
178 201 95
174 198 76
174 198 67
175 199 84
174 198 44
173 197 57
172 195 57
172 197 67
173 197 76
177 201 88
173 198 67
175 199 88
175 198 62
176 199 80
176 199 62
174 198 57
176 199 76
172 195 67
174 198 72
173 196 62
175 198 67
174 197 72
174 198 62
175 198 36
173 197 67
171 195 57
174 197 62
176 199 88
173 198 76
173 197 51
170 193 51
173 197 72
173 197 57
175 199 80
172 195 57
173 196 72
174 197 72
173 196 36
169 193 62
169 193 25
172 195 51
173 197 95
171 194 51
171 194 84
173 196 67
169 193 57
173 196 51
167 191 62
175 199 80
170 194 76
169 192 44
171 194 51
168 192 62
175 198 80
174 197 76
171 194 62
170 194 95
172 195 67
167 190 57
173 196 80
171 193 72
165 187 44
168 191 62
171 193 67
167 189 84
171 193 95
174 195 80
170 192 88
170 192 111
169 191 84
168 188 95
175 196 99
166 187 72
171 193 80
170 190 80
158 179 57
159 180 44
149 170 0
157 179 0
144 165 0
155 176 0
154 175 0
153 175 0
153 174 0
154 176 25
156 177 0
157 179 0
157 180 0
167 189 44
159 182 25
165 188 44
170 193 44
161 184 0
163 187 0
166 190 0
169 192 0
166 189 0
168 192 0
164 188 0
168 191 0
162 186 0
158 181 0
168 191 0
161 184 0
166 190 0
165 188 0
167 190 0
162 185 0
154 178 0
164 188 0
165 188 0
166 189 0
160 185 0
158 180 0
162 186 0
159 182 0
109 133 70
53 84 82
53 84 88
55 88 92
54 86 94
55 87 94
55 88 95
54 87 82
56 88 107
52 83 74
56 88 103
56 89 103
56 88 90
56 88 105
56 88 110
53 85 90
56 88 88
57 90 100
56 88 103
58 92 110
57 91 103
54 87 99
54 86 99
57 90 111
55 88 100
53 84 95
56 89 111
54 86 88
56 89 102
57 90 103
54 86 90
56 89 105
55 88 97
55 88 94
56 88 107
57 89 100
55 88 103
57 90 103
56 89 115
55 87 110
56 88 105
53 85 95
53 84 88
54 85 97
56 89 103
55 87 99
54 86 95
53 84 95
53 84 94
55 87 89
52 83 94
54 86 101
54 85 97
55 86 107
55 86 105
55 87 86
56 88 110
55 87 97
52 83 94
56 88 109
56 88 102
55 87 102
53 84 103
51 81 85
52 83 92
53 84 107
56 87 107
52 82 92
55 86 106
53 83 92
53 82 96
54 84 101
51 80 82
50 77 94
50 78 73
50 79 86
51 80 84
46 73 63
44 69 67
100 120 51
156 176 0
150 171 0
156 174 0
159 177 0
157 176 0
159 179 0
152 173 0
157 176 0
157 177 0
161 181 0
158 180 0
151 169 0
156 176 0
160 179 0
160 177 0
160 179 0
156 174 0
161 181 0
157 174 0
161 179 0
161 180 0
158 176 0
158 176 0
166 186 0
136 147 19
93 91 27
79 76 24
90 86 26
93 89 11
86 82 14
93 89 14
77 74 12
91 87 12
73 71 9
86 84 3
89 89 11
89 88 12
89 87 16
101 97 16
99 93 10
90 88 16
99 96 14
99 95 11
120 116 16
99 98 14
96 93 16
103 100 18
111 108 18
112 108 22
118 115 21
115 111 24
114 108 21
111 109 18
124 120 31
112 108 21
119 115 31
122 117 32
119 115 26
125 120 18
120 117 26
135 131 29
117 114 35
126 121 33
132 127 26
130 125 34
129 122 28
131 125 36
125 122 30
141 135 37
144 138 36
126 121 34
123 118 26
137 131 32
133 128 30
138 134 30
137 132 45
138 132 47
135 131 32
133 128 40
141 136 41
140 134 44
132 129 29
147 142 42
143 137 41
137 133 45
136 131 28
141 136 37
145 140 41
143 136 47
141 136 41
139 134 42
139 136 34
145 139 48
141 134 48
140 136 41
152 145 53
138 135 41
145 139 44
143 139 36
140 135 39
145 139 41
149 144 47
145 139 45
147 141 47
138 132 44
144 137 47
140 133 42
140 136 41
143 136 42
149 143 54
142 137 44
147 141 60
157 150 62
144 139 48
142 135 48
147 140 49
147 141 48
143 136 51
149 143 51
147 143 51
146 140 48
150 144 58
140 136 39
149 142 54
149 143 48
142 137 53
145 138 53
151 145 60
143 137 48
146 139 54
147 141 56
142 136 51
145 139 52
145 140 47
151 143 56
141 137 41
150 143 54
147 141 51
145 139 51
147 141 52
145 139 52
151 145 56
140 135 48
143 136 42
148 142 56
147 140 45
139 134 48
146 141 47
139 134 47
143 137 51
141 137 48
148 140 51
141 134 48
137 132 51
148 141 47
144 138 57
146 140 57
136 132 51
138 133 52
145 139 45
171 195 0
174 197 0
170 194 0
174 198 0
173 197 0
173 196 0
171 194 0
172 196 0
173 196 0
174 198 25
172 196 0
171 195 0
173 197 0
176 199 36
179 201 88
176 199 72
176 199 72
180 203 92
180 202 92
180 202 99
174 197 51
177 199 92
181 203 114
182 204 105
181 203 108
181 203 111
181 203 114
179 202 95
180 202 92
174 197 57
177 200 92
177 201 88
179 202 99
177 200 88
178 201 105
174 198 62
177 200 72
175 198 72
178 201 95
175 198 67
178 201 99
174 198 84
176 200 95
176 199 62
176 200 92
176 200 99
175 199 67
171 195 67
176 200 80
172 196 62
173 197 84
174 198 67
174 198 84
176 199 80
173 197 62
175 198 76
175 198 76
174 198 88
175 198 57
174 197 67
174 198 67
174 197 51
174 198 88
174 198 92
173 197 76
175 199 92
175 198 72
175 199 84
174 199 92
173 196 57
172 195 62
171 195 44
173 197 67
174 198 51
173 196 62
172 195 76
171 195 51
172 195 36
171 195 67
174 199 88
168 192 51
172 195 51
170 195 62
172 194 57
172 195 62
175 198 67
170 194 84
173 197 67
173 197 76
168 191 57
171 194 62
173 196 80
169 192 99
174 197 72
173 197 80
170 193 76
169 193 72
172 196 62
172 196 84
172 195 67
173 195 80
172 194 44
171 194 72
169 191 57
168 190 51
171 194 76
162 185 57
174 196 88
174 196 99
169 191 88
166 187 84
169 190 95
166 188 99
169 189 99
170 191 80
163 185 67
164 185 72
163 184 76
158 180 51
152 174 0
155 176 0
146 168 0
156 177 0
151 173 0
151 172 0
153 174 0
150 171 0
152 174 0
160 182 0
158 179 0
158 180 25
163 185 44
164 187 36
169 192 36
173 195 84
166 189 0
166 189 0
169 192 0
167 191 0
165 189 0
166 189 0
164 188 0
169 193 0
166 189 0
160 184 0
161 184 0
160 184 0
162 186 0
165 188 0
162 185 0
161 185 0
159 183 0
159 182 0
163 186 0
166 190 0
161 185 0
163 186 0
158 182 0
162 186 0
160 183 0
145 168 18
89 114 80
53 85 97
54 86 86
53 85 78
54 86 86
57 89 94
53 85 84
53 84 92
54 86 88
55 87 94
55 87 103
54 85 86
55 87 105
53 84 90
56 88 94
57 90 108
55 87 88
56 88 105
55 87 99
57 90 103
55 87 94
55 87 94
54 87 94
55 87 95
53 85 97
57 91 105
56 89 99
54 86 92
55 87 95
55 88 99
56 89 95
55 88 100
55 87 103
57 89 107
56 88 111
56 88 99
56 88 99
55 87 102
56 88 108
53 85 92
57 91 107
54 85 99
56 88 100
55 87 102
56 88 99
55 87 94
54 86 90
54 85 92
55 88 102
55 87 102
54 86 102
56 89 92
54 85 108
56 88 109
54 86 102
53 85 90
53 84 102
52 83 82
54 85 97
54 85 102
53 84 88
53 83 93
53 83 99
51 81 80
51 81 92
54 86 94
55 85 98
54 85 96
55 86 99
51 80 81
52 80 96
51 79 85
48 75 80
51 80 90
48 74 75
51 80 78
47 74 65
92 112 68
147 165 0
160 179 0
153 173 0
155 173 0
156 176 0
153 171 0
158 180 0
148 167 0
152 170 0
151 169 0
154 172 0
144 163 0
160 180 0
156 172 0
159 178 0
156 175 0
157 175 0
158 177 0
157 178 0
153 172 0
159 178 0
154 172 0
160 178 0
155 173 0
164 183 0
164 183 0
121 130 22
83 78 11
91 85 21
85 81 22
83 80 0
96 92 18
85 83 12
94 89 0
85 81 14
91 88 16
93 86 16
92 88 11
86 83 0
98 95 14
98 94 11
91 88 21
93 91 14
93 92 18
95 93 14
98 96 11
96 95 20
105 101 21
115 112 22
105 103 11
108 105 18
112 108 24
115 110 11
104 100 14
110 106 16
117 113 25
114 108 18
116 111 28
116 113 19
129 124 28
129 123 30
115 111 25
128 124 25
121 118 25
126 123 29
130 126 22
126 122 33
124 121 34
134 128 41
132 126 28
131 126 32
134 129 25
128 123 25
132 126 36
137 131 32
127 124 22
136 130 38
134 128 35
135 130 34
139 134 34
134 128 28
145 138 47
137 131 42
145 138 39
138 133 34
142 136 44
141 136 37
139 133 49
150 142 48
140 135 36
139 132 34
149 142 45
138 134 36
145 140 37
141 136 32
140 133 37
137 132 36
148 142 47
144 138 39
146 142 41
142 136 45
139 134 34
144 139 48
133 128 39
144 137 39
148 143 48
140 135 34
145 139 45
140 136 42
148 143 41
153 148 54
144 139 45
148 141 49
147 141 49
146 140 49
145 139 39
150 144 48
148 141 54
144 138 44
150 144 51
139 134 44
145 139 52
145 140 49
142 135 45
147 141 47
144 139 48
148 141 54
146 141 47
144 139 37
142 137 57
146 140 59
146 139 45
144 137 47
151 145 52
152 146 52
146 141 48
139 132 52
148 142 51
146 140 51
144 140 45
149 143 57
140 134 56
146 141 56
144 137 56
136 131 51
148 141 54
136 131 45
147 140 56
144 137 58
140 133 53
150 143 56
144 137 53
140 134 51
149 142 61
148 141 57
140 133 58
136 130 44
147 140 63
138 132 53
142 135 59
146 138 61
172 196 0
172 196 0
171 195 0
173 197 0
175 198 0
174 197 0
173 196 0
174 197 0
173 196 0
171 195 0
171 195 0
172 195 0
171 194 0
173 197 0
170 194 0
179 201 76
175 197 57
180 202 80
175 198 67
181 203 92
180 202 105
175 198 62
174 198 62
179 201 88
181 203 111
182 205 114
180 202 102
182 203 95
183 205 114
181 204 102
179 202 92
180 203 102
178 201 80
178 201 95
178 201 76
173 195 84
177 199 67
174 198 57
175 199 76
178 200 92
175 198 67
174 198 67
176 199 80
176 200 80
176 199 67
174 198 76
174 197 80
174 198 72
174 197 80
174 198 44
174 197 67
175 199 76
174 198 57
174 197 67
174 199 76
173 197 62
171 194 57
175 199 72
174 198 72
173 197 84
175 199 67
175 198 57
174 197 62
174 198 88
175 198 80
172 196 76
175 199 67
171 194 44
173 196 62
172 196 84
173 196 72
174 198 67
172 196 57
171 195 72
171 195 62
171 195 72
170 194 62
175 198 57
174 197 62
170 193 62
171 194 67
172 196 76
172 196 44
171 195 25
172 194 62
172 196 84
170 193 62
173 196 72
172 196 72
173 195 57
175 197 62
171 194 99
168 190 67
172 195 80
174 197 72
169 192 57
174 196 67
174 196 67
173 195 67
166 189 67
171 194 84
170 193 76
165 187 88
171 193 88
171 192 72
167 189 80
171 192 72
164 186 84
175 196 88
174 194 102
178 198 122
173 194 114
170 191 88
167 189 51
167 188 62
165 186 76
166 187 67
157 179 36
151 172 0
151 173 0
144 165 0
155 176 0
151 173 0
160 182 0
152 174 0
152 173 0
154 176 0
154 176 0
160 182 0
165 187 36
168 191 51
164 187 44
171 193 62
172 193 92
165 187 0
164 187 0
165 188 0
162 185 0
167 190 0
169 191 0
167 190 0
164 187 0
167 190 0
165 188 0
165 188 0
167 190 0
164 187 0
164 187 0
166 189 0
161 183 0
158 181 0
157 180 0
163 185 0
161 184 0
159 182 0
159 181 0
162 186 0
160 182 0
160 183 0
159 182 0
157 180 0
148 170 18
78 103 77
54 86 90
52 83 84
53 84 84
54 86 80
55 87 99
56 89 100
53 85 78
56 89 97
54 85 97
55 87 94
55 87 103
53 84 84
55 87 90
54 86 76
53 85 82
54 86 92
55 87 103
56 89 102
54 86 95
57 89 102
56 89 95
55 88 97
56 88 92
53 84 92
56 89 97
54 86 103
55 87 102
55 86 105
54 86 97
56 89 107
55 87 90
56 89 110
54 86 92
54 86 100
55 87 97
54 86 94
55 88 105
53 85 90
56 88 103
53 85 84
54 86 100
54 84 97
56 88 108
54 86 99
52 82 90
53 84 92
55 87 96
54 85 95
54 85 97
53 84 92
54 86 103
55 87 95
55 87 107
54 85 103
53 84 94
54 86 90
56 87 107
52 84 87
54 85 102
53 84 100
53 84 97
52 82 83
53 83 92
53 83 106
51 81 95
51 80 82
50 78 86
52 82 92
49 78 78
53 82 88
47 73 70
47 73 75
45 71 74
47 72 75
81 101 68
151 172 26
146 164 0
146 165 0
151 170 0
154 174 0
151 169 0
152 170 0
158 176 0
155 174 0
150 167 0
145 163 0
152 169 0
155 173 0
158 177 0
156 175 0
152 170 0
156 175 0
153 171 0
150 168 0
151 169 0
159 177 0
150 169 0
161 180 0
155 174 0
158 176 0
157 175 0
154 172 0
162 180 0
126 133 25
87 83 24
80 77 24
91 86 22
81 78 11
70 68 0
75 74 11
90 87 11
84 82 11
90 88 0
90 88 0
85 85 1
89 85 16
73 72 8
102 99 11
104 100 19
99 96 8
96 92 8
106 100 12
111 107 21
103 99 11
107 103 21
107 105 8
108 104 22
107 104 16
109 104 16
114 111 24
120 115 22
110 106 11
118 113 14
123 117 16
120 116 26
117 112 21
123 118 25
110 107 24
129 125 29
127 122 22
118 114 19
134 130 24
124 120 19
128 123 31
124 120 22
127 123 39
129 124 38
132 127 28
123 119 25
117 114 30
138 133 32
130 125 37
129 124 25
137 131 40
130 125 19
137 132 34
140 133 37
143 138 42
134 130 25
127 122 25
141 136 32
139 133 25
145 139 39
134 129 16
137 132 32
144 136 42
147 141 41
143 138 39
139 134 41
133 128 32
139 132 41
150 143 42
146 141 48
134 128 37
133 125 36
139 133 32
141 135 39
143 138 39
135 132 34
143 137 44
138 131 34
143 138 37
145 139 45
143 137 41
147 142 45
146 139 48
134 128 34
145 138 47
140 134 44
148 141 44
147 141 47
143 137 49
149 142 57
139 134 39
138 133 39
138 132 48
146 139 42
144 138 49
149 143 49
143 137 45
139 133 48
142 136 48
144 138 44
137 131 45
144 139 48
146 140 56
147 140 49
144 139 48
150 144 49
142 136 48
143 137 44
138 133 44
141 135 49
146 139 56
145 138 44
147 141 48
146 140 52
147 140 54
138 132 48
137 132 37
134 130 39
143 136 47
148 139 56
138 132 45
140 135 48
138 133 45
134 127 47
142 137 56
141 136 49
141 135 48
138 132 52
141 134 51
142 136 56
134 129 45
138 132 52
144 139 48
144 139 54
171 195 0
173 196 0
171 195 0
170 194 0
173 196 0
171 196 0
175 198 0
172 195 0
170 194 0
173 197 0
171 194 0
170 194 0
174 197 0
174 197 0
171 195 0
173 197 0
175 198 51
176 199 72
179 201 95
179 202 84
175 198 76
179 201 88
177 200 76
177 199 57
175 199 76
175 199 84
181 202 92
178 201 92
181 203 95
181 203 105
180 202 99
182 204 108
177 200 80
178 200 84
182 204 117
173 197 80
176 199 72
176 199 92
175 198 72
177 199 84
176 199 84
175 198 57
173 196 62
175 199 57
173 197 44
176 199 51
173 197 67
173 197 72
174 197 72
177 200 88
176 199 72
174 198 84
172 196 67
174 197 92
172 195 62
175 198 80
176 199 67
174 198 76
173 197 62
173 197 44
174 197 72
177 200 80
173 196 57
174 198 72
176 199 88
177 200 88
172 195 62
170 194 67
174 197 62
175 198 62
171 194 44
176 198 80
172 196 67
173 196 57
173 197 76
176 199 67
173 196 76
173 197 57
174 198 84
173 197 88
175 198 67
172 195 67
173 195 62
171 194 62
172 195 67
173 197 76
172 194 76
169 192 76
173 196 67
168 191 62
173 196 76
175 197 76
171 193 62
174 195 72
172 195 80
171 194 92
173 194 72
169 191 72
172 194 57
174 196 80
175 197 80
174 196 62
172 194 76
167 189 76
174 196 80
174 196 111
173 195 72
170 191 99
173 194 92
176 197 99
169 190 92
167 188 57
165 187 80
166 187 72
161 182 76
150 171 36
147 168 0
155 176 0
150 171 0
159 180 0
147 169 0
159 180 0
155 176 0
152 174 0
158 180 25
154 176 0
158 179 0
153 176 25
165 186 0
165 188 36
163 185 44
167 189 57
173 195 88
163 186 0
168 190 0
167 190 0
167 190 0
163 186 0
164 187 0
165 189 0
165 189 0
164 186 0
159 182 0
161 184 0
167 190 0
162 185 0
159 182 0
160 183 0
160 183 0
168 190 0
163 185 0
162 185 0
160 183 0
158 182 0
160 182 0
159 181 0
154 178 0
158 181 0
156 179 0
152 174 0
151 174 0
160 183 0
152 175 18
76 101 62
52 83 82
53 84 84
52 83 84
53 85 86
53 84 76
56 89 92
53 85 84
56 88 88
53 84 94
55 87 99
53 85 92
54 85 99
54 86 90
54 86 95
56 89 107
56 89 107
55 88 94
56 88 97
53 84 100
56 88 90
53 85 94
55 87 103
53 85 92
55 87 90
56 89 107
56 88 99
51 82 82
55 88 97
55 87 103
55 88 94
56 89 97
54 87 99
54 86 100
54 86 100
54 86 99
54 85 92
53 85 95
56 89 105
57 90 108
55 87 99
54 86 94
55 87 94
55 87 94
56 89 105
54 85 96
53 84 92
54 85 97
54 86 102
53 85 86
52 82 83
52 83 95
54 85 99
54 85 90
52 83 77
53 83 94
56 88 103
53 84 92
53 84 87
52 82 82
49 78 74
52 82 93
50 79 89
49 79 84
53 83 94
52 83 89
51 79 78
49 77 82
48 74 83
49 76 81
46 72 61
50 78 84
45 70 63
77 99 65
140 159 25
143 161 0
136 154 0
150 169 0
138 156 0
153 170 0
146 164 0
150 168 0
148 166 0
150 169 0
146 165 0
150 167 0
144 163 0
149 169 0
152 171 0
152 171 0
153 171 0
154 172 0
160 178 0
153 170 0
156 173 0
159 178 0
146 162 0
150 167 0
152 169 0
154 171 0
160 179 0
152 167 0
153 172 0
152 168 0
119 124 25
81 78 11
84 79 14
85 81 21
85 80 0
73 69 16
80 76 11
94 89 0
95 91 16
99 94 0
85 82 11
95 93 12
96 93 16
104 99 8
95 90 11
95 93 0
90 86 0
106 102 8
91 88 0
110 106 8
104 101 11
108 104 0
106 103 22
115 110 22
100 96 14
114 111 0
110 106 19
104 99 14
107 105 22
118 113 26
116 113 24
119 114 18
112 108 22
119 116 24
115 112 18
121 118 24
115 111 0
123 118 18
125 121 35
118 113 26
128 124 19
131 126 32
132 125 37
123 118 16
123 119 16
131 126 30
130 127 25
131 127 38
137 132 32
133 129 19
131 126 28
133 128 24
131 125 36
142 136 36
136 130 34
137 131 34
137 132 43
132 128 25
135 130 30
139 134 34
131 125 36
138 130 42
144 138 47
139 133 36
144 139 37
145 139 47
142 136 45
146 140 41
145 138 41
149 143 48
139 135 30
149 142 49
130 125 28
142 137 39
138 132 39
148 141 45
146 141 45
146 140 34
146 140 49
140 134 39
150 144 44
151 145 45
137 132 36
142 137 41
144 137 52
142 136 45
144 138 42
144 137 45
137 133 41
144 138 41
147 140 45
148 142 53
138 132 39
140 133 45
140 134 41
146 141 47
142 135 44
142 137 41
140 135 42
149 143 51
140 134 42
150 144 49
149 143 51
139 133 49
138 131 41
137 129 41
148 142 49
143 137 48
134 128 45
138 132 53
143 138 41
143 137 51
142 136 52
146 140 56
144 136 53
143 138 45
138 133 47
147 141 57
133 127 37
152 146 59
137 131 54
145 139 51
139 134 49
139 134 44
136 130 39
139 133 56
146 141 53
143 136 54
146 140 52
133 128 49
147 140 60
148 142 60
144 136 52
171 195 0
174 197 0
174 197 0
173 196 0
172 195 0
174 198 0
174 197 0
170 193 0
171 195 0
172 196 0
173 197 0
173 196 0
172 196 0
173 197 0
174 197 0
171 195 0
173 196 0
173 196 0
176 199 51
177 200 72
175 198 67
177 200 88
181 203 99
179 201 92
179 201 76
177 200 67
177 199 44
177 199 84
181 203 105
177 200 76
182 203 108
180 202 105
181 203 102
177 200 76
181 203 105
177 200 99
178 201 92
176 199 80
180 202 102
177 201 92
177 200 95
179 202 95
176 199 102
175 198 92
174 196 67
174 196 72
176 199 95
175 199 76
173 197 67
175 199 80
178 200 80
176 199 84
174 197 72
174 197 57
172 196 62
173 196 76
174 198 67
177 200 80
171 194 67
175 197 84
177 200 88
176 198 57
173 196 72
176 199 72
173 197 80
175 198 62
175 199 72
176 199 88
171 195 76
175 197 62
174 197 57
175 197 62
172 195 67
173 195 72
175 198 72
173 197 72
176 199 84
172 195 57
175 198 80
174 196 62
171 195 67
172 195 51
174 197 57
174 197 72
172 195 67
171 194 62
174 197 80
175 197 76
175 197 72
175 198 92
172 195 80
175 197 51
172 194 76
172 193 67
170 192 67
172 194 62
170 191 62
174 196 99
166 188 80
170 192 80
168 189 51
171 193 99
172 194 84
168 188 62
175 195 99
175 195 95
173 195 95
169 190 72
172 193 105
165 186 62
170 191 76
172 194 80
162 184 84
159 180 36
152 173 0
152 174 0
151 172 0
149 169 0
162 183 0
156 177 0
155 177 0
151 171 0
158 180 0
154 177 0
159 181 0
163 185 0
157 179 0
160 182 36
167 190 67
162 184 51
161 185 44
168 189 88
166 189 0
166 189 0
168 190 0
156 179 0
161 184 0
161 184 0
160 183 0
164 187 0
171 194 0
160 184 0
164 187 0
164 187 0
161 185 0
157 179 0
166 188 0
158 180 0
159 182 0
160 184 0
158 181 0
157 179 0
163 186 0
152 174 0
162 183 0
159 183 0
152 174 0
151 173 0
147 170 0
148 170 0
148 170 0
147 170 0
150 173 0
146 167 0
73 101 84
51 82 70
49 79 80
52 83 78
56 88 95
53 84 88
54 86 94
54 86 94
54 86 84
52 83 90
53 85 82
55 88 113
53 85 94
57 90 99
55 86 90
55 87 95
55 88 92
56 89 108
55 88 90
55 87 90
54 86 90
55 87 88
55 87 97
54 85 88
54 86 99
54 86 95
54 85 94
53 84 95
52 83 82
53 85 88
55 87 99
57 90 114
54 86 84
54 86 74
53 84 90
54 86 102
54 86 103
53 84 94
56 88 108
55 87 103
57 89 102
56 89 105
54 85 94
52 83 82
53 84 83
55 87 100
55 86 99
54 86 96
52 83 92
54 86 104
52 83 88
52 82 92
53 83 102
53 85 83
54 85 95
53 83 92
54 84 91
53 84 86
52 82 102
51 81 97
52 82 75
52 82 94
53 84 100
48 75 79
50 78 81
51 80 77
51 79 77
46 71 67
46 73 61
49 76 69
44 69 44
69 91 69
133 151 18
134 153 0
142 161 0
135 152 0
152 170 0
147 168 0
144 162 0
148 167 0
137 153 0
137 157 0
152 169 0
142 158 0
145 164 0
152 170 0
148 167 0
137 156 0
152 169 0
146 161 0
146 165 0
147 166 0
142 159 0
141 156 0
155 171 0
144 162 0
155 175 0
146 163 0
148 165 0
153 169 0
152 169 0
155 171 0
152 167 0
153 172 0
123 131 19
79 76 18
84 80 16
84 80 14
88 82 25
83 80 16
91 86 0
79 76 0
83 81 0
85 81 11
87 85 12
89 87 18
87 85 11
101 96 0
97 92 8
105 102 21
95 91 0
101 97 8
95 91 8
102 98 16
106 102 12
103 98 0
95 92 8
102 99 16
106 100 14
110 105 18
110 107 19
115 112 18
112 108 24
114 111 11
119 114 22
113 110 0
118 113 30
108 104 14
126 122 26
119 115 25
125 120 29
131 127 25
118 114 21
123 118 25
126 120 32
127 121 19
127 124 22
126 121 35
133 127 25
127 123 25
134 128 25
124 121 28
128 123 19
134 128 30
139 133 30
129 124 32
129 123 39
125 120 28
134 128 36
129 124 32
132 127 43
135 129 39
137 132 36
137 132 30
133 128 29
144 138 30
139 133 34
140 133 39
140 135 36
136 130 37
140 134 44
146 139 41
135 130 34
143 137 42
139 132 36
134 128 37
134 129 42
141 135 37
137 130 45
144 138 39
133 129 30
142 135 37
140 134 44
140 135 37
138 133 19
139 133 44
145 138 44
136 130 45
145 140 42
149 142 53
145 140 41
144 138 39
145 138 45
144 138 45
137 132 44
147 141 45
140 134 45
150 145 45
147 141 53
137 131 34
144 138 42
141 135 44
141 136 42
143 136 37
145 139 48
142 135 47
137 131 41
143 137 51
132 127 45
140 134 47
144 137 49
140 133 42
136 130 47
147 142 53
138 132 47
136 131 41
136 131 49
140 133 53
138 132 49
134 129 45
142 137 53
134 128 42
136 129 52
146 140 52
137 131 49
145 138 49
141 134 45
142 135 53
154 146 58
133 126 44
138 131 49
135 129 51
150 142 60
140 133 54
143 137 49
135 128 42
172 196 0
174 197 0
172 195 0
172 196 0
173 197 0
172 195 0
171 195 0
173 196 0
170 195 0
174 197 0
174 197 0
171 194 0
172 195 0
172 195 0
175 198 0
167 191 0
172 195 0
173 196 0
174 197 0
175 198 0
175 198 36
178 201 76
177 200 80
176 199 72
178 200 72
179 201 99
179 201 80
177 200 72
178 201 92
179 200 95
179 201 108
186 207 125
179 201 105
182 204 105
180 203 105
180 202 95
178 200 88
178 201 92
180 202 95
179 202 95
178 201 92
176 198 76
174 197 57
177 200 88
176 199 80
174 197 72
178 200 95
174 197 62
176 199 84
176 198 84
177 200 88
176 199 84
176 198 84
169 192 57
176 198 51
175 199 76
177 200 99
174 197 95
173 196 67
174 196 57
175 198 84
173 196 62
174 197 62
175 198 95
173 196 67
175 197 67
174 196 67
175 198 62
174 196 80
173 196 67
172 195 57
176 198 76
169 192 72
176 198 80
173 196 67
170 193 57
171 195 62
173 197 105
173 196 67
173 196 99
170 192 57
172 194 62
174 197 62
173 196 57
176 198 76
172 194 72
172 193 67
171 193 67
174 197 80
166 188 51
172 194 57
175 198 67
174 197 80
173 194 72
165 187 67
174 195 92
175 196 67
170 190 76
177 198 88
175 197 80
172 195 80
172 193 80
169 190 76
169 192 92
174 194 88
173 195 95
169 190 80
168 189 88
165 187 62
161 181 72
161 182 72
160 181 67
163 184 25
164 185 0
153 174 0
156 176 0
157 179 0
158 179 0
153 174 0
156 177 0
152 173 0
160 182 0
154 175 25
161 182 0
156 178 0
153 175 0
154 176 25
159 181 57
167 188 44
168 191 72
173 195 92
170 193 0
163 187 0
165 188 0
167 190 0
166 188 0
158 180 0
165 188 0
165 188 0
157 181 0
160 183 0
163 186 0
159 182 0
155 179 0
158 180 0
158 180 0
163 186 0
164 185 0
159 182 0
156 179 0
160 183 0
155 178 0
163 187 0
155 178 0
163 186 0
148 170 0
155 177 0
155 178 0
159 182 0
151 173 0
148 169 0
151 173 0
145 167 0
140 163 0
142 164 18
73 98 67
51 83 74
49 79 62
53 84 80
51 82 74
56 88 102
52 83 94
54 86 82
53 84 84
54 86 94
54 87 92
53 84 92
53 84 82
52 83 90
52 83 88
52 84 78
55 87 94
55 87 97
55 86 94
51 81 78
56 89 107
53 85 78
55 87 92
53 83 82
53 85 76
55 87 105
55 87 99
54 86 94
54 85 97
56 88 94
54 86 94
56 89 107
54 85 96
57 90 118
54 86 97
54 85 92
55 87 94
55 87 100
52 83 102
54 85 99
52 83 92
52 83 86
53 85 97
55 86 106
54 86 88
52 82 87
54 85 100
55 86 105
53 84 100
54 85 105
53 84 99
53 83 94
53 83 94
51 81 87
54 86 102
51 81 90
51 80 94
52 81 86
51 81 74
52 82 90
49 78 77
52 81 96
51 80 81
49 77 79
50 80 80
49 76 72
48 74 68
52 80 71
45 70 58
61 82 66
130 147 18
141 161 0
141 158 0
137 155 0
136 154 0
140 159 0
137 154 0
132 149 0
142 158 0
137 155 0
142 160 0
145 165 0
141 159 0
153 171 0
136 154 0
152 169 0
140 155 0
148 165 0
145 161 0
149 167 0
146 163 0
151 167 0
139 155 0
142 157 0
149 165 0
149 165 0
141 155 0
148 163 0
151 165 0
146 160 0
148 164 0
151 165 0
152 168 0
154 169 0
131 140 16
93 88 30
90 85 25
79 74 16
83 77 14
92 87 16
95 91 11
91 87 11
85 81 19
101 96 19
94 91 14
96 91 8
104 101 16
103 95 8
86 83 14
98 94 11
103 98 14
91 87 11
103 100 0
108 101 14
116 111 11
103 98 8
112 107 11
113 107 16
112 109 11
116 109 11
107 102 8
115 111 21
118 113 16
118 113 18
115 112 21
125 119 16
125 120 19
116 111 21
120 116 16
122 118 14
133 127 28
121 117 22
133 128 31
122 118 0
125 119 28
125 118 11
125 119 21
124 118 21
130 123 34
125 120 28
123 119 30
131 125 28
134 129 33
130 125 22
133 128 25
124 120 16
135 130 32
133 129 30
141 134 42
133 127 29
144 138 37
135 129 32
141 135 34
133 127 30
139 132 34
137 131 30
139 134 37
141 136 36
131 126 32
136 131 37
136 131 32
137 130 36
135 128 39
141 135 41
138 133 36
143 140 37
132 127 36
139 134 32
138 131 32
139 131 39
138 133 34
147 141 39
133 128 32
141 134 42
135 130 36
145 138 49
142 136 32
138 133 37
139 134 41
147 141 44
144 137 47
139 134 37
141 135 48
138 132 30
148 142 44
142 136 48
139 133 41
136 132 36
141 136 42
144 138 47
139 133 45
144 138 41
139 132 36
138 132 45
138 131 42
138 133 42
142 136 41
143 137 42
143 138 45
138 132 37
145 139 49
142 135 57
147 139 48
139 133 45
142 136 42
140 133 45
142 137 49
143 137 54
139 134 45
140 134 44
142 136 53
138 132 44
139 132 53
143 137 51
142 135 51
136 130 45
133 127 48
141 135 45
136 130 48
138 132 45
137 130 52
145 139 54
130 125 48
149 142 62
141 135 53
173 196 0
174 197 0
175 198 0
171 195 0
173 196 0
171 195 0
175 198 0
173 197 0
174 197 0
171 195 0
175 197 0
170 194 0
172 196 0
169 192 0
172 195 0
172 196 0
173 197 0
172 195 0
171 196 0
172 196 0
173 196 0
175 198 57
176 199 62
178 200 88
173 196 57
174 197 84
175 199 72
175 199 72
175 198 67
179 202 95
179 201 84
175 198 67
182 204 117
184 205 105
183 205 111
183 204 108
186 207 125
181 204 111
178 201 114
179 201 88
176 197 76
180 202 99
176 199 72
175 198 80
180 202 108
173 196 62
172 195 76
177 200 76
173 196 84
177 199 62
176 198 62
175 198 76
174 197 72
173 195 51
175 198 76
173 197 62
172 196 67
175 197 80
171 194 62
174 198 76
174 197 62
175 198 62
173 196 62
173 196 72
172 195 80
176 199 84
175 197 67
175 198 84
175 197 67
174 197 62
176 198 76
176 199 105
171 194 57
176 198 76
175 197 80
173 196 76
177 200 76
175 198 80
176 199 84
175 197 80
172 194 95
171 194 76
175 197 88
174 196 62
171 193 51
173 195 95
179 200 72
176 198 76
174 197 76
173 194 76
177 198 76
171 192 84
175 197 72
175 198 84
171 193 72
176 197 67
168 190 88
172 193 72
176 197 95
172 193 88
173 194 114
180 200 102
169 189 92
168 189 67
175 195 95
162 183 72
167 189 72
169 189 99
166 187 84
164 186 44
161 182 57
151 172 0
153 174 0
151 172 0
150 171 0
150 170 0
151 172 0
152 173 0
155 177 0
151 172 0
156 177 0
150 171 0
157 179 0
163 184 0
160 182 25
167 189 36
159 181 57
168 190 25
169 192 72
174 195 76
164 187 0
165 188 0
158 181 0
164 186 0
168 190 0
159 182 0
163 186 0
157 180 0
160 182 0
162 184 0
159 182 0
152 175 0
164 186 0
163 185 0
150 173 0
155 177 0
160 183 0
155 178 0
150 173 0
159 181 0
160 182 0
154 177 0
163 185 0
161 184 0
143 165 0
144 165 0
148 170 0
153 175 0
158 180 0
150 172 0
156 178 0
146 168 0
146 168 0
146 168 0
151 173 0
141 162 18
85 108 74
50 81 67
50 80 65
52 83 86
51 82 72
54 85 92
51 82 80
52 83 84
52 83 70
51 81 86
53 84 90
55 88 102
55 87 90
55 86 103
55 87 100
53 84 76
53 85 86
54 85 82
55 87 100
52 84 86
53 85 86
54 86 95
52 83 78
54 87 88
56 89 103
55 87 97
53 84 92
55 86 90
55 87 107
56 88 105
53 83 84
53 85 90
53 84 80
52 82 88
54 85 92
53 84 88
52 83 86
51 81 78
55 88 100
52 84 76
53 84 95
56 89 107
51 81 78
53 85 90
54 84 92
54 86 100
54 86 102
50 78 78
54 85 102
53 83 95
52 82 82
55 86 103
51 81 82
54 85 88
51 80 77
51 80 83
52 82 91
49 77 70
50 78 79
49 77 79
49 77 78
48 75 74
49 78 86
49 78 80
46 72 67
48 76 75
49 76 69
81 100 65
131 149 0
133 149 0
131 147 0
136 153 0
140 155 0
136 155 0
132 150 0
147 164 0
137 154 0
130 146 0
141 160 0
135 151 0
140 155 0
138 155 0
143 161 0
132 148 0
144 161 0
139 151 0
143 156 0
140 158 0
143 157 0
146 163 0
146 160 0
147 162 0
147 165 0
143 159 0
147 162 0
148 164 0
142 157 0
151 165 0
140 152 0
149 165 0
147 162 0
149 165 0
138 151 0
151 166 0
139 150 18
97 92 26
86 82 19
74 70 0
94 87 16
93 90 18
88 83 16
91 88 14
87 84 11
93 86 1
80 77 3
86 81 0
82 79 0
93 89 0
92 88 11
96 92 8
102 97 0
102 98 0
109 105 8
104 99 0
107 105 0
107 104 11
106 103 8
115 111 11
112 106 0
105 103 14
114 109 11
109 105 18
114 112 11
115 110 0
112 107 21
115 110 11
119 116 22
118 114 11
117 113 11
122 117 26
129 123 25
127 122 22
126 122 16
115 110 11
125 118 19
137 131 25
131 126 24
127 122 25
127 123 39
133 127 31
130 125 25
133 126 32
134 128 37
135 128 32
128 123 22
134 128 30
128 124 28
128 123 19
139 133 34
128 122 33
134 128 30
130 124 32
139 134 19
137 132 47
124 118 28
143 137 32
132 126 25
139 132 37
139 132 36
131 127 25
138 132 32
134 129 30
132 126 19
134 128 25
139 131 37
140 135 42
139 133 36
143 136 39
143 137 37
132 128 22
143 137 42
139 135 32
132 127 30
140 135 25
139 134 36
137 129 42
144 138 36
146 140 44
136 130 30
146 141 37
136 131 32
133 127 37
141 135 44
129 123 37
143 137 36
139 132 45
143 137 37
134 129 37
145 140 45
148 142 48
146 140 45
145 140 42
146 141 48
140 135 44
137 132 34
135 130 39
137 132 39
140 134 47
148 141 47
139 133 52
141 135 45
137 131 45
133 129 30
138 132 51
137 131 41
141 135 37
132 126 49
139 133 48
135 130 42
132 127 42
138 133 48
139 132 53
134 128 41
146 140 56
145 139 49
141 134 52
136 131 45
140 134 42
133 127 44
135 128 49
142 136 52
131 125 37
140 134 52
143 137 52
174 197 0
174 197 0
173 196 0
174 197 36
172 196 0
172 195 0
170 193 0
175 198 0
173 196 0
172 196 0
174 197 0
170 193 0
173 196 0
174 197 0
171 194 0
174 197 0
168 192 0
174 197 0
168 192 0
172 195 0
173 196 0
172 196 0
171 194 0
173 195 25
176 199 72
175 198 76
173 196 57
177 200 76
179 201 92
173 196 72
178 200 84
177 200 84
175 198 67
175 198 57
178 199 88
184 205 114
181 203 105
182 204 105
183 204 117
181 203 99
178 201 88
182 203 111
178 200 108
174 197 76
181 203 102
177 199 99
180 201 95
176 199 84
176 199 67
176 198 67
179 202 114
171 194 51
175 198 84
177 199 67
175 198 80
177 200 72
176 199 84
174 198 72
176 198 84
173 195 62
178 200 62
175 197 80
173 196 62
175 198 62
177 200 102
174 197 62
174 197 76
176 198 80
173 196 84
178 200 72
177 198 80
178 201 105
174 197 76
171 193 62
173 195 76
176 198 57
176 199 80
174 196 88
174 196 88
172 195 51
169 192 76
176 198 72
176 198 88
169 191 76
173 195 57
175 196 95
177 199 95
172 194 84
173 194 88
177 199 99
174 197 111
171 192 76
169 189 88
172 193 80
169 190 95
170 191 88
172 193 76
178 198 92
173 194 76
175 195 72
170 190 99
174 194 105
169 190 76
163 185 67
165 187 44
163 184 76
163 185 57
164 185 76
157 178 51
149 170 0
157 179 0
149 170 0
152 174 0
152 173 0
156 178 0
151 172 0
156 176 0
155 177 0
149 170 0
152 173 0
153 173 0
155 176 0
160 180 0
159 181 0
159 181 36
166 188 51
164 186 57
165 188 57
166 188 36
168 190 0
157 179 0
162 185 0
166 188 0
166 188 0
158 181 0
158 180 0
159 182 0
157 180 0
160 184 0
161 183 0
155 178 0
165 187 0
162 185 0
154 176 0
161 182 0
160 182 0
159 182 0
157 179 0
152 175 0
157 179 0
153 176 0
148 170 0
155 177 0
148 170 0
147 169 0
144 166 0
144 167 0
148 170 0
144 166 0
154 176 0
145 167 0
151 174 0
151 173 0
144 166 0
146 168 0
146 168 0
125 147 0
102 124 60
53 83 60
53 85 84
55 87 86
51 81 80
54 85 90
52 82 78
50 80 74
54 85 80
54 85 94
51 81 76
52 83 80
55 87 99
53 85 94
53 84 90
47 76 67
53 84 76
55 87 92
51 81 84
54 85 94
54 84 86
52 83 100
54 86 100
55 87 100
53 83 84
54 85 95
55 86 95
53 85 88
53 84 84
51 81 82
51 81 78
54 85 90
56 88 99
53 84 80
52 83 80
52 83 92
52 84 92
53 83 92
50 79 94
52 82 89
54 86 102
51 81 90
53 85 84
53 84 87
51 81 90
54 84 99
51 81 78
52 83 80
54 85 94
51 81 93
50 80 80
52 82 79
51 81 94
51 80 86
50 80 90
49 77 86
49 78 81
46 73 60
52 81 79
51 80 90
48 76 71
48 75 79
48 75 71
49 76 68
46 70 62
90 110 42
121 136 0
125 143 0
128 144 0
132 149 0
126 142 0
137 153 0
141 158 0
140 156 0
136 153 0
131 147 0
131 147 0
128 143 0
132 145 0
137 152 0
140 155 0
145 164 0
123 139 0
135 151 0
139 154 0
130 144 0
139 152 0
142 158 0
138 151 0
135 147 0
140 155 0
138 153 0
131 145 0
146 162 0
153 170 0
145 159 0
143 154 0
137 149 0
144 160 0
146 159 0
147 159 0
150 160 0
141 153 0
149 159 0
129 137 0
83 79 16
90 85 16
81 76 16
94 87 22
75 71 0
95 87 22
98 93 8
89 81 11
86 82 0
104 99 16
93 89 16
107 102 0
85 81 8
103 99 8
101 97 11
109 103 0
106 100 8
103 99 0
104 99 0
91 88 0
105 100 0
111 107 11
121 115 11
105 101 14
117 112 0
109 105 0
118 114 16
110 106 11
118 113 0
110 107 0
103 101 14
120 116 14
121 115 11
121 115 22
117 112 16
120 115 11
114 110 19
125 120 11
120 115 16
126 121 30
130 123 22
125 120 11
132 126 19
121 118 19
133 127 34
127 121 11
129 125 30
133 129 19
134 129 22
127 121 22
131 127 30
128 123 22
130 124 19
130 126 26
128 124 19
132 124 36
135 129 42
134 129 32
136 131 28
131 126 32
127 123 22
131 127 36
143 137 34
139 134 32
138 132 37
138 133 41
132 127 22
137 131 36
145 138 39
135 129 34
142 136 30
133 127 41
135 130 28
143 137 41
141 134 36
145 138 41
143 137 44
135 130 32
146 140 41
140 134 37
141 135 44
148 141 48
139 132 47
137 133 41
142 135 39
140 133 44
142 136 34
135 131 37
139 132 36
141 134 47
146 140 49
145 138 41
135 129 39
139 133 41
135 127 32
138 133 34
135 129 44
146 139 49
127 122 34
134 129 41
130 125 25
134 130 30
139 133 51
141 135 44
133 128 39
147 142 44
148 141 45
143 136 42
142 135 44
141 135 49
138 133 49
126 121 32
137 131 42
139 132 44
146 139 52
141 135 45
129 125 44
141 136 42
150 143 54
139 133 45
131 126 39
135 130 45
138 132 42
136 131 41
134 130 44
132 127 45
139 134 48
141 134 52
175 198 0
174 197 0
173 197 0
171 194 0
171 194 0
173 196 0
172 196 0
173 197 0
172 196 0
174 197 0
172 195 0
174 197 0
172 195 0
176 198 0
170 194 0
173 196 0
173 196 0
171 194 0
170 194 0
173 196 0
172 196 0
174 196 0
172 195 0
173 197 0
170 193 0
173 195 36
174 197 62
177 199 80
174 198 76
176 199 76
180 202 92
178 200 76
179 201 80
176 198 76
176 199 84
174 197 72
179 202 95
180 202 105
181 203 92
179 201 102
182 203 108
183 205 133
185 206 117
178 200 88
179 201 92
179 201 105
178 200 95
179 201 92
176 198 80
173 196 76
175 197 72
177 200 88
179 201 84
176 199 80
174 196 80
177 199 92
178 200 80
176 199 72
178 200 80
176 198 67
176 199 80
174 196 72
177 198 84
180 202 99
176 198 92
174 196 57
173 195 72
173 196 76
175 197 72
173 195 76
173 194 51
180 202 92
175 197 95
171 193 72
173 195 80
171 193 88
174 196 76
173 194 84
174 195 76
172 193 67
176 198 95
170 192 67
175 196 76
171 193 76
173 195 80
174 195 76
176 198 95
167 189 72
173 195 92
172 193 72
175 196 111
170 191 72
174 194 108
169 190 84
172 192 99
170 192 95
176 197 92
170 191 88
176 196 99
167 188 80
169 190 80
174 195 88
160 181 62
172 193 92
162 183 76
163 184 57
164 186 36
160 181 0
161 181 0
152 173 0
156 177 0
163 184 0
151 173 0
159 181 0
156 176 0
152 174 0
148 168 0
156 178 0
161 183 0
155 176 0
158 179 0
164 185 25
160 181 25
165 185 80
160 183 44
165 188 51
165 187 67
166 188 51
159 182 0
167 189 0
165 188 0
159 182 0
162 185 0
164 186 0
159 182 0
150 173 0
158 180 0
157 179 0
156 179 0
159 181 0
161 183 0
158 180 0
154 176 0
154 176 0
157 179 0
157 179 0
162 184 0
156 178 0
149 171 0
147 169 0
153 174 0
146 168 0
148 170 0
153 175 0
147 168 0
145 167 0
148 169 0
149 170 0
148 170 0
153 175 0
142 165 0
148 169 0
139 160 0
143 164 0
142 163 0
144 165 0
133 154 0
130 150 0
114 135 47
63 91 72
52 83 80
47 76 72
50 80 74
48 77 70
52 82 76
53 85 86
52 83 82
51 81 78
53 84 88
52 84 90
55 87 99
52 84 92
55 87 88
52 83 82
51 82 76
54 85 76
54 85 99
53 84 88
53 84 76
51 82 86
52 83 92
55 87 94
54 86 92
51 82 90
55 86 86
54 86 90
54 86 92
52 83 86
54 86 107
54 86 95
53 84 92
51 81 90
53 85 94
51 81 82
53 83 94
52 83 86
51 82 82
53 85 90
53 83 79
52 82 82
49 78 76
55 87 92
53 84 82
52 82 88
53 83 89
52 82 82
52 82 94
52 82 82
54 84 80
53 83 92
48 77 78
50 78 60
51 81 86
51 80 87
46 73 65
52 81 87
46 73 75
50 79 89
49 76 72
44 68 70
46 72 57
105 123 40
118 134 0
131 148 0
124 139 0
119 136 0
131 148 0
128 144 0
132 147 0
131 149 0
135 152 0
128 145 0
121 137 0
130 145 0
131 145 0
123 139 0
128 145 0
133 148 0
128 142 0
131 147 0
137 153 0
128 143 0
134 147 0
130 144 0
136 150 0
132 147 0
133 147 0
136 151 0
135 148 0
135 148 0
135 147 0
136 148 0
136 149 0
134 146 0
145 158 0
141 153 0
145 157 0
131 140 0
145 157 0
146 159 0
143 153 0
149 159 0
135 148 0
98 99 25
81 77 11
96 89 19
84 77 8
100 94 24
80 76 14
82 78 0
88 82 0
88 83 0
91 88 0
100 93 3
95 91 12
99 95 0
103 99 8
98 95 0
94 90 0
104 101 0
112 106 0
97 94 11
112 107 0
102 98 0
85 84 8
108 104 0
104 99 0
119 113 11
111 107 16
110 104 16
108 102 11
114 112 11
114 109 0
106 103 0
117 112 14
118 113 11
121 116 16
127 122 18
111 107 8
116 113 11
116 110 16
116 111 18
130 124 25
124 119 22
123 118 16
135 130 21
123 119 19
124 119 19
129 125 22
125 119 16
126 120 11
136 131 22
137 131 28
134 128 28
139 133 32
131 126 16
137 130 22
138 131 34
125 119 28
129 124 30
130 126 28
132 127 25
133 128 32
130 124 28
144 138 25
136 130 32
138 131 28
133 129 28
132 126 28
132 128 28
139 134 30
138 130 32
144 138 37
136 129 32
137 131 37
135 130 32
134 128 34
142 136 34
141 136 34
127 122 32
135 129 39
136 132 32
134 128 34
136 131 34
138 132 39
146 139 41
141 135 47
140 133 45
143 136 42
136 130 42
142 136 44
136 130 34
139 132 44
136 130 42
143 137 42
129 124 42
130 124 37
136 130 51
144 137 56
134 129 37
143 137 45
140 133 41
136 131 34
136 130 42
142 135 49
145 138 48
137 130 37
132 125 39
137 131 36
131 125 36
130 125 34
141 134 47
139 131 51
138 132 52
140 135 42
139 132 47
135 129 36
144 136 52
133 128 45
131 125 45
131 126 42
136 129 44
143 137 52
138 134 49
134 129 47
141 134 47
134 127 47
135 129 36
136 132 41
123 117 34
170 194 0
174 198 0
172 195 0
172 196 0
175 198 25
172 195 0
170 194 0
175 198 0
177 199 0
173 196 0
173 196 0
173 196 0
174 197 0
174 196 0
175 197 0
171 195 0
170 194 0
174 196 0
169 193 0
174 196 0
169 192 0
172 195 0
171 194 0
174 198 0
170 194 0
171 194 0
173 196 0
169 191 25
171 195 25
176 198 67
176 198 72
172 195 44
178 201 80
177 200 92
180 202 105
180 202 84
176 199 80
178 200 92
178 200 72
175 197 92
179 200 76
181 202 117
181 202 102
178 200 80
184 205 125
183 204 122
180 202 99
181 203 105
178 200 80
181 203 105
178 200 99
173 195 67
177 200 99
177 200 76
175 197 80
172 195 62
175 198 67
171 193 57
174 197 72
178 200 92
175 198 84
176 198 80
179 201 95
175 197 88
175 197 84
174 196 67
174 195 67
176 197 57
177 199 72
178 199 80
176 198 76
173 195 62
176 197 88
176 198 99
175 196 76
178 199 88
174 195 92
179 201 95
174 195 76
177 198 62
173 195 95
179 199 88
174 195 72
175 196 67
173 195 67
177 197 84
172 193 88
176 197 108
163 184 80
175 196 102
174 195 105
175 196 95
174 194 88
173 194 105
166 187 67
178 199 114
173 193 95
167 189 84
168 189 67
171 192 92
162 183 72
174 195 84
169 190 67
159 181 44
155 176 0
153 175 0
154 176 0
151 172 0
155 177 0
148 170 0
163 184 0
153 174 0
160 181 0
160 180 0
155 177 0
159 181 0
157 179 0
155 177 25
158 178 0
156 178 0
147 168 0
167 188 36
164 186 62
168 189 62
166 189 62
170 192 62
164 186 0
158 180 0
161 183 0
157 180 0
155 177 0
161 183 0
161 183 0
159 181 0
163 186 0
162 184 0
155 178 0
160 182 0
157 179 0
165 186 0
157 179 0
155 177 0
153 175 0
159 181 0
148 170 0
157 179 0
162 184 0
149 171 0
155 178 0
151 173 0
146 169 0
149 171 0
144 167 0
153 176 0
158 180 0
147 169 0
140 161 0
146 168 0
133 155 0
140 162 0
130 151 0
140 162 0
132 153 0
142 163 0
133 154 0
146 166 0
140 161 0
129 150 0
133 152 0
116 137 40
85 107 65
52 83 67
51 82 86
51 81 74
48 77 70
52 83 82
50 81 74
52 82 82
53 85 95
53 85 72
52 83 80
52 83 86
55 87 97
53 84 82
50 81 76
50 80 70
53 84 90
53 84 95
54 85 90
55 86 94
52 82 88
50 81 80
52 83 86
51 81 84
51 81 94
52 83 74
55 87 95
53 85 84
54 85 96
52 83 78
51 81 74
53 85 80
50 79 72
54 86 88
52 82 70
54 85 86
52 83 82
53 84 92
52 83 82
51 81 90
49 78 70
52 83 80
51 81 86
50 79 94
51 80 94
50 80 80
52 82 92
50 79 78
49 77 85
50 80 82
49 76 78
48 76 72
47 74 72
49 77 75
49 77 83
47 73 66
48 75 71
49 76 72
46 72 62
72 91 64
104 120 18
115 130 0
118 132 0
114 126 0
119 134 0
119 135 0
124 143 0
125 143 0
126 142 0
114 129 0
137 152 0
122 135 0
129 142 0
124 141 0
122 137 0
120 135 0
134 148 0
136 150 0
133 147 0
127 141 0
138 150 0
126 138 0
133 147 0
127 141 0
125 138 0
136 151 0
131 142 0
129 141 0
130 143 0
132 145 0
131 142 0
133 148 0
135 147 0
140 152 0
137 148 0
134 146 0
137 151 0
138 151 0
141 151 0
142 153 0
143 153 0
137 148 0
139 147 0
139 149 0
111 113 25
78 71 11
72 68 11
79 75 16
89 82 31
86 83 11
87 82 0
94 89 11
83 78 0
92 85 11
91 87 0
86 80 0
82 77 3
98 93 0
87 83 14
95 92 0
84 79 3
108 103 0
105 100 0
103 98 0
99 93 0
107 100 0
104 98 11
110 104 12
109 104 0
110 105 0
101 97 11
110 105 16
112 108 11
106 101 0
124 120 11
101 97 0
120 114 19
121 116 11
128 122 21
124 119 11
117 113 16
123 117 22
126 121 0
128 123 16
114 110 0
127 122 22
123 117 19
128 121 22
125 120 16
117 111 18
123 119 19
123 119 19
125 120 25
133 128 25
135 130 30
127 122 30
126 123 0
128 122 25
142 137 39
129 123 25
134 129 25
132 127 30
138 132 32
132 129 22
138 132 32
130 124 28
133 127 36
135 130 30
130 125 19
138 131 34
134 129 25
139 134 30
133 127 30
130 124 30
132 127 36
133 127 34
137 132 32
138 132 30
135 129 32
136 129 36
129 124 22
137 131 32
140 135 30
139 133 42
133 125 30
131 124 30
136 129 37
133 128 44
135 130 39
143 136 42
140 134 36
142 137 41
144 136 42
132 126 28
134 128 34
142 135 47
134 128 37
137 132 41
140 133 36
146 139 48
132 127 30
130 124 39
143 137 47
140 135 39
137 131 37
136 131 41
140 133 47
131 126 42
134 127 42
145 138 52
134 128 36
139 133 39
134 128 32
135 129 42
133 128 44
135 128 45
139 134 44
135 130 42
135 131 36
127 123 36
128 124 36
139 133 47
137 130 45
135 128 45
131 126 42
138 132 53
130 125 37
135 128 53
139 133 53
130 125 41
175 198 0
173 196 0
175 198 0
172 196 0
170 194 0
175 198 25
173 197 0
173 196 0
171 195 0
172 195 0
172 195 0
173 197 0
172 195 0
171 194 0
173 197 0
174 197 0
172 195 0
172 195 0
170 193 0
175 198 0
170 193 0
172 195 0
175 197 0
175 197 0
171 195 0
172 195 0
172 195 0
170 193 0
172 194 0
174 197 0
175 197 36
174 197 44
174 197 57
176 199 67
177 199 72
177 200 62
176 198 67
179 201 88
179 201 88
177 199 84
175 198 67
173 196 72
177 199 62
176 199 80
180 201 95
175 197 88
180 201 108
183 204 114
178 200 108
177 198 88
180 201 102
180 201 108
177 199 114
176 197 72
179 200 95
179 200 108
179 200 72
182 204 120
180 201 95
176 198 72
174 196 76
177 199 92
180 201 99
175 197 72
178 199 80
177 197 95
177 198 80
176 198 84
175 196 62
178 199 84
174 196 76
179 200 88
177 199 80
176 197 84
176 198 72
178 198 95
177 199 92
179 200 99
174 195 76
165 186 80
172 194 95
176 197 84
174 195 99
175 195 80
171 193 84
172 193 95
174 194 108
172 193 105
170 190 57
174 195 108
171 191 114
174 195 84
168 190 84
164 185 67
169 190 62
170 191 72
167 189 62
169 189 76
165 185 57
170 191 67
166 188 57
162 182 36
158 179 25
159 181 0
162 183 0
156 177 0
165 187 0
157 178 0
161 182 0
160 181 25
151 173 0
165 187 0
154 175 0
145 165 0
157 178 25
153 173 0
146 168 0
153 174 0
161 183 0
164 185 0
171 192 51
161 182 62
160 182 25
167 188 57
162 184 72
164 186 0
161 184 0
160 181 0
162 183 0
159 182 0
150 172 0
162 183 0
161 183 0
154 177 0
157 179 0
159 181 0
155 177 0
163 185 0
156 177 0
150 173 0
159 180 0
161 183 0
149 171 0
165 186 0
157 179 0
156 179 0
150 172 0
156 179 0
149 170 0
151 173 0
159 182 0
150 172 0
141 163 0
143 165 0
148 169 0
142 162 0
143 163 0
142 163 0
132 153 0
142 163 0
140 161 0
146 167 0
134 155 0
137 158 0
135 156 0
131 152 0
127 148 0
133 153 0
134 155 0
134 153 0
124 142 0
87 106 36
55 85 76
51 81 80
50 80 72
51 80 86
49 79 76
48 77 78
52 83 92
48 77 74
54 85 94
47 75 82
50 79 70
52 83 78
51 81 80
51 81 70
51 81 62
51 82 92
55 87 90
53 84 86
48 77 76
52 83 80
52 83 86
50 79 88
51 82 80
53 85 86
52 83 88
53 84 80
52 84 78
53 85 86
51 80 84
53 84 86
51 80 72
51 82 76
52 83 82
52 82 92
52 83 90
50 79 76
53 83 82
53 83 92
51 81 74
48 76 62
50 79 82
50 80 80
50 79 90
52 82 97
50 78 76
47 74 70
47 75 74
49 78 80
48 76 70
51 79 98
44 70 72
49 77 78
47 74 66
46 73 66
45 72 63
44 70 63
79 94 37
107 122 0
108 124 0
109 124 0
110 124 0
113 127 0
122 137 0
107 123 0
128 144 0
128 144 0
117 131 0
126 140 0
119 134 0
121 136 0
122 136 0
127 140 0
123 135 0
131 144 0
119 133 0
130 143 0
134 149 0
131 146 0
127 139 0
129 142 0
129 145 0
122 135 0
129 142 0
134 148 0
127 139 0
126 137 0
129 141 0
123 136 0
143 156 0
136 146 0
138 149 0
130 141 0
132 143 0
128 138 0
121 132 0
134 145 0
127 136 0
133 142 0
127 135 0
128 136 0
132 140 0
125 131 0
135 142 0
114 118 11
91 84 19
82 77 0
94 87 22
87 82 0
79 76 0
88 84 0
82 78 11
96 89 8
83 75 14
90 84 8
92 84 0
94 88 3
97 92 0
104 97 0
92 89 8
102 96 8
104 99 3
100 93 0
114 108 3
103 97 0
107 101 16
110 105 11
102 96 8
111 106 11
109 104 11
110 105 11
106 102 0
118 113 11
109 105 0
118 114 0
113 106 0
116 109 0
107 104 0
114 108 0
113 107 11
122 116 0
111 105 11
119 114 11
117 112 0
125 119 14
122 118 0
121 115 24
129 123 22
125 119 19
127 121 25
116 111 19
123 117 19
137 130 25
132 127 22
128 123 28
132 127 22
132 129 16
123 118 16
127 122 22
123 119 22
131 127 21
128 122 22
129 124 22
138 131 28
130 123 25
138 132 30
127 123 16
133 127 28
132 127 25
136 129 36
138 132 28
133 127 30
137 131 30
141 136 30
135 129 30
137 131 34
129 122 32
123 118 28
132 128 25
129 125 34
127 122 32
138 133 32
135 129 41
146 138 34
142 136 42
137 132 28
136 131 42
135 131 32
141 134 39
140 134 34
135 131 37
122 117 25
132 126 39
132 127 37
139 133 36
136 130 42
141 134 42
139 132 30
136 129 44
137 131 44
134 127 44
135 129 41
144 138 47
138 131 45
145 138 53
134 128 39
131 124 32
133 126 39
139 133 44
134 128 42
139 133 41
140 134 48
139 132 53
137 130 49
133 128 44
133 127 44
142 135 48
131 127 28
129 124 39
127 122 42
140 133 52
126 120 44
134 128 49
130 125 42
134 126 51
135 129 44
145 138 52
133 128 49
133 127 51
172 196 0
174 197 25
173 196 0
173 197 0
173 196 0
174 197 25
172 195 0
174 198 0
175 197 0
173 196 0
173 195 0
172 196 0
174 197 0
170 194 0
175 198 0
172 195 0
172 194 0
174 197 0
172 195 0
171 194 0
173 196 0
170 194 0
168 192 0
171 194 0
173 196 0
172 196 0
172 195 0
174 196 0
174 196 0
168 191 0
171 194 0
169 191 0
171 194 36
172 195 36
177 200 57
173 196 76
179 201 80
177 200 88
174 196 44
179 201 84
177 199 92
173 195 72
176 198 72
170 192 51
174 196 67
179 201 76
175 197 67
181 203 92
179 201 95
178 199 108
175 197 92
177 199 102
181 202 108
184 204 120
172 193 95
180 201 92
183 204 108
178 199 102
175 197 80
175 197 88
182 203 125
175 197 76
176 197 99
180 201 95
179 200 88
178 200 102
174 195 84
175 196 76
175 196 95
175 196 108
176 197 88
175 196 99
177 198 117
176 197 92
177 197 92
173 193 80
177 198 105
174 195 102
174 195 57
178 199 108
177 197 102
172 193 95
170 191 72
175 195 88
176 197 95
176 196 84
174 194 99
166 187 72
171 191 80
172 192 95
170 191 80
171 192 62
171 193 88
171 192 76
170 191 88
169 190 62
160 181 62
168 189 67
165 186 25
162 182 25
160 181 0
154 175 0
158 178 0
156 177 0
151 172 0
157 178 0
155 177 0
154 175 0
155 176 0
155 177 0
162 183 0
155 175 0
157 178 0
152 172 0
157 178 0
160 180 0
159 180 0
153 175 0
158 179 36
158 179 44
165 187 51
157 179 36
167 189 84
166 186 57
161 183 0
159 181 0
151 173 0
166 188 0
155 177 0
157 179 0
164 186 0
142 163 0
156 179 0
157 178 0
150 172 0
156 178 0
148 170 0
156 177 0
148 170 0
151 173 0
156 178 0
154 176 0
149 171 0
153 174 0
150 172 0
157 178 0
149 170 0
159 181 0
151 173 0
155 175 0
147 168 0
140 162 0
148 169 0
148 169 0
154 176 0
147 167 0
145 167 0
144 164 0
144 165 0
141 162 0
130 150 0
134 154 0
131 150 0
144 165 0
121 141 0
131 151 0
134 154 0
143 162 0
120 140 0
127 146 0
133 152 0
111 129 0
107 125 18
69 91 51
51 82 80
50 80 76
53 83 86
48 78 72
48 78 60
49 79 72
53 84 88
49 79 72
50 80 94
52 83 92
49 79 78
51 82 67
51 82 86
52 84 82
53 85 90
51 81 72
51 82 74
51 81 76
50 80 76
50 79 67
51 82 74
51 80 86
55 86 99
53 84 90
51 81 84
49 78 72
51 81 88
53 83 84
51 82 67
51 81 94
49 79 76
50 79 80
52 82 86
48 76 54
51 80 84
50 80 72
53 83 92
52 82 95
51 80 84
51 81 72
49 77 78
45 73 57
52 82 84
52 82 88
45 72 65
47 75 67
47 75 75
49 77 72
50 79 90
48 76 65
45 71 63
44 68 72
57 77 57
103 117 20
113 128 0
105 120 0
104 119 0
115 128 0
105 118 0
103 115 0
113 128 0
106 122 0
117 128 0
116 130 0
107 121 0
114 125 0
115 129 0
125 138 0
120 134 0
139 156 0
127 140 0
133 147 0
126 139 0
130 144 0
126 139 0
121 136 0
122 137 0
114 127 0
119 132 0
132 145 0
118 130 0
131 141 0
133 146 0
125 137 0
120 131 0
126 136 0
130 138 0
129 140 0
134 146 0
115 125 0
128 137 0
121 129 0
131 143 0
128 138 0
130 135 0
132 140 0
128 137 0
131 139 0
126 134 0
123 128 0
128 135 0
138 146 0
125 131 0
97 95 22
85 77 19
90 84 16
88 83 14
86 80 16
92 86 14
86 81 11
85 78 0
90 86 0
85 81 0
92 86 0
98 92 0
91 85 0
102 97 0
113 104 0
105 100 0
105 99 0
99 92 0
115 107 0
103 99 0
112 106 0
104 100 0
110 105 0
105 99 8
112 107 0
106 102 0
109 103 0
116 112 8
103 100 0
117 112 0
113 108 8
123 115 0
109 102 0
120 115 11
109 105 11
118 112 11
120 114 0
120 114 19
118 112 11
120 113 11
116 112 11
126 121 19
121 115 16
112 106 11
132 125 19
118 112 11
127 123 16
125 120 11
128 122 22
128 123 22
117 113 16
129 122 16
132 126 11
126 120 25
128 122 19
131 126 22
128 121 22
129 124 22
128 121 25
131 126 19
130 124 30
135 130 25
134 127 30
127 122 25
133 127 22
124 118 22
142 137 34
128 121 22
131 125 22
126 122 30
137 133 32
135 129 41
136 131 36
131 125 30
139 134 36
127 119 22
141 136 25
137 132 36
133 125 36
138 131 39
142 136 32
136 129 25
135 130 39
138 132 37
137 131 41
142 135 44
133 127 34
136 131 34
144 138 39
136 131 41
142 136 37
133 127 39
140 133 44
142 136 36
133 128 30
135 127 39
133 128 42
132 126 47
133 127 34
134 129 34
139 133 45
136 130 34
132 125 32
126 119 36
140 132 49
136 130 44
139 134 47
127 121 39
142 136 52
139 133 45
128 123 37
136 131 45
134 128 37
140 134 53
145 138 56
128 122 42
127 121 34
136 130 39
138 131 52
124 116 39
136 130 44
127 122 44
136 130 53
173 196 0
172 195 0
173 196 25
174 197 0
174 198 0
174 197 25
173 196 0
175 198 0
170 195 0
173 196 0
171 195 0
172 196 0
173 197 0
174 196 0
171 194 0
173 195 0
173 196 0
172 195 0
171 194 0
172 195 0
171 194 0
173 196 0
175 197 0
170 193 0
173 196 0
171 194 0
173 196 0
172 195 0
170 193 0
171 194 0
172 195 0
172 195 0
171 193 0
172 195 0
174 196 0
172 194 0
173 195 44
172 195 67
177 199 84
180 202 88
175 197 57
177 199 84
177 198 72
177 199 67
177 199 99
182 203 111
179 202 99
177 199 84
175 198 67
174 196 44
178 201 92
177 199 72
177 198 76
177 198 72
181 202 99
174 195 62
180 200 105
180 201 88
182 202 95
180 201 105
182 202 111
183 203 111
178 199 92
180 201 111
181 201 99
173 194 105
181 201 99
175 197 102
179 199 99
178 199 102
181 202 111
175 196 84
178 198 92
176 197 92
180 200 108
178 198 114
175 196 99
176 196 76
183 203 127
177 197 105
173 195 84
173 194 92
178 198 105
176 196 108
168 190 67
168 190 62
174 195 72
171 193 76
174 195 67
163 183 67
173 194 92
168 189 72
168 189 92
165 187 72
168 189 57
165 186 44
162 183 0
166 188 0
164 184 0
163 183 0
159 180 0
163 184 0
152 173 0
160 181 0
155 176 0
155 176 0
168 188 0
155 176 0
159 179 0
157 178 0
161 182 0
158 179 0
163 184 0
162 183 0
161 182 0
157 178 0
165 185 25
157 179 25
159 179 57
160 182 36
163 185 44
169 190 88
165 187 25
164 186 0
161 183 0
159 181 0
161 183 0
164 185 0
163 184 0
164 186 0
161 182 0
156 177 0
155 176 0
158 180 0
162 184 0
159 181 0
157 178 0
149 171 0
150 173 0
145 166 0
154 176 0
153 174 0
152 174 0
149 171 0
153 175 0
147 169 0
145 166 0
152 174 0
139 161 0
140 161 0
145 167 0
142 164 0
145 166 0
149 170 0
139 160 0
134 155 0
145 166 0
141 163 0
137 158 0
138 158 0
133 152 0
136 156 0
129 149 0
130 150 0
135 154 0
127 148 0
128 146 0
130 149 0
136 155 0
117 136 0
115 133 0
116 133 0
117 135 0
117 134 0
95 114 31
59 85 54
50 79 74
47 76 72
49 79 67
50 79 76
49 79 65
50 80 72
52 83 86
48 77 78
50 80 76
47 76 65
51 81 78
48 78 78
51 81 78
50 80 82
53 85 78
48 77 54
54 86 84
50 80 67
54 85 92
53 84 80
53 84 94
51 82 78
50 80 67
53 84 94
52 82 95
47 74 62
51 81 86
52 82 99
47 76 76
47 76 67
52 82 82
47 75 78
48 76 67
50 80 70
47 76 76
48 75 60
48 76 60
50 79 78
48 76 76
47 75 76
48 76 65
48 76 60
48 75 76
44 70 62
47 75 74
46 73 70
43 68 63
46 73 65
53 75 40
73 89 36
86 98 0
100 113 0
109 123 0
102 116 0
109 124 0
99 112 0
100 111 0
97 111 0
116 129 0
129 143 0
117 130 0
113 126 0
112 128 0
112 126 0
118 132 0
131 146 0
113 127 0
128 142 0
124 138 0
114 126 0
121 134 0
126 139 0
124 139 0
119 133 0
125 138 0
136 150 0
120 133 0
124 138 0
116 130 0
127 140 0
123 133 0
125 135 0
127 137 0
118 128 0
118 128 0
127 138 0
123 133 0
126 138 0
124 133 0
122 129 0
138 148 0
113 121 0
129 137 0
119 124 0
121 128 0
119 126 0
128 134 0
133 138 0
121 128 0
128 132 0
121 125 0
127 132 0
104 103 0
88 82 22
72 67 11
82 75 16
80 75 0
94 88 14
88 81 11
76 72 8
94 87 0
81 76 0
88 82 11
101 92 8
94 87 0
96 91 0
102 95 11
92 86 0
99 93 0
112 106 0
104 97 0
102 96 8
104 98 0
102 97 8
113 107 0
97 90 0
111 105 11
112 106 0
118 109 0
105 101 0
115 107 11
107 101 0
113 108 0
117 110 0
115 110 16
111 106 11
123 117 0
117 112 11
121 115 0
111 106 11
118 113 11
124 118 16
124 119 16
134 128 19
113 108 11
126 118 22
124 117 16
124 119 0
124 119 16
122 116 11
126 120 14
129 125 19
121 116 16
125 119 16
133 128 22
131 125 25
133 127 19
116 113 22
129 124 19
125 121 19
127 122 16
124 119 19
126 119 28
127 122 19
125 119 28
131 125 30
140 134 34
137 131 37
125 121 19
135 130 28
130 124 25
128 122 37
135 129 19
131 125 37
129 124 25
138 131 41
130 125 36
130 125 32
137 130 36
129 123 34
138 131 42
132 125 28
128 122 28
134 130 34
131 126 30
130 124 36
138 132 36
131 125 37
128 124 32
127 121 30
130 125 34
135 129 42
127 122 36
133 128 41
140 134 41
133 128 30
129 123 34
138 132 49
141 135 41
136 131 41
133 126 45
134 127 41
128 123 34
133 127 42
129 124 34
130 124 42
135 130 30
132 126 44
129 122 34
137 130 47
136 128 39
133 128 44
136 131 37
133 126 47
130 124 49
135 130 37
140 132 48
132 125 32
133 127 45
127 122 37
127 122 42
127 121 41
129 123 48
132 126 47
173 196 0
174 197 0
173 196 0
173 197 0
174 197 0
173 196 0
173 196 0
173 197 0
173 196 0
173 196 0
171 194 0
173 196 25
171 195 0
174 196 0
175 197 0
172 194 0
172 196 0
171 195 0
170 193 0
171 194 0
174 198 0
172 195 0
173 196 0
171 194 0
171 195 0
174 196 0
168 191 0
171 194 0
174 196 0
172 195 0
173 196 0
172 195 0
171 194 0
171 195 0
169 192 0
173 196 0
172 196 0
173 196 0
173 196 0
167 189 25
175 197 44
171 193 25
177 198 72
180 201 92
179 201 84
177 198 80
175 197 80
175 197 80
177 198 80
178 199 80
177 199 92
174 197 72
177 199 88
179 201 80
176 198 67
169 191 84
175 197 67
174 195 57
171 193 72
175 197 72
180 201 84
173 195 72
174 194 84
175 197 76
176 197 62
173 193 67
179 199 92
177 198 76
178 200 80
177 197 95
176 197 76
174 195 95
176 196 84
174 195 76
177 198 84
176 197 76
174 196 88
173 194 80
171 193 57
172 194 76
171 192 67
172 192 67
173 193 76
172 193 92
176 197 99
169 189 57
171 191 88
171 192 80
168 190 67
166 186 80
162 182 51
172 193 44
166 186 0
164 185 0
164 184 0
159 181 0
167 189 0
157 178 0
156 177 0
157 178 0
164 184 0
165 186 0
161 182 0
160 182 0
159 181 0
156 177 0
158 179 0
160 182 25
154 175 25
159 180 25
155 176 0
153 173 0
160 180 0
156 177 0
162 182 25
164 184 0
164 185 57
162 183 36
163 184 36
170 190 92
167 188 62
164 185 0
159 181 0
165 186 0
161 183 0
161 182 0
163 185 0
163 185 0
156 178 0
152 173 0
157 178 0
161 183 0
155 177 0
156 176 0
162 184 0
160 182 0
160 181 0
156 177 0
144 166 0
152 173 0
159 181 0
150 170 0
159 180 0
147 169 0
153 173 0
151 172 0
148 169 0
138 159 0
147 167 0
146 168 0
151 173 0
146 166 0
140 161 0
135 155 0
145 167 0
146 168 0
135 155 0
143 162 0
131 152 0
139 159 0
137 158 0
145 166 0
135 155 0
134 156 0
133 152 0
123 141 0
117 137 0
116 135 0
120 140 0
129 147 0
111 130 0
108 126 0
124 142 0
106 123 0
97 115 0
96 112 18
82 101 36
56 82 67
49 78 72
49 78 74
50 78 76
48 77 62
51 81 54
46 74 65
47 76 72
50 80 84
49 78 60
47 75 74
50 80 80
50 80 80
49 78 84
48 76 80
50 79 74
52 82 94
50 80 80
52 83 82
47 76 67
51 81 80
48 77 62
48 76 74
49 78 78
48 76 70
50 79 86
50 80 86
50 79 67
49 77 76
49 79 74
53 83 92
50 79 74
50 80 80
48 76 76
48 76 60
47 75 57
48 75 70
46 73 70
46 73 70
47 76 62
43 69 65
44 70 65
46 72 67
44 69 65
40 65 60
49 70 40
72 87 36
85 96 0
99 110 0
84 93 0
104 117 0
98 108 0
104 118 0
102 114 0
93 108 0
107 121 0
107 117 0
110 125 0
101 112 0
113 124 0
115 129 0
120 135 0
126 140 0
122 136 0
121 135 0
120 135 0
122 136 0
124 140 0
116 131 0
115 127 0
132 146 0
122 136 0
109 123 0
124 136 0
121 133 0
131 145 0
122 135 0
119 130 0
131 145 0
117 129 0
127 139 0
114 125 0
130 137 0
124 136 0
131 139 0
123 134 0
115 123 0
120 129 0
128 138 0
130 141 0
105 114 0
109 117 0
131 134 0
128 135 0
120 125 0
126 133 0
124 129 0
119 126 0
125 132 0
128 130 0
122 129 0
124 128 0
110 109 0
84 80 0
79 72 19
70 65 0
96 88 11
85 79 14
91 85 0
95 88 0
89 82 0
95 88 11
90 83 0
100 93 0
102 94 0
92 87 0
96 93 0
90 83 0
108 102 0
100 95 0
104 97 0
101 95 0
100 94 0
105 98 11
107 102 0
104 98 0
113 107 0
103 97 0
115 109 0
101 93 0
107 102 0
108 102 0
115 109 0
116 108 0
108 103 0
120 113 0
112 106 11
106 101 0
119 115 0
120 114 0
123 117 16
124 117 0
122 116 0
119 113 11
121 114 0
118 111 19
119 112 11
129 123 0
123 117 25
132 125 30
119 112 16
126 122 11
129 124 11
118 113 22
130 124 22
129 123 28
123 119 11
128 121 25
132 123 30
132 126 22
135 128 28
124 120 19
129 122 28
129 122 32
128 122 28
131 125 19
130 124 25
137 132 19
130 124 22
129 123 25
131 125 25
138 133 28
141 136 34
121 115 25
135 127 22
131 123 32
131 125 28
134 127 19
132 126 32
130 123 39
135 128 30
132 127 30
140 132 37
141 135 39
132 126 32
133 128 30
131 124 42
136 129 42
133 128 32
131 126 28
137 130 34
140 133 34
129 123 36
138 132 45
133 125 32
133 127 39
130 125 39
126 120 34
130 125 34
139 133 42
136 129 41
134 127 32
135 129 44
137 130 39
128 122 37
140 134 45
128 123 32
120 114 32
127 121 39
127 121 45
139 132 39
132 125 45
143 135 52
117 113 34
123 117 37
130 123 41
131 126 37
128 122 34
131 126 44
133 127 42
137 131 45
135 129 44
135 129 48
173 196 0
173 196 0
173 197 0
172 195 0
173 196 0
171 195 0
172 196 0
173 197 0
173 196 0
173 195 0
172 195 0
171 195 0
167 191 0
174 197 0
173 196 0
169 193 0
170 193 0
174 197 0
174 197 0
173 196 0
173 196 0
171 194 0
172 196 0
173 196 0
172 195 0
174 197 0
171 194 0
172 195 0
170 193 0
172 195 0
172 195 0
172 195 0
172 195 0
168 191 0
169 192 0
172 195 0
171 193 0
171 193 0
169 191 0
174 196 0
168 191 0
170 192 0
170 193 0
170 192 25
170 193 36
174 195 51
173 195 44
171 193 44
176 197 62
177 199 88
175 198 36
173 195 67
175 197 80
173 195 62
178 199 84
171 193 57
177 198 72
168 189 36
173 195 76
175 197 76
177 199 92
177 198 92
174 196 76
176 197 80
173 194 84
173 195 67
177 197 88
178 198 80
173 194 72
171 193 72
178 198 62
172 194 67
175 195 92
174 195 72
170 191 92
172 193 84
173 194 76
181 202 95
177 198 88
170 190 67
174 194 80
171 190 88
173 194 84
174 195 76
167 189 36
163 183 36
163 184 57
167 187 51
166 188 25
164 185 0
158 179 0
161 183 0
155 176 0
161 182 0
166 187 0
165 186 0
162 184 0
164 185 0
164 185 0
160 182 0
158 179 0
164 185 0
164 185 0
162 183 0
158 179 0
163 183 0
157 177 0
158 178 0
159 180 0
155 176 0
163 184 0
164 185 0
156 177 0
164 186 0
157 177 36
162 184 0
159 181 36
166 186 72
171 191 76
163 184 0
159 180 0
162 183 0
155 177 0
157 178 0
157 178 0
163 184 0
155 176 0
165 187 0
159 181 0
157 179 0
154 175 0
155 175 0
150 171 0
157 178 0
154 176 0
159 181 0
155 177 0
161 182 0
150 172 0
155 176 0
151 171 0
152 173 0
151 172 0
148 169 0
155 177 0
155 178 0
148 168 0
148 170 0
138 159 0
144 166 0
148 169 0
147 168 0
149 170 0
145 167 0
148 169 0
137 158 0
140 160 0
140 160 0
146 166 0
118 139 0
139 160 0
136 157 0
131 151 0
119 138 0
123 142 0
130 150 0
137 157 0
128 146 0
117 135 0
108 125 0
116 134 0
103 120 0
120 138 0
115 133 0
107 124 0
100 117 0
95 110 0
90 105 0
84 101 47
59 84 60
43 70 47
45 72 65
45 72 57
46 74 62
48 77 70
48 76 70
48 77 84
49 79 65
49 78 80
52 82 90
50 80 74
48 77 74
49 78 74
47 76 76
50 80 76
46 75 60
49 77 82
48 76 65
50 79 70
50 80 72
48 77 70
48 78 74
46 73 65
45 72 67
50 80 88
46 74 57
49 77 72
50 79 74
48 76 70
48 77 54
43 70 67
44 71 70
48 77 80
49 77 72
46 73 51
46 73 72
44 70 47
47 74 72
47 74 65
47 74 68
51 72 62
64 80 31
89 102 0
81 93 0
82 94 0
111 121 0
94 107 0
108 120 0
100 113 0
86 98 0
112 126 0
98 109 0
101 114 0
90 104 0
107 118 0
105 118 0
103 115 0
112 125 0
107 121 0
110 124 0
110 122 0
111 123 0
111 123 0
106 117 0
127 141 0
116 130 0
117 130 0
123 135 0
119 131 0
107 120 0
113 123 0
118 128 0
118 128 0
122 134 0
127 141 0
121 132 0
122 134 0
118 127 0
124 136 0
120 130 0
122 132 0
123 133 0
126 135 0
121 128 0
123 132 0
125 135 0
118 128 0
116 122 0
127 136 0
120 127 0
114 121 0
121 125 0
119 124 0
116 119 0
116 124 0
120 124 0
112 116 0
119 124 0
114 117 0
124 129 0
113 114 0
94 91 16
74 68 0
80 75 11
79 76 22
80 74 0
93 86 11
90 82 11
92 87 0
98 89 0
96 90 3
96 91 0
104 98 8
86 81 0
102 94 0
103 97 0
92 85 0
107 101 0
98 93 0
102 95 0
102 97 0
102 96 0
103 99 0
113 106 0
106 99 0
110 103 0
111 105 8
109 103 0
116 110 11
120 114 0
102 97 0
114 108 0
121 114 11
103 99 0
117 110 0
121 115 0
108 103 0
108 102 0
121 115 11
114 108 0
115 109 11
126 119 11
117 111 11
108 104 0
121 115 11
133 126 0
131 125 11
123 117 22
119 113 22
116 109 19
117 110 19
122 118 11
126 121 16
120 113 16
126 117 16
121 118 16
122 117 11
133 126 32
133 127 22
141 134 32
133 127 30
127 120 28
132 125 19
135 130 25
123 117 11
132 126 19
125 118 28
133 127 30
126 120 22
126 119 32
129 123 25
132 126 30
128 122 30
131 125 19
129 123 34
125 119 28
135 130 39
136 129 32
127 122 32
134 127 30
136 129 30
137 130 36
129 121 30
140 132 36
136 129 30
136 128 39
138 132 36
128 122 28
129 123 32
130 123 41
128 123 30
132 126 39
131 125 41
138 131 42
133 126 41
139 133 44
135 130 39
127 122 39
137 132 34
130 125 28
141 134 48
128 122 36
130 124 39
138 132 42
136 130 37
134 128 45
130 124 42
139 132 48
129 123 34
126 120 30
135 129 41
139 131 44
142 136 47
123 116 36
133 126 52
130 125 44
128 122 47
139 132 44
131 124 45
136 129 54
174 197 0
171 194 36
173 197 0
171 195 0
171 194 0
171 195 0
172 196 0
171 195 0
171 194 0
173 196 0
175 197 25
173 196 0
172 196 0
173 195 0
174 197 25
172 196 0
172 196 0
172 195 25
171 194 0
172 195 0
170 193 0
168 191 0
172 195 0
170 193 0
173 197 0
171 194 0
170 194 0
171 193 0
170 192 0
171 193 0
166 190 0
172 194 0
172 195 0
172 195 0
173 195 0
168 191 0
171 193 0
169 191 0
174 196 0
170 192 0
173 196 0
170 192 0
170 192 0
170 192 0
172 194 0
170 193 0
170 192 0
166 189 0
172 194 25
169 191 25
172 193 57
175 196 62
173 194 44
175 196 72
178 199 62
174 195 67
175 197 84
176 197 62
177 198 67
173 195 76
178 200 92
177 198 76
176 197 80
171 193 51
173 194 62
176 197 72
173 194 62
180 201 84
172 194 80
174 195 76
178 199 76
175 196 80
172 193 62
167 189 67
175 196 76
175 196 67
177 198 72
171 192 57
173 194 57
169 190 44
170 190 44
167 189 51
170 191 44
165 186 25
158 179 0
163 185 0
165 187 0
162 183 0
158 180 0
160 182 0
165 186 0
163 184 0
156 177 0
165 187 0
167 189 0
162 183 0
164 186 0
159 180 0
160 182 0
163 184 0
160 181 0
155 175 0
160 181 0
161 181 25
163 184 0
165 185 36
164 185 0
158 180 0
151 172 0
157 178 0
160 181 36
158 179 25
163 184 44
158 180 44
164 185 44
164 184 72
171 192 76
166 186 51
161 182 0
155 176 0
162 183 0
154 175 0
167 188 0
153 175 0
166 186 0
164 186 0
157 178 0
156 178 0
157 179 0
153 174 0
162 183 0
149 170 0
152 173 0
151 172 0
147 168 0
154 176 0
153 174 0
158 180 0
152 174 0
147 168 0
157 178 0
145 167 0
148 169 0
147 169 0
156 177 0
146 167 0
146 168 0
137 158 0
144 165 0
143 164 0
151 172 0
146 167 0
136 157 0
136 156 0
140 161 0
142 162 0
137 157 0
136 157 0
132 151 0
137 156 0
126 146 0
137 157 0
130 150 0
127 147 0
120 138 0
115 136 0
126 146 0
115 133 0
114 133 0
113 130 0
111 130 0
116 134 0
111 127 0
103 120 0
112 129 0
93 110 0
110 126 0
94 110 0
89 103 0
86 98 0
84 100 25
64 82 40
41 67 44
44 71 44
44 72 54
43 70 51
47 75 54
47 75 60
48 77 74
45 72 44
50 79 76
47 76 47
46 74 54
50 79 78
47 75 51
47 74 62
47 75 74
49 77 82
48 77 70
49 78 70
46 73 54
47 76 76
47 75 65
47 74 74
49 77 70
48 77 76
47 75 65
49 78 72
47 75 74
47 75 67
45 73 65
44 70 60
46 75 67
45 72 51
41 66 48
46 74 57
43 68 60
42 66 48
51 68 40
58 70 18
88 96 0
83 92 0
81 91 0
75 87 0
90 101 0
90 101 0
77 87 0
91 103 0
102 115 0
99 110 0
110 123 0
103 116 0
108 121 0
94 107 0
99 110 0
111 125 0
105 118 0
109 122 0
106 119 0
108 120 0
115 130 0
112 125 0
104 119 0
116 130 0
120 130 0
112 124 0
115 125 0
108 120 0
111 119 0
113 125 0
108 120 0
122 136 0
121 131 0
115 126 0
123 132 0
118 130 0
118 130 0
120 133 0
127 139 0
119 129 0
123 134 0
121 131 0
130 141 0
117 124 0
112 118 0
110 117 0
127 135 0
108 115 0
119 125 0
111 118 0
125 130 0
118 123 0
120 126 0
105 106 0
124 132 0
116 118 0
109 112 0
117 119 0
127 131 0
114 120 0
120 121 0
120 124 0
107 107 0
92 87 16
86 76 19
88 82 0
89 83 16
91 85 0
76 70 0
91 83 0
68 64 0
91 83 0
96 89 0
104 95 11
93 87 0
93 89 0
99 92 0
105 97 0
85 77 0
86 82 8
104 97 0
103 96 0
92 87 8
103 98 0
110 105 0
110 105 0
102 95 0
93 89 0
110 102 0
114 107 0
112 106 0
111 104 0
105 101 0
115 108 0
116 110 0
122 115 0
116 109 11
119 112 11
127 122 0
107 100 11
119 114 0
113 106 0
130 122 11
110 104 11
123 118 0
124 117 16
123 117 19
123 116 19
128 122 25
121 115 22
131 123 11
114 107 16
120 116 19
131 125 16
124 118 22
130 124 22
124 118 22
122 117 19
125 120 28
127 122 19
118 110 16
121 116 11
123 117 19
124 119 25
127 121 28
126 121 32
128 122 22
129 122 22
124 119 25
128 123 19
132 125 28
125 119 28
129 122 34
136 129 32
136 130 39
125 119 22
130 124 22
135 128 39
123 117 30
130 124 30
128 123 37
127 121 34
140 133 45
132 123 34
128 121 36
129 122 32
126 119 32
129 122 32
140 134 34
135 129 34
126 119 37
127 121 30
135 128 37
140 132 47
136 130 37
124 118 32
127 123 32
129 122 41
131 124 42
131 126 34
125 119 32
126 121 36
132 125 39
134 127 37
121 116 32
135 129 37
131 125 36
126 120 30
122 117 37
138 132 53
134 127 36
131 126 36
132 125 39
125 119 36
132 125 48
139 133 51
128 123 37
130 124 41
129 122 42
133 126 41
176 198 36
176 198 44
174 197 25
173 197 0
171 194 0
176 199 0
175 198 0
174 197 0
172 195 0
172 195 0
176 198 0
174 197 0
172 195 0
172 195 0
173 196 25
170 193 0
172 195 0
173 196 25
172 195 36
173 197 0
169 192 0
174 196 0
171 193 0
172 195 0
171 194 0
172 196 0
170 192 0
171 194 0
172 194 0
174 197 0
170 194 0
171 194 0
173 196 0
168 192 0
175 198 0
174 196 0
176 198 0
171 193 0
171 193 0
173 195 0
169 192 0
171 192 0
170 192 0
170 191 0
173 195 0
168 189 0
176 198 0
173 195 0
170 193 0
169 192 0
175 196 0
171 193 0
169 190 0
171 193 0
170 192 0
174 196 44
166 188 25
169 191 25
172 193 51
171 194 51
169 191 44
173 193 62
170 192 44
171 192 44
170 192 51
172 192 62
174 195 67
170 191 44
171 193 44
172 192 44
164 186 44
174 195 57
175 195 44
172 193 36
171 193 25
162 184 0
166 188 0
164 185 0
162 183 0
162 183 0
160 181 0
161 182 0
165 187 0
166 188 0
164 186 0
164 187 0
162 183 0
160 180 0
162 183 0
160 180 0
165 188 0
167 187 0
163 184 0
162 184 0
158 179 0
158 178 0
160 181 0
162 183 0
162 183 0
160 182 0
161 183 0
166 187 25
162 183 0
161 183 0
162 183 25
163 184 0
160 180 0
162 182 0
162 184 0
166 187 44
170 191 57
168 189 44
160 182 44
167 188 51
171 192 80
162 183 57
159 181 0
165 186 0
157 179 0
156 176 0
160 180 0
161 182 0
168 188 0
155 175 0
162 182 0
159 181 0
162 183 0
150 171 0
153 174 0
156 177 0
152 173 0
154 176 0
151 173 0
155 176 0
154 175 0
156 177 0
155 177 0
148 170 0
150 172 0
142 163 0
147 169 0
149 170 0
154 176 0
146 168 0
149 170 0
148 169 0
143 164 0
135 156 0
142 163 0
153 174 0
146 167 0
134 155 0
134 155 0
135 155 0
149 170 0
147 166 0
143 163 0
131 151 0
139 160 0
142 162 0
128 149 0
126 147 0
124 144 0
120 139 0
124 143 0
128 147 0
120 138 0
128 148 0
131 150 0
115 134 0
111 128 0
114 131 0
107 123 0
115 132 0
85 101 0
103 119 0
89 104 0
96 111 0
87 102 0
94 108 0
91 105 0
74 88 0
81 95 0
67 83 31
57 78 60
46 71 57
43 69 57
44 70 51
44 71 60
45 73 72
46 74 65
46 74 60
45 73 60
49 78 74
44 70 65
45 73 51
47 74 82
44 71 70
46 72 54
48 77 65
44 71 62
44 70 62
44 70 70
47 74 57
47 75 67
45 72 60
43 70 57
44 70 62
45 72 65
46 73 65
46 73 67
45 72 67
46 72 65
41 66 65
42 68 72
49 66 47
56 71 25
73 82 31
69 78 0
86 95 0
85 96 0
74 83 0
86 97 0
105 116 0
101 112 0
89 101 0
90 98 0
91 103 0
98 110 0
90 100 0
100 112 0
93 104 0
111 121 0
107 121 0
101 115 0
101 114 0
106 118 0
112 124 0
116 129 0
112 122 0
102 113 0
109 122 0
120 134 0
109 122 0
112 125 0
105 117 0
113 124 0
106 116 0
116 127 0
117 129 0
103 114 0
113 123 0
124 134 0
128 141 0
119 129 0
123 134 0
122 135 0
121 132 0
117 127 0
108 117 0
122 136 0
120 129 0
122 132 0
111 119 0
124 134 0
119 126 0
107 113 0
115 124 0
120 129 0
126 134 0
113 121 0
118 125 0
114 121 0
117 122 0
116 119 0
121 126 0
113 116 0
114 118 0
115 118 0
104 107 0
109 107 0
115 114 0
107 108 0
110 112 0
103 101 11
75 68 11
82 75 16
75 70 0
88 80 11
82 75 11
80 72 0
90 81 0
87 80 0
91 84 16
103 95 11
99 93 0
86 80 0
100 93 0
87 81 0
99 93 0
101 95 0
100 93 0
108 101 0
105 98 0
98 94 0
110 105 0
101 95 8
98 93 0
117 110 0
101 97 0
114 108 0
104 98 0
105 99 0
112 103 0
105 97 0
111 107 0
116 112 0
113 108 0
124 115 16
112 107 0
122 116 16
118 111 11
122 116 19
116 109 0
120 114 11
116 111 0
122 114 0
110 104 11
112 105 0
123 117 11
124 118 11
126 120 11
116 111 11
129 124 11
115 111 11
117 113 11
129 121 16
127 121 16
128 123 19
119 112 16
129 122 19
123 116 28
121 117 11
127 121 25
118 112 22
123 116 28
128 122 28
125 119 25
119 115 19
137 128 28
128 123 28
128 122 28
126 119 30
131 126 25
134 127 41
129 123 30
125 121 28
133 126 32
131 122 39
133 125 36
133 124 37
120 114 32
129 122 28
133 126 30
132 126 28
135 128 30
142 135 37
123 118 22
131 125 36
135 128 36
134 126 34
127 121 30
141 135 34
134 126 42
126 120 30
131 124 34
136 130 45
128 122 36
142 135 49
123 117 34
137 130 39
122 116 19
134 128 42
129 123 34
124 118 41
125 117 28
133 127 36
131 124 41
131 125 37
127 122 36
132 127 36
129 122 41
126 121 34
126 120 36
123 117 32
123 116 39
127 123 37
126 120 48
123 118 39
127 122 44
175 198 51
173 197 36
174 197 25
175 198 36
174 197 25
173 196 25
172 196 0
173 196 25
171 196 0
173 196 0
172 194 0
174 197 25
174 197 0
172 195 0
173 197 0
172 196 0
174 196 0
175 198 0
171 194 0
172 195 0
173 196 0
171 194 0
171 194 0
173 196 0
173 196 0
174 197 0
174 197 0
170 193 0
175 198 0
172 195 0
172 195 0
173 195 0
171 194 0
172 195 0
169 191 0
171 193 0
175 197 0
168 190 0
169 192 0
172 194 0
174 196 0
176 197 0
171 194 0
172 194 0
170 193 0
171 194 0
172 193 0
172 194 0
174 196 0
169 191 0
171 194 0
170 192 0
172 194 0
169 191 0
168 191 0
169 190 0
169 190 0
174 196 0
169 191 0
171 192 0
167 190 0
171 193 0
170 192 0
169 191 0
164 187 0
167 188 0
167 188 0
169 190 0
167 188 0
171 192 0
171 193 0
169 191 0
168 189 0
167 188 0
164 185 0
167 188 0
168 189 0
163 184 0
163 185 0
166 187 0
169 190 0
167 188 0
166 188 0
170 192 0
166 187 0
163 184 0
164 184 0
164 185 0
166 188 0
162 183 0
161 183 0
156 176 0
161 182 0
165 187 0
163 184 0
155 176 0
164 185 0
168 189 0
170 192 0
161 181 0
158 178 0
159 180 0
162 182 25
161 182 0
167 187 0
162 183 0
165 185 0
167 187 44
162 183 51
163 185 36
160 181 44
167 189 44
168 190 72
165 186 57
166 186 25
159 180 0
154 176 0
163 184 0
158 179 0
159 180 0
156 177 0
156 178 0
152 173 0
161 182 0
161 183 0
154 175 0
154 175 0
160 181 0
162 183 0
156 177 0
155 176 0
147 167 0
160 180 0
150 171 0
141 163 0
155 176 0
153 175 0
153 174 0
151 173 0
151 172 0
151 171 0
135 156 0
143 164 0
147 168 0
147 167 0
151 171 0
153 175 0
144 166 0
147 167 0
146 167 0
137 157 0
131 151 0
150 172 0
149 170 0
131 151 0
141 162 0
133 153 0
143 163 0
136 156 0
139 159 0
136 156 0
125 145 0
121 140 0
130 149 0
120 140 0
131 150 0
112 131 0
116 135 0
125 143 0
121 139 0
103 121 0
116 133 0
107 125 0
104 121 0
110 127 0
109 126 0
103 117 0
109 124 0
98 113 0
94 110 0
103 117 0
79 91 0
65 79 0
64 75 0
54 67 0
85 97 0
63 76 31
54 72 47
38 62 51
42 68 47
42 68 54
45 72 67
43 70 65
45 72 62
41 67 51
46 74 60
44 70 51
46 74 67
43 69 57
44 71 72
42 68 51
44 69 65
43 68 62
42 68 41
42 67 65
42 68 62
44 71 67
42 68 54
46 73 78
43 67 62
45 68 54
46 68 36
44 59 31
54 65 18
75 84 0
66 76 0
70 80 0
75 82 0
69 76 0
71 79 0
79 91 0
89 100 0
59 72 0
91 102 0
89 100 0
92 101 0
90 99 0
98 108 0
91 103 0
89 100 0
109 119 0
96 108 0
100 113 0
89 101 0
106 120 0
92 104 0
105 117 0
118 131 0
108 122 0
112 125 0
109 122 0
107 118 0
112 126 0
100 112 0
117 128 0
119 130 0
117 131 0
106 117 0
118 132 0
117 131 0
121 133 0
110 122 0
118 128 0
119 132 0
116 128 0
108 120 0
110 121 0
119 132 0
113 120 0
116 126 0
120 132 0
120 130 0
120 129 0
123 132 0
118 127 0
116 127 0
119 126 0
118 127 0
118 125 0
109 113 0
106 114 0
107 115 0
117 121 0
104 109 0
113 118 0
106 110 0
100 104 0
112 114 0
101 104 0
92 93 0
111 114 0
115 118 0
108 108 0
109 107 0
102 102 0
114 113 0
94 89 0
94 83 19
78 70 0
76 67 0
94 85 11
95 89 14
78 71 0
93 84 0
89 81 0
93 88 0
100 92 0
95 88 0
94 87 0
110 101 0
111 104 0
102 94 0
98 92 0
100 93 0
104 97 0
101 94 0
105 98 0
101 93 0
106 99 0
112 105 0
111 105 0
94 89 0
103 98 0
108 102 0
114 106 0
112 105 0
103 97 0
115 107 0
118 110 0
110 102 0
113 105 0
110 104 0
121 116 0
113 107 11
114 109 0
118 111 11
125 118 0
123 118 11
127 121 16
114 108 0
113 108 0
120 115 16
128 121 19
120 114 11
112 106 11
128 121 19
121 115 16
116 109 16
133 127 28
129 122 25
125 119 28
123 116 19
120 115 22
123 117 22
131 124 25
124 117 19
124 119 30
125 119 11
127 119 16
122 115 19
128 121 16
124 118 28
131 122 37
125 118 16
136 130 30
135 128 28
126 119 19
130 122 32
132 125 34
134 128 36
123 118 28
126 120 25
127 120 37
129 122 19
122 117 28
130 122 28
128 123 25
131 123 37
128 122 30
132 124 37
119 113 25
126 120 25
129 122 37
134 127 34
135 129 44
126 120 34
119 114 22
119 115 30
136 130 42
124 118 32
124 118 34
133 125 36
121 115 34
128 122 36
129 123 30
127 120 22
135 128 44
136 129 45
125 119 39
138 130 48
134 127 48
135 129 39
120 115 30
122 116 42
132 126 42
118 113 32
122 116 34
131 124 42
116 111 28
121 114 34
176 199 51
173 196 36
175 198 44
178 201 62
174 197 36
175 198 36
172 196 0
173 196 0
171 195 0
173 196 0
171 194 0
172 195 0
174 197 25
174 197 0
172 195 36
169 193 0
174 197 0
175 198 0
173 196 0
173 196 0
170 193 0
173 195 0
172 195 25
169 192 0
171 193 0
172 195 0
171 193 0
172 194 0
174 196 0
174 196 0
169 190 0
174 196 0
170 193 0
172 194 0
170 193 0
173 195 0
171 194 0
172 194 0
170 192 0
173 195 0
171 194 0
172 194 0
171 194 0
170 192 0
168 190 0
173 196 0
174 197 0
171 192 0
171 193 0
173 194 0
170 192 0
175 196 0
170 191 0
167 189 0
171 192 0
174 196 0
167 189 0
169 190 0
168 190 0
168 189 0
172 194 0
168 188 0
172 193 0
165 187 0
169 192 0
166 189 0
168 189 0
166 187 0
165 186 0
162 183 0
164 186 0
173 194 0
164 186 0
170 191 0
165 187 0
174 195 0
167 188 0
167 188 0
167 189 0
161 183 0
169 190 0
164 185 0
164 186 0
166 188 0
158 179 0
164 185 0
165 186 0
162 183 0
163 184 0
164 185 0
160 180 0
163 184 0
160 182 0
165 185 0
165 185 0
163 183 0
167 188 36
165 186 0
161 183 25
161 182 0
157 179 0
165 186 0
166 187 0
163 184 0
161 181 36
168 188 44
169 190 51
160 181 51
167 188 36
158 180 0
167 187 67
160 181 51
161 181 0
163 184 0
165 186 0
165 186 0
163 184 0
156 177 0
159 180 0
155 175 0
156 177 0
162 183 0
156 176 0
158 180 0
154 175 0
156 178 0
156 176 0
161 182 0
153 174 0
158 178 0
159 180 0
155 177 0
149 170 0
151 172 0
146 167 0
147 168 0
158 178 0
148 170 0
147 168 0
154 176 0
152 173 0
140 161 0
148 169 0
138 160 0
151 173 0
151 172 0
144 165 0
144 164 0
145 166 0
148 170 0
144 165 0
122 142 0
144 165 0
146 167 0
142 162 0
140 161 0
138 158 0
138 159 0
137 156 0
127 146 0
118 138 0
125 144 0
128 149 0
115 134 0
133 153 0
120 139 0
119 136 0
122 140 0
113 132 0
128 146 0
111 129 0
115 132 0
118 136 0
124 142 0
103 118 0
88 104 0
95 112 0
110 126 0
93 108 0
94 109 0
91 107 0
83 98 0
88 102 0
77 91 0
83 94 0
78 90 0
69 81 0
74 85 0
75 87 0
53 67 0
67 80 18
65 78 25
44 59 44
40 61 31
40 63 40
42 67 65
41 66 47
41 66 40
41 66 47
40 64 47
41 65 57
41 66 44
39 64 60
38 61 47
42 63 54
49 67 47
38 57 40
54 69 25
58 71 40
41 54 18
61 67 0
71 79 0
52 61 0
55 66 0
53 61 0
82 92 0
69 76 0
72 82 0
65 73 0
71 83 0
66 77 0
83 96 0
96 108 0
89 101 0
91 102 0
88 99 0
96 108 0
74 86 0
106 120 0
94 105 0
104 118 0
95 107 0
92 103 0
99 109 0
98 111 0
110 122 0
109 122 0
102 115 0
113 124 0
108 120 0
116 129 0
105 117 0
107 120 0
110 120 0
114 128 0
105 116 0
114 129 0
112 124 0
117 128 0
119 130 0
104 115 0
113 123 0
109 120 0
120 132 0
123 134 0
113 124 0
122 135 0
122 130 0
110 120 0
118 129 0
127 137 0
126 136 0
113 122 0
123 130 0
123 133 0
117 126 0
114 121 0
120 128 0
116 123 0
109 113 0
116 124 0
123 131 0
111 116 0
120 125 0
116 122 0
118 123 0
105 107 0
101 104 0
112 115 0
102 103 0
101 101 0
106 109 0
117 117 0
112 114 0
101 98 0
104 102 0
100 99 0
101 98 0
90 86 11
77 72 11
64 58 0
89 80 11
93 85 11
75 69 0
78 72 0
91 84 0
87 80 11
95 87 0
81 74 0
92 86 0
96 86 0
90 82 0
102 94 0
104 99 0
95 89 0
103 96 0
107 100 0
96 90 0
104 98 0
107 101 0
102 93 0
110 104 0
107 99 0
100 92 0
106 97 0
103 96 0
109 101 0
98 91 0
110 103 11
114 108 0
105 98 0
121 114 0
118 111 0
111 104 0
110 103 0
118 112 11
111 104 0
116 111 11
110 105 0
113 107 0
120 114 11
125 116 19
104 98 0
130 124 19
125 117 0
126 119 22
119 112 0
115 109 16
123 117 22
126 120 19
124 117 16
124 119 19
124 117 28
125 119 22
127 120 19
125 118 25
120 114 11
129 120 22
130 123 30
118 111 22
116 110 11
129 122 28
127 120 34
129 122 25
130 124 19
126 120 22
129 125 22
117 110 11
125 118 32
124 118 22
128 121 30
120 114 25
126 120 19
126 121 36
131 124 32
120 114 30
128 122 32
124 118 30
126 120 30
125 120 36
128 121 36
131 124 39
136 128 39
132 126 34
130 124 39
127 121 19
124 117 25
128 122 36
132 124 32
121 115 34
132 126 30
123 116 36
122 116 32
128 123 36
132 125 48
124 118 34
128 122 37
128 123 30
128 120 41
124 117 42
136 130 30
123 117 34
122 117 32
126 120 39
125 119 39
131 125 41
129 122 42
126 119 41
126 119 41
137 130 49
176 199 36
172 195 51
174 196 36
177 200 62
174 197 25
176 199 44
175 198 44
174 197 44
173 196 0
175 198 0
173 197 0
173 196 0
172 196 0
173 196 0
171 194 0
175 197 0
175 197 0
174 197 0
174 197 0
174 196 0
173 195 0
173 195 0
174 197 0
170 193 25
173 196 0
171 194 0
171 194 0
175 197 0
170 193 0
171 194 0
172 195 0
172 195 0
174 197 0
173 195 0
173 196 0
173 195 0
172 194 0
172 195 0
173 195 0
173 195 0
171 193 0
172 195 0
173 195 0
171 193 0
172 194 0
172 195 0
175 196 0
170 193 0
172 193 0
172 193 0
173 195 0
167 189 0
171 192 0
173 194 0
169 191 0
170 192 0
171 192 0
172 193 0
171 192 0
169 190 0
170 192 0
171 192 0
170 191 0
168 189 0
172 193 0
165 186 0
162 184 0
169 191 0
165 186 0
171 192 0
171 192 0
167 189 0
168 189 0
169 191 0
166 187 0
163 184 0
168 190 0
167 188 0
165 187 0
162 184 0
168 189 0
158 180 0
158 179 0
166 186 0
160 182 0
163 185 0
165 186 0
168 189 0
164 185 0
161 181 0
158 180 0
162 182 0
162 182 25
157 178 0
163 183 0
160 181 0
164 185 0
160 179 0
159 179 0
159 180 0
160 181 0
164 185 0
165 186 0
158 179 36
160 180 57
167 189 44
164 184 44
166 186 36
169 190 84
168 188 84
159 180 0
159 179 0
162 182 0
164 185 0
158 179 0
163 184 0
159 181 0
158 179 0
157 178 0
159 179 0
149 170 0
155 176 0
157 177 0
157 178 0
159 180 0
155 176 0
156 175 0
153 174 0
161 182 0
145 167 0
151 171 0
157 178 0
150 172 0
153 174 0
154 175 0
157 179 0
158 178 0
148 168 0
147 168 0
152 174 0
157 179 0
156 176 0
155 176 0
143 164 0
136 158 0
143 165 0
144 166 0
140 161 0
142 163 0
133 154 0
149 171 0
141 162 0
134 155 0
142 163 0
134 154 0
136 157 0
134 155 0
127 147 0
137 156 0
129 149 0
130 150 0
117 136 0
129 148 0
125 145 0
127 146 0
123 143 0
113 133 0
119 137 0
119 138 0
118 137 0
104 122 0
121 139 0
107 124 0
105 122 0
117 133 0
95 112 0
99 115 0
97 112 0
107 122 0
101 116 0
94 108 0
87 102 0
82 96 0
90 104 0
66 78 0
85 98 0
71 83 0
74 85 0
83 94 0
86 99 0
58 69 0
67 77 0
46 57 0
63 72 0
56 65 0
56 65 0
56 66 0
56 64 0
42 52 0
52 61 18
64 72 0
65 73 0
52 59 0
53 62 0
54 63 0
57 65 0
67 76 0
48 58 0
51 59 0
69 78 0
54 62 0
63 73 0
72 83 0
76 87 0
76 86 0
73 83 0
67 78 0
84 94 0
71 82 0
79 89 0
93 104 0
73 86 0
85 98 0
92 103 0
81 90 0
93 104 0
82 94 0
86 98 0
104 117 0
100 110 0
102 115 0
97 111 0
96 108 0
91 102 0
92 104 0
110 122 0
102 115 0
117 131 0
101 109 0
110 121 0
111 124 0
115 128 0
113 123 0
110 123 0
100 113 0
116 130 0
116 131 0
116 130 0
118 130 0
116 128 0
103 115 0
117 128 0
121 133 0
125 137 0
122 134 0
122 134 0
120 132 0
115 128 0
112 125 0
96 104 0
122 133 0
112 124 0
118 126 0
127 138 0
113 122 0
113 124 0
116 123 0
104 110 0
114 122 0
119 126 0
118 122 0
119 127 0
114 122 0
114 119 0
116 120 0
111 116 0
115 119 0
113 116 0
106 109 0
111 117 0
112 117 0
112 115 0
103 103 0
95 96 0
104 109 0
109 110 0
108 105 0
104 102 0
96 92 0
87 85 0
97 93 11
75 66 0
76 68 11
78 71 11
89 80 0
87 79 0
100 89 0
85 78 0
88 78 0
88 81 0
90 83 0
97 88 0
92 85 0
89 80 0
88 81 0
103 95 0
99 91 0
97 88 0
100 95 0
96 91 0
105 99 0
96 88 0
104 98 0
108 98 0
116 109 0
112 105 0
106 99 0
109 102 0
107 101 0
109 101 0
110 105 0
105 97 11
111 105 11
116 108 0
114 107 11
115 109 0
108 101 0
110 104 0
115 108 11
106 99 11
115 108 0
117 110 11
115 109 11
120 114 0
121 115 19
113 106 11
116 109 16
121 114 19
114 106 16
109 103 19
120 114 19
115 109 11
117 112 22
117 109 19
118 113 11
132 126 16
119 114 0
123 118 11
135 127 32
123 116 28
121 115 25
118 111 22
118 112 16
125 118 16
129 123 16
132 125 30
124 119 25
124 118 25
129 123 22
120 114 25
128 120 28
115 110 11
134 127 25
126 119 30
127 121 28
131 125 32
124 118 25
133 127 39
123 117 28
125 119 25
123 118 19
108 103 25
132 125 42
121 116 30
122 116 28
121 114 32
111 107 16
137 129 41
134 127 34
127 122 39
127 123 32
128 121 28
129 124 36
122 113 36
128 120 42
121 115 25
128 123 41
125 119 34
127 121 41
125 118 30
132 126 37
131 126 41
126 120 36
120 114 36
118 112 39
120 113 39
114 108 34
125 119 41
123 116 45
131 124 39
174 197 25
174 197 25
175 198 36
174 197 25
175 198 36
175 198 51
172 196 36
172 196 36
172 195 0
175 197 44
173 196 51
169 193 25
173 196 25
170 193 0
172 195 0
173 196 25
171 194 0
172 195 0
172 195 0
173 196 0
174 196 25
171 194 0
171 194 25
175 197 0
171 194 0
174 196 0
172 194 25
170 193 0
173 196 0
175 197 0
174 197 25
171 194 0
173 196 0
171 193 0
170 193 0
173 194 0
171 194 0
172 194 0
172 194 0
175 197 0
176 197 0
175 196 0
173 195 0
172 194 0
171 193 0
172 194 0
171 193 0
169 191 0
169 191 0
172 194 0
172 194 25
170 191 0
171 193 0
172 194 0
172 193 0
173 194 0
169 189 0
169 191 0
173 195 0
169 190 0
170 191 0
167 188 0
166 187 0
171 193 0
169 190 0
168 189 0
168 189 0
169 190 0
173 194 0
167 187 0
172 193 0
168 189 0
164 185 0
167 189 0
171 192 0
168 188 0
168 189 0
167 188 0
166 188 0
167 188 0
167 187 0
167 188 0
171 193 0
162 182 0
165 187 0
165 186 0
167 188 0
171 192 0
171 192 25
164 185 0
160 181 25
164 185 0
164 185 0
161 182 0
167 187 0
158 178 0
167 187 0
167 187 0
161 182 0
161 181 25
164 185 36
163 185 36
168 189 62
168 188 25
165 186 44
167 189 51
175 195 88
167 186 76
167 187 0
163 184 0
157 178 0
160 180 0
160 182 0
160 181 0
155 177 0
157 178 0
157 178 0
158 179 0
157 178 0
160 182 0
154 176 0
155 176 0
156 177 0
157 178 0
157 178 0
154 175 0
155 177 0
154 174 0
149 170 0
144 165 0
152 172 0
153 174 0
150 171 0
155 177 0
148 169 0
148 170 0
144 165 0
154 175 0
151 174 0
141 162 0
150 172 0
147 168 0
150 171 0
146 167 0
146 168 0
140 161 0
131 152 0
144 164 0
142 163 0
148 170 0
132 152 0
133 153 0
142 164 0
142 162 0
134 155 0
130 150 0
140 161 0
142 162 0
137 157 0
133 152 0
134 154 0
135 155 0
135 156 0
117 136 0
127 146 0
132 151 0
112 132 0
116 134 0
117 136 0
114 132 0
109 125 0
112 129 0
115 133 0
107 123 0
104 121 0
116 133 0
87 104 0
100 117 0
98 114 0
100 115 0
98 112 0
87 102 0
89 104 0
93 106 0
95 108 0
86 99 0
73 85 0
80 92 0
76 90 0
50 61 0
73 84 0
70 81 0
70 82 0
84 97 0
65 75 0
62 72 0
58 70 0
68 78 0
60 69 0
56 64 0
50 60 0
64 74 0
65 77 0
47 56 0
59 70 0
71 82 0
62 72 0
58 67 0
59 71 0
63 72 0
71 83 0
65 76 0
71 81 0
75 86 0
74 84 0
74 85 0
81 93 0
85 97 0
70 82 0
74 86 0
82 94 0
78 89 0
83 94 0
81 93 0
97 110 0
102 115 0
100 111 0
94 105 0
106 119 0
91 103 0
99 112 0
101 113 0
106 116 0
96 109 0
114 125 0
99 111 0
102 115 0
118 131 0
113 125 0
106 120 0
109 121 0
109 122 0
108 120 0
93 108 0
110 122 0
108 119 0
119 133 0
119 131 0
112 123 0
116 126 0
118 130 0
106 114 0
117 128 0
111 125 0
121 131 0
127 141 0
118 127 0
118 131 0
112 125 0
114 126 0
116 126 0
112 122 0
128 142 0
122 134 0
103 110 0
113 121 0
114 122 0
111 118 0
114 121 0
122 127 0
116 122 0
124 132 0
115 120 0
121 125 0
120 126 0
117 123 0
107 109 0
115 119 0
111 114 0
99 104 0
112 118 0
104 106 0
111 114 0
107 107 0
104 101 0
94 91 0
102 100 0
91 90 0
89 86 0
105 104 0
89 86 0
85 78 0
76 70 11
67 60 0
75 69 11
82 73 11
72 65 0
90 81 0
73 69 0
76 68 0
95 85 0
92 83 8
84 77 0
96 88 0
96 88 0
95 87 0
98 89 0
108 98 0
98 91 0
98 91 0
105 97 0
106 99 0
101 93 0
108 99 0
99 90 0
106 98 0
106 99 0
107 100 0
100 94 0
102 95 0
111 102 11
115 109 0
120 112 0
115 107 11
108 99 0
113 105 0
113 104 0
110 104 11
112 105 11
109 101 16
110 101 11
120 112 0
119 114 16
115 109 0
122 116 0
113 107 16
113 104 16
123 116 0
116 109 11
114 109 22
113 106 16
120 114 19
119 113 19
122 115 19
121 114 19
120 114 19
130 124 25
120 113 25
127 120 16
122 115 16
124 118 16
125 120 25
124 118 25
121 114 11
119 112 16
122 115 19
130 125 30
118 111 34
126 120 32
129 122 28
119 113 30
120 113 36
135 127 30
131 123 32
119 114 19
124 117 22
128 120 28
128 121 30
131 125 25
127 120 30
118 113 19
140 133 37
128 121 36
127 121 30
118 113 30
124 118 28
117 110 37
128 120 32
119 113 28
125 117 41
118 111 30
127 122 28
127 119 28
122 117 39
122 115 28
119 112 28
126 120 34
120 113 34
131 125 37
134 127 41
129 122 45
122 116 34
124 118 39
122 118 32
126 122 39
115 109 28
131 123 37
121 114 44
125 118 37
128 122 34
175 198 36
174 198 36
174 197 25
174 197 44
176 198 51
175 197 25
177 200 57
171 194 51
171 195 44
175 198 25
175 198 62
176 199 25
174 197 44
171 194 25
173 196 36
173 196 0
174 197 25
174 197 0
174 196 0
173 197 0
173 196 0
172 194 0
171 194 0
172 195 25
172 195 0
172 194 0
170 193 0
172 195 0
171 194 0
175 198 0
168 190 0
173 196 0
173 196 0
173 195 0
174 196 25
174 197 0
170 192 0
169 192 0
174 196 0
173 195 0
170 193 0
172 195 0
172 194 0
172 194 0
171 193 0
169 192 0
176 197 0
172 194 0
169 191 0
174 196 0
171 193 0
174 196 25
170 192 0
172 194 0
169 191 0
170 190 0
173 194 0
170 191 0
171 193 0
174 195 0
169 190 0
167 188 0
170 191 0
166 189 0
171 192 0
172 192 0
168 189 0
168 188 0
169 191 0
169 191 0
167 189 0
165 187 0
173 194 0
170 190 0
169 190 0
164 185 0
169 190 0
169 191 0
166 187 0
169 189 0
165 186 36
167 189 0
167 188 0
162 183 0
163 185 0
168 187 0
166 186 0
168 189 0
170 191 0
162 183 0
164 186 0
159 180 0
164 185 0
163 184 0
166 187 0
163 184 0
163 184 0
162 182 51
168 189 51
164 184 57
167 187 44
163 183 51
160 181 36
164 184 57
169 190 67
172 192 88
164 185 0
167 187 0
166 187 0
155 175 0
159 180 0
159 180 0
158 180 0
167 188 0
153 174 0
160 180 0
155 176 0
151 173 0
157 178 0
145 166 0
157 179 0
155 176 0
164 184 0
152 172 0
144 165 0
156 178 0
158 179 0
156 176 0
155 176 0
154 175 0
154 175 0
155 176 0
151 173 0
144 165 0
147 168 0
151 172 0
153 173 0
146 167 0
156 177 0
153 173 0
143 164 0
146 167 0
141 162 0
143 163 0
145 165 0
151 172 0
141 161 0
140 161 0
138 159 0
133 155 0
147 168 0
146 168 0
147 167 0
138 158 0
136 157 0
134 154 0
126 148 0
126 147 0
136 156 0
128 149 0
135 155 0
123 143 0
136 156 0
129 148 0
121 140 0
115 134 0
125 144 0
120 139 0
118 135 0
116 135 0
117 136 0
123 142 0
116 134 0
95 114 0
100 119 0
107 125 0
104 121 0
110 126 0
107 124 0
97 113 0
95 111 0
83 99 0
86 101 0
86 101 0
97 111 0
99 114 0
88 102 0
78 92 0
83 97 0
86 99 0
73 85 0
74 86 0
75 87 0
64 76 0
74 86 0
63 74 0
81 92 0
56 68 0
51 62 0
68 79 0
67 77 0
67 77 0
70 82 0
68 80 0
70 80 0
65 77 0
72 84 0
56 69 0
65 76 0
80 91 0
70 82 0
82 94 0
77 88 0
73 84 0
91 100 0
80 92 0
79 91 0
93 104 0
82 95 0
93 106 0
75 87 0
93 107 0
92 103 0
103 116 0
99 113 0
90 102 0
87 98 0
99 112 0
96 110 0
96 108 0
105 118 0
113 126 0
113 126 0
98 109 0
97 107 0
107 121 0
108 121 0
113 125 0
101 115 0
114 127 0
122 135 0
125 138 0
104 114 0
117 130 0
114 126 0
115 129 0
101 114 0
125 140 0
119 132 0
124 139 0
118 131 0
113 126 0
114 126 0
110 122 0
122 132 0
107 117 0
123 136 0
118 132 0
120 131 0
130 144 0
125 133 0
128 140 0
130 142 0
122 131 0
112 121 0
121 129 0
105 112 0
111 118 0
120 129 0
116 125 0
107 114 0
114 123 0
105 110 0
107 111 0
107 112 0
102 107 0
118 122 0
117 123 0
103 106 0
113 117 0
113 116 0
106 106 0
112 114 0
100 100 0
102 100 0
104 104 0
106 107 0
92 93 0
93 93 0
93 93 0
84 81 0
93 91 0
80 72 0
95 94 0
91 86 0
68 60 0
72 64 11
83 73 0
85 76 0
86 78 11
96 86 0
84 76 0
97 88 0
90 84 0
88 80 0
96 86 0
85 77 0
89 80 0
87 82 0
95 87 0
114 105 0
95 87 0
107 99 0
92 86 0
104 95 0
112 104 0
98 93 0
103 95 0
90 85 0
109 101 0
96 88 0
101 95 0
106 97 0
112 104 0
105 98 11
119 112 16
113 103 0
114 106 16
99 95 22
114 108 11
112 105 0
123 116 0
110 103 0
107 101 0
104 98 16
113 103 16
115 109 0
110 106 0
125 119 0
119 112 0
122 116 11
118 111 16
119 113 19
121 113 16
117 109 11
129 122 16
117 111 16
114 108 0
123 115 16
112 108 11
124 116 22
119 113 22
125 118 22
126 120 22
128 121 30
117 110 19
122 115 22
113 108 11
121 115 30
126 118 28
122 115 22
129 123 32
120 114 34
116 110 19
119 113 16
124 117 28
127 119 22
115 107 28
127 120 39
125 118 37
126 120 32
118 111 25
120 113 28
125 119 34
123 116 25
120 112 22
120 112 28
127 119 30
115 111 25
118 111 22
123 115 28
125 117 34
123 115 37
128 121 41
126 120 28
126 119 34
115 107 30
133 126 42
124 118 34
120 114 34
133 127 41
124 119 36
117 111 36
115 109 28
123 116 39
118 112 41
118 113 34
114 109 36
113 107 39
99 95 25
180 203 92
175 198 44
175 198 36
172 195 57
174 197 44
178 200 62
176 198 36
175 198 51
175 198 51
174 197 36
177 200 62
175 198 62
175 198 36
176 199 72
174 197 36
173 196 44
176 198 36
172 195 25
173 196 0
171 194 0
172 195 0
174 195 0
171 193 0
173 195 0
173 195 0
171 194 0
174 196 0
171 194 0
173 195 0
171 193 0
172 195 0
171 193 0
173 196 0
173 195 0
169 192 0
173 196 0
172 195 0
171 193 25
170 192 0
170 191 0
172 194 0
170 193 0
172 193 25
173 195 0
171 193 0
171 193 0
173 195 0
170 191 0
173 195 0
171 193 0
172 194 0
173 194 0
171 193 0
170 191 0
175 196 0
170 192 0
167 188 0
168 189 0
173 193 0
167 188 0
173 194 0
173 194 0
171 192 0
170 191 0
167 188 0
173 195 0
168 190 0
171 193 0
167 187 0
167 189 0
169 190 0
167 189 0
169 191 0
172 194 0
169 190 0
170 190 0
170 191 0
166 187 0
167 189 0
168 189 0
171 193 0
161 182 0
171 192 25
164 185 25
166 187 0
165 185 0
159 180 0
162 183 0
168 188 0
168 188 0
166 187 0
164 184 0
170 191 0
168 189 25
165 186 36
168 189 44
165 188 25
166 186 25
170 190 67
166 186 57
164 186 36
165 186 62
168 189 80
167 189 36
162 183 0
165 186 0
162 184 0
167 187 0
165 186 0
159 179 0
161 182 0
158 179 0
156 177 0
158 178 0
160 180 0
159 180 0
151 172 0
153 173 0
157 178 0
150 172 0
158 179 0
148 170 0
159 180 0
164 186 0
151 171 0
158 178 0
149 171 0
157 178 0
151 172 0
149 171 0
154 175 0
155 176 0
140 161 0
152 173 0
152 172 0
134 156 0
149 171 0
151 172 0
148 170 0
153 175 0
143 164 0
148 169 0
145 167 0
145 167 0
147 169 0
144 164 0
140 162 0
141 163 0
148 169 0
138 159 0
146 167 0
143 165 0
141 161 0
135 155 0
131 152 0
133 154 0
135 155 0
132 153 0
131 152 0
141 161 0
138 158 0
126 145 0
121 141 0
119 139 0
112 130 0
128 148 0
124 142 0
116 134 0
123 141 0
119 137 0
116 134 0
109 126 0
111 129 0
118 136 0
118 135 0
113 130 0
105 122 0
103 119 0
98 115 0
95 111 0
97 113 0
100 116 0
109 125 0
91 106 0
90 105 0
86 100 0
91 106 0
87 102 0
84 98 0
94 109 0
76 90 0
75 88 0
82 95 0
83 95 0
73 86 0
78 92 0
74 87 0
66 77 0
66 76 0
77 89 0
80 93 0
66 79 0
77 90 0
84 95 0
73 85 0
84 97 0
77 89 0
67 79 0
78 91 0
77 91 0
86 97 0
93 105 0
70 82 0
80 90 0
82 96 0
95 108 0
76 89 0
93 107 0
96 110 0
80 92 0
81 95 0
103 114 0
95 106 0
92 106 0
94 107 0
88 100 0
105 119 0
104 117 0
88 102 0
103 115 0
94 107 0
103 118 0
108 120 0
113 124 0
104 116 0
107 119 0
113 127 0
123 137 0
104 117 0
108 121 0
111 124 0
121 134 0
113 126 0
114 129 0
104 116 0
122 135 0
110 122 0
120 134 0
118 131 0
114 126 0
121 135 0
118 131 0
119 133 0
108 122 0
123 135 0
115 128 0
108 120 0
122 134 0
112 126 0
111 123 0
117 127 0
114 124 0
109 119 0
114 124 0
125 137 0
113 121 0
125 135 0
124 133 0
119 125 0
115 121 0
114 119 0
115 124 0
115 122 0
111 117 0
106 114 0
111 114 0
109 115 0
122 127 0
118 122 0
115 117 0
109 111 0
123 127 0
101 103 0
103 103 0
110 110 0
114 115 0
104 107 0
93 92 0
93 95 0
112 111 0
95 93 0
89 87 0
83 78 0
85 82 0
79 74 0
92 89 0
90 85 0
67 60 0
68 59 11
82 74 0
87 79 0
76 68 0
91 81 0
83 75 0
89 78 0
101 86 0
96 86 0
105 95 0
100 93 0
98 90 0
96 88 0
91 84 0
95 88 0
93 85 0
102 94 0
103 93 0
105 97 0
108 99 0
101 93 0
104 97 0
101 93 0
116 108 0
113 106 0
103 94 0
108 100 0
109 99 0
120 113 0
114 106 0
101 94 0
111 103 11
118 109 11
112 106 16
117 109 0
123 116 0
113 107 11
110 103 0
122 112 19
119 112 16
112 105 16
121 113 11
124 115 22
121 114 19
111 106 16
122 113 16
118 110 11
108 101 11
118 110 22
122 115 19
123 116 22
126 120 19
120 114 19
114 107 25
115 108 11
127 120 19
120 114 19
129 123 19
117 112 16
118 112 22
126 118 30
126 118 22
128 119 39
126 120 28
120 112 22
126 120 30
121 115 32
117 111 19
125 118 34
114 108 28
122 116 22
123 116 19
128 121 25
117 111 28
125 120 30
126 120 28
127 119 32
124 117 30
124 118 19
117 112 28
127 121 22
124 117 32
114 107 22
123 116 19
127 120 28
122 116 34
122 115 36
121 115 36
124 117 34
112 106 22
127 121 41
118 111 36
119 112 28
117 110 32
115 108 32
120 114 42
122 116 22
111 104 36
122 115 30
127 120 44
120 113 39
124 116 37
184 206 114
192 211 153
184 205 114
178 199 51
175 198 44
174 197 44
175 197 44
176 199 51
175 198 51
177 200 51
176 199 51
172 194 36
173 196 36
173 196 25
175 198 51
177 200 62
174 197 36
178 200 67
174 196 36
173 195 36
174 197 44
171 194 0
174 195 0
174 196 0
170 192 0
171 194 0
173 196 0
173 195 0
171 193 25
168 191 0
174 197 0
175 197 0
173 195 0
169 191 0
170 191 0
175 197 25
172 193 0
173 196 0
172 194 0
173 194 0
168 191 0
171 192 0
177 198 25
170 192 0
172 194 0
174 196 0
176 197 25
169 190 25
169 190 0
174 195 25
178 198 0
172 194 0
169 191 0
172 194 0
170 191 0
173 194 0
171 192 0
175 196 0
173 194 0
174 195 0
169 191 0
170 193 0
172 193 0
172 194 25
168 189 0
170 190 0
167 188 0
170 191 0
173 194 0
168 190 0
164 185 0
169 190 0
167 188 0
172 193 0
165 185 0
169 190 0
173 194 0
165 187 0
169 190 0
166 186 0
167 188 0
167 189 0
166 188 0
166 187 0
163 185 0
165 185 0
165 186 0
164 185 0
165 186 0
164 187 25
170 190 44
170 191 51
168 190 25
168 188 51
167 189 44
160 180 44
161 181 36
167 187 36
164 184 51
164 186 44
165 185 51
158 179 25
167 187 0
158 179 0
166 186 0
160 181 0
156 178 0
158 180 0
157 179 0
160 180 0
155 176 0
158 178 0
164 186 0
157 178 0
159 180 0
162 182 0
157 177 0
152 173 0
152 173 0
156 177 0
157 179 0
155 177 0
154 175 0
150 173 0
156 177 0
149 170 0
148 169 0
149 170 0
152 173 0
154 176 0
152 173 0
149 170 0
148 169 0
157 178 0
145 167 0
155 177 0
150 172 0
145 165 0
145 167 0
147 168 0
143 165 0
148 170 0
148 170 0
145 166 0
147 169 0
141 163 0
145 167 0
143 164 0
129 150 0
138 159 0
141 162 0
135 157 0
139 161 0
142 163 0
143 164 0
138 159 0
130 150 0
130 151 0
133 152 0
144 164 0
135 155 0
141 161 0
139 159 0
129 149 0
119 139 0
131 150 0
114 134 0
114 133 0
127 145 0
127 145 0
121 140 0
111 130 0
112 129 0
118 138 0
99 116 0
105 123 0
117 136 0
97 113 0
105 122 0
113 131 0
105 121 0
84 101 0
103 121 0
101 117 0
82 99 0
105 121 0
85 100 0
100 115 0
96 111 0
101 116 0
86 100 0
84 98 0
77 89 0
88 102 0
69 83 0
80 94 0
66 77 0
85 99 0
93 108 0
87 99 0
81 93 0
88 100 0
86 100 0
107 121 0
78 90 0
91 103 0
82 95 0
74 86 0
86 99 0
75 87 0
91 103 0
77 90 0
90 103 0
85 98 0
95 108 0
101 114 0
78 90 0
96 110 0
83 96 0
98 113 0
78 91 0
94 106 0
96 108 0
88 99 0
96 109 0
94 107 0
105 116 0
105 119 0
98 113 0
105 118 0
106 119 0
88 101 0
115 128 0
116 127 0
102 116 0
116 130 0
114 127 0
113 126 0
103 116 0
112 125 0
112 127 0
112 127 0
119 132 0
116 129 0
113 127 0
107 121 0
111 123 0
95 107 0
120 135 0
106 117 0
117 130 0
118 128 0
110 122 0
121 134 0
112 122 0
125 138 0
117 128 0
118 128 0
123 136 0
132 146 0
114 124 0
131 141 0
126 136 0
126 138 0
121 134 0
115 127 0
112 122 0
114 122 0
112 120 0
110 117 0
128 139 0
113 115 0
118 127 0
109 116 0
123 130 0
99 104 0
106 111 0
113 119 0
116 119 0
113 116 0
107 111 0
104 107 0
120 122 0
100 104 0
113 118 0
104 105 0
96 96 0
107 105 0
96 99 0
109 108 0
102 100 0
98 98 0
88 87 0
91 87 0
91 88 0
82 80 0
92 88 0
81 76 0
86 84 0
83 78 0
86 77 0
73 64 0
76 68 0
83 73 0
86 75 0
87 78 0
95 87 0
92 84 0
94 86 0
98 89 0
93 83 0
96 86 0
105 95 0
90 80 0
91 83 0
100 93 0
96 89 0
103 94 0
98 90 0
96 89 0
104 95 0
100 93 0
104 95 0
105 95 11
113 103 0
109 100 0
109 102 0
98 90 0
109 100 0
116 106 0
112 104 11
103 95 11
111 105 19
114 105 0
110 104 0
106 100 0
114 106 11
113 107 11
118 111 11
107 98 0
119 112 16
121 114 16
113 107 11
115 107 11
108 102 11
112 105 19
121 114 16
113 105 16
120 113 19
121 113 16
112 107 0
107 98 16
119 112 22
117 111 22
117 108 11
122 116 19
111 105 22
123 117 22
128 121 28
113 107 19
118 112 22
122 116 28
116 109 11
114 108 16
119 113 22
120 115 25
118 112 32
120 114 25
116 108 22
121 115 30
111 105 22
125 119 32
123 117 30
124 117 25
126 119 28
123 117 25
128 122 28
123 117 30
123 117 25
112 106 25
120 113 30
120 113 32
127 119 37
119 111 22
118 110 39
113 106 32
122 116 34
120 113 32
115 110 28
114 108 32
124 118 41
123 116 39
125 118 39
116 110 32
118 111 44
112 104 30
113 107 42
120 114 39
117 111 30
120 119 34
172 196 0
174 197 25
177 199 92
185 206 127
187 207 130
180 201 88
172 196 36
176 199 51
175 198 57
175 197 51
173 197 44
171 194 25
175 198 51
174 196 51
175 198 51
174 198 36
173 196 57
175 198 51
173 195 51
175 197 51
172 194 36
175 197 36
176 198 36
173 196 0
171 194 0
173 196 0
174 197 0
172 194 0
170 193 0
173 195 0
174 196 0
171 192 0
175 197 0
175 197 0
167 190 0
174 196 0
172 194 0
175 197 0
171 193 0
170 191 0
174 196 0
169 191 0
173 195 0
173 195 0
173 195 25
170 192 0
172 194 0
174 196 0
170 192 0
168 190 0
173 195 0
172 194 0
172 195 0
171 192 0
169 192 0
165 187 0
169 189 0
171 192 0
171 193 0
173 194 0
174 195 0
172 193 0
171 192 0
169 190 0
167 188 0
177 198 25
168 189 0
173 194 0
172 193 25
168 189 0
170 191 0
169 191 0
170 191 0
166 187 0
172 192 0
162 183 0
172 193 0
166 187 0
166 187 0
163 184 0
173 193 0
170 189 0
168 188 0
163 184 0
165 186 0
166 187 0
165 185 0
170 190 36
168 189 44
170 190 62
166 187 44
164 185 62
167 188 36
169 190 51
161 183 25
157 179 0
170 190 80
170 189 57
168 188 51
166 187 0
163 184 0
162 184 0
164 185 0
162 183 0
153 174 0
161 182 0
158 178 0
158 179 0
156 178 0
161 181 0
150 172 0
159 181 0
157 178 0
153 175 0
151 173 0
157 178 0
157 178 0
153 173 0
153 173 0
158 180 0
152 174 0
156 178 0
150 172 0
161 183 0
157 178 0
159 181 0
146 167 0
152 173 0
154 175 0
145 166 0
156 177 0
146 168 0
146 167 0
147 168 0
151 172 0
155 177 0
153 174 0
154 174 0
155 175 0
148 170 0
154 175 0
145 166 0
142 163 0
140 161 0
143 165 0
146 167 0
150 170 0
142 164 0
145 167 0
133 153 0
129 151 0
141 163 0
145 166 0
136 157 0
133 154 0
137 158 0
139 160 0
137 158 0
135 155 0
136 156 0
134 154 0
126 145 0
126 146 0
118 136 0
123 141 0
127 146 0
120 140 0
122 143 0
116 136 0
110 130 0
123 141 0
127 147 0
124 143 0
119 138 0
128 147 0
99 117 0
120 137 0
106 123 0
106 123 0
95 113 0
94 113 0
109 126 0
100 117 0
105 121 0
103 120 0
101 117 0
92 109 0
92 107 0
90 105 0
109 126 0
93 108 0
90 105 0
103 117 0
107 123 0
93 108 0
91 105 0
84 98 0
87 102 0
79 92 0
82 96 0
87 98 0
83 96 0
79 93 0
75 87 0
84 96 0
99 113 0
92 107 0
86 100 0
92 106 0
89 100 0
82 97 0
84 98 0
95 108 0
85 99 0
94 107 0
89 102 0
91 103 0
100 112 0
105 119 0
86 99 0
90 104 0
104 117 0
101 116 0
98 110 0
99 113 0
101 115 0
99 113 0
90 104 0
112 127 0
103 116 0
93 107 0
107 121 0
104 117 0
110 122 0
114 129 0
115 128 0
103 116 0
118 130 0
115 127 0
117 132 0
113 126 0
116 129 0
118 131 0
115 128 0
121 136 0
120 135 0
115 129 0
119 131 0
118 132 0
130 142 0
116 126 0
117 129 0
121 134 0
128 141 0
113 126 0
116 130 0
107 120 0
119 133 0
113 126 0
130 145 0
117 128 0
129 139 0
114 125 0
109 118 0
126 138 0
121 130 0
132 144 0
117 127 0
110 118 0
118 129 0
115 124 0
116 125 0
120 129 0
120 125 0
114 123 0
120 129 0
111 120 0
111 115 0
117 123 0
118 122 0
108 110 0
116 122 0
109 111 0
115 120 0
104 108 0
112 113 0
109 112 0
98 100 0
109 112 0
105 105 0
106 106 0
102 104 0
103 104 0
92 88 0
94 92 0
91 90 0
91 89 0
86 81 0
79 76 0
96 95 0
79 75 0
87 82 0
67 60 0
70 58 0
77 67 0
71 64 0
93 83 0
85 77 0
84 75 0
93 83 0
92 84 0
87 78 0
84 77 0
91 81 0
88 80 0
93 85 0
95 87 0
95 88 0
95 87 0
97 89 0
94 86 0
98 92 0
112 102 11
109 103 0
105 97 0
107 97 11
105 97 0
104 94 0
106 99 11
101 93 0
98 91 0
109 100 11
106 98 11
105 97 0
119 111 16
117 106 11
124 116 16
109 102 11
107 99 19
113 106 16
108 100 11
114 104 22
123 115 16
106 101 11
110 101 16
125 116 19
116 108 16
121 114 19
124 116 22
113 107 11
114 107 11
114 106 0
109 102 11
121 113 19
114 108 19
115 109 25
119 110 16
124 114 25
112 107 19
120 113 16
120 113 25
111 105 19
125 116 28
122 115 30
130 122 25
118 110 32
120 113 19
113 107 19
111 104 28
121 115 25
121 116 11
119 113 25
119 113 25
116 109 34
121 115 28
122 114 30
115 111 16
109 103 11
113 107 36
115 109 25
121 114 28
111 103 28
116 111 36
116 110 30
126 119 37
118 112 25
126 119 30
118 112 28
119 113 30
111 104 25
109 102 34
118 111 37
123 117 34
103 97 28
114 106 37
124 116 39
112 113 32
143 151 32
158 175 0
169 190 0
171 195 0
173 197 0
174 197 0
171 195 0
177 200 44
181 203 88
191 211 149
187 208 135
176 199 76
173 196 36
174 197 25
173 196 36
175 197 51
175 198 44
175 198 36
175 198 72
172 196 0
172 196 25
171 194 0
172 195 25
175 198 44
175 198 36
170 194 36
174 197 51
172 195 0
175 197 57
173 196 44
175 197 36
170 193 0
174 196 25
173 195 0
169 193 0
171 194 0
177 198 25
171 193 0
171 194 0
174 196 0
173 196 0
175 196 0
174 196 0
172 195 0
172 195 0
172 194 0
174 196 0
172 194 0
173 194 0
175 196 0
171 192 0
171 194 0
176 197 0
170 192 0
167 189 0
174 196 0
175 196 25
175 196 0
170 191 0
169 191 0
173 194 25
172 192 0
173 194 0
173 194 0
173 194 0
173 194 0
170 190 0
171 192 0
175 195 0
172 192 0
170 191 0
167 188 0
169 189 0
172 192 0
167 188 0
173 193 0
170 191 0
166 188 0
164 184 0
168 190 0
167 188 0
165 185 0
164 185 0
162 184 25
159 180 0
168 189 25
166 186 25
166 187 44
168 189 36
171 191 62
167 189 51
172 193 62
161 182 44
159 182 0
166 186 62
168 189 36
168 188 57
166 187 44
169 189 62
165 187 25
163 183 0
157 178 0
167 187 0
165 186 0
163 183 0
162 182 0
162 183 0
160 181 0
160 183 0
162 182 0
156 177 0
158 178 0
151 172 0
162 183 0
160 180 0
165 186 0
158 179 0
151 173 0
150 171 0
155 175 0
162 182 0
150 171 0
156 177 0
151 172 0
152 174 0
156 178 0
151 171 0
156 178 0
155 176 0
147 168 0
150 172 0
147 168 0
150 172 0
151 172 0
149 170 0
159 180 0
148 171 0
146 167 0
145 166 0
140 161 0
147 168 0
151 172 0
146 168 0
145 167 0
145 166 0
140 161 0
155 176 0
142 163 0
140 161 0
146 168 0
142 162 0
146 168 0
139 160 0
144 165 0
138 158 0
135 156 0
137 158 0
139 159 0
139 160 0
139 160 0
125 146 0
137 158 0
129 149 0
141 160 0
131 151 0
129 149 0
125 146 0
144 165 0
131 150 0
127 148 0
122 141 0
126 145 0
129 148 0
127 146 0
111 129 0
123 142 0
114 133 0
118 136 0
115 134 0
113 130 0
108 126 0
105 124 0
111 128 0
111 128 0
97 115 0
107 125 0
92 108 0
104 120 0
102 119 0
96 112 0
108 125 0
99 114 0
100 115 0
96 111 0
98 113 0
111 126 0
99 115 0
95 110 0
91 107 0
94 109 0
107 123 0
82 98 0
92 106 0
97 111 0
93 108 0
87 101 0
94 108 0
98 114 0
86 101 0
98 113 0
92 107 0
100 115 0
100 116 0
96 110 0
99 113 0
90 102 0
114 128 0
99 114 0
91 105 0
95 108 0
105 119 0
96 110 0
104 118 0
82 97 0
89 106 0
92 105 0
100 114 0
101 117 0
106 120 0
104 117 0
115 129 0
107 124 0
108 122 0
94 110 0
112 127 0
108 119 0
98 113 0
106 119 0
109 123 0
126 140 0
101 117 0
123 138 0
124 139 0
110 123 0
122 136 0
109 122 0
113 127 0
124 139 0
112 125 0
124 138 0
129 142 0
122 135 0
121 135 0
116 131 0
120 134 0
120 133 0
124 138 0
119 132 0
120 133 0
119 132 0
115 127 0
114 126 0
116 129 0
130 144 0
120 130 0
125 136 0
113 122 0
119 128 0
128 139 0
122 133 0
125 137 0
121 132 0
120 127 0
107 113 0
120 129 0
117 127 0
107 114 0
117 125 0
113 119 0
125 133 0
120 123 0
118 123 0
114 120 0
112 118 0
106 114 0
117 121 0
101 103 0
118 119 0
107 107 0
119 121 0
112 113 0
108 107 0
118 122 0
107 110 0
106 107 0
101 99 0
114 114 0
103 104 0
94 93 0
95 96 0
104 100 0
86 84 0
82 80 0
93 84 0
82 73 0
79 71 0
76 71 0
68 59 0
76 67 0
67 60 0
82 73 0
77 68 0
81 71 0
91 82 0
84 74 0
78 70 0
96 85 0
92 83 0
85 76 0
99 88 0
101 90 0
95 86 0
106 96 0
100 91 0
104 96 0
102 93 0
98 90 0
98 90 0
87 81 11
114 105 0
104 95 0
109 101 0
116 108 0
103 95 0
107 100 11
112 103 11
106 97 16
114 104 11
115 106 16
113 106 0
106 100 11
114 107 19
111 104 11
118 110 19
115 107 11
112 105 11
109 103 0
113 105 0
112 104 11
110 103 16
116 109 16
114 109 11
117 111 19
110 103 19
113 107 16
120 112 11
113 107 19
114 107 16
120 113 22
121 113 22
117 109 11
117 108 16
119 113 19
113 106 25
116 109 28
117 109 19
119 110 30
115 110 16
118 112 22
114 109 25
111 106 19
117 110 22
120 113 30
116 108 19
123 116 22
122 115 19
113 106 28
119 111 28
120 112 25
115 108 22
124 117 30
110 105 19
117 109 22
108 102 28
122 115 37
124 117 37
117 110 22
120 114 34
110 103 30
115 108 30
121 112 39
114 106 32
126 119 47
114 107 32
109 105 36
112 107 36
121 121 30
139 144 25
156 171 19
173 190 0
163 182 0
171 191 0
169 189 0
174 197 0
174 197 0
174 197 0
172 195 0
174 198 0
172 196 0
176 198 0
175 198 36
181 203 95
188 208 140
185 206 120
185 206 117
179 201 67
174 197 25
175 197 44
174 196 44
174 196 36
172 196 36
174 198 44
171 193 36
177 199 44
174 197 44
172 196 25
172 195 25
175 197 36
175 197 44
175 197 51
178 199 57
173 196 36
173 195 44
177 198 57
175 197 44
175 197 36
173 195 25
173 195 0
173 195 0
174 195 25
175 197 0
174 195 0
171 193 0
173 195 0
175 197 0
170 192 0
174 195 0
175 196 0
170 191 0
171 193 0
176 197 0
174 196 0
174 196 0
174 195 25
168 190 0
174 195 25
172 194 0
173 194 0
168 190 0
172 193 0
171 193 0
173 194 25
168 189 0
169 189 0
173 193 36
173 194 25
171 193 0
171 192 0
167 188 0
170 191 0
171 192 0
172 194 0
169 190 0
171 193 25
170 191 0
162 183 0
168 190 25
167 188 0
170 190 36
170 189 25
165 186 0
165 186 36
163 184 36
170 190 51
165 186 36
165 186 36
169 190 25
167 188 25
169 189 36
165 185 44
170 192 57
168 190 36
168 188 62
168 188 57
171 191 62
171 192 62
166 187 0
165 186 0
162 182 0
163 183 0
162 184 0
165 186 0
160 179 0
154 174 0
159 180 0
158 179 0
156 178 0
164 185 0
156 176 0
155 177 0
161 182 0
156 177 0
157 178 0
156 178 0
162 184 0
162 183 0
159 179 0
155 176 0
160 181 0
154 175 0
157 178 0
154 176 0
153 174 0
149 171 0
153 174 0
154 176 0
147 169 0
156 177 0
153 174 0
153 174 0
147 168 0
153 175 0
147 168 0
151 172 0
155 176 0
142 163 0
150 171 0
151 173 0
155 177 0
147 169 0
152 174 0
145 167 0
145 167 0
147 169 0
151 173 0
149 170 0
138 159 0
144 166 0
150 171 0
136 158 0
132 153 0
151 172 0
135 155 0
134 155 0
138 159 0
143 163 0
138 159 0
144 165 0
140 161 0
130 150 0
130 151 0
136 157 0
130 149 0
128 149 0
127 147 0
138 159 0
124 145 0
127 147 0
110 129 0
125 145 0
120 138 0
132 153 0
124 144 0
116 135 0
120 139 0
114 132 0
105 123 0
95 115 0
118 136 0
119 136 0
111 129 0
115 133 0
116 133 0
122 140 0
113 132 0
107 125 0
104 122 0
101 117 0
102 118 0
100 118 0
106 123 0
100 117 0
105 121 0
112 128 0
85 101 0
96 110 0
98 112 0
86 102 0
97 113 0
93 107 0
95 111 0
87 102 0
89 104 0
108 122 0
84 99 0
106 121 0
90 105 0
97 113 0
83 99 0
88 101 0
107 122 0
90 105 0
90 106 0
101 116 0
92 108 0
91 104 0
104 117 0
99 114 0
106 120 0
110 125 0
106 120 0
98 112 0
91 104 0
113 129 0
114 128 0
99 115 0
117 132 0
97 112 0
102 116 0
112 128 0
116 129 0
105 121 0
105 119 0
109 125 0
98 110 0
116 129 0
112 128 0
119 134 0
127 143 0
111 127 0
111 124 0
104 119 0
111 125 0
124 140 0
118 131 0
111 127 0
109 123 0
114 128 0
121 133 0
115 129 0
120 135 0
125 141 0
116 129 0
124 137 0
111 125 0
126 141 0
130 144 0
123 137 0
128 139 0
122 135 0
131 143 0
103 114 0
124 137 0
119 131 0
120 132 0
123 137 0
121 133 0
121 133 0
131 145 0
123 137 0
121 131 0
116 125 0
121 132 0
113 119 0
127 137 0
124 134 0
113 122 0
114 124 0
129 136 0
116 123 0
117 123 0
118 125 0
121 127 0
116 121 0
115 122 0
124 130 0
112 118 0
113 119 0
102 106 0
112 113 0
119 123 0
116 118 0
108 108 0
103 102 0
104 104 0
110 110 0
120 122 0
104 103 0
108 108 0
102 100 0
84 79 0
96 91 0
92 87 0
100 94 0
91 84 0
80 77 0
92 87 0
78 72 0
85 86 0
78 74 0
82 78 0
78 67 0
77 70 0
78 67 0
89 76 0
84 72 0
91 80 0
91 81 0
95 84 0
76 67 0
81 72 0
98 88 0
84 76 0
87 80 0
89 82 0
98 89 0
98 89 0
98 88 0
99 91 0
91 83 0
101 93 11
95 87 0
97 90 0
103 95 0
105 97 11
95 86 11
104 95 0
101 91 0
106 99 11
100 93 16
107 99 16
108 98 0
105 95 0
115 105 11
106 98 22
106 98 11
117 108 19
115 106 0
108 101 16
108 100 11
106 98 16
110 102 19
111 103 11
110 103 11
112 104 11
122 114 19
113 105 19
113 107 19
112 104 16
114 108 16
112 104 11
113 107 25
115 108 28
118 110 19
106 100 11
116 108 19
113 104 11
122 115 32
108 101 25
111 104 22
114 107 22
116 109 28
125 117 28
116 108 30
119 114 34
118 110 25
110 103 25
113 107 25
118 113 34
110 103 19
122 114 36
123 117 42
114 105 19
113 105 30
119 112 28
110 102 25
116 108 25
113 107 36
114 106 28
104 98 28
114 106 28
115 109 39
112 106 32
120 119 25
135 141 32
162 176 16
169 188 0
168 188 0
167 185 0
168 188 0
172 192 0
168 189 0
170 190 0
175 197 0
173 197 0
173 196 0
174 197 0
172 196 0
170 193 0
170 195 0
174 197 0
174 197 0
174 197 0
174 197 36
174 196 57
186 206 130
186 207 125
181 202 111
177 199 72
177 199 62
174 197 44
173 195 51
173 197 51
169 192 0
170 194 25
175 198 36
174 197 51
173 196 25
171 193 44
173 196 36
175 197 62
173 195 36
174 195 36
174 196 51
170 193 25
178 199 62
172 193 57
174 196 67
176 197 44
177 198 51
175 196 36
169 191 0
176 197 44
169 191 0
175 198 51
169 191 0
170 192 25
171 194 0
169 191 0
174 195 0
171 193 0
173 195 25
173 195 0
172 193 0
170 191 0
169 191 0
169 190 0
173 194 0
171 191 0
171 192 0
170 191 0
170 192 0
173 195 36
172 193 36
173 194 0
176 196 0
172 193 0
171 192 0
165 187 25
169 190 25
173 194 25
172 193 25
170 191 25
171 192 25
170 192 25
165 185 0
166 187 0
168 190 0
169 189 36
165 187 44
170 191 44
175 195 51
165 186 25
164 185 36
168 189 44
175 195 25
167 187 36
168 189 36
169 189 62
170 189 80
162 183 44
175 195 67
169 190 36
167 187 0
166 187 0
164 184 0
161 182 0
168 190 0
162 182 0
162 183 0
167 188 0
166 186 0
158 179 0
159 179 0
155 176 0
156 176 0
157 178 0
166 187 0
156 177 0
155 176 0
160 182 0
161 183 0
163 183 0
165 185 0
163 184 0
163 184 0
156 177 0
159 180 0
160 181 0
159 181 0
158 180 0
159 180 0
154 175 0
150 172 0
156 176 0
155 175 0
159 179 0
151 173 0
155 176 0
144 166 0
150 172 0
152 174 0
140 162 0
158 179 0
144 165 0
153 174 0
152 174 0
150 170 0
149 172 0
156 177 0
154 176 0
148 171 0
153 175 0
142 162 0
142 164 0
149 170 0
137 159 0
144 165 0
144 165 0
137 158 0
141 163 0
137 159 0
147 168 0
136 157 0
146 167 0
137 159 0
137 157 0
134 155 0
123 145 0
138 159 0
135 155 0
132 152 0
130 150 0
140 159 0
133 153 0
133 152 0
136 155 0
132 152 0
125 145 0
135 155 0
129 149 0
116 133 0
114 133 0
125 144 0
131 150 0
126 146 0
127 145 0
123 142 0
122 141 0
124 142 0
122 141 0
111 129 0
112 130 0
113 130 0
114 131 0
127 145 0
122 140 0
114 133 0
103 121 0
110 128 0
98 116 0
105 123 0
108 125 0
102 119 0
96 112 0
115 132 0
91 106 0
109 126 0
97 112 0
98 114 0
95 110 0
102 118 0
101 117 0
99 114 0
92 107 0
112 128 0
100 116 0
106 123 0
105 121 0
94 111 0
111 128 0
97 110 0
92 106 0
94 110 0
105 121 0
104 120 0
103 118 0
96 111 0
99 114 0
96 112 0
103 119 0
99 113 0
106 120 0
103 118 0
102 118 0
93 107 0
101 116 0
101 117 0
107 120 0
103 118 0
105 119 0
112 126 0
105 119 0
110 124 0
108 123 0
116 128 0
102 119 0
111 126 0
105 120 0
120 135 0
110 124 0
124 141 0
106 120 0
105 117 0
121 136 0
113 127 0
111 124 0
112 127 0
121 137 0
127 141 0
136 150 0
119 132 0
125 139 0
119 132 0
123 137 0
137 152 0
115 129 0
123 136 0
120 133 0
117 131 0
123 136 0
126 137 0
129 142 0
115 128 0
126 140 0
137 151 0
121 132 0
125 136 0
128 140 0
122 132 0
126 139 0
130 141 0
119 130 0
124 134 0
122 133 0
125 134 0
127 136 0
127 135 0
116 123 0
109 116 0
115 122 0
110 121 0
109 116 0
118 125 0
119 124 0
114 117 0
106 110 0
109 112 0
113 119 0
112 116 0
114 119 0
113 117 0
115 117 0
106 108 0
102 103 0
105 106 0
105 105 0
111 114 0
104 103 0
105 106 0
110 112 0
105 104 0
105 101 0
106 105 0
109 108 0
97 96 0
97 93 0
99 93 0
95 91 0
85 78 0
89 85 0
77 72 0
83 75 0
84 81 0
82 76 0
76 67 0
84 75 0
76 65 0
92 82 0
67 60 0
82 71 0
82 72 0
76 64 11
94 83 11
98 89 0
86 77 0
83 75 0
92 84 0
102 93 11
94 82 16
97 88 0
92 80 11
101 92 0
91 82 0
108 100 11
104 95 11
102 94 0
105 96 0
93 85 11
87 77 0
101 93 0
103 95 11
121 110 19
104 97 16
112 101 16
99 90 11
100 93 16
106 99 11
95 87 0
110 101 11
110 100 11
112 104 11
107 98 0
120 111 11
112 105 16
110 103 16
111 102 0
113 106 16
107 99 11
114 106 16
117 108 19
109 101 16
114 108 16
106 99 16
116 107 28
110 102 19
110 102 19
124 115 28
107 98 22
119 109 25
105 98 11
129 121 32
115 108 32
116 110 19
119 112 32
112 105 19
113 104 32
102 97 16
120 111 36
117 111 34
118 112 22
118 109 28
116 109 28
108 102 30
123 114 37
111 102 28
106 100 32
112 104 34
118 111 37
127 126 34
120 123 30
145 156 11
162 178 0
165 182 0
168 186 0
168 187 0
167 186 0
167 186 0
169 187 0
166 185 0
169 189 0
169 188 0
168 187 0
172 195 0
171 195 0
171 195 0
174 197 0
172 196 0
175 198 0
174 197 0
173 197 0
174 197 0
174 196 0
169 193 0
171 195 0
175 197 0
173 196 0
174 197 36
178 200 80
183 203 114
182 203 108
185 205 117
180 202 111
178 201 62
174 196 51
169 192 0
175 198 57
177 199 57
177 199 57
176 198 44
173 196 25
176 199 57
172 194 25
170 193 44
173 196 57
171 194 44
172 194 25
173 196 36
176 198 36
179 200 76
173 196 25
175 196 44
173 194 36
172 194 36
173 195 36
171 193 51
172 192 25
176 197 76
172 194 44
171 192 25
174 195 51
175 197 44
173 195 25
172 193 36
178 199 44
176 196 25
176 197 51
174 195 0
169 191 25
171 193 36
173 194 25
173 194 25
174 195 36
169 190 0
170 191 51
174 195 36
169 189 44
171 193 36
175 196 36
166 187 36
173 193 44
171 192 44
166 187 25
169 190 36
170 191 51
167 187 36
168 190 25
166 186 36
166 187 36
169 190 36
167 188 25
167 189 25
169 189 25
170 190 36
171 191 51
176 197 72
172 192 62
169 190 62
168 188 57
161 183 0
167 187 0
166 186 0
165 187 0
167 188 0
166 187 0
167 188 0
172 192 0
162 183 0
161 182 0
164 185 0
167 187 0
162 183 0
164 184 0
164 184 0
158 180 0
156 177 0
160 181 0
154 175 0
160 181 0
161 182 0
161 183 0
160 182 0
160 181 0
154 175 0
150 172 0
159 180 0
165 186 0
156 177 0
148 169 0
148 170 0
157 179 0
150 171 0
158 179 0
154 175 0
155 177 0
157 179 0
156 176 0
142 163 0
156 177 0
154 175 0
162 184 0
148 169 0
153 174 0
148 171 0
151 173 0
154 175 0
147 169 0
143 166 0
150 171 0
148 169 0
149 171 0
148 170 0
146 167 0
147 169 0
149 171 0
146 168 0
147 169 0
141 162 0
148 170 0
144 166 0
147 168 0
146 167 0
140 162 0
136 156 0
142 163 0
142 163 0
141 163 0
139 160 0
140 160 0
137 157 0
132 153 0
141 162 0
137 157 0
127 147 0
136 158 0
127 146 0
129 149 0
136 157 0
125 145 0
134 154 0
138 157 0
118 137 0
124 144 0
119 138 0
122 141 0
125 144 0
133 153 0
120 138 0
116 136 0
120 137 0
125 144 0
115 134 0
113 131 0
110 128 0
119 137 0
113 130 0
112 128 0
111 127 0
111 128 0
104 121 0
104 122 0
120 136 0
110 126 0
106 122 0
114 131 0
100 116 0
115 133 0
110 127 0
103 119 0
98 115 0
100 116 0
102 116 0
97 112 0
106 124 0
96 111 0
111 127 0
103 121 0
107 124 0
90 107 0
109 125 0
108 125 0
107 124 0
95 110 0
98 115 0
99 114 0
112 129 0
98 112 0
103 117 0
97 113 0
109 125 0
113 128 0
112 128 0
110 126 0
104 120 0
104 119 0
109 123 0
113 128 0
107 122 0
116 132 0
109 125 0
109 124 0
117 132 0
109 123 0
117 132 0
121 136 0
110 127 0
121 135 0
108 125 0
122 138 0
114 128 0
117 129 0
118 133 0
113 130 0
129 144 0
114 130 0
121 135 0
130 146 0
119 134 0
118 130 0
126 141 0
115 131 0
110 126 0
124 136 0
129 145 0
117 133 0
131 145 0
126 140 0
115 130 0
127 137 0
128 140 0
117 128 0
123 136 0
121 133 0
118 129 0
113 122 0
120 133 0
123 135 0
107 118 0
128 140 0
125 135 0
125 136 0
124 135 0
121 131 0
128 137 0
123 135 0
131 140 0
122 131 0
126 135 0
128 139 0
123 133 0
118 127 0
130 139 0
131 138 0
120 125 0
130 138 0
123 131 0
128 135 0
113 120 0
125 129 0
126 133 0
127 130 0
123 128 0
118 123 0
120 125 0
123 129 0
121 123 0
118 120 0
114 114 0
101 101 0
107 109 0
105 106 0
104 101 0
103 100 0
95 92 0
103 101 0
97 96 0
92 89 0
97 95 0
104 102 0
91 87 0
91 84 0
89 86 0
83 83 0
86 82 0
85 77 0
71 66 0
83 77 0
83 75 0
87 77 0
83 75 0
81 72 0
84 72 11
88 77 0
87 75 0
89 80 0
91 80 0
94 84 0
85 74 0
94 83 0
95 86 0
98 87 0
97 88 0
80 71 11
91 82 0
104 95 0
110 99 11
95 87 11
101 91 16
94 85 0
101 91 11
103 94 11
102 92 0
100 91 16
103 93 11
111 100 11
106 98 11
105 96 19
108 101 16
118 110 0
100 92 0
96 90 0
99 92 0
110 102 11
114 105 19
107 99 16
95 87 16
113 105 25
104 98 16
104 98 16
105 98 25
102 96 19
121 113 32
108 101 16
111 101 19
110 102 22
114 106 32
109 103 32
106 98 16
109 102 22
113 105 28
117 110 22
104 96 19
100 94 16
116 109 28
108 102 25
115 107 25
116 107 34
106 99 19
109 101 25
110 103 30
106 99 28
113 107 30
115 108 34
111 103 19
110 103 22
125 122 30
134 137 19
147 159 16
159 170 19
162 178 0
161 177 0
166 184 0
168 184 0
163 180 0
168 185 0
167 184 0
165 183 0
169 186 0
165 185 0
167 187 0
167 186 0
166 184 0
169 187 0
173 197 0
171 195 0
170 194 0
173 196 0
174 197 0
172 196 0
175 198 0
174 197 0
172 195 0
172 196 0
172 195 0
172 195 0
172 196 0
173 196 0
171 195 0
173 196 0
173 195 0
173 196 0
175 197 25
175 198 76
182 203 108
185 205 122
181 202 99
184 204 105
181 202 92
175 198 67
175 198 44
176 199 51
172 195 0
174 197 44
172 194 25
174 197 36
175 198 51
172 194 36
171 193 25
173 195 44
172 194 36
175 196 36
178 199 51
176 198 36
171 194 36
173 195 44
174 195 51
173 195 25
174 196 36
174 195 36
174 194 44
176 197 44
176 196 44
174 195 44
175 196 36
173 194 44
173 194 51
169 190 36
172 193 44
174 195 57
176 196 57
171 193 36
170 191 51
174 195 51
174 195 44
173 195 57
172 194 36
173 194 36
172 193 72
175 194 51
175 196 62
168 188 36
171 191 36
170 190 36
169 190 25
167 186 44
174 194 57
171 192 44
171 192 62
167 187 44
167 187 62
176 196 88
175 194 88
174 195 84
173 193 57
168 189 36
165 186 0
168 187 0
170 190 0
171 191 0
159 180 0
158 179 0
167 188 0
162 182 0
165 186 0
166 187 0
164 184 0
171 192 0
163 184 0
167 189 0
166 187 0
161 181 0
163 184 0
164 186 0
163 185 0
154 174 0
159 179 0
159 180 0
162 184 0
154 175 0
163 184 0
151 173 0
152 172 0
159 181 0
160 180 0
163 184 0
155 177 0
161 182 0
151 172 0
162 184 0
150 172 0
158 180 0
163 185 0
154 176 0
153 174 0
149 170 0
150 172 0
151 172 0
160 182 0
156 177 0
149 171 0
150 172 0
149 171 0
151 173 0
157 179 0
147 169 0
158 179 0
148 169 0
150 172 0
148 170 0
150 172 0
148 170 0
146 169 0
145 167 0
138 160 0
147 168 0
138 159 0
145 167 0
150 171 0
146 168 0
141 162 0
147 168 0
146 168 0
141 162 0
145 166 0
148 169 0
139 160 0
130 151 0
141 161 0
138 159 0
137 157 0
133 154 0
136 157 0
133 153 0
136 157 0
135 155 0
133 154 0
129 148 0
136 155 0
140 161 0
135 155 0
130 151 0
121 140 0
134 155 0
124 144 0
122 141 0
125 145 0
121 140 0
124 143 0
112 132 0
126 145 0
112 132 0
115 134 0
132 151 0
120 137 0
110 127 0
115 133 0
123 142 0
117 135 0
116 134 0
114 132 0
117 136 0
118 136 0
116 133 0
99 116 0
119 137 0
114 132 0
113 130 0
103 119 0
105 122 0
102 118 0
109 127 0
110 126 0
93 110 0
106 124 0
109 125 0
109 128 0
112 128 0
114 130 0
116 131 0
100 118 0
101 117 0
114 130 0
109 125 0
99 115 0
105 122 0
103 119 0
103 121 0
114 131 0
105 121 0
107 121 0
102 119 0
107 122 0
120 136 0
114 130 0
117 134 0
99 113 0
122 140 0
116 131 0
107 122 0
128 145 0
112 126 0
126 142 0
120 136 0
119 136 0
112 128 0
120 134 0
108 124 0
119 135 0
120 135 0
120 136 0
123 139 0
124 138 0
120 135 0
119 135 0
105 118 0
124 139 0
132 146 0
114 128 0
121 136 0
123 138 0
122 136 0
125 138 0
122 135 0
126 142 0
122 132 0
131 146 0
128 144 0
121 136 0
132 146 0
119 131 0
121 136 0
132 145 0
116 130 0
128 143 0
125 137 0
111 124 0
132 146 0
140 156 0
128 142 0
123 137 0
129 141 0
115 126 0
128 142 0
110 121 0
135 146 0
123 135 0
119 129 0
123 133 0
121 129 0
132 144 0
126 135 0
115 122 0
138 148 0
126 134 0
120 127 0
116 126 0
119 126 0
117 123 0
116 123 0
129 139 0
127 132 0
115 122 0
119 123 0
113 117 0
98 102 0
118 120 0
114 119 0
113 117 0
114 115 0
112 113 0
107 105 0
113 115 0
101 100 0
105 105 0
102 100 0
113 116 0
97 92 0
97 92 0
91 88 0
105 104 0
99 95 0
93 87 0
97 90 0
94 91 0
91 86 0
100 93 0
87 80 0
86 78 0
75 67 0
85 81 0
78 69 0
81 72 0
81 76 0
86 78 0
68 57 0
90 81 0
77 67 0
81 72 0
87 76 0
81 72 11
81 73 0
96 86 16
101 90 0
87 77 11
95 84 0
94 85 0
93 87 0
97 89 11
111 100 16
104 95 16
93 85 0
104 93 11
101 93 11
94 85 11
107 96 25
104 95 19
104 93 11
100 91 0
101 91 0
113 105 16
97 88 16
103 95 0
105 96 22
101 93 16
108 100 19
104 97 11
116 107 22
108 100 16
110 103 16
110 100 11
99 92 16
109 101 0
113 104 28
113 106 16
110 101 28
96 89 22
114 106 19
113 105 22
108 98 19
120 110 22
111 103 22
110 104 19
109 101 19
116 107 28
101 95 25
99 91 28
105 98 28
115 109 30
115 107 28
102 94 25
108 106 19
120 120 25
130 133 22
150 160 11
157 168 16
165 182 0
163 178 0
162 176 0
163 182 0
163 177 0
159 174 0
163 179 0
165 182 0
167 186 0
168 186 0
167 183 0
166 183 0
169 188 0
169 186 0
167 184 0
167 183 0
172 191 0
166 185 0
171 194 0
175 198 0
175 198 0
173 196 0
175 198 0
169 193 0
174 197 0
173 196 0
172 196 0
173 196 0
172 195 0
173 195 0
172 195 0
173 196 0
172 195 0
173 195 0
173 196 0
174 197 0
176 198 0
174 196 0
173 196 0
171 194 0
175 198 0
173 196 0
178 200 57
179 200 72
180 201 99
181 202 95
182 202 99
181 202 114
179 201 84
180 201 88
176 197 62
172 195 25
174 196 57
173 196 36
175 198 25
175 196 44
176 197 57
173 196 44
176 197 36
170 192 36
175 196 44
174 196 36
173 195 44
171 192 25
171 193 51
172 193 36
175 196 25
176 197 51
173 195 25
173 194 44
174 196 25
170 191 25
171 192 36
174 195 36
171 192 51
177 198 44
170 191 0
176 196 25
173 193 36
173 194 57
171 192 36
174 195 62
177 197 67
172 193 25
171 192 36
172 193 36
173 194 36
177 197 62
173 194 44
175 195 92
175 195 88
176 196 72
173 194 62
174 194 51
166 187 0
170 191 0
168 189 0
173 193 0
170 191 0
165 187 0
165 186 0
169 191 0
164 185 0
168 190 0
166 187 0
164 185 0
163 183 0
163 184 0
161 182 0
159 181 0
163 185 0
157 179 0
163 184 0
158 181 0
150 171 0
162 182 0
155 177 0
161 183 0
154 176 0
161 182 0
158 179 0
160 181 0
163 183 0
164 185 0
156 178 0
161 182 0
148 169 0
148 169 0
160 181 0
157 179 0
157 178 0
157 178 0
159 180 0
155 175 0
150 172 0
156 177 0
160 181 0
156 178 0
155 176 0
159 182 0
157 179 0
158 179 0
152 174 0
147 169 0
157 178 0
149 171 0
151 173 0
156 178 0
150 172 0
152 174 0
144 166 0
153 175 0
146 168 0
148 170 0
143 165 0
151 172 0
143 163 0
144 165 0
145 165 0
147 169 0
141 162 0
150 171 0
142 163 0
141 162 0
148 170 0
148 170 0
140 160 0
145 167 0
144 165 0
145 165 0
133 155 0
142 164 0
144 165 0
130 151 0
130 151 0
147 167 0
139 160 0
138 159 0
135 155 0
130 151 0
141 161 0
133 153 0
129 148 0
135 154 0
119 139 0
120 140 0
131 151 0
124 144 0
132 153 0
124 144 0
123 142 0
134 153 0
120 138 0
112 131 0
121 141 0
120 139 0
109 126 0
119 137 0
123 142 0
116 135 0
122 141 0
118 137 0
120 139 0
120 138 0
128 146 0
123 142 0
101 120 0
114 132 0
115 132 0
116 134 0
106 123 0
101 118 0
118 135 0
108 125 0
113 131 0
107 124 0
105 121 0
105 123 0
96 114 0
107 123 0
113 130 0
109 127 0
115 133 0
106 122 0
115 133 0
118 136 0
113 128 0
111 127 0
123 140 0
104 121 0
113 129 0
109 124 0
116 132 0
109 126 0
116 133 0
112 128 0
109 124 0
117 134 0
117 133 0
107 123 0
110 125 0
113 127 0
106 122 0
99 117 0
127 144 0
111 126 0
107 123 0
113 130 0
121 135 0
109 125 0
112 127 0
117 132 0
120 137 0
115 127 0
112 126 0
116 132 0
124 140 0
117 133 0
133 150 0
124 140 0
127 145 0
126 141 0
124 139 0
124 139 0
115 131 0
128 145 0
132 147 0
121 133 0
118 133 0
116 128 0
127 144 0
122 134 0
123 138 0
135 149 0
134 146 0
132 145 0
111 125 0
123 136 0
131 147 0
128 141 0
127 139 0
140 153 0
123 136 0
126 138 0
120 131 0
123 137 0
125 139 0
124 137 0
120 133 0
116 125 0
134 144 0
120 131 0
138 152 0
118 128 0
125 132 0
125 136 0
133 145 0
119 125 0
127 138 0
123 131 0
127 134 0
115 121 0
116 122 0
117 123 0
122 129 0
122 130 0
118 123 0
114 120 0
115 118 0
118 123 0
125 131 0
114 117 0
121 127 0
122 128 0
116 121 0
108 108 0
114 115 0
117 119 0
120 119 0
118 116 0
106 103 0
111 110 0
107 107 0
100 99 0
103 100 0
113 112 0
115 115 0
99 96 0
108 104 0
104 99 0
95 92 0
99 93 0
102 98 0
93 86 0
91 83 0
96 89 0
102 99 0
91 86 0
92 87 0
96 86 0
89 86 0
78 75 0
92 85 0
89 81 0
92 83 0
86 76 0
80 69 0
82 70 11
92 81 16
93 82 0
93 83 0
81 73 0
104 92 11
93 82 0
98 87 16
94 84 0
103 93 22
86 75 11
107 98 19
102 90 19
87 77 11
97 89 0
101 93 0
101 92 22
94 85 11
99 91 0
101 91 16
91 83 0
101 93 11
110 101 22
106 98 16
104 93 22
103 95 19
107 99 11
108 98 19
121 111 34
97 92 16
108 100 11
108 99 16
102 94 11
104 96 16
98 92 11
113 105 30
116 107 30
100 93 19
101 95 16
98 89 25
105 98 22
104 96 19
111 107 22
117 119 19
133 136 25
138 141 16
150 158 0
155 169 0
163 177 0
161 176 0
161 174 0
160 175 0
163 175 0
163 176 0
161 174 0
162 175 0
163 177 0
159 174 0
162 177 0
160 175 0
167 184 0
163 177 0
167 184 0
163 180 0
164 183 0
164 178 0
166 184 0
168 187 0
167 185 0
163 182 0
166 185 0
174 197 0
173 196 0
173 196 0
170 194 0
174 197 0
170 193 0
171 194 0
172 195 0
173 196 0
172 195 0
172 195 0
171 194 0
174 197 0
169 193 0
173 196 0
173 196 0
174 197 0
174 197 0
173 196 0
174 197 0
175 197 0
171 194 0
170 193 0
171 193 0
171 193 0
172 195 0
172 195 0
174 197 0
171 193 0
174 196 0
174 196 44
176 197 76
182 203 99
184 204 114
182 202 95
182 203 95
182 202 105
183 204 92
180 201 84
181 202 105
179 200 88
179 200 80
175 197 62
176 197 57
172 194 44
176 198 36
172 194 25
174 196 44
170 192 36
173 195 44
171 194 25
170 191 0
177 198 44
174 195 25
172 193 25
173 195 36
173 194 51
178 198 62
173 194 67
175 195 51
177 198 62
173 194 57
175 196 62
178 198 88
171 192 51
173 194 51
176 196 67
179 199 76
171 190 67
175 194 51
171 192 36
170 192 0
172 193 0
170 190 0
169 189 0
166 187 0
165 186 0
167 187 0
172 194 0
167 188 0
167 187 0
167 188 0
169 189 0
162 184 0
165 185 0
167 189 0
166 187 0
156 177 0
168 189 0
171 192 0
166 187 0
155 177 0
167 188 0
159 180 0
163 183 0
166 187 0
162 183 0
165 186 0
163 185 0
164 186 0
161 182 0
158 179 0
168 189 0
155 176 0
158 179 0
159 181 0
152 174 0
158 180 0
160 181 0
156 178 0
160 181 0
155 176 0
160 181 0
155 176 0
145 167 0
154 176 0
151 172 0
155 178 0
153 174 0
158 180 0
151 173 0
153 175 0
157 178 0
151 173 0
154 176 0
154 176 0
155 176 0
152 174 0
153 175 0
157 178 0
153 175 0
149 171 0
152 175 0
150 172 0
155 178 0
148 170 0
147 170 0
152 174 0
143 165 0
157 179 0
148 170 0
143 163 0
143 165 0
154 175 0
140 161 0
145 166 0
151 173 0
145 167 0
152 174 0
142 164 0
142 164 0
142 162 0
140 161 0
143 164 0
146 167 0
142 163 0
142 164 0
135 156 0
142 163 0
140 162 0
128 149 0
130 150 0
145 166 0
142 162 0
137 157 0
125 146 0
130 150 0
130 149 0
128 149 0
120 141 0
130 150 0
125 145 0
122 141 0
142 163 0
136 155 0
127 148 0
123 142 0
131 152 0
128 147 0
125 144 0
129 149 0
126 145 0
134 152 0
131 150 0
127 145 0
108 126 0
107 125 0
121 141 0
107 125 0
114 132 0
108 126 0
112 130 0
109 128 0
112 130 0
114 131 0
114 131 0
112 128 0
116 133 0
105 123 0
104 120 0
109 126 0
119 136 0
102 118 0
111 128 0
107 122 0
106 123 0
112 129 0
107 123 0
119 136 0
113 129 0
113 128 0
110 126 0
117 135 0
119 138 0
108 123 0
126 143 0
114 131 0
115 132 0
106 120 0
119 135 0
106 122 0
116 133 0
109 124 0
118 133 0
118 134 0
119 136 0
119 135 0
116 133 0
122 140 0
125 140 0
105 120 0
120 134 0
118 134 0
120 137 0
104 121 0
123 142 0
121 134 0
121 138 0
116 133 0
122 137 0
112 127 0
131 146 0
123 139 0
131 146 0
127 143 0
118 132 0
120 135 0
115 131 0
114 125 0
126 142 0
124 141 0
122 138 0
132 147 0
118 133 0
131 149 0
133 149 0
133 147 0
115 132 0
127 140 0
124 137 0
120 134 0
128 142 0
120 134 0
125 140 0
129 142 0
137 150 0
118 134 0
143 158 0
132 143 0
123 136 0
132 146 0
124 137 0
129 140 0
130 142 0
132 146 0
129 141 0
121 132 0
117 128 0
129 139 0
119 128 0
132 143 0
116 123 0
124 134 0
132 143 0
130 137 0
125 134 0
119 126 0
128 136 0
126 135 0
128 136 0
126 133 0
124 131 0
116 118 0
121 129 0
123 125 0
121 124 0
115 118 0
117 122 0
122 128 0
112 111 0
127 129 0
110 111 0
120 116 0
113 112 0
118 121 0
111 110 0
112 112 0
109 109 0
106 105 0
115 113 0
110 107 0
100 102 0
102 98 0
111 108 0
100 98 0
104 102 0
101 96 0
93 90 0
93 84 0
98 91 0
102 99 0
100 94 0
100 95 0
93 86 0
91 87 0
103 98 0
103 97 0
105 101 0
87 81 0
101 91 0
102 99 0
91 83 0
100 92 0
97 86 16
85 76 0
101 93 11
80 71 0
96 84 11
99 87 0
98 87 16
95 86 11
86 79 11
80 74 0
95 86 0
98 89 16
94 85 16
94 86 11
94 83 16
87 78 11
101 90 16
101 93 19
103 93 16
102 93 25
99 90 22
94 84 11
103 95 19
93 84 11
99 90 19
99 90 16
99 93 16
101 94 19
96 87 16
106 99 19
123 119 19
124 121 19
107 103 16
130 132 28
137 140 11
143 147 0
148 155 0
159 169 16
154 163 0
155 166 0
158 170 0
161 176 0
160 172 0
162 176 0
159 170 0
159 171 0
161 171 0
156 167 0
153 166 0
164 177 0
156 170 0
157 173 0
163 180 0
161 175 0
159 175 0
166 181 0
162 176 0
163 178 0
163 176 0
162 180 0
162 178 0
163 181 0
166 181 0
161 176 0
166 184 0
162 178 0
169 187 0
174 197 0
171 195 0
173 196 0
172 196 0
170 193 0
174 197 0
172 196 0
173 196 0
171 195 0
176 198 0
175 197 0
171 194 0
172 196 0
175 197 0
174 196 0
172 195 0
174 197 0
173 196 0
172 195 0
173 195 0
174 197 0
172 195 0
172 195 0
176 198 0
175 198 0
172 195 0
173 195 0
173 196 0
171 194 0
172 194 0
170 193 0
174 196 0
175 197 0
172 195 0
169 192 0
174 196 0
171 193 0
171 193 0
175 196 0
176 197 36
173 195 0
173 194 62
179 199 67
177 198 62
174 195 62
174 196 72
176 197 67
178 198 76
175 195 44
179 199 80
180 200 84
180 200 67
180 200 92
178 198 76
172 193 57
176 196 80
177 198 76
175 195 62
177 198 62
176 196 51
176 195 0
168 189 0
172 192 0
171 191 0
170 191 0
170 191 0
175 195 0
172 192 0
166 186 0
173 194 0
171 193 0
168 189 0
172 191 0
169 189 0
166 187 0
170 191 0
169 190 0
171 192 0
166 187 0
167 188 0
162 183 0
168 188 0
168 189 0
164 184 0
162 181 0
163 184 0
162 182 0
171 191 0
161 183 0
164 184 0
167 188 0
164 185 0
163 185 0
159 181 0
158 179 0
168 189 0
165 185 0
162 184 0
154 175 0
165 186 0
163 185 0
164 185 0
164 185 0
166 187 0
155 177 0
157 178 0
159 181 0
154 175 0
156 178 0
155 177 0
156 177 0
160 181 0
161 183 0
154 176 0
155 176 0
156 178 0
154 176 0
152 173 0
144 166 0
149 172 0
159 181 0
158 180 0
162 185 0
156 178 0
152 175 0
147 169 0
151 173 0
158 179 0
154 177 0
151 173 0
154 176 0
149 171 0
151 171 0
154 176 0
145 167 0
148 169 0
154 177 0
140 162 0
163 185 0
145 168 0
149 171 0
147 169 0
149 171 0
145 167 0
148 171 0
146 168 0
146 168 0
140 161 0
136 158 0
146 167 0
141 162 0
141 162 0
142 164 0
137 158 0
136 157 0
145 165 0
139 160 0
135 156 0
140 160 0
128 150 0
130 152 0
141 162 0
141 161 0
135 157 0
136 156 0
132 152 0
140 160 0
130 151 0
131 151 0
127 146 0
124 143 0
128 148 0
131 150 0
130 150 0
126 146 0
131 152 0
125 143 0
139 160 0
121 141 0
119 139 0
125 145 0
113 131 0
118 137 0
125 144 0
131 149 0
124 143 0
114 132 0
131 150 0
103 120 0
126 145 0
109 127 0
121 140 0
118 138 0
108 127 0
127 145 0
124 141 0
121 139 0
115 132 0
126 144 0
112 130 0
125 143 0
114 132 0
105 123 0
112 128 0
108 125 0
113 131 0
109 125 0
120 137 0
103 120 0
125 143 0
121 138 0
102 118 0
113 129 0
116 133 0
99 115 0
114 130 0
108 125 0
125 142 0
111 129 0
121 137 0
114 132 0
111 126 0
105 122 0
124 140 0
125 143 0
118 135 0
122 138 0
124 142 0
117 134 0
116 131 0
110 128 0
122 140 0
118 134 0
124 141 0
114 132 0
115 132 0
125 142 0
127 144 0
123 140 0
114 130 0
131 148 0
133 149 0
126 141 0
125 141 0
128 144 0
130 145 0
121 133 0
132 148 0
122 136 0
131 146 0
135 150 0
125 142 0
124 141 0
131 147 0
122 135 0
123 138 0
133 150 0
133 149 0
135 151 0
124 141 0
127 142 0
126 140 0
127 141 0
125 138 0
126 140 0
127 141 0
131 145 0
116 126 0
130 142 0
119 132 0
131 145 0
130 144 0
130 143 0
120 132 0
120 133 0
119 132 0
125 137 0
126 139 0
119 127 0
130 143 0
131 142 0
125 136 0
130 140 0
119 127 0
122 130 0
122 129 0
127 135 0
129 135 0
119 126 0
129 137 0
121 126 0
126 130 0
122 130 0
124 131 0
117 121 0
122 126 0
128 132 0
120 126 0
120 123 0
114 117 0
113 116 0
112 115 0
108 109 0
111 112 0
111 110 0
118 120 0
119 120 0
116 117 0
116 113 0
112 110 0
116 119 0
110 108 0
104 104 0
100 99 0
118 117 0
109 105 0
111 107 0
111 107 0
100 96 0
108 103 0
100 95 0
99 96 0
100 94 0
104 100 0
101 94 0
94 87 0
105 99 0
90 85 0
111 106 0
102 98 0
111 107 0
101 93 0
107 100 0
115 111 0
103 96 0
110 105 0
117 110 0
111 105 0
106 100 0
115 111 11
112 107 0
122 116 0
107 103 0
111 104 0
111 105 0
107 103 0
116 112 0
119 115 11
116 113 0
112 113 0
115 115 0
121 116 16
111 107 16
122 119 19
124 124 16
128 128 16
123 122 0
144 148 0
144 146 11
136 140 11
143 147 0
139 145 0
151 155 0
149 155 0
151 158 0
153 162 0
147 152 0
152 159 0
148 156 0
152 161 0
157 169 0
151 159 0
147 156 0
159 169 0
151 160 0
149 162 0
158 170 0
157 168 0
156 164 0
154 168 0
159 171 0
158 170 0
162 176 0
164 177 0
159 172 0
158 173 0
157 170 0
163 176 0
160 176 0
164 178 0
162 176 0
167 183 0
162 176 0
163 179 0
164 180 0
161 175 0
163 181 0
167 185 0
159 173 0
166 184 0
173 196 0
173 196 0
172 195 0
175 198 0
175 197 0
176 198 0
173 196 0
174 197 0
173 195 0
171 194 0
170 193 0
173 196 0
173 195 0
173 196 0
174 196 0
175 197 0
173 196 0
175 197 0
173 195 0
168 192 0
175 198 0
174 196 0
172 195 0
174 196 0
176 198 0
173 195 0
172 194 0
172 194 0
171 194 0
172 194 0
172 194 0
171 193 0
173 195 0
175 197 0
175 197 0
175 196 0
173 195 0
172 194 0
172 193 0
175 197 0
177 199 0
175 197 0
172 193 0
170 191 0
171 193 0
169 191 0
170 191 0
172 193 0
176 197 0
175 196 0
174 195 0
173 194 0
171 193 0
172 194 0
177 197 0
172 193 0
173 194 0
170 192 0
173 193 0
172 194 0
168 190 0
173 194 0
172 192 0
173 193 0
175 196 0
171 190 0
171 191 0
171 193 0
171 191 0
167 187 0
167 189 0
167 188 0
167 187 0
164 186 0
171 192 0
166 186 0
168 189 0
166 185 0
164 184 0
164 185 0
162 183 0
169 190 0
166 186 0
164 184 0
164 185 0
166 188 0
164 185 0
161 182 0
166 189 0
166 188 0
166 187 0
165 186 0
166 187 0
158 180 0
156 178 0
163 185 0
163 183 0
164 185 0
162 183 0
160 181 0
159 180 0
163 185 0
164 185 0
159 180 0
158 180 0
162 184 0
158 180 0
155 176 0
150 171 0
158 180 0
163 185 0
160 182 0
150 172 0
159 181 0
157 178 0
159 181 0
156 177 0
163 184 0
161 183 0
160 181 0
149 171 0
150 172 0
155 178 0
157 179 0
148 171 0
169 191 0
155 177 0
158 180 0
146 167 0
155 177 0
142 164 0
156 178 0
149 172 0
152 174 0
150 172 0
152 174 0
148 169 0
144 167 0
144 166 0
145 168 0
137 157 0
145 166 0
149 170 0
152 173 0
145 167 0
141 162 0
139 161 0
145 167 0
141 161 0
146 168 0
145 165 0
148 170 0
146 167 0
136 157 0
137 157 0
145 166 0
145 166 0
140 160 0
152 173 0
135 156 0
150 171 0
143 163 0
152 173 0
133 153 0
140 161 0
138 159 0
129 150 0
134 154 0
136 157 0
131 151 0
128 149 0
135 155 0
121 141 0
121 140 0
124 145 0
122 141 0
128 148 0
130 150 0
125 145 0
124 143 0
120 139 0
121 141 0
122 140 0
124 143 0
129 147 0
112 131 0
113 132 0
125 144 0
122 139 0
123 142 0
105 123 0
119 136 0
117 136 0
118 136 0
120 139 0
117 135 0
131 150 0
116 134 0
120 139 0
124 142 0
125 143 0
123 142 0
117 135 0
120 138 0
116 135 0
114 133 0
112 129 0
107 124 0
109 127 0
121 140 0
125 141 0
118 137 0
123 138 0
114 130 0
115 133 0
110 128 0
106 124 0
112 130 0
114 130 0
128 145 0
116 133 0
124 140 0
128 144 0
129 144 0
120 139 0
114 131 0
119 136 0
121 137 0
106 122 0
120 137 0
124 139 0
124 141 0
129 146 0
122 140 0
126 143 0
105 122 0
124 139 0
116 131 0
131 148 0
125 143 0
129 145 0
126 143 0
136 151 0
128 144 0
134 152 0
120 137 0
123 138 0
122 138 0
129 145 0
126 142 0
132 150 0
124 137 0
138 155 0
137 153 0
122 136 0
137 153 0
121 137 0
133 146 0
138 153 0
125 138 0
119 135 0
124 138 0
125 137 0
133 149 0
133 146 0
132 147 0
129 142 0
118 132 0
114 127 0
141 157 0
128 139 0
122 134 0
133 146 0
125 137 0
130 142 0
128 140 0
113 125 0
127 138 0
122 133 0
118 128 0
121 131 0
131 139 0
124 134 0
123 132 0
125 133 0
129 136 0
114 122 0
130 138 0
131 139 0
120 127 0
129 137 0
127 136 0
119 125 0
127 137 0
114 121 0
128 134 0
125 133 0
119 124 0
117 119 0
112 115 0
124 127 0
123 129 0
118 119 0
124 129 0
113 114 0
126 127 0
120 122 0
119 121 0
111 113 0
120 122 0
121 121 0
116 118 0
114 113 0
123 125 0
110 111 0
119 119 0
98 92 0
105 102 0
113 112 0
108 104 0
102 101 0
112 110 0
120 117 0
104 101 0
103 97 0
112 106 0
105 100 0
108 104 0
112 108 0
112 107 0
114 111 0
107 103 0
111 107 0
111 105 0
119 115 0
113 109 0
123 119 0
111 109 0
117 113 0
115 110 0
119 114 0
118 113 0
109 104 0
114 110 0
124 121 0
119 117 0
120 121 0
124 123 0
123 120 0
132 131 0
137 139 0
131 129 0
131 129 0
136 138 0
134 134 0
145 150 0
135 137 0
133 136 0
137 140 0
140 143 0
142 144 0
143 147 0
145 150 0
146 153 0
148 156 0
143 150 0
150 156 0
148 153 0
150 157 0
147 156 0
152 160 0
149 156 0
156 165 0
153 165 0
157 164 0
151 161 0
160 170 0
157 167 0
155 164 0
159 171 0
157 169 0
155 168 0
164 177 0
160 171 0
161 172 0
160 174 0
163 177 0
160 174 0
159 171 0
159 174 0
163 174 0
165 181 0
167 184 0
163 180 0
162 177 0
159 175 0
165 184 0
162 179 0
161 177 0
163 180 0
171 194 0
173 195 0
174 196 0
172 196 0
173 195 0
174 196 0
173 196 0
172 194 0
174 197 0
170 193 0
175 198 0
173 196 0
173 196 0
172 195 0
173 195 0
172 195 0
174 196 0
173 196 0
176 198 0
175 198 0
172 195 0
172 194 0
175 198 0
175 197 0
172 195 0
174 197 0
174 196 0
173 195 0
172 194 0
173 195 0
173 195 0
172 193 0
170 191 0
169 192 0
175 197 0
173 195 0
174 195 0
171 193 0
173 194 0
172 194 0
169 191 0
173 194 0
173 194 0
174 195 0
174 196 0
170 193 0
172 194 0
175 196 0
171 193 0
174 194 0
170 191 0
168 190 0
171 192 0
172 194 0
173 194 0
174 195 0
176 196 0
170 191 0
172 193 0
170 191 0
170 192 0
175 195 0
173 193 0
172 193 0
170 192 0
170 190 0
166 186 0
167 187 0
170 190 0
172 193 0
174 194 0
168 189 0
171 192 0
172 193 0
170 190 0
165 185 0
171 193 0
170 191 0
166 186 0
162 184 0
167 188 0
164 185 0
166 187 0
161 183 0
172 192 0
169 190 0
156 178 0
163 184 0
169 190 0
165 187 0
163 184 0
169 191 0
163 184 0
164 185 0
159 180 0
167 188 0
159 181 0
159 181 0
157 178 0
155 177 0
158 179 0
158 180 0
162 184 0
156 177 0
156 178 0
162 183 0
158 180 0
161 183 0
151 171 0
151 173 0
161 183 0
160 182 0
155 175 0
155 175 0
157 179 0
158 179 0
153 176 0
158 181 0
151 172 0
157 179 0
155 176 0
153 176 0
149 171 0
154 176 0
154 175 0
148 170 0
152 174 0
158 180 0
156 177 0
141 164 0
154 176 0
150 173 0
157 179 0
150 171 0
153 176 0
147 169 0
143 164 0
147 168 0
151 173 0
147 169 0
139 161 0
150 172 0
142 164 0
150 171 0
143 164 0
148 170 0
153 175 0
143 164 0
148 170 0
135 156 0
137 158 0
138 159 0
139 160 0
140 161 0
129 151 0
148 169 0
131 152 0
128 149 0
134 155 0
145 166 0
134 155 0
139 161 0
134 154 0
139 160 0
139 160 0
146 167 0
140 161 0
135 155 0
128 148 0
135 154 0
126 146 0
132 152 0
130 151 0
133 153 0
130 151 0
120 140 0
127 147 0
128 148 0
134 153 0
137 157 0
134 154 0
126 145 0
129 147 0
127 148 0
130 149 0
128 148 0
126 146 0
114 131 0
120 139 0
128 148 0
119 138 0
124 143 0
124 141 0
116 135 0
118 135 0
122 140 0
119 138 0
118 136 0
129 148 0
116 132 0
118 135 0
115 134 0
116 134 0
109 127 0
119 138 0
116 133 0
117 134 0
124 141 0
122 139 0
134 153 0
115 131 0
117 134 0
122 137 0
126 145 0
124 142 0
124 141 0
111 128 0
122 139 0
122 139 0
112 130 0
118 134 0
135 154 0
133 151 0
117 133 0
112 129 0
126 145 0
122 138 0
124 141 0
121 138 0
111 127 0
122 138 0
118 136 0
128 146 0
128 146 0
115 131 0
121 137 0
133 151 0
126 142 0
128 144 0
123 139 0
120 137 0
130 147 0
121 136 0
125 141 0
122 138 0
119 135 0
126 144 0
125 142 0
133 149 0
123 138 0
129 145 0
127 145 0
136 152 0
127 143 0
132 147 0
132 146 0
125 136 0
135 151 0
136 151 0
128 141 0
143 155 0
130 143 0
132 147 0
131 146 0
129 146 0
140 156 0
130 143 0
130 144 0
132 147 0
132 148 0
131 147 0
138 151 0
124 136 0
122 135 0
123 135 0
129 143 0
127 139 0
131 142 0
126 138 0
130 141 0
127 136 0
135 144 0
135 146 0
117 126 0
124 133 0
129 139 0
127 135 0
131 142 0
136 147 0
132 143 0
126 134 0
133 141 0
116 125 0
129 135 0
133 141 0
127 133 0
123 129 0
120 124 0
118 124 0
119 125 0
123 130 0
119 125 0
124 128 0
121 125 0
122 127 0
119 123 0
127 129 0
124 127 0
119 119 0
121 122 0
122 122 0
120 123 0
111 113 0
119 119 0
101 99 0
123 125 0
112 114 0
115 116 0
113 110 0
111 109 0
108 103 0
110 107 0
116 115 0
116 113 0
126 125 0
112 110 0
111 107 0
113 110 0
113 109 0
111 108 0
112 109 0
120 117 0
115 112 0
124 123 0
109 104 0
113 108 0
114 113 0
120 119 0
117 113 0
111 107 0
126 125 0
116 113 0
116 111 0
123 124 0
121 120 0
125 121 0
125 123 0
130 128 0
125 122 0
122 119 0
133 133 0
122 121 0
127 126 0
138 142 0
139 143 0
130 131 0
134 135 0
139 144 0
133 138 0
134 139 0
141 144 0
150 155 0
143 146 0
135 139 0
151 157 0
141 143 0
151 156 0
151 159 0
149 156 0
150 156 0
148 156 0
147 156 0
154 162 0
154 163 0
156 167 0
160 170 0
153 160 0
157 168 0
152 159 0
149 159 0
160 172 0
159 172 0
155 166 0
153 162 0
151 160 0
163 175 0
160 174 0
158 171 0
155 165 0
161 174 0
157 169 0
159 174 0
163 178 0
160 175 0
161 178 0
164 180 0
156 170 0
168 185 0
161 175 0
163 179 0
174 197 0
174 196 0
173 196 0
174 197 0
172 195 0
172 194 0
172 195 0
174 197 0
173 196 0
172 194 0
172 195 0
173 196 0
175 198 0
174 197 0
171 194 0
174 196 0
176 198 0
173 195 0
175 197 0
174 196 0
173 195 0
175 197 0
174 196 0
171 194 0
172 194 0
175 198 0
174 196 0
175 197 0
174 196 0
174 195 0
170 192 0
174 196 0
172 193 0
174 196 0
173 194 0
174 196 0
172 193 0
174 195 0
173 194 0
174 195 0
171 193 0
173 195 0
174 195 0
173 194 0
176 196 0
172 193 0
172 194 0
172 193 0
169 191 0
172 192 0
166 187 0
177 198 0
170 192 0
169 190 0
170 191 0
171 192 0
170 191 0
170 191 0
171 192 0
173 194 0
174 194 0
171 192 0
170 191 0
169 190 0
161 181 0
169 191 0
170 192 0
169 190 0
169 189 0
175 194 0
170 191 0
169 190 0
162 183 0
164 184 0
171 191 0
166 187 0
168 189 0
167 187 0
165 187 0
168 188 0
162 183 0
164 185 0
165 187 0
162 184 0
166 188 0
158 180 0
162 183 0
164 185 0
165 187 0
161 181 0
160 182 0
159 182 0
158 179 0
162 183 0
162 183 0
163 184 0
161 183 0
164 185 0
160 182 0
163 185 0
157 178 0
157 179 0
155 177 0
157 178 0
158 180 0
158 179 0
151 173 0
156 177 0
154 177 0
155 177 0
153 175 0
163 184 0
155 178 0
158 179 0
155 177 0
158 181 0
157 178 0
153 174 0
157 178 0
157 178 0
153 174 0
157 179 0
156 177 0
149 171 0
160 182 0
153 176 0
148 170 0
152 174 0
151 172 0
142 164 0
152 175 0
154 176 0
156 177 0
148 170 0
142 163 0
144 165 0
148 170 0
147 168 0
144 165 0
150 172 0
147 169 0
140 163 0
149 171 0
143 165 0
143 164 0
143 164 0
145 167 0
149 170 0
145 167 0
138 160 0
145 167 0
141 163 0
147 167 0
146 168 0
143 165 0
139 160 0
144 165 0
143 165 0
142 163 0
144 166 0
149 170 0
143 164 0
136 157 0
138 159 0
134 154 0
134 154 0
134 155 0
136 156 0
134 155 0
133 154 0
141 161 0
126 147 0
132 153 0
135 155 0
123 143 0
137 158 0
128 147 0
125 145 0
130 150 0
129 149 0
131 152 0
121 143 0
118 137 0
132 152 0
130 149 0
125 144 0
124 144 0
123 142 0
124 144 0
115 135 0
125 143 0
122 140 0
132 151 0
120 138 0
124 143 0
133 153 0
123 143 0
129 147 0
125 143 0
118 137 0
127 146 0
127 144 0
114 132 0
121 138 0
110 127 0
127 145 0
119 135 0
124 143 0
125 143 0
122 141 0
124 143 0
131 148 0
111 130 0
130 149 0
123 138 0
126 144 0
128 146 0
119 136 0
123 141 0
116 133 0
120 138 0
121 138 0
124 143 0
120 137 0
128 144 0
131 149 0
123 138 0
127 147 0
125 142 0
127 142 0
110 128 0
132 149 0
127 145 0
122 141 0
130 144 0
142 160 0
121 139 0
127 143 0
124 140 0
123 140 0
124 140 0
122 138 0
123 141 0
123 139 0
139 156 0
119 136 0
129 143 0
138 155 0
126 142 0
133 149 0
130 145 0
135 153 0
134 152 0
133 148 0
138 154 0
133 150 0
127 143 0
118 133 0
130 146 0
130 145 0
142 158 0
130 146 0
126 140 0
124 136 0
132 145 0
134 149 0
137 151 0
138 152 0
140 156 0
136 152 0
129 141 0
125 136 0
142 155 0
128 140 0
134 146 0
129 143 0
131 146 0
127 137 0
133 146 0
129 141 0
124 136 0
137 150 0
137 152 0
132 142 0
129 140 0
132 143 0
122 129 0
126 135 0
130 138 0
111 120 0
136 145 0
124 132 0
124 133 0
123 129 0
137 147 0
125 132 0
121 126 0
125 130 0
128 136 0
129 135 0
132 137 0
114 118 0
133 139 0
115 121 0
125 132 0
125 129 0
130 134 0
127 131 0
118 120 0
124 124 0
134 139 0
118 117 0
122 123 0
124 125 0
124 125 0
124 123 0
111 111 0
119 119 0
115 113 0
126 126 0
120 116 0
120 119 0
114 112 0
107 105 0
113 111 0
115 113 0
105 102 0
116 112 0
123 121 0
117 116 0
122 120 0
110 107 0
117 116 0
116 112 0
109 102 0
117 111 0
128 128 0
113 107 0
116 115 0
123 121 0
110 105 0
120 119 0
127 125 0
135 134 0
120 118 0
126 126 0
129 128 0
132 132 0
125 125 0
135 133 0
128 127 0
131 133 0
129 130 0
130 133 0
133 136 0
127 129 0
138 138 0
141 143 0
138 141 0
140 145 0
138 141 0
138 142 0
146 153 0
143 147 0
144 148 0
147 152 0
148 152 0
147 152 0
145 150 0
149 156 0
142 148 0
159 167 0
143 145 0
150 158 0
150 160 0
145 154 0
154 161 0
150 156 0
152 163 0
158 170 0
154 165 0
153 161 0
156 168 0
162 176 0
161 173 0
158 172 0
156 167 0
166 180 0
155 167 0
161 175 0
158 170 0
160 173 0
158 173 0
161 177 0
162 177 0
164 181 0
159 173 0
162 179 0
162 179 0
160 173 0
175 197 0
174 197 0
170 193 0
173 197 0
174 197 0
174 197 0
174 197 0
173 195 0
173 196 0
173 196 0
173 195 0
172 195 0
169 192 0
171 194 0
173 195 0
171 194 0
175 198 0
171 194 0
170 193 0
175 197 0
173 195 0
174 196 0
173 195 0
174 196 0
170 191 0
170 192 0
173 195 0
170 192 0
172 194 0
172 194 0
170 192 0
168 189 0
175 196 0
171 193 0
173 195 0
177 198 0
172 194 0
169 191 0
172 193 0
172 194 0
174 196 0
170 192 0
170 192 0
171 193 0
175 196 0
173 194 0
169 191 0
174 194 0
169 190 0
172 193 0
165 187 0
174 195 0
170 191 0
171 191 0
169 190 0
174 195 0
170 191 0
173 194 0
174 195 0
177 198 0
170 190 0
168 190 0
174 194 0
171 192 0
171 192 0
171 191 0
169 189 0
162 182 0
171 192 0
167 188 0
169 189 0
168 188 0
166 187 0
164 186 0
167 188 0
168 190 0
168 190 0
166 187 0
168 189 0
163 184 0
168 189 0
169 189 0
166 187 0
160 181 0
168 189 0
163 184 0
163 186 0
166 187 0
160 181 0
167 188 0
163 184 0
160 182 0
160 182 0
164 185 0
156 178 0
160 180 0
158 181 0
164 186 0
157 180 0
160 182 0
162 183 0
156 178 0
155 176 0
160 180 0
155 177 0
162 183 0
152 173 0
158 179 0
164 186 0
158 180 0
155 177 0
151 173 0
153 175 0
161 183 0
155 177 0
152 174 0
153 176 0
151 173 0
151 173 0
150 172 0
150 172 0
156 177 0
156 178 0
160 182 0
157 180 0
151 173 0
152 174 0
156 178 0
148 169 0
150 172 0
145 167 0
147 169 0
159 181 0
154 176 0
155 176 0
140 162 0
151 173 0
146 168 0
149 171 0
147 169 0
145 166 0
150 171 0
144 166 0
152 174 0
142 163 0
152 173 0
153 174 0
147 169 0
134 156 0
142 164 0
144 166 0
139 161 0
141 162 0
138 159 0
137 159 0
143 165 0
134 155 0
141 163 0
140 161 0
131 153 0
138 158 0
142 163 0
140 161 0
137 157 0
136 157 0
143 164 0
133 154 0
134 155 0
136 157 0
133 154 0
134 157 0
140 159 0
131 152 0
126 146 0
133 153 0
139 159 0
135 155 0
126 144 0
131 152 0
118 139 0
138 157 0
120 140 0
131 151 0
132 153 0
139 159 0
117 134 0
131 149 0
123 143 0
124 145 0
141 161 0
120 140 0
122 142 0
111 129 0
124 143 0
128 146 0
127 147 0
127 146 0
126 144 0
129 148 0
125 145 0
132 151 0
128 148 0
114 133 0
117 136 0
134 156 0
114 130 0
125 144 0
127 145 0
124 142 0
126 145 0
117 136 0
114 134 0
131 149 0
112 130 0
121 137 0
120 137 0
130 147 0
111 130 0
122 139 0
117 135 0
113 130 0
122 141 0
129 146 0
133 152 0
126 144 0
123 141 0
132 151 0
133 150 0
134 153 0
126 145 0
129 149 0
135 152 0
127 144 0
129 147 0
120 136 0
130 148 0
137 155 0
126 144 0
122 139 0
132 150 0
126 144 0
119 136 0
126 143 0
126 143 0
127 145 0
130 147 0
131 147 0
135 153 0
140 157 0
122 138 0
133 149 0
126 141 0
134 151 0
134 152 0
137 155 0
128 145 0
134 149 0
121 138 0
143 161 0
136 153 0
138 153 0
133 148 0
136 152 0
136 151 0
138 152 0
127 141 0
135 152 0
129 145 0
134 149 0
136 150 0
130 143 0
132 146 0
126 138 0
138 151 0
139 150 0
134 147 0
130 144 0
136 149 0
128 141 0
136 151 0
135 149 0
144 157 0
126 138 0
131 140 0
126 139 0
134 145 0
125 134 0
134 144 0
129 141 0
124 134 0
125 134 0
128 138 0
126 138 0
131 139 0
125 131 0
125 135 0
130 140 0
114 121 0
140 148 0
133 144 0
118 124 0
135 143 0
132 140 0
128 135 0
120 128 0
123 128 0
126 131 0
119 122 0
122 127 0
121 123 0
120 123 0
127 131 0
128 131 0
119 122 0
124 130 0
121 124 0
125 125 0
122 123 0
113 114 0
121 123 0
118 117 0
121 118 0
119 117 0
116 115 0
116 111 0
119 119 0
109 108 0
120 121 0
116 113 0
108 106 0
115 112 0
112 110 0
114 110 0
122 122 0
120 119 0
120 118 0
117 111 0
122 117 0
122 120 0
115 111 0
119 116 0
119 118 0
114 111 0
123 123 0
128 127 0
127 126 0
129 127 0
126 126 0
123 124 0
128 131 0
134 134 0
141 141 0
128 129 0
126 124 0
127 125 0
135 133 0
138 144 0
136 138 0
132 134 0
138 138 0
133 134 0
130 130 0
144 150 0
139 140 0
144 150 0
142 146 0
149 156 0
147 153 0
155 162 0
147 155 0
146 153 0
148 155 0
145 151 0
150 156 0
151 159 0
147 153 0
155 165 0
153 165 0
145 151 0
154 164 0
154 163 0
153 163 0
152 160 0
157 166 0
158 168 0
156 166 0
161 173 0
160 171 0
163 177 0
156 169 0
162 173 0
153 164 0
164 179 0
158 171 0
163 177 0
164 179 0
161 175 0
160 172 0
167 181 0
161 176 0
169 193 0
172 194 0
174 196 0
172 195 0
171 195 0
174 197 0
173 196 0
173 196 0
174 196 0
173 196 0
172 195 0
171 193 0
174 196 0
172 196 0
172 195 0
173 196 0
173 195 0
172 194 0
169 191 0
173 196 0
172 195 0
172 195 0
176 197 0
171 193 0
172 193 0
171 193 0
175 196 0
168 190 0
172 193 0
174 195 0
173 195 0
174 195 0
171 193 0
175 197 0
174 196 0
172 194 0
174 195 0
172 193 0
171 193 0
172 194 0
173 194 0
174 195 0
171 192 0
171 192 0
172 193 0
171 193 0
172 193 0
174 196 0
173 194 0
173 194 0
171 192 0
169 191 0
171 193 0
168 187 0
173 194 0
168 189 0
168 188 0
172 192 0
167 188 0
171 193 0
166 187 0
172 194 0
171 192 0
171 192 0
170 191 0
170 192 0
164 186 0
164 185 0
175 196 0
169 190 0
169 190 0
166 187 0
168 189 0
174 195 0
165 186 0
162 183 0
163 185 0
167 188 0
166 187 0
166 188 0
168 190 0
167 188 0
166 188 0
160 181 0
161 182 0
165 186 0
161 183 0
159 181 0
160 182 0
161 182 0
161 183 0
166 187 0
162 184 0
166 189 0
162 183 0
163 185 0
161 184 0
153 175 0
157 179 0
160 182 0
161 183 0
159 182 0
155 177 0
155 178 0
155 178 0
159 181 0
156 178 0
153 175 0
153 175 0
155 176 0
153 176 0
157 179 0
156 178 0
159 181 0
154 176 0
157 179 0
159 181 0
151 173 0
156 178 0
151 172 0
161 183 0
155 176 0
150 172 0
147 169 0
157 179 0
155 178 0
150 173 0
156 178 0
156 178 0
152 174 0
150 173 0
156 178 0
152 174 0
148 171 0
152 173 0
145 167 0
153 174 0
156 178 0
149 171 0
154 176 0
147 169 0
145 166 0
141 164 0
146 168 0
144 166 0
148 170 0
143 165 0
148 170 0
146 167 0
146 168 0
144 165 0
145 166 0
143 165 0
143 164 0
131 153 0
142 164 0
143 166 0
131 152 0
141 164 0
140 161 0
144 166 0
133 155 0
134 154 0
135 155 0
134 155 0
138 159 0
131 151 0
136 156 0
137 158 0
145 164 0
145 167 0
124 145 0
138 157 0
132 153 0
136 157 0
149 169 0
130 148 0
133 153 0
129 149 0
131 151 0
133 154 0
135 155 0
141 160 0
131 151 0
129 149 0
132 151 0
137 157 0
124 144 0
127 147 0
122 142 0
132 153 0
129 149 0
136 156 0
128 148 0
142 162 0
128 149 0
123 143 0
118 137 0
127 147 0
130 149 0
115 134 0
123 142 0
124 145 0
143 162 0
125 145 0
123 143 0
129 147 0
128 146 0
128 146 0
113 130 0
117 136 0
125 144 0
124 143 0
128 146 0
124 142 0
127 144 0
115 133 0
127 145 0
116 135 0
126 144 0
121 139 0
119 136 0
131 150 0
126 146 0
120 138 0
126 144 0
121 137 0
113 129 0
134 152 0
130 149 0
127 145 0
125 143 0
122 137 0
122 139 0
124 142 0
135 152 0
127 143 0
124 141 0
123 140 0
122 140 0
135 153 0
124 142 0
128 145 0
134 153 0
118 134 0
143 162 0
130 143 0
138 157 0
116 132 0
134 152 0
134 151 0
141 159 0
131 149 0
125 141 0
134 151 0
127 140 0
138 156 0
138 154 0
131 147 0
117 130 0
128 144 0
135 151 0
132 146 0
135 154 0
129 145 0
131 145 0
146 162 0
145 160 0
136 149 0
138 153 0
144 159 0
138 154 0
139 154 0
134 146 0
127 141 0
129 142 0
131 143 0
134 148 0
125 138 0
133 145 0
131 142 0
132 145 0
128 141 0
136 148 0
134 146 0
129 139 0
135 144 0
137 147 0
132 140 0
132 143 0
135 147 0
131 135 0
137 147 0
124 133 0
137 144 0
133 144 0
135 145 0
124 135 0
125 135 0
125 131 0
119 126 0
127 134 0
133 142 0
128 132 0
133 139 0
131 139 0
125 130 0
133 138 0
130 136 0
122 129 0
119 121 0
127 131 0
118 121 0
132 136 0
126 128 0
121 125 0
114 117 0
123 128 0
130 136 0
125 126 0
128 128 0
119 122 0
127 129 0
123 125 0
117 118 0
127 128 0
114 115 0
123 121 0
133 134 0
123 122 0
114 109 0
126 125 0
112 112 0
117 114 0
115 111 0
120 116 0
115 113 0
135 137 0
124 126 0
128 126 0
121 120 0
132 129 0
124 124 0
128 129 0
128 128 0
138 138 0
130 131 0
129 128 0
128 129 0
141 143 0
127 121 0
128 127 0
131 132 0
130 133 0
131 133 0
136 140 0
140 140 0
128 128 0
138 140 0
137 139 0
133 135 0
140 144 0
135 138 0
144 147 0
138 141 0
131 133 0
147 152 0
145 153 0
141 147 0
148 155 0
144 152 0
147 152 0
152 161 0
153 160 0
149 158 0
149 156 0
150 154 0
155 166 0
148 156 0
154 163 0
155 162 0
155 163 0
153 161 0
157 168 0
150 160 0
158 170 0
152 163 0
149 158 0
155 168 0
156 168 0
166 179 0
155 167 0
160 172 0
156 167 0
157 169 0
159 174 0
160 174 0
159 174 0
163 175 0
161 177 0
172 195 0
169 191 0
172 195 0
171 194 0
173 197 0
170 193 0
170 193 0
174 197 0
171 193 0
174 197 0
171 193 0
174 196 0
172 195 0
174 196 0
171 194 0
173 195 0
174 196 0
172 194 0
174 196 0
169 192 0
174 196 0
175 196 0
172 194 0
174 196 0
173 194 0
174 196 0
173 195 0
172 195 0
176 196 0
172 194 0
171 193 0
176 197 0
173 195 0
173 194 0
170 191 0
175 197 0
174 195 0
173 195 0
170 191 0
172 194 0
170 191 0
173 193 0
174 195 0
172 194 0
173 195 0
175 197 0
176 197 0
173 194 0
170 192 0
170 192 0
171 193 0
170 192 0
170 191 0
169 190 0
170 191 0
166 187 0
170 190 0
170 192 0
172 193 0
167 188 0
173 194 0
164 185 0
170 191 0
172 193 0
170 191 0
174 195 0
170 191 0
167 188 0
170 191 0
167 189 0
161 182 0
168 189 0
168 189 0
170 191 0
166 186 0
166 187 0
164 185 0
167 187 0
161 182 0
169 190 0
159 181 0
164 185 0
167 189 0
163 186 0
163 185 0
162 184 0
164 186 0
162 184 0
160 182 0
162 184 0
163 184 0
168 189 0
163 184 0
160 182 0
158 180 0
159 180 0
160 183 0
167 189 0
166 188 0
160 183 0
164 185 0
158 180 0
159 180 0
159 180 0
155 178 0
154 175 0
165 187 0
161 183 0
156 179 0
152 174 0
151 174 0
154 177 0
156 179 0
159 181 0
160 182 0
148 170 0
158 181 0
157 178 0
151 172 0
154 176 0
155 177 0
159 180 0
156 178 0
152 175 0
148 170 0
159 182 0
150 172 0
158 181 0
152 174 0
150 173 0
155 176 0
146 168 0
148 170 0
153 174 0
153 174 0
148 169 0
147 169 0
153 175 0
150 172 0
145 167 0
155 178 0
139 161 0
149 171 0
143 165 0
141 162 0
149 171 0
149 172 0
137 159 0
146 168 0
148 170 0
142 164 0
150 171 0
148 170 0
147 169 0
141 161 0
140 162 0
135 156 0
145 165 0
143 164 0
128 148 0
138 160 0
142 164 0
146 167 0
140 161 0
145 166 0
139 159 0
135 155 0
134 155 0
144 165 0
139 160 0
141 162 0
128 149 0
147 168 0
134 156 0
129 150 0
129 150 0
132 153 0
127 148 0
141 162 0
141 162 0
125 144 0
137 157 0
127 146 0
135 155 0
133 153 0
139 160 0
141 162 0
132 152 0
140 160 0
127 147 0
135 155 0
115 133 0
121 140 0
127 147 0
130 150 0
124 144 0
116 134 0
129 148 0
123 142 0
126 145 0
134 155 0
134 153 0
131 149 0
124 143 0
123 142 0
130 149 0
143 164 0
126 146 0
131 151 0
126 144 0
135 154 0
116 134 0
125 144 0
128 148 0
136 155 0
120 137 0
135 153 0
128 145 0
120 139 0
125 145 0
140 159 0
124 142 0
123 141 0
133 151 0
111 128 0
130 148 0
126 144 0
131 148 0
135 153 0
140 160 0
129 148 0
128 146 0
137 156 0
139 158 0
132 152 0
130 149 0
128 146 0
124 142 0
132 150 0
133 150 0
130 148 0
116 131 0
133 152 0
123 140 0
120 138 0
131 148 0
134 153 0
139 158 0
138 156 0
134 150 0
129 144 0
133 151 0
135 154 0
131 147 0
129 146 0
131 147 0
130 147 0
138 155 0
134 152 0
139 156 0
133 149 0
147 165 0
125 140 0
122 137 0
132 147 0
131 147 0
127 140 0
143 159 0
132 148 0
138 153 0
137 152 0
140 154 0
138 152 0
139 155 0
132 144 0
128 139 0
139 152 0
136 150 0
132 146 0
135 148 0
125 139 0
137 149 0
126 138 0
133 147 0
136 147 0
132 145 0
134 146 0
128 139 0
117 129 0
130 142 0
131 144 0
136 147 0
144 154 0
129 140 0
141 150 0
129 138 0
136 147 0
126 134 0
123 131 0
126 137 0
128 139 0
128 137 0
136 145 0
132 141 0
134 142 0
131 140 0
124 128 0
122 127 0
135 142 0
127 133 0
123 129 0
122 126 0
133 141 0
127 130 0
127 135 0
127 129 0
119 122 0
128 131 0
122 126 0
125 131 0
120 122 0
130 131 0
124 125 0
127 127 0
130 134 0
123 123 0
132 134 0
129 133 0
130 128 0
124 124 0
129 130 0
120 120 0
126 128 0
129 127 0
121 120 0
118 119 0
126 126 0
116 111 0
119 117 0
123 123 0
124 124 0
123 120 0
131 131 0
136 137 0
124 124 0
127 127 0
129 130 0
129 130 0
127 129 0
135 133 0
137 139 0
139 142 0
133 132 0
134 136 0
136 136 0
135 135 0
129 129 0
138 139 0
136 137 0
136 137 0
131 133 0
136 137 0
144 148 0
140 143 0
144 148 0
135 140 0
140 144 0
142 143 0
139 145 0
152 158 0
141 144 0
144 151 0
152 160 0
151 160 0
144 152 0
148 154 0
145 149 0
152 160 0
146 154 0
156 166 0
161 175 0
150 157 0
152 161 0
149 157 0
157 167 0
157 168 0
149 157 0
161 169 0
153 164 0
160 171 0
160 175 0
158 171 0
158 170 0
163 178 0
161 173 0
163 178 0
165 177 0
157 169 0
156 170 0
162 177 0
174 196 0
171 194 0
173 196 0
173 196 0
173 195 0
172 195 0
172 195 0
174 195 0
174 196 0
170 193 0
172 194 0
172 194 0
170 192 0
170 193 0
173 196 0
169 193 0
173 196 0
173 196 0
171 193 0
170 191 0
173 195 0
174 196 0
173 195 0
173 195 0
172 195 0
175 196 0
170 193 0
172 194 0
171 192 0
173 195 0
174 195 0
170 192 0
178 199 0
173 194 0
170 191 0
171 193 0
173 194 0
169 191 0
172 193 0
173 194 0
171 193 0
172 194 0
176 197 0
170 191 0
176 197 0
173 193 0
171 193 0
175 196 0
169 191 0
169 191 0
174 195 0
168 189 0
175 197 0
171 192 0
173 194 0
172 192 0
174 195 0
173 194 0
170 191 0
173 194 0
167 189 0
174 194 0
168 189 0
172 193 0
174 194 0
163 185 0
167 189 0
166 187 0
169 190 0
173 194 0
170 192 0
168 189 0
161 183 0
166 187 0
166 187 0
166 187 0
166 187 0
167 189 0
167 189 0
161 183 0
165 187 0
163 185 0
161 183 0
156 178 0
164 186 0
165 186 0
160 181 0
157 179 0
164 186 0
159 181 0
165 187 0
163 184 0
164 184 0
170 192 0
166 189 0
163 185 0
163 185 0
156 178 0
163 186 0
158 180 0
161 184 0
164 185 0
158 181 0
160 182 0
156 179 0
158 180 0
156 178 0
157 179 0
148 170 0
157 179 0
156 177 0
165 187 0
154 176 0
161 183 0
160 182 0
150 172 0
160 182 0
154 176 0
158 180 0
152 175 0
152 174 0
152 174 0
158 180 0
149 171 0
148 168 0
156 179 0
149 171 0
157 178 0
146 168 0
154 176 0
154 177 0
147 169 0
157 179 0
148 170 0
149 172 0
155 177 0
151 174 0
145 167 0
158 179 0
152 174 0
148 169 0
154 177 0
156 178 0
150 172 0
140 162 0
142 163 0
150 171 0
148 169 0
154 176 0
145 166 0
135 156 0
156 177 0
144 166 0
152 174 0
147 169 0
151 173 0
144 166 0
137 159 0
144 167 0
140 161 0
136 157 0
146 167 0
138 159 0
134 154 0
133 153 0
137 158 0
136 157 0
135 156 0
145 166 0
141 162 0
141 161 0
141 162 0
138 160 0
139 159 0
129 149 0
138 160 0
143 163 0
133 153 0
132 152 0
132 152 0
140 160 0
137 159 0
131 151 0
134 155 0
140 161 0
135 155 0
133 153 0
135 155 0
136 157 0
126 147 0
121 140 0
131 150 0
131 152 0
130 151 0
137 157 0
131 151 0
132 151 0
128 148 0
121 141 0
123 144 0
125 144 0
132 152 0
125 144 0
134 152 0
123 143 0
128 148 0
122 141 0
130 151 0
122 142 0
123 142 0
127 146 0
127 147 0
123 141 0
135 155 0
128 148 0
133 153 0
134 153 0
136 154 0
129 147 0
127 144 0
137 153 0
131 150 0
130 148 0
133 151 0
135 152 0
135 151 0
124 141 0
128 146 0
131 149 0
134 150 0
128 146 0
131 148 0
122 140 0
113 133 0
123 140 0
137 154 0
145 166 0
132 149 0
134 153 0
142 162 0
137 155 0
144 163 0
139 156 0
132 151 0
134 154 0
135 152 0
125 141 0
127 144 0
131 147 0
132 151 0
131 148 0
131 150 0
134 150 0
132 147 0
142 158 0
137 153 0
135 151 0
134 153 0
143 160 0
138 154 0
125 139 0
134 151 0
124 139 0
135 150 0
138 153 0
137 154 0
137 154 0
137 154 0
137 152 0
141 156 0
139 154 0
136 151 0
124 136 0
123 136 0
138 154 0
133 145 0
135 150 0
140 155 0
128 141 0
141 152 0
136 149 0
132 145 0
136 153 0
130 145 0
134 148 0
134 147 0
139 152 0
133 146 0
138 153 0
137 148 0
139 151 0
137 149 0
138 149 0
135 143 0
132 144 0
140 149 0
134 145 0
137 149 0
131 141 0
142 154 0
138 147 0
132 143 0
127 136 0
134 145 0
129 136 0
131 141 0
130 139 0
137 146 0
136 145 0
127 134 0
122 129 0
131 136 0
131 135 0
125 133 0
136 143 0
134 139 0
129 135 0
123 126 0
123 128 0
136 142 0
134 138 0
125 127 0
130 135 0
126 127 0
132 136 0
126 129 0
131 135 0
137 139 0
128 133 0
126 128 0
132 134 0
133 135 0
120 119 0
127 127 0
136 137 0
130 132 0
126 126 0
124 125 0
118 117 0
134 136 0
123 121 0
129 128 0
133 138 0
128 130 0
133 134 0
125 126 0
126 128 0
128 130 0
132 133 0
129 129 0
132 134 0
127 127 0
139 141 0
128 128 0
135 138 0
134 135 0
143 147 0
137 139 0
138 140 0
140 144 0
134 133 0
140 145 0
134 135 0
147 153 0
142 147 0
144 148 0
150 152 0
144 148 0
139 143 0
139 142 0
141 147 0
141 145 0
151 158 0
155 164 0
142 147 0
148 157 0
146 152 0
149 156 0
152 162 0
148 157 0
146 153 0
151 160 0
143 150 0
152 163 0
144 150 0
152 162 0
155 166 0
156 168 0
156 165 0
159 171 0
154 162 0
159 170 0
154 166 0
158 171 0
156 169 0
159 170 0
160 172 0
158 169 0
159 171 0
161 173 0
171 194 0
174 196 0
173 195 0
170 193 0
172 194 0
177 199 0
174 197 0
174 197 0
173 196 0
172 194 0
174 196 0
173 195 0
174 197 0
174 197 0
175 197 0
174 196 0
172 194 0
174 197 0
172 195 0
171 192 0
169 191 0
175 197 0
171 193 0
175 197 0
171 193 0
175 196 0
173 195 0
175 197 0
174 196 0
171 192 0
172 194 0
175 197 0
173 195 0
173 194 0
172 194 0
172 194 0
172 195 0
175 197 0
172 194 0
173 195 0
172 193 0
171 193 0
174 194 0
174 195 0
171 193 0
169 189 0
171 192 0
171 191 0
170 191 0
169 190 0
171 193 0
173 194 0
169 190 0
170 191 0
169 190 0
172 192 0
169 190 0
170 191 0
173 194 0
171 193 0
171 192 0
164 186 0
169 191 0
161 183 0
169 190 0
169 190 0
167 188 0
168 190 0
167 188 0
168 190 0
163 185 0
169 191 0
163 184 0
163 185 0
167 189 0
167 189 0
158 180 0
167 188 0
168 190 0
170 191 0
164 184 0
162 184 0
158 179 0
160 182 0
167 188 0
165 186 0
166 188 0
163 184 0
160 181 0
163 185 0
158 179 0
157 179 0
154 176 0
157 180 0
163 184 0
160 182 0
153 176 0
161 184 0
165 188 0
161 182 0
160 181 0
150 172 0
158 180 0
159 181 0
157 179 0
157 179 0
162 184 0
158 180 0
156 178 0
157 179 0
154 176 0
160 182 0
157 179 0
156 177 0
150 172 0
157 180 0
157 179 0
156 178 0
158 180 0
155 177 0
159 181 0
153 176 0
150 173 0
150 172 0
151 173 0
150 173 0
158 180 0
155 178 0
153 175 0
158 180 0
154 177 0
155 176 0
154 176 0
146 168 0
145 166 0
144 167 0
144 166 0
149 171 0
148 171 0
144 167 0
147 169 0
145 166 0
141 164 0
146 168 0
150 171 0
144 167 0
147 170 0
145 167 0
143 165 0
147 169 0
151 174 0
142 164 0
148 169 0
146 168 0
144 166 0
143 165 0
145 166 0
141 162 0
141 164 0
141 162 0
143 165 0
148 169 0
142 164 0
130 150 0
139 160 0
141 164 0
130 151 0
137 157 0
143 163 0
131 153 0
135 156 0
139 160 0
139 160 0
138 160 0
139 160 0
137 159 0
130 151 0
137 157 0
143 163 0
140 160 0
137 155 0
140 161 0
138 158 0
131 152 0
134 156 0
133 154 0
132 152 0
135 156 0
119 138 0
129 150 0
143 163 0
129 149 0
135 155 0
128 149 0
139 160 0
137 157 0
130 149 0
129 149 0
131 150 0
127 146 0
136 154 0
128 146 0
126 146 0
131 150 0
136 157 0
136 155 0
129 148 0
127 145 0
134 154 0
125 144 0
131 150 0
137 156 0
132 151 0
132 150 0
128 146 0
130 148 0
133 152 0
121 139 0
136 156 0
133 151 0
137 155 0
141 159 0
127 148 0
136 154 0
134 153 0
132 149 0
126 144 0
133 151 0
129 146 0
135 154 0
137 155 0
124 142 0
130 149 0
133 151 0
125 142 0
129 148 0
127 144 0
137 155 0
129 147 0
126 145 0
139 158 0
127 145 0
126 144 0
133 152 0
130 144 0
134 152 0
134 151 0
132 151 0
141 160 0
135 153 0
132 151 0
128 146 0
137 156 0
140 158 0
119 134 0
140 157 0
135 151 0
142 155 0
138 157 0
141 157 0
144 158 0
135 151 0
138 156 0
134 149 0
135 151 0
132 147 0
131 147 0
139 155 0
133 150 0
135 151 0
140 157 0
132 149 0
138 152 0
139 157 0
131 144 0
127 141 0
138 152 0
143 158 0
125 136 0
138 151 0
129 143 0
132 145 0
135 151 0
132 146 0
129 140 0
138 152 0
138 151 0
133 147 0
135 145 0
135 147 0
137 149 0
133 147 0
140 151 0
142 155 0
135 148 0
134 145 0
141 153 0
139 150 0
135 146 0
139 150 0
136 146 0
129 139 0
128 137 0
136 145 0
128 137 0
126 133 0
134 138 0
127 136 0
132 137 0
135 141 0
137 144 0
134 144 0
130 138 0
130 138 0
137 145 0
139 149 0
125 132 0
137 144 0
135 143 0
137 141 0
130 132 0
121 126 0
137 143 0
125 133 0
139 140 0
129 132 0
140 144 0
135 136 0
122 126 0
133 137 0
127 131 0
129 133 0
125 126 0
130 131 0
134 136 0
138 143 0
126 127 0
126 128 0
130 133 0
132 132 0
128 131 0
129 130 0
134 137 0
130 131 0
129 129 0
133 135 0
129 132 0
130 130 0
139 141 0
140 144 0
138 141 0
133 136 0
135 135 0
136 140 0
131 134 0
141 144 0
129 132 0
135 140 0
139 141 0
134 135 0
132 134 0
147 148 0
141 143 0
136 141 0
147 154 0
142 149 0
130 134 0
146 150 0
140 142 0
149 156 0
141 144 0
150 154 0
150 160 0
145 152 0
142 148 0
140 145 0
151 159 0
151 158 0
149 157 0
152 159 0
151 158 0
150 159 0
160 172 0
153 165 0
153 161 0
155 166 0
161 173 0
152 162 0
161 170 0
159 173 0
155 163 0
150 160 0
158 170 0
157 168 0
159 170 0
159 170 0
157 169 0
158 168 0
159 170 0
162 176 0
171 194 0
172 195 0
170 193 0
174 197 0
173 195 0
176 198 0
171 194 0
172 195 0
176 197 0
175 198 0
173 195 0
177 199 0
171 194 0
174 196 0
172 195 0
170 192 0
171 194 0
173 196 0
172 194 0
174 196 0
174 195 0
172 195 0
175 197 0
168 190 0
175 196 0
176 197 0
174 196 0
176 197 0
170 192 0
174 195 0
175 196 0
172 194 0
171 192 0
171 192 0
170 192 0
172 194 0
174 195 0
172 193 0
174 195 0
170 191 0
174 196 0
170 191 0
168 189 0
173 195 0
168 190 0
168 190 0
169 192 0
172 193 0
176 197 0
171 193 0
172 193 0
171 192 0
169 191 0
167 188 0
173 194 0
167 188 0
173 194 0
164 185 0
170 191 0
168 188 0
173 194 0
170 192 0
168 189 0
170 192 0
169 191 0
166 188 0
167 189 0
162 183 0
165 186 0
168 189 0
165 187 0
168 190 0
167 189 0
158 180 0
162 183 0
161 181 0
166 189 0
169 191 0
168 190 0
163 185 0
161 182 0
166 186 0
164 185 0
164 187 0
167 189 0
160 181 0
164 187 0
162 183 0
156 179 0
160 182 0
157 179 0
158 180 0
164 186 0
158 180 0
164 185 0
155 177 0
157 178 0
161 183 0
160 182 0
160 182 0
159 180 0
161 183 0
155 177 0
160 182 0
155 178 0
155 177 0
157 179 0
156 179 0
157 179 0
165 187 0
151 174 0
159 181 0
154 176 0
154 176 0
164 187 0
158 180 0
156 179 0
156 178 0
154 177 0
160 182 0
155 177 0
151 173 0
153 175 0
155 177 0
152 175 0
154 175 0
158 181 0
149 172 0
158 180 0
148 170 0
156 179 0
154 176 0
149 172 0
152 174 0
153 175 0
158 181 0
146 169 0
154 177 0
149 172 0
153 176 0
152 174 0
144 167 0
158 180 0
150 172 0
149 170 0
147 169 0
145 167 0
144 167 0
141 163 0
149 171 0
148 168 0
143 165 0
150 171 0
149 171 0
145 167 0
147 169 0
150 171 0
136 157 0
144 166 0
139 160 0
144 166 0
145 166 0
144 165 0
143 165 0
135 157 0
139 159 0
141 163 0
146 168 0
132 152 0
139 161 0
143 164 0
132 153 0
139 160 0
130 151 0
133 153 0
141 161 0
139 158 0
137 158 0
136 156 0
138 158 0
134 153 0
133 154 0
135 157 0
131 151 0
140 161 0
142 162 0
136 157 0
124 143 0
136 156 0
134 153 0
134 155 0
128 148 0
137 156 0
138 159 0
125 146 0
130 150 0
132 153 0
141 160 0
132 153 0
118 138 0
134 153 0
127 146 0
136 156 0
135 155 0
118 137 0
126 143 0
123 142 0
125 145 0
126 145 0
129 148 0
133 155 0
120 139 0
136 155 0
130 150 0
125 144 0
134 152 0
134 154 0
133 152 0
127 146 0
124 143 0
137 155 0
129 148 0
133 153 0
127 145 0
127 145 0
127 145 0
129 146 0
127 144 0
137 154 0
130 149 0
128 146 0
145 166 0
141 160 0
136 155 0
124 142 0
123 141 0
136 157 0
131 148 0
136 154 0
136 153 0
138 156 0
126 145 0
134 154 0
131 150 0
128 144 0
140 158 0
137 155 0
135 152 0
137 154 0
132 149 0
139 156 0
136 155 0
130 147 0
140 157 0
127 145 0
122 139 0
142 160 0
141 159 0
136 154 0
145 164 0
134 150 0
137 154 0
133 150 0
138 156 0
132 146 0
130 146 0
140 157 0
146 164 0
132 150 0
142 158 0
135 151 0
140 155 0
136 152 0
140 157 0
141 157 0
135 150 0
140 155 0
135 148 0
130 145 0
133 148 0
140 154 0
130 145 0
136 152 0
136 150 0
141 156 0
134 145 0
130 142 0
136 149 0
138 151 0
134 148 0
145 160 0
134 145 0
141 150 0
134 149 0
134 143 0
133 146 0
133 140 0
144 155 0
136 147 0
143 154 0
141 153 0
132 144 0
130 138 0
136 146 0
137 147 0
137 148 0
137 148 0
134 143 0
132 140 0
130 138 0
143 152 0
128 136 0
128 137 0
129 138 0
135 144 0
133 140 0
132 137 0
128 136 0
127 130 0
125 133 0
125 132 0
135 142 0
139 143 0
126 129 0
125 131 0
129 132 0
138 142 0
127 129 0
134 139 0
132 135 0
131 135 0
134 140 0
140 146 0
134 136 0
133 138 0
131 133 0
132 134 0
122 120 0
133 136 0
128 132 0
131 132 0
131 132 0
125 123 0
139 142 0
136 139 0
129 129 0
137 139 0
134 134 0
135 136 0
136 138 0
135 136 0
135 136 0
133 136 0
139 140 0
135 136 0
133 134 0
137 140 0
140 144 0
134 134 0
136 139 0
143 146 0
137 139 0
142 145 0
142 146 0
133 136 0
139 142 0
147 151 0
141 146 0
143 148 0
141 146 0
142 146 0
143 152 0
148 154 0
143 148 0
147 151 0
144 151 0
147 153 0
142 148 0
148 154 0
149 154 0
156 163 0
151 160 0
156 164 0
142 150 0
157 166 0
153 163 0
151 161 0
154 166 0
157 165 0
160 172 0
145 152 0
148 158 0
153 164 0
160 173 0
155 165 0
159 171 0
159 170 0
158 171 0
157 170 0
158 169 0
169 192 0
173 195 0
173 196 0
175 197 0
171 194 0
174 196 0
171 194 0
172 194 0
174 196 0
172 195 0
172 195 0
173 196 0
170 192 0
175 197 0
173 196 0
172 195 0
171 193 0
173 195 0
170 193 0
173 195 0
174 196 0
173 195 0
175 197 0
176 197 0
173 195 0
173 195 0
165 187 0
177 199 0
173 195 0
166 188 0
173 195 0
175 196 0
173 194 0
165 187 0
174 196 0
173 194 0
171 192 0
174 195 0
170 192 0
174 195 0
171 193 0
171 192 0
172 193 0
172 194 0
171 192 0
177 198 0
175 195 0
169 190 0
170 190 0
172 192 0
170 192 0
171 192 0
172 193 0
172 193 0
172 193 0
165 187 0
168 189 0
168 188 0
164 186 0
170 192 0
171 192 0
169 190 0
171 193 0
170 191 0
164 186 0
162 183 0
166 188 0
168 190 0
167 189 0
169 190 0
167 189 0
164 186 0
167 189 0
162 185 0
168 190 0
163 185 0
165 186 0
158 179 0
159 181 0
166 187 0
166 188 0
164 186 0
159 181 0
158 180 0
164 185 0
162 184 0
159 181 0
159 180 0
157 178 0
156 178 0
161 183 0
163 185 0
161 182 0
166 188 0
157 179 0
157 178 0
163 186 0
162 185 0
169 191 0
164 185 0
157 179 0
158 179 0
161 183 0
153 176 0
157 180 0
160 182 0
158 181 0
157 179 0
161 183 0
154 176 0
154 176 0
159 182 0
152 174 0
157 179 0
158 181 0
160 182 0
154 176 0
151 173 0
149 172 0
159 181 0
152 174 0
154 176 0
156 178 0
153 175 0
152 174 0
153 176 0
155 178 0
149 170 0
151 173 0
148 170 0
155 177 0
147 169 0
153 175 0
151 174 0
153 176 0
155 177 0
156 177 0
147 170 0
148 170 0
148 170 0
150 171 0
152 174 0
152 175 0
145 168 0
150 172 0
144 165 0
151 173 0
143 165 0
150 171 0
141 163 0
141 163 0
149 171 0
146 170 0
148 170 0
151 174 0
140 162 0
151 174 0
139 160 0
140 161 0
152 174 0
144 164 0
142 163 0
141 162 0
138 159 0
133 154 0
138 159 0
137 157 0
138 159 0
142 164 0
144 165 0
136 157 0
136 155 0
141 162 0
144 166 0
144 164 0
138 160 0
143 164 0
129 149 0
133 153 0
136 157 0
134 154 0
131 152 0
134 155 0
130 151 0
145 166 0
135 156 0
133 153 0
122 142 0
134 156 0
135 155 0
128 148 0
122 143 0
142 163 0
137 156 0
130 149 0
130 152 0
130 151 0
134 155 0
124 145 0
129 149 0
142 162 0
136 156 0
133 154 0
139 159 0
139 159 0
128 149 0
128 148 0
128 149 0
130 149 0
131 151 0
134 153 0
135 155 0
136 154 0
135 154 0
128 147 0
125 144 0
133 153 0
131 152 0
122 141 0
130 148 0
126 146 0
131 151 0
138 157 0
137 156 0
127 145 0
138 156 0
137 155 0
133 151 0
129 148 0
125 143 0
125 144 0
130 149 0
136 155 0
141 159 0
133 151 0
138 156 0
134 153 0
145 165 0
137 155 0
131 149 0
125 143 0
135 154 0
133 150 0
129 148 0
138 155 0
134 152 0
131 149 0
132 150 0
131 149 0
146 163 0
136 154 0
138 156 0
139 157 0
133 149 0
135 153 0
142 158 0
135 153 0
128 143 0
138 156 0
140 157 0
136 154 0
137 155 0
141 160 0
128 146 0
137 152 0
139 156 0
134 148 0
134 152 0
128 144 0
137 155 0
132 145 0
134 149 0
132 147 0
134 150 0
142 156 0
133 147 0
139 157 0
136 151 0
141 156 0
129 144 0
134 148 0
140 155 0
143 159 0
134 149 0
132 147 0
138 152 0
141 157 0
138 150 0
147 163 0
139 154 0
131 144 0
136 149 0
130 142 0
139 152 0
141 153 0
140 154 0
135 147 0
137 148 0
134 146 0
133 146 0
131 140 0
137 148 0
140 148 0
143 154 0
138 147 0
137 148 0
134 144 0
130 141 0
127 136 0
136 146 0
132 142 0
138 148 0
138 145 0
133 140 0
134 141 0
139 144 0
137 145 0
131 138 0
131 135 0
134 140 0
140 147 0
134 138 0
140 147 0
137 144 0
132 136 0
138 146 0
124 128 0
130 136 0
136 140 0
136 142 0
144 149 0
130 132 0
136 141 0
136 138 0
122 125 0
133 136 0
130 130 0
135 136 0
137 141 0
127 128 0
131 134 0
125 125 0
134 136 0
129 129 0
132 137 0
130 134 0
133 136 0
128 131 0
136 141 0
133 138 0
132 133 0
135 137 0
136 139 0
125 128 0
136 136 0
138 140 0
136 139 0
129 131 0
144 147 0
134 137 0
133 134 0
129 132 0
145 148 0
138 142 0
142 145 0
148 152 0
137 141 0
148 155 0
144 149 0
145 151 0
138 141 0
151 157 0
148 153 0
144 149 0
145 151 0
143 153 0
150 155 0
144 153 0
147 154 0
147 154 0
148 157 0
148 153 0
150 156 0
153 162 0
149 157 0
148 158 0
150 162 0
151 158 0
155 166 0
149 158 0
154 165 0
157 168 0
156 163 0
159 171 0
157 168 0
153 161 0
158 170 0
162 176 0
151 162 0
159 172 0
174 196 0
172 193 0
173 195 0
170 192 0
175 198 0
174 196 0
173 196 0
169 191 0
172 195 0
173 195 0
170 192 0
171 194 0
174 195 0
172 194 0
171 193 0
169 191 0
176 197 0
174 195 0
172 194 0
175 197 0
174 196 0
176 198 0
172 194 0
169 191 0
174 195 0
175 197 0
171 193 0
174 195 0
172 195 0
171 193 0
175 197 0
173 195 0
172 194 0
169 191 0
173 195 0
175 197 0
169 191 0
171 192 0
169 190 0
171 193 0
171 192 0
169 190 0
169 190 0
172 194 0
166 188 0
171 192 0
172 192 0
169 191 0
173 194 0
168 190 0
171 192 0
169 191 0
166 188 0
171 192 0
164 185 0
168 190 0
171 192 0
167 189 0
168 189 0
165 186 0
165 186 0
169 190 0
169 190 0
163 184 0
167 188 0
169 191 0
161 183 0
167 189 0
164 186 0
164 185 0
165 188 0
162 183 0
167 188 0
161 182 0
163 184 0
164 186 0
161 183 0
167 188 0
162 184 0
167 188 0
159 180 0
164 185 0
156 179 0
162 185 0
164 187 0
166 188 0
163 184 0
160 181 0
157 179 0
164 187 0
159 182 0
162 185 0
157 179 0
164 186 0
162 184 0
168 190 0
161 182 0
157 179 0
160 182 0
163 185 0
162 185 0
152 175 0
164 186 0
156 178 0
157 179 0
161 183 0
163 184 0
159 181 0
163 185 0
161 183 0
163 186 0
153 175 0
162 185 0
154 176 0
160 182 0
153 175 0
154 177 0
159 180 0
154 177 0
151 173 0
156 178 0
149 171 0
156 178 0
151 173 0
152 174 0
159 182 0
156 178 0
149 172 0
160 182 0
146 167 0
156 179 0
150 171 0
144 165 0
153 177 0
152 174 0
148 171 0
153 175 0
149 171 0
143 165 0
157 180 0
150 172 0
145 167 0
146 168 0
151 174 0
144 167 0
145 167 0
158 180 0
149 170 0
146 168 0
140 163 0
150 172 0
145 167 0
153 175 0
149 172 0
150 173 0
148 169 0
133 153 0
146 167 0
148 169 0
150 171 0
144 165 0
137 158 0
141 161 0
148 169 0
150 171 0
134 156 0
142 164 0
148 168 0
143 164 0
138 161 0
141 161 0
143 164 0
144 166 0
140 161 0
142 163 0
139 159 0
143 164 0
142 164 0
136 158 0
133 154 0
140 160 0
136 157 0
133 155 0
142 163 0
133 152 0
135 156 0
130 150 0
137 157 0
125 144 0
132 153 0
136 158 0
136 156 0
130 151 0
138 159 0
139 159 0
138 159 0
132 154 0
137 158 0
126 145 0
129 149 0
137 158 0
134 151 0
139 158 0
134 155 0
129 147 0
130 150 0
136 155 0
126 145 0
130 150 0
126 146 0
116 135 0
133 153 0
133 150 0
140 159 0
139 160 0
132 151 0
132 153 0
134 154 0
138 157 0
132 152 0
133 152 0
134 155 0
136 154 0
142 162 0
133 151 0
133 152 0
138 158 0
137 157 0
132 151 0
138 157 0
124 141 0
128 146 0
137 156 0
136 153 0
130 146 0
126 144 0
133 152 0
144 162 0
132 148 0
139 158 0
134 151 0
134 153 0
144 161 0
136 152 0
136 154 0
132 148 0
141 159 0
139 157 0
137 156 0
125 142 0
142 158 0
132 150 0
140 159 0
139 158 0
137 155 0
134 153 0
132 150 0
141 160 0
134 150 0
142 159 0
132 147 0
136 154 0
136 150 0
142 157 0
129 147 0
139 156 0
140 157 0
136 153 0
138 153 0
131 147 0
139 157 0
137 153 0
130 145 0
133 148 0
138 152 0
146 162 0
132 146 0
138 155 0
137 153 0
136 152 0
136 152 0
142 155 0
142 157 0
142 158 0
139 153 0
141 155 0
142 156 0
141 154 0
143 158 0
136 149 0
129 143 0
134 149 0
136 148 0
141 155 0
135 148 0
146 158 0
131 140 0
144 157 0
136 148 0
139 151 0
129 141 0
139 151 0
132 143 0
134 142 0
130 141 0
136 147 0
143 155 0
141 151 0
133 143 0
133 143 0
133 141 0
138 144 0
139 148 0
136 144 0
136 145 0
139 146 0
137 144 0
130 138 0
138 147 0
137 143 0
139 146 0
141 146 0
124 130 0
129 136 0
133 139 0
137 145 0
136 140 0
135 144 0
140 146 0
135 143 0
132 136 0
127 130 0
134 140 0
130 135 0
131 134 0
136 142 0
129 133 0
141 146 0
134 137 0
133 138 0
129 134 0
132 135 0
129 129 0
127 128 0
136 139 0
140 143 0
132 135 0
133 136 0
138 142 0
128 132 0
135 137 0
132 134 0
136 139 0
129 132 0
139 145 0
132 137 0
134 136 0
141 143 0
145 150 0
130 131 0
136 139 0
130 132 0
150 153 0
142 145 0
135 139 0
144 148 0
142 147 0
135 138 0
143 143 0
148 151 0
146 153 0
145 149 0
145 149 0
140 144 0
146 153 0
142 148 0
149 156 0
143 151 0
150 156 0
148 155 0
148 153 0
160 168 0
158 167 0
151 157 0
151 161 0
153 159 0
143 150 0
156 166 0
158 170 0
151 160 0
154 163 0
145 150 0
159 168 0
163 173 0
159 170 0
157 170 0
153 164 0
156 169 0
152 164 0
159 171 0
172 194 0
171 193 0
174 196 0
173 196 0
174 196 0
172 194 0
173 195 0
173 196 0
172 193 0
173 196 0
171 193 0
171 193 0
168 190 0
174 195 0
172 195 0
173 195 0
175 196 0
173 195 0
170 193 0
172 193 0
172 194 0
171 194 0
171 193 0
175 197 0
172 194 0
174 196 0
173 195 0
171 193 0
172 194 0
175 197 0
173 195 0
170 191 0
173 194 0
170 191 0
171 192 0
171 193 0
169 192 0
172 193 0
174 195 0
168 190 0
175 197 0
173 195 0
171 193 0
173 194 0
170 192 0
172 193 0
169 190 0
166 187 0
170 192 0
169 190 0
168 190 0
167 190 0
165 187 0
169 191 0
167 190 0
168 189 0
164 186 0
169 191 0
164 187 0
168 190 0
167 188 0
164 186 0
168 189 0
166 187 0
166 187 0
165 187 0
165 187 0
164 186 0
162 185 0
164 185 0
170 192 0
169 191 0
168 190 0
165 188 0
165 187 0
159 181 0
163 186 0
163 184 0
160 183 0
163 185 0
163 185 0
162 184 0
157 179 0
162 185 0
168 190 0
164 186 0
162 184 0
160 182 0
164 185 0
156 178 0
161 183 0
160 182 0
161 184 0
164 186 0
163 185 0
163 185 0
160 182 0
161 183 0
163 185 0
163 186 0
158 180 0
162 185 0
165 188 0
157 177 0
164 186 0
150 172 0
156 177 0
161 183 0
156 180 0
161 182 0
166 189 0
157 181 0
154 176 0
158 181 0
149 172 0
159 181 0
153 175 0
152 175 0
159 181 0
156 178 0
157 179 0
154 177 0
157 179 0
156 178 0
149 171 0
156 177 0
151 174 0
157 179 0
153 175 0
154 176 0
157 179 0
150 172 0
157 179 0
149 171 0
149 170 0
152 176 0
156 177 0
146 168 0
153 174 0
152 175 0
149 171 0
154 176 0
149 171 0
143 166 0
143 164 0
151 174 0
148 170 0
149 170 0
149 171 0
151 174 0
147 168 0
145 167 0
153 176 0
151 173 0
152 174 0
139 160 0
152 173 0
148 170 0
138 160 0
139 161 0
140 161 0
143 164 0
136 156 0
142 163 0
134 157 0
143 165 0
144 165 0
137 158 0
142 162 0
132 152 0
153 175 0
137 159 0
152 173 0
144 166 0
139 160 0
142 162 0
135 156 0
132 153 0
132 154 0
146 168 0
138 159 0
143 163 0
135 157 0
148 169 0
132 152 0
140 160 0
127 147 0
146 165 0
134 153 0
143 163 0
134 155 0
130 150 0
126 146 0
135 155 0
140 161 0
124 143 0
134 153 0
142 163 0
136 156 0
134 153 0
142 162 0
138 157 0
131 151 0
132 152 0
142 161 0
139 159 0
130 149 0
130 150 0
143 164 0
134 155 0
122 141 0
135 155 0
133 153 0
133 152 0
131 152 0
140 160 0
136 157 0
139 159 0
125 145 0
133 153 0
130 150 0
133 152 0
144 163 0
138 159 0
138 157 0
135 154 0
138 156 0
145 164 0
143 163 0
132 151 0
138 157 0
146 165 0
139 159 0
144 162 0
135 156 0
137 156 0
134 152 0
136 154 0
145 164 0
135 153 0
131 148 0
145 163 0
137 157 0
136 154 0
140 158 0
140 158 0
131 148 0
129 147 0
142 160 0
131 147 0
141 158 0
141 159 0
142 161 0
129 146 0
138 156 0
137 154 0
140 158 0
136 153 0
139 156 0
136 154 0
136 154 0
132 149 0
134 149 0
137 156 0
136 152 0
141 158 0
132 149 0
140 158 0
138 153 0
135 150 0
144 162 0
147 166 0
141 157 0
133 145 0
138 152 0
144 160 0
130 145 0
141 157 0
136 150 0
142 157 0
142 159 0
136 150 0
132 146 0
140 156 0
134 149 0
134 150 0
139 152 0
131 145 0
150 167 0
145 158 0
140 155 0
142 157 0
144 158 0
146 161 0
141 152 0
139 150 0
137 147 0
138 152 0
139 154 0
133 146 0
140 152 0
129 141 0
123 133 0
136 146 0
140 151 0
124 134 0
135 144 0
134 143 0
137 150 0
141 153 0
134 145 0
127 133 0
137 148 0
138 149 0
132 141 0
139 150 0
135 145 0
138 146 0
127 135 0
141 150 0
135 143 0
137 145 0
140 149 0
142 151 0
139 147 0
139 147 0
138 147 0
127 129 0
132 137 0
136 144 0
135 140 0
129 133 0
125 130 0
138 146 0
140 146 0
136 143 0
134 140 0
136 141 0
142 145 0
140 147 0
134 137 0
140 146 0
137 142 0
131 134 0
134 140 0
138 142 0
132 133 0
138 144 0
138 143 0
138 142 0
140 142 0
138 143 0
130 135 0
135 139 0
131 134 0
139 141 0
138 143 0
149 152 0
137 140 0
132 134 0
145 151 0
141 145 0
148 155 0
133 136 0
144 146 0
143 147 0
146 155 0
140 146 0
138 141 0
148 153 0
139 142 0
145 150 0
152 158 0
140 146 0
142 148 0
145 149 0
142 148 0
144 150 0
151 158 0
147 155 0
150 159 0
152 161 0
150 157 0
157 168 0
145 152 0
147 153 0
151 157 0
156 163 0
154 164 0
155 161 0
150 158 0
155 164 0
157 167 0
158 168 0
152 161 0
158 170 0
157 169 0
158 173 0
153 162 0
157 168 0
171 193 0
175 197 0
173 195 0
173 196 0
172 194 0
175 198 0
173 196 0
174 196 0
174 197 0
172 195 0
174 197 0
167 190 0
172 193 0
175 197 0
170 191 0
172 193 0
171 193 0
174 196 0
172 194 0
172 194 0
174 195 0
170 192 0
170 191 0
170 192 0
175 195 0
173 195 0
170 193 0
172 193 0
172 194 0
168 190 0
172 194 0
172 194 0
173 194 0
170 192 0
167 189 0
169 190 0
169 191 0
172 193 0
169 190 0
172 193 0
172 194 0
169 191 0
173 194 0
165 186 0
169 190 0
169 191 0
169 190 0
171 192 0
171 193 0
169 190 0
165 187 0
169 190 0
166 188 0
167 189 0
170 191 0
169 191 0
164 186 0
165 186 0
169 191 0
168 190 0
168 189 0
168 190 0
164 187 0
171 193 0
162 184 0
159 180 0
168 189 0
166 188 0
161 182 0
164 186 0
166 188 0
164 185 0
162 184 0
159 181 0
163 185 0
162 184 0
161 184 0
161 183 0
168 190 0
155 176 0
163 185 0
163 185 0
162 184 0
159 181 0
165 188 0
162 184 0
164 185 0
164 186 0
164 185 0
164 186 0
165 188 0
164 186 0
162 183 0
161 183 0
159 182 0
163 185 0
156 178 0
161 183 0
161 183 0
159 181 0
162 183 0
151 173 0
152 175 0
164 185 0
161 183 0
159 181 0
160 182 0
159 180 0
159 182 0
156 178 0
159 182 0
157 179 0
157 179 0
156 179 0
161 183 0
162 184 0
161 184 0
149 171 0
154 175 0
160 182 0
152 175 0
161 183 0
153 175 0
151 174 0
153 176 0
157 179 0
147 169 0
156 180 0
154 177 0
153 174 0
152 174 0
162 184 0
147 168 0
154 176 0
155 178 0
158 181 0
143 167 0
153 175 0
145 168 0
147 169 0
155 177 0
148 170 0
151 174 0
142 163 0
148 170 0
161 183 0
147 169 0
148 170 0
154 176 0
145 166 0
147 169 0
145 168 0
145 167 0
144 167 0
143 165 0
139 162 0
149 170 0
145 168 0
152 174 0
145 166 0
139 160 0
141 163 0
142 162 0
150 172 0
147 169 0
139 161 0
134 154 0
135 156 0
145 168 0
145 165 0
142 164 0
126 145 0
149 172 0
145 167 0
139 160 0
129 151 0
144 166 0
140 162 0
137 158 0
137 158 0
137 159 0
139 159 0
144 166 0
140 160 0
133 155 0
135 157 0
133 154 0
139 160 0
139 161 0
138 159 0
123 143 0
137 157 0
137 158 0
132 152 0
128 149 0
142 162 0
134 154 0
141 161 0
138 158 0
131 151 0
129 148 0
146 167 0
145 164 0
136 158 0
130 149 0
143 163 0
142 161 0
138 158 0
131 151 0
135 153 0
138 158 0
130 149 0
125 145 0
128 147 0
131 149 0
140 159 0
140 161 0
131 152 0
139 160 0
139 158 0
127 144 0
135 155 0
141 161 0
137 155 0
138 157 0
136 155 0
144 162 0
135 156 0
133 151 0
142 161 0
137 155 0
144 163 0
138 159 0
132 152 0
135 154 0
139 157 0
135 155 0
139 161 0
138 157 0
126 143 0
135 151 0
138 157 0
133 153 0
137 153 0
140 157 0
140 158 0
138 157 0
137 154 0
131 148 0
138 157 0
132 150 0
141 159 0
141 158 0
130 147 0
140 156 0
139 158 0
136 155 0
140 158 0
140 159 0
139 157 0
132 148 0
137 154 0
140 157 0
134 152 0
124 141 0
152 170 0
139 157 0
151 166 0
141 161 0
138 157 0
132 147 0
137 156 0
133 149 0
140 156 0
138 154 0
149 166 0
150 166 0
147 163 0
142 158 0
144 161 0
138 153 0
144 161 0
148 164 0
137 152 0
144 157 0
151 166 0
134 148 0
123 136 0
138 151 0
142 158 0
137 149 0
139 155 0
140 153 0
138 150 0
140 154 0
138 149 0
134 148 0
137 150 0
142 156 0
131 145 0
139 152 0
137 150 0
138 152 0
140 152 0
148 161 0
138 149 0
138 148 0
131 141 0
134 146 0
140 150 0
146 158 0
136 147 0
135 145 0
145 159 0
136 144 0
149 160 0
144 154 0
137 145 0
134 145 0
132 141 0
134 142 0
136 142 0
133 141 0
138 144 0
124 132 0
141 148 0
136 143 0
140 149 0
140 150 0
135 141 0
139 146 0
140 147 0
133 139 0
141 147 0
138 144 0
134 141 0
138 143 0
139 148 0
130 134 0
146 153 0
133 137 0
142 149 0
138 141 0
148 151 0
134 139 0
146 152 0
134 138 0
140 144 0
146 148 0
133 136 0
137 142 0
139 143 0
134 138 0
139 143 0
137 139 0
140 144 0
136 141 0
141 149 0
143 147 0
146 150 0
148 152 0
137 139 0
133 137 0
134 136 0
138 143 0
147 153 0
138 146 0
140 145 0
136 139 0
145 150 0
152 160 0
149 155 0
142 148 0
146 152 0
147 152 0
148 155 0
154 164 0
152 158 0
149 157 0
148 154 0
150 158 0
149 160 0
153 162 0
144 149 0
149 156 0
151 159 0
155 162 0
146 153 0
149 158 0
152 161 0
152 162 0
155 166 0
153 164 0
149 157 0
157 166 0
156 166 0
159 170 0
158 170 0
157 169 0
144 151 0
174 196 0
172 194 0
172 194 0
174 197 0
173 195 0
173 195 0
171 193 0
171 193 0
171 194 0
170 193 0
172 194 0
173 195 0
169 192 0
168 190 0
172 195 0
171 193 0
172 194 0
170 192 0
174 195 0
170 192 0
169 191 0
171 193 0
172 194 0
172 194 0
172 194 0
173 194 0
173 195 0
172 194 0
172 194 0
176 197 0
170 191 0
173 194 0
172 194 0
169 191 0
173 194 0
172 194 0
170 191 0
171 193 0
168 190 0
171 193 0
172 194 0
171 192 0
170 192 0
169 191 0
170 191 0
169 191 0
171 192 0
172 194 0
171 192 0
168 189 0
169 191 0
168 190 0
171 193 0
171 192 0
165 187 0
168 190 0
168 190 0
167 189 0
167 188 0
159 181 0
165 187 0
160 181 0
158 180 0
168 190 0
164 186 0
161 185 0
166 188 0
168 190 0
162 183 0
163 185 0
168 190 0
161 183 0
158 181 0
162 183 0
166 188 0
161 183 0
162 185 0
155 175 0
164 186 0
167 188 0
160 182 0
165 187 0
166 189 0
166 188 0
160 182 0
166 188 0
155 178 0
161 183 0
158 180 0
156 178 0
158 180 0
156 178 0
159 181 0
163 186 0
156 178 0
160 182 0
156 178 0
162 183 0
158 181 0
158 180 0
161 184 0
161 183 0
164 186 0
161 183 0
153 176 0
155 179 0
153 174 0
162 184 0
162 183 0
156 179 0
155 177 0
154 177 0
156 179 0
159 181 0
159 183 0
155 177 0
156 178 0
159 182 0
153 174 0
155 177 0
158 181 0
156 180 0
157 180 0
155 177 0
152 174 0
148 170 0
150 173 0
153 175 0
150 172 0
157 179 0
151 174 0
151 173 0
151 173 0
147 169 0
147 168 0
159 181 0
149 171 0
151 172 0
155 177 0
150 173 0
146 169 0
151 175 0
154 176 0
151 174 0
152 173 0
149 170 0
151 173 0
147 171 0
155 178 0
147 170 0
149 171 0
149 170 0
154 176 0
149 171 0
148 171 0
155 177 0
153 174 0
140 161 0
149 170 0
151 172 0
148 171 0
140 162 0
139 161 0
147 169 0
143 165 0
141 163 0
154 176 0
148 168 0
145 166 0
150 172 0
150 171 0
136 157 0
143 165 0
138 159 0
141 162 0
140 160 0
150 172 0
135 156 0
151 171 0
143 164 0
148 169 0
156 177 0
137 159 0
144 164 0
135 156 0
139 160 0
128 149 0
138 158 0
137 158 0
143 165 0
133 154 0
144 164 0
147 168 0
143 164 0
137 158 0
142 162 0
136 157 0
140 162 0
138 158 0
139 160 0
127 146 0
137 157 0
137 158 0
133 153 0
138 159 0
140 161 0
148 170 0
140 159 0
142 163 0
130 150 0
136 157 0
138 160 0
139 159 0
135 154 0
135 154 0
139 159 0
132 153 0
136 156 0
137 157 0
137 156 0
139 158 0
134 153 0
140 160 0
128 146 0
138 157 0
137 157 0
141 160 0
131 149 0
131 152 0
141 161 0
136 155 0
138 158 0
132 152 0
130 149 0
133 154 0
136 156 0
131 149 0
138 157 0
131 150 0
134 152 0
138 159 0
139 157 0
131 150 0
134 152 0
133 152 0
137 154 0
140 159 0
135 154 0
141 160 0
147 167 0
133 153 0
142 161 0
136 154 0
140 160 0
139 158 0
140 157 0
138 156 0
140 159 0
131 151 0
143 161 0
136 155 0
148 165 0
140 156 0
136 154 0
144 162 0
138 155 0
130 147 0
137 154 0
132 150 0
144 161 0
141 160 0
143 161 0
136 154 0
144 162 0
139 157 0
143 158 0
135 150 0
136 153 0
144 162 0
140 156 0
144 162 0
140 158 0
139 154 0
139 157 0
138 151 0
140 156 0
141 157 0
142 158 0
138 153 0
133 148 0
141 152 0
139 153 0
151 167 0
135 149 0
144 157 0
142 156 0
143 158 0
138 148 0
150 164 0
139 152 0
138 150 0
145 157 0
140 153 0
143 157 0
138 151 0
147 161 0
134 147 0
143 153 0
142 154 0
132 142 0
139 151 0
137 147 0
135 147 0
133 144 0
138 148 0
132 140 0
138 149 0
129 136 0
144 155 0
142 152 0
140 148 0
139 148 0
136 145 0
142 149 0
138 147 0
140 150 0
134 142 0
141 148 0
139 146 0
141 150 0
130 137 0
144 151 0
149 155 0
134 141 0
133 140 0
134 140 0
134 141 0
136 141 0
141 146 0
131 136 0
135 139 0
127 133 0
139 143 0
139 146 0
137 141 0
132 137 0
143 148 0
138 145 0
143 147 0
132 136 0
146 154 0
130 134 0
135 139 0
147 154 0
144 146 0
148 153 0
142 147 0
143 148 0
132 137 0
139 142 0
148 153 0
145 150 0
147 153 0
141 145 0
140 146 0
136 138 0
143 148 0
139 143 0
141 147 0
141 146 0
143 148 0
136 140 0
151 159 0
140 142 0
153 160 0
141 146 0
146 149 0
150 157 0
152 159 0
157 166 0
153 159 0
148 152 0
146 151 0
159 170 0
155 166 0
156 165 0
143 149 0
152 159 0
149 158 0
157 167 0
150 158 0
149 157 0
156 166 0
159 170 0
161 174 0
159 171 0
153 162 0
153 163 0
161 175 0
157 166 0
174 197 0
175 197 0
172 195 0
174 196 0
176 198 0
170 192 0
172 195 0
169 192 0
172 193 0
170 193 0
172 194 0
170 192 0
170 193 0
171 192 0
173 195 0
175 197 0
172 194 0
169 192 0
175 196 0
175 196 0
167 189 0
173 195 0
174 195 0
173 195 0
171 193 0
175 196 0
173 194 0
169 190 0
173 195 0
168 189 0
171 193 0
168 189 0
174 195 0
174 196 0
172 193 0
170 192 0
168 189 0
168 190 0
174 194 0
172 194 0
169 191 0
172 193 0
172 193 0
172 194 0
169 190 0
168 189 0
170 191 0
167 188 0
169 191 0
170 191 0
171 192 0
167 189 0
168 189 0
163 185 0
165 186 0
169 192 0
167 189 0
164 186 0
166 188 0
168 190 0
167 189 0
169 191 0
169 191 0
163 185 0
165 188 0
164 185 0
164 187 0
166 188 0
160 182 0
167 189 0
159 181 0
161 183 0
160 182 0
164 186 0
167 189 0
167 188 0
164 186 0
159 181 0
162 184 0
154 177 0
164 187 0
166 188 0
164 186 0
169 191 0
162 186 0
162 184 0
160 183 0
158 181 0
160 183 0
158 180 0
155 178 0
157 180 0
167 189 0
165 187 0
162 184 0
162 184 0
162 185 0
166 188 0
160 181 0
150 172 0
157 180 0
156 178 0
156 177 0
159 181 0
163 185 0
156 179 0
158 180 0
161 183 0
161 184 0
161 183 0
157 179 0
159 182 0
160 183 0
161 184 0
154 176 0
157 180 0
154 176 0
153 175 0
153 176 0
158 180 0
161 183 0
160 182 0
156 179 0
153 175 0
150 171 0
152 174 0
156 178 0
153 175 0
152 175 0
147 170 0
155 177 0
153 175 0
156 178 0
161 184 0
152 175 0
156 178 0
151 172 0
148 170 0
154 177 0
155 177 0
152 173 0
143 165 0
159 182 0
148 170 0
149 170 0
144 165 0
147 169 0
155 177 0
153 175 0
153 175 0
151 174 0
147 169 0
153 175 0
147 167 0
152 174 0
144 167 0
153 175 0
147 168 0
146 168 0
145 166 0
140 161 0
132 154 0
149 170 0
153 175 0
147 168 0
143 165 0
143 164 0
149 171 0
143 165 0
145 166 0
143 165 0
143 163 0
136 158 0
151 173 0
147 169 0
130 150 0
143 165 0
149 171 0
136 157 0
134 154 0
136 156 0
142 163 0
143 165 0
147 168 0
138 160 0
133 154 0
144 164 0
150 170 0
142 164 0
133 154 0
138 159 0
138 159 0
130 151 0
140 161 0
138 160 0
140 162 0
139 160 0
137 157 0
139 161 0
144 164 0
137 157 0
129 149 0
132 151 0
130 152 0
143 164 0
142 164 0
139 160 0
136 157 0
135 155 0
135 156 0
128 148 0
130 148 0
132 152 0
140 159 0
145 163 0
126 144 0
145 164 0
132 152 0
128 147 0
143 162 0
147 166 0
143 165 0
141 160 0
132 150 0
134 152 0
142 161 0
148 168 0
135 155 0
128 149 0
134 153 0
141 161 0
146 166 0
140 160 0
129 149 0
140 159 0
140 158 0
137 157 0
140 159 0
139 157 0
142 161 0
137 156 0
134 153 0
144 163 0
149 169 0
134 154 0
142 162 0
135 154 0
139 157 0
138 156 0
137 156 0
138 156 0
148 166 0
145 165 0
138 158 0
138 157 0
139 158 0
137 155 0
140 157 0
127 146 0
139 158 0
140 157 0
139 157 0
143 160 0
136 155 0
147 165 0
142 158 0
146 166 0
144 163 0
137 154 0
142 160 0
143 161 0
141 155 0
144 161 0
137 153 0
132 148 0
139 157 0
139 156 0
140 156 0
146 164 0
143 158 0
148 164 0
135 150 0
134 147 0
139 156 0
143 159 0
143 159 0
146 162 0
145 160 0
133 149 0
139 152 0
141 157 0
146 160 0
143 157 0
141 154 0
140 155 0
138 147 0
138 151 0
126 136 0
149 164 0
134 145 0
145 160 0
139 152 0
140 151 0
139 152 0
141 153 0
153 169 0
146 156 0
141 154 0
141 154 0
137 150 0
143 155 0
139 150 0
144 154 0
134 147 0
140 149 0
145 156 0
143 153 0
142 155 0
140 150 0
139 151 0
133 141 0
142 154 0
144 154 0
147 158 0
136 145 0
141 150 0
143 150 0
144 151 0
139 149 0
144 152 0
142 152 0
142 152 0
142 149 0
143 151 0
139 141 0
137 146 0
138 146 0
141 145 0
128 134 0
140 149 0
144 151 0
134 140 0
134 135 0
135 139 0
139 146 0
139 145 0
143 149 0
137 144 0
148 154 0
140 145 0
132 137 0
138 142 0
139 141 0
133 139 0
139 142 0
138 145 0
138 143 0
138 143 0
145 151 0
134 136 0
148 153 0
143 149 0
144 150 0
142 147 0
147 155 0
142 146 0
147 154 0
149 155 0
148 154 0
138 143 0
139 146 0
146 154 0
145 150 0
144 149 0
152 161 0
141 148 0
143 149 0
156 167 0
148 155 0
150 158 0
148 155 0
151 159 0
149 157 0
151 158 0
150 157 0
153 161 0
147 155 0
151 161 0
159 169 0
145 153 0
150 158 0
154 162 0
152 162 0
148 157 0
155 165 0
157 166 0
152 164 0
160 173 0
154 164 0
160 172 0
171 194 0
174 195 0
172 195 0
172 194 0
172 193 0
173 196 0
172 194 0
170 192 0
172 194 0
174 195 0
171 193 0
174 195 0
172 195 0
173 195 0
172 194 0
170 193 0
172 193 0
171 193 0
172 195 0
174 197 0
174 196 0
170 192 0
171 194 0
168 190 0
173 194 0
175 197 0
175 196 0
172 194 0
171 192 0
172 194 0
172 194 0
169 191 0
173 195 0
169 191 0
172 193 0
170 191 0
167 188 0
173 195 0
169 190 0
170 192 0
167 188 0
166 188 0
170 191 0
167 188 0
172 194 0
168 190 0
171 192 0
167 189 0
165 186 0
167 190 0
172 194 0
168 190 0
172 194 0
169 190 0
168 189 0
167 190 0
169 189 0
165 187 0
164 185 0
163 184 0
164 187 0
166 188 0
167 189 0
165 187 0
162 184 0
160 182 0
163 185 0
162 183 0
163 184 0
163 185 0
164 185 0
163 186 0
162 184 0
163 184 0
162 185 0
167 189 0
166 187 0
167 188 0
165 187 0
164 186 0
161 183 0
159 181 0
162 184 0
165 187 0
159 182 0
167 190 0
161 183 0
161 184 0
165 187 0
162 184 0
161 185 0
151 172 0
156 178 0
153 176 0
162 185 0
163 185 0
159 180 0
160 182 0
159 182 0
156 178 0
163 185 0
158 180 0
157 179 0
158 180 0
157 179 0
158 180 0
161 183 0
155 178 0
157 180 0
156 179 0
155 178 0
163 185 0
163 187 0
162 185 0
152 174 0
160 183 0
151 174 0
163 185 0
152 174 0
155 177 0
151 173 0
152 175 0
161 183 0
153 176 0
158 180 0
164 185 0
154 177 0
150 173 0
156 179 0
151 173 0
153 175 0
152 175 0
151 173 0
154 177 0
163 186 0
155 177 0
157 180 0
151 172 0
147 169 0
159 181 0
150 173 0
146 167 0
146 168 0
152 174 0
148 171 0
149 172 0
149 171 0
152 175 0
145 168 0
148 170 0
143 165 0
154 176 0
148 170 0
153 175 0
144 166 0
146 168 0
141 163 0
146 168 0
149 171 0
137 158 0
148 171 0
149 171 0
137 159 0
140 162 0
145 166 0
144 165 0
145 166 0
145 165 0
147 170 0
153 176 0
146 169 0
132 155 0
138 159 0
138 157 0
139 161 0
146 167 0
139 160 0
142 163 0
141 162 0
141 162 0
140 161 0
142 163 0
147 168 0
143 165 0
141 161 0
144 165 0
135 155 0
137 158 0
144 164 0
134 155 0
130 149 0
147 168 0
139 161 0
141 162 0
138 159 0
141 162 0
139 159 0
127 147 0
144 164 0
133 152 0
145 166 0
142 162 0
146 167 0
132 152 0
138 159 0
136 156 0
137 158 0
139 158 0
132 151 0
139 159 0
129 150 0
137 157 0
140 161 0
139 158 0
136 155 0
138 158 0
135 156 0
137 157 0
140 160 0
140 161 0
133 153 0
145 164 0
142 160 0
141 161 0
136 155 0
139 159 0
137 157 0
144 165 0
146 165 0
142 161 0
133 152 0
134 154 0
141 161 0
141 161 0
140 159 0
148 167 0
142 161 0
136 155 0
135 154 0
144 163 0
142 162 0
130 150 0
140 160 0
146 165 0
131 150 0
131 150 0
144 162 0
142 161 0
139 158 0
129 149 0
139 157 0
137 155 0
147 164 0
147 166 0
138 157 0
142 160 0
138 156 0
144 162 0
140 159 0
143 162 0
147 167 0
144 162 0
141 159 0
139 157 0
147 163 0
149 167 0
142 158 0
140 158 0
141 159 0
129 146 0
140 156 0
138 156 0
143 159 0
141 157 0
142 160 0
142 159 0
142 161 0
137 152 0
142 158 0
145 160 0
144 162 0
135 151 0
141 157 0
142 159 0
137 155 0
132 146 0
141 155 0
135 151 0
141 157 0
141 157 0
143 158 0
142 156 0
134 147 0
131 143 0
141 156 0
146 160 0
137 151 0
142 155 0
141 153 0
144 158 0
141 153 0
143 157 0
136 150 0
129 141 0
145 160 0
145 157 0
136 148 0
142 154 0
143 155 0
148 162 0
143 156 0
147 160 0
143 155 0
140 152 0
145 157 0
139 152 0
141 153 0
142 155 0
145 155 0
136 147 0
135 144 0
136 145 0
139 150 0
136 146 0
143 152 0
136 146 0
146 154 0
143 152 0
139 148 0
143 153 0
134 142 0
134 142 0
137 146 0
130 139 0
142 152 0
143 152 0
140 150 0
135 143 0
141 144 0
145 150 0
148 158 0
145 153 0
140 146 0
138 141 0
140 147 0
136 145 0
147 156 0
139 145 0
143 150 0
136 142 0
143 147 0
148 156 0
148 156 0
138 141 0
140 149 0
140 148 0
140 148 0
137 140 0
150 157 0
147 155 0
141 144 0
143 149 0
147 153 0
136 142 0
138 143 0
140 146 0
153 158 0
136 142 0
140 145 0
145 151 0
143 148 0
146 151 0
144 152 0
143 148 0
149 155 0
147 154 0
145 152 0
149 157 0
147 154 0
147 154 0
155 165 0
147 154 0
156 167 0
151 160 0
147 154 0
156 165 0
150 161 0
156 165 0
153 162 0
156 167 0
145 153 0
152 163 0
147 152 0
151 160 0
151 159 0
149 158 0
155 165 0
156 167 0
152 163 0
154 163 0
174 197 0
173 196 0
173 194 0
171 193 0
175 196 0
176 197 0
174 197 0
167 189 0
173 195 0
175 197 0
171 193 0
172 193 0
173 194 0
175 197 0
171 194 0
173 195 0
174 196 0
174 195 0
177 199 0
170 191 0
167 188 0
174 195 0
170 191 0
169 191 0
173 194 0
172 193 0
171 192 0
171 193 0
171 193 0
166 188 0
173 195 0
168 190 0
173 195 0
164 186 0
170 191 0
168 190 0
173 194 0
169 191 0
169 191 0
171 193 0
168 189 0
170 192 0
169 190 0
170 192 0
167 188 0
163 185 0
167 189 0
169 191 0
166 189 0
168 189 0
171 193 0
165 186 0
170 192 0
172 194 0
167 190 0
166 188 0
171 193 0
169 189 0
162 185 0
168 190 0
164 186 0
164 187 0
169 191 0
164 186 0
161 184 0
171 193 0
164 186 0
165 187 0
162 183 0
160 182 0
168 190 0
163 186 0
162 183 0
166 188 0
170 193 0
163 186 0
154 177 0
161 184 0
169 191 0
163 186 0
164 187 0
161 184 0
159 182 0
168 191 0
156 178 0
165 188 0
162 185 0
157 179 0
160 183 0
161 183 0
166 189 0
162 185 0
159 181 0
155 178 0
161 183 0
156 179 0
158 179 0
164 186 0
160 183 0
160 182 0
160 182 0
161 184 0
151 173 0
155 178 0
158 180 0
159 181 0
158 180 0
160 182 0
162 184 0
154 177 0
149 172 0
160 182 0
157 179 0
150 173 0
157 180 0
152 174 0
159 181 0
144 167 0
158 180 0
148 169 0
157 179 0
156 179 0
157 180 0
155 178 0
148 171 0
158 180 0
167 189 0
156 178 0
154 177 0
156 178 0
154 176 0
153 176 0
159 182 0
154 177 0
155 176 0
149 171 0
144 166 0
159 181 0
151 174 0
151 173 0
154 177 0
146 168 0
149 170 0
154 176 0
147 169 0
153 174 0
150 172 0
149 171 0
158 180 0
144 165 0
149 172 0
139 161 0
148 170 0
154 176 0
153 175 0
141 163 0
151 172 0
156 178 0
156 178 0
143 164 0
155 177 0
152 173 0
147 169 0
138 160 0
143 165 0
140 162 0
142 165 0
144 167 0
140 161 0
139 161 0
146 168 0
141 162 0
142 163 0
140 160 0
140 161 0
140 161 0
135 156 0
138 160 0
147 168 0
151 171 0
141 162 0
138 161 0
144 164 0
146 167 0
135 158 0
140 160 0
149 170 0
140 161 0
143 164 0
139 159 0
144 164 0
150 171 0
134 156 0
136 157 0
151 172 0
135 156 0
143 165 0
135 154 0
143 164 0
133 154 0
143 164 0
139 159 0
142 161 0
143 165 0
144 165 0
139 159 0
148 168 0
133 154 0
141 162 0
119 139 0
139 159 0
136 157 0
138 159 0
137 155 0
128 148 0
132 152 0
141 161 0
136 157 0
148 168 0
134 155 0
142 161 0
137 157 0
144 163 0
138 158 0
144 163 0
144 162 0
144 166 0
141 159 0
135 156 0
145 164 0
139 157 0
129 147 0
135 154 0
137 157 0
128 148 0
137 155 0
150 170 0
134 155 0
133 152 0
141 158 0
139 159 0
134 154 0
141 159 0
129 148 0
143 161 0
137 156 0
137 156 0
153 171 0
146 166 0
138 157 0
139 157 0
146 167 0
140 159 0
144 164 0
139 158 0
144 163 0
140 156 0
142 160 0
136 154 0
138 157 0
144 163 0
136 155 0
135 154 0
147 166 0
140 158 0
138 158 0
140 158 0
133 151 0
146 161 0
145 162 0
142 160 0
154 171 0
146 164 0
139 157 0
148 166 0
142 157 0
145 164 0
139 157 0
142 158 0
145 161 0
145 163 0
140 157 0
138 154 0
144 159 0
137 153 0
140 156 0
141 158 0
143 161 0
141 159 0
139 156 0
142 160 0
143 158 0
137 151 0
139 154 0
148 163 0
139 154 0
139 154 0
148 163 0
147 163 0
139 153 0
141 154 0
140 152 0
140 154 0
140 155 0
139 154 0
139 153 0
142 156 0
136 149 0
144 158 0
139 152 0
133 145 0
142 155 0
145 159 0
140 153 0
134 144 0
139 153 0
133 143 0
143 152 0
140 148 0
146 160 0
138 151 0
148 158 0
146 159 0
144 155 0
136 143 0
142 153 0
145 154 0
143 152 0
139 153 0
135 142 0
142 151 0
137 144 0
142 150 0
149 157 0
135 142 0
142 151 0
140 150 0
143 152 0
136 144 0
140 149 0
145 151 0
144 154 0
137 140 0
144 151 0
149 160 0
148 155 0
143 149 0
140 148 0
141 146 0
143 148 0
142 147 0
150 159 0
142 147 0
144 151 0
142 149 0
145 151 0
139 143 0
142 149 0
142 148 0
150 157 0
144 149 0
134 142 0
144 152 0
147 152 0
143 152 0
146 153 0
147 154 0
141 148 0
137 143 0
150 158 0
145 153 0
143 150 0
143 151 0
150 160 0
154 163 0
155 166 0
147 155 0
143 150 0
150 158 0
146 152 0
154 164 0
147 155 0
145 152 0
152 160 0
150 156 0
153 163 0
154 163 0
146 154 0
152 160 0
154 166 0
155 164 0
148 156 0
157 166 0
154 163 0
153 163 0
150 159 0
154 163 0
157 166 0
148 157 0
148 157 0
173 195 0
172 195 0
173 194 0
172 194 0
173 196 0
171 194 0
173 195 0
169 191 0
173 195 0
171 194 0
172 194 0
172 194 0
172 195 0
172 194 0
172 195 0
169 192 0
172 194 0
172 194 0
171 194 0
166 188 0
171 192 0
172 194 0
172 194 0
169 191 0
172 195 0
172 193 0
172 195 0
170 192 0
165 187 0
173 195 0
171 192 0
171 192 0
173 194 0
167 189 0
165 188 0
169 191 0
167 188 0
167 189 0
171 193 0
171 194 0
165 187 0
173 195 0
168 189 0
172 194 0
171 192 0
169 191 0
165 186 0
164 186 0
163 185 0
173 194 0
170 192 0
160 182 0
164 185 0
163 184 0
163 185 0
169 192 0
167 189 0
167 190 0
166 189 0
163 184 0
164 186 0
168 190 0
162 184 0
169 191 0
162 184 0
157 180 0
167 189 0
160 182 0
164 186 0
168 191 0
160 181 0
158 180 0
155 177 0
162 185 0
165 187 0
159 182 0
161 183 0
163 186 0
166 187 0
156 179 0
166 189 0
158 181 0
158 181 0
157 179 0
156 178 0
168 189 0
158 181 0
158 180 0
163 185 0
162 184 0
154 176 0
163 186 0
163 185 0
155 178 0
162 184 0
161 183 0
153 175 0
161 183 0
159 182 0
158 181 0
164 186 0
155 178 0
155 178 0
165 188 0
160 182 0
160 183 0
164 187 0
154 178 0
159 182 0
154 177 0
158 179 0
156 178 0
156 179 0
163 186 0
163 186 0
161 184 0
156 179 0
150 172 0
152 174 0
161 183 0
158 180 0
152 174 0
153 175 0
146 168 0
152 176 0
157 180 0
161 184 0
158 181 0
144 167 0
151 175 0
158 180 0
158 181 0
161 184 0
151 173 0
156 179 0
150 173 0
149 172 0
153 176 0
148 171 0
148 171 0
152 174 0
148 170 0
152 175 0
152 174 0
152 174 0
149 171 0
149 171 0
146 168 0
150 172 0
154 177 0
148 171 0
152 175 0
142 164 0
145 167 0
155 177 0
157 180 0
151 172 0
131 154 0
148 170 0
148 170 0
154 176 0
153 174 0
141 162 0
143 165 0
143 164 0
147 169 0
138 159 0
144 165 0
145 166 0
149 171 0
150 171 0
140 162 0
138 158 0
143 164 0
137 158 0
137 157 0
148 170 0
146 168 0
148 169 0
142 164 0
149 171 0
140 159 0
145 165 0
145 167 0
134 155 0
145 165 0
137 158 0
144 165 0
141 161 0
149 170 0
145 167 0
146 167 0
146 168 0
132 154 0
137 157 0
139 159 0
143 164 0
144 164 0
149 171 0
138 159 0
139 158 0
146 166 0
140 161 0
137 156 0
145 166 0
142 164 0
141 160 0
142 163 0
140 159 0
143 162 0
142 163 0
142 161 0
141 162 0
136 156 0
143 163 0
137 159 0
140 162 0
134 153 0
141 160 0
137 156 0
141 160 0
138 157 0
138 157 0
137 156 0
155 175 0
133 153 0
143 162 0
137 157 0
141 161 0
140 158 0
141 161 0
147 167 0
149 170 0
142 162 0
136 155 0
134 152 0
144 163 0
141 160 0
131 149 0
138 157 0
143 162 0
142 160 0
139 158 0
143 160 0
140 158 0
143 163 0
131 149 0
146 165 0
140 158 0
144 162 0
137 156 0
139 158 0
144 165 0
142 159 0
139 156 0
147 167 0
146 165 0
142 161 0
148 168 0
149 170 0
148 166 0
151 170 0
134 153 0
141 160 0
146 164 0
145 163 0
144 161 0
137 154 0
147 165 0
140 159 0
148 166 0
145 162 0
142 160 0
143 163 0
147 166 0
137 154 0
143 161 0
148 167 0
136 154 0
140 156 0
136 154 0
150 167 0
138 155 0
138 154 0
147 163 0
134 150 0
153 170 0
140 157 0
144 161 0
143 158 0
146 160 0
145 162 0
147 162 0
136 149 0
135 150 0
137 152 0
138 151 0
151 166 0
140 154 0
140 154 0
150 167 0
143 157 0
148 162 0
133 149 0
140 154 0
140 153 0
143 156 0
143 155 0
139 154 0
140 156 0
149 164 0
125 137 0
140 153 0
147 160 0
135 149 0
140 154 0
142 155 0
142 154 0
145 157 0
142 154 0
136 147 0
144 156 0
137 148 0
131 139 0
141 151 0
146 156 0
140 149 0
137 146 0
136 146 0
150 161 0
140 149 0
136 143 0
137 145 0
142 150 0
150 160 0
144 152 0
151 162 0
140 150 0
146 156 0
147 154 0
148 156 0
143 152 0
149 158 0
148 160 0
148 159 0
138 145 0
146 154 0
143 151 0
150 159 0
138 145 0
138 144 0
148 158 0
142 150 0
141 149 0
144 150 0
148 157 0
142 146 0
140 148 0
139 145 0
139 146 0
143 153 0
148 156 0
154 163 0
139 142 0
137 143 0
147 152 0
154 161 0
141 150 0
143 148 0
150 156 0
145 153 0
146 156 0
145 151 0
148 154 0
144 149 0
149 158 0
144 151 0
146 153 0
141 148 0
144 150 0
147 153 0
153 160 0
150 158 0
150 157 0
149 157 0
147 155 0
144 152 0
152 163 0
156 164 0
151 160 0
152 161 0
149 158 0
148 157 0
150 159 0
152 160 0
152 160 0
156 168 0
148 156 0
151 161 0
160 171 0
170 194 0
169 191 0
172 194 0
172 193 0
172 195 0
176 198 0
171 193 0
171 194 0
171 194 0
173 195 0
170 192 0
170 192 0
174 195 0
170 191 0
171 193 0
171 193 0
167 190 0
176 197 0
171 193 0
171 193 0
170 192 0
174 196 0
172 193 0
171 193 0
169 190 0
172 194 0
168 191 0
170 193 0
170 191 0
173 194 0
173 195 0
168 190 0
169 192 0
170 192 0
168 190 0
173 196 0
169 191 0
167 189 0
167 187 0
172 194 0
169 191 0
171 194 0
168 191 0
170 192 0
162 185 0
167 190 0
167 189 0
164 186 0
168 189 0
166 188 0
167 189 0
168 190 0
165 187 0
161 184 0
163 186 0
166 187 0
163 184 0
166 189 0
165 187 0
169 192 0
168 190 0
164 187 0
169 192 0
166 188 0
164 187 0
166 188 0
162 184 0
165 188 0
166 189 0
160 182 0
162 183 0
162 185 0
161 183 0
163 185 0
160 182 0
159 182 0
158 180 0
158 180 0
163 186 0
163 185 0
162 185 0
162 184 0
160 182 0
160 182 0
166 188 0
164 186 0
157 179 0
160 182 0
158 180 0
160 182 0
160 182 0
159 182 0
161 184 0
161 185 0
161 183 0
165 189 0
160 182 0
154 177 0
154 176 0
157 179 0
161 184 0
156 179 0
160 183 0
162 184 0
165 187 0
160 183 0
160 183 0
157 178 0
155 178 0
164 186 0
160 184 0
156 179 0
162 184 0
158 180 0
158 181 0
161 183 0
154 176 0
154 177 0
157 179 0
158 181 0
154 176 0
152 174 0
160 183 0
150 173 0
151 173 0
155 177 0
145 167 0
156 179 0
158 182 0
160 183 0
154 176 0
151 173 0
158 180 0
155 178 0
146 168 0
156 177 0
151 174 0
149 171 0
150 173 0
150 172 0
158 181 0
162 185 0
149 173 0
156 178 0
154 175 0
154 176 0
151 174 0
146 167 0
155 178 0
154 177 0
153 176 0
160 181 0
151 175 0
150 171 0
152 174 0
146 167 0
145 167 0
140 163 0
153 174 0
150 171 0
144 166 0
145 167 0
136 157 0
145 166 0
146 167 0
148 168 0
147 168 0
145 166 0
145 165 0
145 167 0
147 169 0
147 168 0
148 170 0
138 159 0
139 160 0
147 169 0
152 174 0
153 174 0
147 169 0
139 160 0
145 167 0
148 168 0
144 166 0
145 166 0
143 163 0
141 162 0
146 167 0
148 169 0
146 168 0
142 163 0
146 167 0
145 166 0
148 170 0
132 152 0
143 163 0
141 162 0
142 163 0
147 168 0
147 168 0
139 159 0
144 165 0
145 166 0
142 165 0
137 157 0
140 160 0
146 166 0
134 155 0
137 157 0
147 167 0
144 166 0
146 167 0
141 161 0
148 169 0
128 148 0
139 159 0
147 168 0
141 161 0
132 151 0
147 166 0
143 162 0
148 169 0
145 164 0
141 162 0
133 153 0
139 159 0
146 166 0
138 159 0
148 166 0
144 163 0
146 166 0
140 160 0
144 164 0
144 163 0
135 154 0
138 156 0
145 165 0
141 161 0
142 161 0
144 163 0
134 154 0
141 161 0
141 160 0
152 172 0
139 157 0
146 166 0
142 161 0
144 164 0
146 167 0
136 155 0
135 155 0
135 154 0
137 156 0
140 157 0
133 152 0
140 158 0
143 163 0
143 163 0
141 161 0
146 166 0
142 162 0
134 151 0
138 154 0
146 164 0
139 157 0
140 159 0
144 163 0
148 168 0
153 173 0
139 160 0
143 162 0
143 160 0
130 148 0
154 174 0
152 170 0
145 165 0
138 154 0
138 156 0
144 162 0
136 152 0
140 160 0
141 157 0
148 166 0
147 164 0
141 159 0
149 166 0
140 157 0
145 161 0
156 173 0
139 154 0
147 165 0
145 160 0
141 158 0
142 157 0
143 160 0
141 157 0
142 156 0
147 163 0
146 163 0
146 162 0
144 159 0
143 157 0
139 154 0
145 160 0
143 159 0
146 160 0
147 160 0
154 170 0
140 154 0
143 154 0
149 163 0
142 156 0
140 153 0
144 157 0
143 156 0
147 162 0
143 157 0
146 158 0
145 158 0
144 156 0
150 162 0
138 149 0
129 136 0
142 155 0
150 163 0
151 162 0
145 159 0
146 158 0
135 145 0
140 154 0
143 154 0
143 156 0
139 148 0
147 158 0
149 158 0
148 159 0
151 160 0
138 149 0
147 153 0
138 144 0
141 150 0
142 150 0
139 148 0
140 145 0
147 156 0
151 160 0
140 145 0
137 146 0
143 148 0
137 145 0
134 141 0
140 149 0
151 160 0
143 151 0
137 143 0
136 144 0
140 144 0
142 150 0
144 151 0
144 151 0
142 149 0
143 150 0
147 155 0
147 154 0
140 146 0
147 156 0
143 149 0
148 155 0
150 158 0
142 151 0
146 153 0
148 155 0
146 153 0
147 154 0
152 163 0
142 151 0
145 153 0
147 152 0
143 151 0
152 161 0
152 157 0
150 162 0
148 155 0
151 160 0
144 151 0
154 161 0
146 154 0
158 167 0
154 164 0
149 157 0
152 160 0
158 169 0
153 164 0
145 153 0
155 166 0
147 155 0
152 162 0
149 160 0
156 167 0
160 172 0
152 163 0
174 197 0
171 192 0
170 193 0
171 194 0
171 193 0
173 195 0
173 194 0
174 196 0
170 194 0
171 194 0
172 194 0
172 195 0
170 192 0
170 191 0
172 194 0
172 194 0
172 194 0
172 194 0
172 193 0
167 190 0
172 193 0
171 193 0
169 192 0
168 190 0
171 192 0
169 191 0
173 195 0
169 192 0
166 189 0
170 192 0
169 191 0
170 192 0
168 190 0
169 191 0
167 189 0
167 189 0
168 191 0
170 192 0
167 189 0
167 190 0
167 190 0
165 187 0
171 193 0
171 192 0
164 186 0
165 187 0
170 191 0
168 189 0
170 191 0
167 188 0
165 187 0
168 189 0
168 191 0
164 187 0
173 195 0
171 193 0
170 192 0
168 189 0
165 186 0
164 186 0
160 183 0
169 191 0
166 188 0
166 189 0
166 188 0
167 190 0
167 190 0
164 187 0
167 189 0
167 189 0
162 184 0
160 183 0
159 181 0
162 185 0
166 188 0
156 178 0
164 187 0
166 188 0
154 176 0
161 184 0
160 182 0
166 188 0
162 184 0
155 179 0
158 181 0
167 189 0
163 185 0
165 187 0
163 186 0
163 187 0
159 181 0
161 183 0
160 183 0
158 180 0
159 182 0
161 184 0
161 183 0
159 181 0
162 183 0
162 185 0
161 183 0
152 174 0
155 178 0
158 181 0
161 183 0
158 181 0
158 181 0
161 182 0
157 180 0
161 183 0
158 180 0
160 183 0
155 178 0
156 180 0
155 177 0
158 182 0
157 181 0
161 184 0
153 176 0
158 180 0
160 182 0
158 181 0
154 177 0
162 185 0
151 173 0
152 174 0
155 177 0
153 177 0
153 174 0
152 174 0
153 174 0
154 176 0
162 184 0
157 179 0
153 176 0
156 178 0
158 180 0
156 179 0
147 169 0
149 171 0
149 172 0
153 175 0
146 167 0
151 173 0
150 173 0
151 174 0
159 180 0
143 165 0
149 171 0
148 170 0
152 175 0
150 172 0
146 168 0
150 172 0
143 165 0
151 173 0
148 169 0
154 176 0
147 169 0
143 165 0
145 167 0
153 176 0
151 172 0
152 174 0
153 175 0
145 167 0
142 163 0
140 161 0
146 168 0
153 175 0
144 166 0
144 165 0
139 162 0
147 168 0
138 159 0
140 162 0
149 170 0
147 169 0
141 163 0
137 159 0
136 158 0
146 166 0
138 158 0
145 167 0
142 163 0
146 167 0
139 159 0
142 163 0
136 157 0
142 163 0
152 173 0
143 165 0
153 174 0
151 173 0
134 155 0
148 170 0
144 165 0
143 163 0
151 171 0
139 160 0
142 163 0
139 159 0
138 158 0
149 170 0
141 162 0
144 165 0
140 161 0
148 170 0
129 149 0
138 159 0
140 161 0
142 163 0
143 162 0
135 155 0
142 162 0
139 158 0
141 163 0
139 160 0
138 159 0
144 166 0
141 161 0
146 166 0
133 152 0
147 167 0
142 161 0
142 163 0
145 165 0
134 153 0
145 163 0
141 161 0
151 171 0
133 152 0
143 162 0
151 171 0
144 162 0
148 168 0
144 162 0
143 163 0
151 171 0
148 165 0
136 155 0
144 162 0
143 162 0
147 166 0
138 158 0
142 161 0
145 164 0
142 162 0
137 156 0
139 157 0
137 156 0
142 161 0
141 158 0
143 161 0
150 170 0
148 165 0
150 170 0
146 165 0
132 149 0
147 167 0
140 159 0
140 159 0
144 164 0
144 163 0
146 164 0
139 157 0
143 161 0
150 169 0
142 161 0
142 161 0
138 155 0
141 158 0
144 160 0
143 159 0
143 161 0
143 161 0
142 160 0
143 161 0
142 159 0
148 167 0
141 157 0
146 163 0
147 165 0
145 165 0
149 166 0
147 164 0
149 164 0
142 158 0
146 164 0
146 164 0
141 157 0
149 164 0
150 166 0
143 160 0
146 162 0
147 161 0
151 166 0
151 169 0
145 161 0
144 159 0
141 155 0
137 152 0
146 162 0
147 161 0
144 159 0
146 160 0
151 166 0
137 151 0
145 160 0
145 161 0
152 166 0
146 158 0
138 152 0
142 156 0
145 157 0
142 157 0
144 157 0
139 151 0
144 156 0
150 164 0
138 148 0
140 150 0
140 150 0
151 161 0
151 163 0
150 161 0
145 155 0
145 156 0
141 152 0
138 149 0
141 152 0
140 148 0
136 144 0
146 155 0
140 151 0
146 157 0
147 160 0
137 147 0
136 147 0
143 154 0
144 152 0
150 161 0
142 152 0
146 156 0
147 158 0
147 156 0
147 156 0
140 148 0
149 158 0
151 161 0
147 155 0
142 152 0
140 147 0
147 156 0
151 160 0
146 154 0
150 159 0
144 151 0
145 153 0
146 154 0
147 156 0
150 160 0
148 156 0
144 150 0
144 150 0
145 152 0
148 152 0
152 159 0
146 154 0
144 151 0
152 160 0
140 147 0
151 160 0
139 146 0
144 154 0
143 151 0
144 153 0
141 147 0
151 157 0
139 144 0
155 165 0
141 146 0
143 151 0
151 162 0
156 163 0
151 159 0
155 163 0
152 161 0
148 157 0
152 161 0
155 167 0
154 162 0
160 170 0
150 158 0
156 166 0
154 161 0
148 156 0
152 162 0
152 162 0
153 164 0
173 195 0
167 190 0
172 195 0
174 196 0
171 193 0
173 195 0
171 194 0
169 191 0
173 196 0
171 193 0
175 196 0
174 196 0
172 195 0
172 193 0
172 194 0
172 195 0
174 195 0
171 193 0
171 193 0
171 193 0
170 192 0
169 192 0
171 193 0
170 192 0
172 194 0
170 192 0
170 192 0
166 187 0
169 191 0
174 195 0
170 192 0
167 189 0
165 187 0
167 190 0
168 191 0
170 193 0
171 192 0
168 190 0
169 192 0
167 190 0
170 193 0
171 193 0
163 185 0
165 186 0
169 191 0
166 188 0
169 192 0
166 188 0
168 191 0
167 189 0
169 190 0
166 187 0
165 187 0
170 192 0
167 191 0
160 182 0
166 188 0
164 186 0
169 191 0
162 184 0
168 190 0
164 186 0
160 182 0
164 187 0
159 180 0
164 186 0
167 189 0
166 188 0
156 180 0
165 188 0
165 187 0
164 186 0
158 180 0
157 178 0
165 187 0
167 189 0
165 187 0
167 190 0
161 184 0
159 181 0
160 183 0
158 181 0
157 181 0
166 188 0
159 181 0
159 181 0
158 182 0
158 180 0
166 188 0
156 180 0
164 187 0
159 182 0
163 186 0
160 183 0
163 185 0
161 183 0
156 178 0
153 177 0
160 183 0
162 185 0
156 178 0
157 179 0
163 185 0
156 179 0
158 180 0
161 183 0
155 178 0
156 178 0
162 184 0
164 187 0
158 181 0
155 177 0
157 180 0
156 178 0
159 180 0
161 183 0
161 182 0
161 184 0
160 183 0
159 182 0
150 172 0
159 181 0
161 184 0
157 179 0
149 171 0
157 180 0
150 173 0
153 175 0
156 179 0
158 180 0
156 180 0
153 175 0
158 180 0
156 179 0
155 177 0
156 179 0
156 180 0
152 174 0
153 176 0
146 167 0
151 173 0
151 174 0
155 177 0
148 171 0
149 172 0
155 178 0
159 181 0
153 175 0
153 175 0
147 169 0
153 175 0
143 165 0
152 174 0
148 170 0
148 170 0
145 169 0
146 168 0
144 164 0
155 177 0
152 174 0
145 167 0
144 166 0
153 176 0
148 170 0
150 172 0
148 169 0
151 173 0
151 172 0
155 176 0
142 164 0
136 156 0
149 170 0
152 173 0
145 167 0
149 171 0
156 177 0
143 164 0
143 164 0
151 173 0
146 168 0
138 159 0
144 165 0
149 170 0
147 169 0
146 167 0
151 173 0
147 167 0
141 162 0
143 165 0
140 160 0
145 166 0
144 166 0
144 165 0
144 165 0
151 172 0
142 163 0
151 174 0
145 167 0
130 152 0
133 153 0
144 164 0
140 160 0
136 157 0
150 172 0
144 165 0
142 161 0
148 169 0
143 164 0
145 165 0
143 163 0
139 159 0
146 166 0
144 165 0
151 173 0
148 168 0
139 160 0
145 166 0
129 149 0
140 160 0
145 166 0
156 176 0
142 161 0
145 166 0
141 161 0
143 163 0
145 165 0
144 164 0
147 167 0
141 161 0
144 164 0
141 161 0
134 155 0
144 164 0
141 161 0
134 155 0
144 164 0
150 171 0
142 162 0
141 160 0
133 153 0
136 157 0
132 152 0
139 158 0
145 165 0
147 167 0
144 165 0
148 169 0
142 162 0
144 164 0
137 155 0
146 168 0
150 168 0
146 165 0
138 157 0
139 158 0
145 165 0
143 161 0
152 170 0
146 165 0
137 155 0
145 163 0
141 158 0
147 165 0
139 157 0
144 162 0
143 161 0
144 163 0
142 161 0
137 157 0
145 162 0
148 166 0
150 168 0
144 162 0
147 164 0
145 163 0
145 164 0
147 164 0
146 165 0
142 161 0
147 165 0
139 156 0
143 159 0
145 162 0
141 159 0
148 164 0
142 157 0
149 167 0
148 166 0
148 167 0
142 158 0
138 154 0
150 167 0
137 152 0
142 158 0
146 162 0
144 159 0
153 170 0
145 161 0
142 160 0
144 160 0
142 156 0
147 165 0
139 154 0
148 164 0
142 157 0
143 158 0
140 153 0
144 158 0
142 156 0
151 164 0
138 152 0
149 161 0
141 156 0
142 155 0
142 154 0
152 166 0
142 155 0
142 154 0
149 164 0
145 156 0
147 159 0
141 152 0
149 160 0
143 151 0
144 157 0
145 159 0
142 152 0
148 160 0
155 168 0
145 156 0
147 157 0
146 158 0
146 156 0
147 157 0
143 154 0
142 153 0
144 156 0
146 156 0
142 154 0
143 152 0
146 157 0
142 149 0
145 155 0
138 147 0
145 156 0
149 163 0
142 153 0
141 150 0
149 154 0
146 155 0
145 158 0
151 161 0
146 154 0
147 157 0
154 165 0
146 157 0
144 154 0
140 148 0
143 154 0
144 152 0
147 154 0
155 164 0
146 156 0
156 163 0
147 153 0
142 150 0
151 160 0
154 161 0
156 164 0
151 163 0
144 150 0
140 146 0
151 161 0
153 162 0
145 153 0
151 159 0
147 154 0
150 158 0
146 151 0
144 153 0
154 164 0
154 165 0
150 158 0
150 159 0
148 157 0
153 163 0
153 164 0
154 163 0
149 158 0
152 162 0
153 163 0
153 165 0
150 160 0
154 165 0
147 157 0
146 154 0
152 164 0
157 165 0
158 168 0
154 164 0
173 195 0
169 191 0
174 196 0
169 192 0
172 194 0
170 193 0
169 191 0
171 193 0
170 193 0
173 195 0
167 189 0
172 195 0
171 193 0
170 191 0
172 194 0
170 192 0
166 189 0
171 193 0
171 193 0
167 189 0
168 190 0
174 196 0
171 195 0
168 190 0
169 191 0
168 190 0
171 193 0
170 193 0
169 190 0
171 193 0
168 191 0
166 189 0
167 190 0
167 189 0
166 188 0
163 184 0
171 193 0
169 192 0
167 188 0
164 186 0
165 187 0
170 192 0
167 189 0
170 192 0
168 191 0
168 191 0
167 190 0
166 189 0
164 187 0
162 184 0
165 187 0
166 189 0
168 190 0
168 189 0
165 188 0
170 192 0
166 189 0
167 190 0
164 186 0
170 192 0
166 189 0
162 185 0
161 184 0
165 187 0
162 186 0
166 190 0
162 184 0
159 181 0
167 190 0
166 189 0
167 189 0
163 185 0
169 192 0
161 184 0
164 187 0
158 181 0
163 185 0
163 185 0
162 184 0
166 188 0
155 177 0
164 187 0
163 185 0
155 177 0
165 189 0
157 179 0
158 180 0
164 187 0
161 184 0
162 185 0
161 184 0
163 186 0
159 181 0
161 183 0
154 178 0
158 180 0
160 183 0
156 180 0
155 178 0
160 183 0
164 187 0
161 183 0
161 183 0
160 182 0
157 179 0
157 179 0
158 182 0
155 177 0
161 183 0
157 180 0
155 177 0
158 181 0
156 179 0
159 181 0
155 178 0
154 177 0
159 182 0
156 178 0
153 175 0
155 179 0
163 184 0
151 173 0
153 176 0
149 172 0
160 183 0
159 181 0
159 182 0
157 179 0
157 180 0
162 184 0
156 179 0
149 171 0
146 169 0
152 174 0
148 170 0
159 182 0
155 177 0
152 174 0
156 179 0
155 178 0
151 174 0
155 178 0
146 168 0
153 175 0
149 171 0
147 169 0
154 177 0
153 175 0
150 173 0
144 166 0
158 179 0
134 156 0
151 173 0
156 179 0
151 173 0
154 176 0
147 169 0
147 168 0
155 179 0
155 177 0
135 158 0
143 165 0
148 171 0
146 168 0
148 171 0
149 170 0
147 169 0
152 173 0
147 170 0
143 165 0
145 167 0
147 168 0
146 168 0
145 167 0
142 163 0
149 170 0
150 171 0
138 158 0
141 163 0
148 169 0
148 169 0
149 170 0
147 168 0
151 172 0
146 167 0
146 168 0
149 172 0
152 172 0
148 171 0
146 168 0
140 161 0
146 166 0
147 169 0
143 163 0
147 168 0
140 162 0
149 171 0
137 160 0
148 170 0
140 161 0
139 159 0
139 161 0
147 168 0
142 162 0
147 169 0
148 169 0
151 172 0
143 164 0
145 165 0
143 163 0
132 152 0
138 161 0
144 165 0
139 159 0
146 167 0
144 164 0
136 158 0
139 160 0
131 152 0
142 164 0
145 167 0
141 161 0
136 155 0
145 166 0
150 170 0
134 154 0
144 163 0
135 156 0
143 162 0
144 164 0
138 159 0
139 159 0
133 153 0
144 164 0
141 160 0
138 158 0
136 156 0
143 164 0
151 169 0
142 162 0
140 160 0
145 165 0
140 157 0
142 161 0
138 159 0
136 155 0
142 162 0
137 155 0
141 161 0
143 163 0
144 165 0
141 161 0
146 165 0
142 161 0
154 174 0
151 171 0
139 157 0
140 160 0
148 167 0
144 165 0
141 160 0
151 169 0
141 157 0
147 166 0
144 163 0
137 154 0
142 158 0
146 166 0
159 179 0
140 157 0
145 165 0
147 166 0
146 165 0
138 154 0
145 162 0
155 174 0
145 163 0
147 165 0
144 161 0
145 165 0
151 169 0
148 165 0
147 163 0
147 165 0
145 164 0
137 153 0
142 160 0
139 156 0
151 171 0
143 159 0
146 164 0
147 164 0
141 156 0
144 161 0
147 162 0
136 152 0
147 162 0
137 152 0
150 165 0
151 167 0
142 160 0
146 163 0
131 146 0
140 153 0
139 153 0
149 165 0
146 161 0
140 155 0
153 170 0
146 160 0
138 155 0
135 149 0
140 155 0
142 155 0
143 156 0
143 156 0
139 151 0
144 154 0
153 166 0
141 153 0
138 150 0
147 160 0
149 164 0
138 148 0
149 161 0
149 160 0
152 168 0
151 164 0
145 160 0
149 163 0
149 161 0
141 153 0
139 152 0
143 154 0
140 146 0
140 149 0
146 156 0
143 154 0
140 149 0
135 144 0
134 147 0
144 155 0
146 155 0
150 163 0
135 145 0
139 149 0
153 163 0
147 158 0
139 148 0
146 157 0
138 146 0
146 152 0
143 151 0
145 152 0
145 153 0
135 143 0
142 151 0
142 151 0
143 152 0
138 146 0
145 154 0
148 157 0
152 163 0
148 157 0
149 158 0
150 161 0
143 150 0
153 162 0
147 157 0
150 160 0
151 160 0
152 161 0
146 157 0
150 157 0
147 157 0
154 164 0
151 159 0
146 156 0
154 162 0
149 159 0
146 154 0
153 162 0
143 149 0
149 159 0
148 155 0
152 160 0
153 162 0
150 159 0
150 160 0
146 154 0
154 161 0
156 167 0
150 161 0
151 161 0
157 168 0
155 161 0
151 161 0
149 159 0
160 173 0
153 161 0
174 197 0
171 194 0
172 195 0
173 195 0
173 195 0
171 193 0
170 193 0
170 192 0
172 194 0
168 191 0
173 195 0
172 193 0
171 193 0
173 195 0
168 190 0
173 195 0
174 196 0
166 189 0
170 192 0
166 189 0
168 190 0
169 191 0
169 190 0
169 191 0
168 190 0
170 192 0
170 192 0
170 191 0
173 194 0
172 194 0
172 194 0
164 186 0
162 185 0
168 190 0
169 191 0
167 189 0
165 188 0
168 189 0
168 190 0
168 191 0
165 187 0
170 191 0
169 192 0
166 188 0
167 189 0
165 187 0
159 181 0
169 191 0
165 188 0
165 188 0
168 190 0
164 186 0
164 187 0
164 186 0
167 188 0
171 193 0
168 191 0
164 186 0
168 191 0
161 183 0
157 178 0
163 185 0
163 185 0
166 189 0
167 189 0
165 187 0
166 189 0
162 184 0
166 187 0
161 184 0
162 184 0
164 186 0
163 186 0
162 185 0
168 191 0
160 182 0
160 184 0
157 180 0
165 189 0
161 183 0
166 188 0
159 182 0
157 179 0
158 180 0
160 183 0
164 187 0
161 184 0
161 183 0
152 174 0
158 182 0
164 186 0
161 184 0
153 176 0
164 186 0
162 184 0
162 184 0
160 183 0
161 183 0
170 192 0
156 178 0
162 185 0
160 183 0
163 186 0
159 181 0
158 181 0
154 177 0
161 183 0
163 185 0
158 180 0
158 180 0
158 180 0
161 184 0
153 176 0
160 182 0
160 183 0
153 176 0
159 182 0
153 176 0
156 178 0
165 187 0
162 184 0
157 179 0
161 184 0
154 176 0
156 178 0
156 179 0
152 173 0
157 180 0
161 183 0
152 175 0
157 180 0
155 176 0
151 173 0
152 175 0
157 180 0
155 177 0
154 177 0
150 173 0
152 174 0
151 173 0
148 169 0
148 170 0
149 171 0
156 178 0
155 178 0
146 168 0
152 176 0
153 176 0
152 174 0
146 168 0
151 174 0
152 175 0
154 176 0
149 170 0
147 168 0
156 178 0
155 176 0
147 167 0
150 173 0
152 173 0
155 177 0
155 177 0
151 174 0
146 168 0
153 175 0
147 170 0
151 173 0
146 168 0
150 173 0
147 170 0
150 172 0
138 160 0
150 172 0
141 163 0
143 165 0
153 175 0
151 174 0
150 172 0
142 164 0
148 170 0
146 167 0
143 164 0
145 167 0
146 167 0
141 161 0
143 164 0
152 175 0
154 176 0
146 168 0
137 157 0
142 163 0
143 165 0
144 167 0
136 157 0
146 168 0
139 160 0
148 169 0
153 173 0
141 163 0
141 162 0
147 168 0
146 167 0
141 160 0
136 157 0
146 169 0
145 167 0
146 164 0
148 170 0
135 155 0
145 166 0
143 164 0
145 167 0
145 166 0
147 168 0
141 161 0
154 175 0
151 171 0
140 159 0
138 158 0
152 172 0
145 166 0
142 162 0
141 160 0
148 168 0
146 167 0
140 158 0
137 156 0
146 166 0
145 164 0
136 157 0
138 157 0
139 158 0
143 164 0
147 167 0
139 159 0
145 166 0
134 151 0
150 171 0
141 161 0
145 163 0
139 160 0
143 164 0
144 163 0
144 165 0
149 167 0
150 170 0
144 163 0
148 168 0
149 169 0
149 167 0
145 164 0
147 167 0
142 162 0
146 165 0
140 160 0
150 170 0
143 163 0
138 158 0
152 172 0
143 162 0
149 168 0
154 173 0
138 154 0
138 159 0
145 161 0
144 161 0
149 169 0
147 166 0
150 169 0
142 161 0
151 169 0
152 170 0
148 165 0
147 167 0
146 164 0
147 166 0
146 164 0
151 170 0
149 168 0
138 156 0
145 164 0
144 160 0
146 165 0
141 160 0
139 156 0
147 164 0
141 158 0
152 167 0
150 167 0
142 157 0
142 159 0
146 162 0
150 168 0
144 162 0
149 166 0
149 166 0
145 160 0
148 164 0
148 165 0
140 154 0
138 154 0
150 164 0
139 156 0
150 166 0
143 158 0
141 158 0
148 164 0
150 164 0
145 158 0
140 155 0
148 164 0
138 151 0
145 159 0
146 159 0
143 155 0
147 159 0
151 166 0
148 164 0
144 156 0
144 159 0
145 157 0
152 166 0
136 148 0
148 162 0
145 158 0
143 156 0
140 153 0
139 152 0
147 156 0
141 153 0
145 157 0
144 157 0
144 156 0
142 154 0
143 152 0
148 162 0
141 150 0
148 162 0
141 152 0
142 152 0
147 158 0
144 155 0
148 159 0
147 159 0
141 151 0
150 162 0
150 162 0
146 157 0
146 157 0
148 160 0
147 158 0
151 162 0
147 156 0
149 160 0
152 162 0
144 153 0
147 156 0
147 155 0
144 153 0
142 150 0
148 158 0
143 151 0
148 157 0
150 159 0
149 159 0
153 163 0
147 156 0
147 156 0
151 159 0
143 150 0
152 158 0
143 150 0
145 155 0
149 158 0
152 163 0
155 164 0
147 158 0
159 170 0
150 158 0
153 163 0
152 160 0
151 160 0
151 161 0
148 157 0
152 162 0
143 150 0
149 156 0
159 169 0
148 154 0
152 161 0
151 160 0
144 151 0
150 162 0
148 157 0
154 164 0
158 171 0
152 160 0
155 165 0
156 165 0
155 164 0
170 193 0
172 195 0
174 196 0
167 189 0
171 193 0
174 196 0
170 192 0
169 191 0
171 193 0
170 194 0
171 194 0
169 191 0
171 193 0
171 193 0
168 190 0
166 188 0
175 197 0
166 189 0
170 192 0
172 194 0
172 194 0
164 185 0
171 193 0
170 193 0
173 195 0
171 193 0
166 188 0
169 191 0
168 191 0
172 194 0
165 187 0
167 189 0
171 192 0
168 191 0
168 191 0
169 191 0
167 190 0
171 194 0
168 191 0
170 192 0
167 189 0
166 188 0
166 189 0
161 184 0
168 189 0
170 191 0
169 192 0
168 191 0
171 194 0
167 189 0
169 191 0
165 186 0
165 186 0
162 185 0
169 191 0
161 183 0
166 189 0
163 185 0
159 181 0
165 187 0
161 184 0
169 191 0
161 183 0
167 189 0
169 191 0
168 190 0
159 182 0
160 183 0
163 186 0
161 184 0
160 181 0
161 183 0
163 186 0
164 187 0
158 181 0
150 173 0
165 188 0
165 187 0
162 185 0
160 183 0
162 184 0
164 187 0
162 185 0
153 176 0
153 176 0
157 179 0
161 184 0
158 181 0
158 181 0
162 185 0
161 184 0
159 181 0
153 176 0
161 184 0
163 185 0
157 180 0
164 187 0
162 185 0
158 181 0
161 183 0
157 179 0
163 186 0
153 176 0
155 179 0
161 184 0
158 180 0
158 181 0
156 179 0
162 184 0
161 183 0
157 181 0
159 181 0
154 176 0
154 177 0
156 179 0
160 183 0
158 179 0
158 179 0
159 182 0
151 173 0
159 182 0
160 183 0
155 177 0
156 178 0
161 183 0
163 185 0
157 180 0
147 169 0
153 175 0
153 175 0
147 170 0
151 174 0
154 176 0
150 170 0
153 175 0
150 172 0
156 178 0
154 177 0
153 177 0
146 168 0
150 173 0
154 175 0
153 175 0
151 172 0
155 177 0
151 172 0
154 178 0
147 169 0
162 184 0
152 173 0
155 177 0
150 172 0
158 181 0
151 172 0
146 169 0
152 174 0
155 176 0
150 173 0
148 171 0
153 174 0
151 173 0
153 175 0
150 172 0
150 174 0
143 164 0
156 177 0
159 181 0
147 168 0
150 172 0
153 176 0
152 174 0
152 174 0
152 173 0
148 171 0
154 176 0
137 158 0
149 171 0
152 174 0
140 162 0
151 172 0
131 151 0
150 171 0
152 174 0
147 167 0
145 167 0
155 177 0
152 174 0
143 165 0
147 169 0
146 167 0
149 170 0
149 169 0
145 165 0
151 173 0
146 166 0
141 162 0
141 163 0
145 166 0
144 165 0
143 166 0
149 170 0
149 170 0
143 164 0
142 164 0
145 167 0
139 161 0
148 168 0
142 163 0
148 168 0
149 170 0
152 173 0
141 161 0
149 169 0
145 167 0
144 166 0
147 167 0
146 165 0
141 163 0
143 163 0
143 162 0
145 166 0
139 160 0
144 164 0
149 170 0
143 164 0
147 170 0
148 168 0
144 164 0
147 167 0
147 168 0
144 163 0
142 162 0
149 170 0
145 167 0
143 164 0
138 156 0
151 173 0
141 162 0
143 162 0
140 160 0
141 161 0
149 169 0
150 169 0
144 164 0
146 166 0
145 166 0
138 157 0
146 164 0
144 163 0
152 169 0
140 161 0
140 160 0
145 164 0
145 161 0
147 168 0
148 166 0
148 167 0
154 172 0
147 166 0
136 155 0
140 159 0
149 167 0
146 165 0
148 167 0
139 157 0
147 167 0
153 173 0
152 170 0
145 165 0
147 165 0
145 163 0
155 174 0
140 157 0
140 158 0
146 166 0
143 162 0
136 152 0
139 155 0
139 156 0
151 170 0
141 157 0
143 161 0
148 165 0
139 156 0
145 165 0
157 175 0
144 163 0
154 171 0
150 170 0
144 161 0
141 158 0
148 167 0
143 161 0
150 168 0
146 162 0
147 163 0
146 162 0
140 157 0
142 159 0
149 166 0
148 164 0
144 160 0
141 156 0
142 159 0
148 166 0
148 162 0
149 166 0
152 168 0
143 158 0
147 162 0
152 168 0
148 162 0
146 160 0
146 160 0
145 157 0
145 161 0
151 167 0
143 160 0
144 159 0
148 160 0
145 160 0
153 169 0
151 166 0
145 159 0
151 165 0
151 165 0
141 156 0
143 156 0
138 148 0
145 157 0
152 164 0
143 155 0
149 160 0
149 161 0
146 158 0
141 153 0
145 158 0
144 156 0
147 157 0
150 163 0
144 156 0
143 155 0
140 148 0
151 162 0
143 150 0
147 157 0
153 164 0
154 165 0
143 153 0
148 159 0
146 156 0
141 151 0
143 152 0
147 156 0
145 156 0
143 151 0
149 160 0
146 155 0
149 160 0
140 150 0
152 163 0
150 158 0
146 158 0
151 162 0
154 163 0
153 164 0
149 158 0
146 155 0
147 153 0
149 157 0
146 157 0
146 157 0
147 155 0
154 163 0
148 156 0
155 164 0
149 157 0
145 154 0
143 151 0
149 158 0
153 160 0
143 153 0
151 159 0
155 164 0
153 164 0
146 155 0
147 156 0
147 157 0
153 162 0
152 161 0
147 156 0
157 169 0
151 161 0
152 160 0
146 155 0
153 163 0
144 153 0
151 160 0
149 156 0
158 171 0
169 192 0
171 193 0
166 189 0
170 193 0
174 197 0
171 193 0
168 190 0
173 195 0
171 193 0
172 194 0
173 196 0
170 192 0
167 189 0
170 192 0
171 193 0
168 191 0
172 194 0
171 193 0
169 191 0
173 195 0
169 191 0
167 189 0
172 194 0
163 186 0
168 192 0
171 193 0
173 195 0
169 191 0
167 189 0
163 186 0
171 192 0
171 194 0
167 189 0
168 190 0
171 194 0
171 193 0
168 190 0
168 189 0
165 187 0
168 190 0
170 192 0
164 186 0
165 188 0
168 190 0
164 187 0
170 193 0
162 183 0
163 186 0
167 189 0
159 181 0
168 190 0
167 190 0
168 190 0
167 189 0
170 193 0
166 188 0
165 188 0
164 187 0
163 185 0
162 184 0
162 184 0
166 188 0
157 180 0
167 188 0
161 184 0
162 184 0
165 187 0
168 190 0
158 180 0
164 186 0
162 184 0
163 185 0
166 189 0
165 188 0
163 185 0
160 183 0
160 183 0
163 185 0
163 186 0
160 183 0
161 184 0
165 187 0
169 193 0
162 184 0
166 189 0
164 187 0
161 185 0
159 181 0
157 179 0
159 182 0
158 181 0
156 178 0
161 184 0
157 180 0
166 189 0
165 188 0
163 185 0
158 180 0
153 177 0
155 177 0
164 187 0
153 176 0
155 178 0
166 189 0
154 177 0
157 180 0
157 180 0
162 185 0
159 181 0
160 183 0
160 183 0
158 181 0
152 174 0
155 178 0
166 187 0
161 182 0
158 181 0
157 180 0
157 180 0
149 172 0
157 180 0
156 179 0
160 183 0
145 168 0
157 180 0
160 182 0
156 179 0
152 174 0
158 181 0
159 181 0
156 178 0
152 175 0
157 180 0
159 181 0
159 182 0
149 172 0
159 181 0
157 179 0
151 173 0
142 164 0
153 175 0
151 173 0
148 170 0
160 182 0
150 172 0
146 168 0
157 178 0
156 178 0
145 167 0
153 176 0
156 178 0
152 174 0
146 168 0
155 177 0
151 174 0
151 173 0
152 174 0
158 181 0
148 171 0
149 171 0
153 174 0
145 167 0
151 173 0
156 178 0
141 162 0
148 170 0
149 169 0
143 165 0
150 172 0
148 170 0
147 170 0
150 171 0
143 165 0
144 165 0
145 166 0
148 170 0
155 177 0
154 175 0
140 162 0
146 167 0
146 168 0
145 166 0
144 165 0
145 167 0
146 168 0
136 158 0
139 162 0
143 164 0
149 170 0
145 167 0
146 168 0
143 165 0
152 175 0
143 164 0
142 164 0
143 164 0
144 165 0
150 171 0
142 164 0
142 163 0
151 173 0
152 174 0
149 171 0
147 166 0
151 173 0
143 165 0
143 163 0
143 165 0
146 167 0
146 168 0
139 160 0
148 168 0
140 160 0
129 149 0
144 165 0
136 155 0
148 170 0
142 162 0
149 171 0
154 174 0
146 167 0
145 166 0
150 169 0
144 164 0
143 163 0
140 161 0
140 158 0
136 156 0
148 168 0
151 172 0
139 160 0
143 163 0
142 162 0
139 160 0
141 161 0
150 170 0
140 160 0
137 157 0
134 153 0
143 163 0
140 160 0
143 163 0
134 153 0
153 176 0
137 157 0
150 169 0
144 164 0
148 168 0
146 164 0
144 163 0
144 164 0
131 152 0
150 170 0
146 164 0
150 170 0
150 169 0
150 170 0
142 162 0
152 171 0
150 170 0
147 167 0
148 167 0
152 173 0
147 165 0
150 170 0
151 171 0
148 167 0
148 166 0
145 165 0
140 156 0
152 172 0
141 159 0
149 169 0
147 164 0
144 163 0
155 173 0
148 168 0
146 166 0
148 167 0
139 157 0
141 160 0
150 167 0
141 161 0
151 169 0
152 171 0
142 160 0
144 162 0
152 169 0
147 164 0
137 154 0
141 159 0
149 168 0
152 167 0
152 166 0
148 167 0
149 166 0
151 168 0
142 158 0
140 156 0
146 164 0
144 163 0
147 163 0
145 160 0
139 153 0
151 168 0
144 160 0
151 167 0
151 167 0
147 165 0
142 156 0
145 161 0
148 165 0
141 156 0
143 156 0
151 164 0
142 158 0
149 163 0
151 165 0
144 157 0
145 159 0
144 159 0
148 162 0
142 154 0
143 157 0
154 167 0
152 168 0
144 158 0
141 154 0
147 161 0
142 154 0
150 163 0
140 153 0
148 162 0
146 157 0
138 151 0
146 159 0
144 155 0
146 158 0
152 166 0
149 162 0
146 159 0
151 165 0
143 154 0
145 159 0
148 161 0
151 160 0
145 156 0
137 150 0
150 159 0
139 150 0
158 170 0
151 165 0
152 163 0
153 164 0
150 157 0
147 158 0
150 162 0
148 157 0
152 165 0
148 158 0
150 161 0
152 162 0
142 147 0
150 160 0
144 152 0
153 164 0
143 149 0
156 166 0
146 158 0
151 160 0
152 164 0
151 161 0
148 157 0
153 163 0
147 159 0
150 160 0
148 156 0
150 159 0
144 154 0
153 165 0
154 163 0
150 160 0
142 151 0
145 154 0
155 166 0
149 157 0
156 168 0
153 159 0
148 158 0
141 152 0
146 157 0
154 163 0
156 168 0
157 172 0
154 163 0
153 164 0
152 162 0
159 169 0
151 162 0
154 164 0
173 195 0
170 193 0
170 193 0
171 193 0
170 192 0
173 194 0
171 193 0
171 194 0
170 191 0
169 192 0
171 193 0
171 195 0
174 196 0
167 190 0
170 192 0
172 194 0
171 193 0
171 193 0
174 195 0
170 191 0
169 191 0
171 193 0
173 195 0
166 189 0
170 192 0
166 188 0
158 180 0
169 192 0
164 186 0
166 188 0
167 189 0
167 189 0
168 191 0
165 189 0
165 187 0
168 190 0
170 192 0
169 191 0
168 192 0
162 184 0
162 185 0
167 189 0
169 192 0
162 185 0
171 193 0
163 184 0
162 184 0
167 190 0
166 188 0
169 192 0
165 187 0
165 187 0
168 191 0
167 190 0
166 189 0
162 184 0
159 181 0
167 189 0
160 182 0
163 185 0
157 180 0
167 189 0
165 188 0
167 189 0
168 190 0
166 188 0
159 182 0
158 180 0
155 177 0
160 182 0
162 185 0
169 191 0
158 180 0
162 185 0
157 180 0
169 191 0
164 187 0
160 183 0
166 188 0
163 186 0
157 179 0
163 185 0
161 184 0
161 184 0
160 183 0
158 180 0
165 187 0
163 185 0
158 181 0
163 186 0
159 181 0
166 189 0
158 182 0
156 178 0
156 179 0
157 180 0
166 188 0
164 187 0
158 180 0
161 183 0
162 185 0
158 181 0
160 182 0
159 181 0
159 181 0
164 186 0
161 184 0
159 181 0
156 180 0
157 180 0
162 184 0
159 181 0
158 180 0
164 187 0
151 174 0
160 183 0
161 184 0
155 177 0
160 183 0
161 184 0
157 180 0
160 182 0
154 178 0
162 185 0
153 175 0
159 182 0
154 176 0
147 169 0
154 177 0
157 179 0
152 176 0
155 178 0
158 179 0
153 176 0
157 179 0
152 175 0
150 173 0
149 172 0
149 169 0
153 176 0
153 176 0
150 173 0
150 173 0
152 174 0
152 172 0
153 176 0
147 169 0
148 171 0
151 173 0
155 177 0
152 174 0
150 172 0
155 177 0
154 176 0
148 171 0
145 166 0
156 178 0
151 172 0
149 171 0
153 176 0
148 169 0
142 164 0
151 173 0
156 178 0
147 169 0
154 175 0
146 167 0
147 168 0
152 175 0
147 170 0
148 170 0
147 169 0
145 167 0
149 170 0
148 170 0
154 176 0
149 171 0
141 162 0
147 170 0
154 175 0
150 172 0
138 159 0
145 166 0
151 174 0
145 167 0
150 171 0
148 170 0
145 167 0
147 168 0
149 170 0
137 158 0
153 174 0
150 172 0
143 164 0
153 176 0
150 172 0
147 167 0
143 164 0
144 165 0
135 155 0
147 167 0
146 165 0
154 175 0
141 162 0
148 169 0
145 166 0
149 171 0
145 166 0
148 170 0
144 167 0
142 162 0
138 159 0
144 165 0
140 159 0
160 181 0
141 162 0
139 158 0
151 173 0
146 166 0
144 164 0
148 167 0
140 161 0
141 160 0
150 171 0
146 167 0
156 176 0
142 163 0
135 153 0
123 142 0
154 175 0
146 164 0
146 167 0
145 164 0
130 150 0
148 170 0
141 162 0
141 162 0
142 164 0
143 162 0
148 169 0
150 169 0
139 160 0
157 177 0
138 158 0
147 169 0
153 173 0
141 162 0
144 165 0
151 170 0
142 161 0
149 168 0
138 157 0
143 163 0
150 169 0
142 162 0
140 159 0
148 166 0
144 164 0
147 166 0
148 168 0
140 160 0
147 165 0
144 164 0
141 160 0
152 173 0
143 162 0
149 167 0
145 164 0
146 164 0
140 158 0
137 155 0
153 174 0
139 158 0
147 166 0
148 167 0
147 165 0
148 168 0
147 164 0
145 162 0
140 157 0
149 168 0
142 160 0
151 170 0
151 170 0
142 162 0
145 162 0
152 171 0
145 162 0
141 159 0
137 152 0
136 152 0
151 170 0
147 163 0
143 160 0
150 165 0
148 165 0
153 170 0
147 163 0
151 168 0
148 163 0
143 157 0
151 169 0
138 153 0
143 160 0
146 160 0
156 175 0
145 161 0
145 159 0
150 166 0
147 163 0
148 163 0
151 165 0
142 157 0
147 161 0
146 161 0
149 165 0
149 167 0
148 164 0
144 159 0
142 158 0
146 162 0
148 164 0
141 155 0
144 159 0
144 158 0
144 157 0
143 157 0
156 169 0
145 159 0
152 166 0
145 158 0
148 160 0
149 164 0
147 162 0
145 161 0
150 163 0
149 165 0
141 153 0
148 160 0
136 150 0
141 152 0
145 157 0
150 163 0
150 165 0
150 161 0
140 154 0
144 156 0
147 159 0
147 158 0
149 160 0
149 161 0
148 160 0
143 152 0
145 153 0
151 160 0
148 160 0
153 165 0
150 162 0
156 169 0
146 158 0
150 162 0
148 158 0
150 160 0
145 156 0
148 159 0
148 156 0
147 157 0
150 160 0
143 152 0
148 159 0
153 163 0
146 156 0
143 154 0
153 163 0
147 159 0
154 163 0
146 156 0
149 156 0
153 165 0
151 159 0
148 159 0
153 166 0
154 164 0
145 155 0
148 156 0
157 167 0
152 161 0
157 165 0
155 165 0
150 161 0
150 161 0
154 164 0
145 155 0
157 168 0
150 160 0
150 158 0
156 166 0
147 155 0
158 171 0
155 165 0
171 193 0
172 195 0
167 190 0
174 196 0
174 196 0
171 195 0
172 193 0
169 190 0
163 186 0
173 196 0
170 192 0
170 191 0
172 194 0
171 193 0
169 190 0
167 190 0
169 190 0
169 191 0
166 188 0
167 189 0
172 196 0
168 190 0
166 188 0
173 194 0
167 190 0
171 192 0
169 191 0
169 191 0
168 190 0
167 188 0
168 190 0
169 191 0
171 194 0
167 190 0
170 192 0
167 189 0
169 192 0
163 185 0
163 186 0
163 186 0
168 190 0
166 188 0
170 192 0
167 190 0
169 191 0
169 191 0
165 188 0
170 192 0
171 194 0
165 188 0
165 187 0
170 192 0
167 190 0
159 182 0
166 189 0
162 184 0
166 189 0
161 183 0
164 187 0
164 187 0
164 186 0
162 185 0
166 189 0
162 184 0
163 185 0
171 194 0
164 187 0
166 188 0
164 187 0
160 182 0
161 184 0
161 184 0
161 184 0
157 181 0
165 188 0
157 180 0
163 184 0
162 185 0
158 182 0
163 185 0
157 180 0
161 183 0
162 184 0
162 184 0
160 182 0
154 177 0
160 183 0
164 187 0
160 183 0
156 179 0
158 181 0
166 188 0
159 182 0
157 179 0
157 180 0
158 181 0
157 180 0
160 182 0
158 180 0
161 183 0
161 183 0
161 184 0
157 180 0
158 181 0
155 178 0
151 175 0
156 178 0
155 176 0
164 187 0
156 179 0
163 187 0
160 183 0
161 183 0
159 183 0
160 182 0
161 183 0
159 182 0
155 177 0
162 185 0
159 182 0
155 177 0
154 177 0
162 184 0
152 175 0
155 176 0
163 185 0
157 180 0
154 176 0
153 176 0
163 186 0
157 181 0
148 170 0
158 182 0
150 171 0
159 181 0
153 176 0
151 174 0
153 176 0
152 175 0
153 175 0
149 171 0
150 174 0
158 180 0
149 171 0
154 177 0
154 175 0
158 179 0
150 172 0
148 169 0
150 173 0
142 163 0
152 174 0
155 177 0
151 173 0
151 174 0
151 173 0
153 175 0
157 178 0
151 173 0
146 168 0
147 169 0
139 160 0
151 172 0
152 174 0
151 172 0
154 176 0
152 174 0
152 175 0
147 168 0
158 181 0
139 161 0
144 166 0
154 177 0
144 166 0
142 163 0
152 174 0
152 174 0
148 170 0
149 172 0
137 157 0
152 174 0
148 169 0
151 173 0
151 173 0
155 178 0
143 165 0
153 175 0
139 161 0
148 170 0
148 171 0
138 159 0
139 160 0
151 173 0
144 165 0
151 173 0
148 169 0
151 173 0
150 170 0
145 167 0
147 168 0
140 160 0
150 172 0
147 169 0
140 161 0
145 166 0
145 165 0
144 164 0
146 168 0
138 159 0
140 160 0
143 164 0
144 163 0
148 169 0
145 166 0
151 171 0
149 170 0
151 172 0
140 161 0
141 160 0
145 165 0
145 167 0
139 161 0
140 159 0
148 169 0
150 170 0
141 162 0
136 158 0
148 169 0
143 164 0
140 162 0
135 155 0
142 163 0
150 169 0
151 172 0
148 169 0
138 158 0
138 157 0
144 164 0
145 165 0
146 166 0
143 163 0
142 164 0
147 168 0
144 165 0
146 167 0
148 170 0
148 168 0
135 157 0
146 165 0
149 168 0
148 169 0
146 165 0
147 166 0
154 175 0
139 160 0
151 170 0
150 169 0
146 163 0
153 173 0
141 163 0
140 161 0
148 168 0
146 164 0
152 170 0
144 164 0
146 163 0
145 163 0
141 160 0
150 171 0
143 161 0
150 170 0
153 172 0
141 159 0
148 168 0
145 165 0
155 174 0
145 164 0
147 166 0
147 163 0
146 165 0
146 163 0
146 165 0
156 175 0
140 158 0
143 162 0
146 163 0
154 172 0
140 158 0
136 152 0
147 165 0
148 167 0
143 160 0
139 157 0
151 172 0
151 167 0
145 162 0
145 161 0
144 163 0
147 164 0
150 167 0
150 170 0
143 159 0
145 162 0
149 165 0
146 163 0
155 174 0
157 173 0
146 161 0
155 171 0
148 164 0
148 163 0
145 162 0
143 155 0
147 165 0
143 157 0
144 156 0
147 163 0
153 171 0
145 159 0
152 168 0
147 161 0
144 160 0
151 167 0
141 157 0
148 162 0
156 172 0
150 161 0
148 161 0
142 155 0
146 159 0
149 165 0
145 159 0
144 156 0
147 160 0
148 163 0
152 164 0
145 158 0
142 156 0
150 161 0
136 147 0
140 152 0
154 166 0
152 165 0
150 163 0
144 157 0
152 166 0
149 162 0
148 160 0
148 162 0
148 159 0
154 166 0
149 160 0
147 158 0
155 166 0
149 161 0
152 164 0
149 160 0
158 170 0
146 159 0
143 155 0
146 157 0
151 160 0
152 161 0
148 159 0
150 162 0
148 159 0
146 155 0
146 156 0
151 162 0
146 157 0
148 158 0
152 161 0
150 163 0
153 164 0
150 160 0
148 160 0
139 147 0
151 164 0
147 156 0
154 162 0
151 164 0
144 153 0
149 159 0
150 161 0
153 165 0
155 163 0
151 161 0
155 167 0
143 153 0
157 170 0
155 168 0
155 167 0
153 163 0
153 166 0
157 168 0
144 154 0
153 162 0
153 162 0
146 157 0
154 167 0
169 192 0
171 194 0
171 194 0
172 195 0
170 191 0
168 189 0
168 190 0
171 193 0
170 193 0
169 191 0
174 196 0
169 191 0
173 194 0
168 190 0
169 192 0
169 191 0
170 193 0
170 192 0
170 193 0
169 191 0
170 193 0
171 193 0
168 189 0
169 191 0
170 192 0
168 191 0
166 188 0
169 192 0
169 191 0
168 190 0
166 188 0
168 190 0
169 190 0
164 186 0
168 191 0
169 192 0
171 193 0
165 188 0
163 185 0
169 191 0
168 191 0
163 184 0
165 187 0
167 190 0
167 190 0
164 186 0
163 186 0
164 186 0
162 184 0
166 188 0
171 194 0
167 190 0
163 185 0
168 191 0
160 182 0
164 186 0
163 185 0
163 186 0
166 189 0
167 189 0
165 188 0
167 190 0
166 188 0
160 184 0
168 191 0
162 184 0
163 186 0
161 184 0
165 188 0
164 186 0
163 186 0
166 189 0
159 182 0
156 179 0
165 187 0
162 185 0
161 184 0
160 183 0
165 187 0
166 189 0
162 185 0
160 183 0
160 183 0
158 181 0
160 183 0
157 180 0
162 185 0
162 185 0
160 184 0
158 180 0
164 187 0
164 186 0
161 185 0
164 186 0
157 180 0
162 184 0
157 180 0
151 174 0
161 183 0
155 178 0
154 177 0
159 180 0
156 179 0
157 179 0
154 177 0
159 182 0
157 180 0
159 182 0
157 180 0
155 178 0
158 180 0
157 180 0
160 182 0
157 181 0
159 182 0
156 179 0
157 180 0
160 183 0
155 177 0
154 177 0
155 177 0
157 180 0
160 183 0
158 180 0
159 180 0
158 180 0
155 177 0
157 179 0
164 187 0
156 179 0
151 174 0
152 174 0
152 174 0
158 181 0
150 174 0
157 180 0
147 170 0
157 180 0
151 173 0
156 178 0
157 179 0
163 185 0
153 175 0
156 178 0
152 175 0
160 183 0
147 169 0
146 169 0
153 177 0
147 168 0
155 177 0
153 175 0
153 176 0
152 174 0
153 174 0
146 168 0
145 166 0
156 179 0
160 183 0
155 176 0
158 181 0
155 176 0
155 177 0
151 173 0
144 165 0
157 179 0
160 182 0
148 170 0
147 170 0
144 166 0
149 171 0
154 177 0
148 170 0
158 180 0
152 173 0
154 175 0
151 173 0
152 175 0
150 173 0
151 173 0
147 170 0
149 171 0
137 159 0
149 170 0
150 173 0
152 173 0
141 163 0
146 168 0
148 171 0
144 166 0
149 170 0
145 167 0
152 175 0
148 167 0
143 164 0
149 170 0
144 166 0
140 160 0
145 168 0
139 161 0
152 173 0
153 174 0
152 173 0
145 165 0
149 170 0
150 171 0
136 155 0
147 168 0
144 166 0
136 157 0
146 167 0
137 158 0
146 167 0
147 166 0
144 164 0
147 168 0
148 168 0
142 162 0
146 167 0
152 172 0
151 171 0
142 163 0
147 168 0
151 171 0
154 174 0
149 170 0
142 164 0
149 171 0
140 159 0
136 156 0
140 161 0
138 158 0
140 160 0
144 164 0
143 163 0
151 171 0
144 164 0
150 169 0
143 164 0
151 172 0
136 157 0
144 163 0
141 161 0
153 173 0
148 168 0
142 160 0
149 168 0
146 167 0
142 164 0
151 171 0
146 165 0
148 167 0
146 165 0
150 171 0
146 166 0
149 169 0
147 166 0
152 172 0
146 165 0
143 163 0
148 167 0
148 167 0
150 170 0
150 172 0
142 162 0
145 164 0
147 166 0
149 169 0
147 166 0
142 161 0
149 169 0
141 158 0
146 164 0
140 159 0
150 168 0
143 162 0
151 169 0
144 161 0
144 164 0
154 171 0
146 165 0
144 162 0
153 171 0
153 172 0
146 166 0
144 164 0
154 173 0
143 161 0
142 158 0
148 166 0
146 165 0
139 154 0
149 167 0
149 165 0
148 166 0
149 168 0
150 168 0
144 162 0
144 160 0
148 165 0
161 179 0
138 154 0
145 163 0
151 169 0
150 167 0
153 169 0
147 164 0
143 159 0
151 167 0
146 161 0
140 157 0
144 158 0
152 166 0
148 164 0
147 162 0
148 161 0
145 160 0
140 153 0
145 159 0
144 158 0
149 164 0
139 152 0
148 164 0
147 159 0
146 162 0
144 158 0
153 168 0
150 166 0
144 157 0
156 171 0
141 153 0
148 163 0
152 166 0
145 160 0
150 164 0
139 152 0
150 162 0
143 156 0
143 155 0
150 164 0
150 163 0
142 153 0
152 166 0
146 160 0
157 169 0
144 153 0
151 164 0
151 164 0
149 162 0
151 162 0
144 157 0
145 158 0
148 158 0
143 154 0
153 165 0
145 158 0
147 159 0
153 167 0
149 159 0
149 162 0
143 153 0
150 162 0
141 151 0
151 163 0
150 161 0
146 154 0
143 154 0
149 159 0
150 161 0
152 162 0
149 161 0
154 164 0
154 167 0
148 161 0
155 165 0
146 159 0
147 156 0
148 155 0
148 159 0
150 162 0
148 158 0
151 160 0
148 157 0
149 159 0
152 163 0
149 161 0
154 165 0
157 166 0
147 157 0
150 162 0
151 162 0
147 158 0
156 167 0
156 168 0
155 169 0
154 164 0
154 164 0
155 165 0
149 158 0
157 167 0
170 192 0
168 190 0
169 191 0
171 193 0
170 192 0
173 195 0
169 191 0
172 195 0
170 193 0
167 189 0
168 190 0
170 192 0
174 195 0
166 189 0
168 190 0
168 190 0
164 186 0
169 192 0
170 193 0
169 191 0
169 193 0
169 191 0
165 188 0
170 193 0
168 190 0
167 190 0
168 192 0
170 193 0
164 187 0
165 187 0
170 192 0
171 193 0
167 190 0
169 191 0
168 190 0
165 188 0
169 192 0
169 192 0
173 195 0
166 189 0
164 187 0
167 190 0
165 186 0
170 192 0
168 190 0
166 189 0
167 189 0
166 189 0
173 195 0
164 187 0
170 193 0
167 189 0
158 181 0
162 185 0
166 189 0
166 189 0
165 188 0
167 189 0
161 184 0
160 183 0
164 187 0
165 188 0
163 185 0
170 192 0
166 188 0
162 184 0
162 184 0
162 184 0
160 183 0
159 182 0
163 186 0
164 187 0
163 186 0
164 187 0
165 187 0
160 183 0
161 183 0
160 183 0
163 185 0
160 183 0
165 189 0
160 183 0
159 182 0
164 187 0
161 183 0
162 183 0
152 175 0
160 183 0
157 180 0
160 182 0
162 185 0
160 184 0
163 186 0
163 186 0
166 188 0
159 182 0
159 181 0
159 182 0
165 188 0
163 186 0
156 179 0
166 188 0
161 183 0
153 176 0
162 184 0
159 182 0
153 176 0
159 181 0
162 184 0
160 183 0
154 177 0
157 179 0
154 177 0
159 182 0
166 188 0
158 181 0
159 182 0
159 182 0
157 180 0
149 172 0
154 176 0
153 177 0
154 177 0
157 180 0
161 184 0
153 175 0
158 180 0
159 181 0
156 179 0
158 182 0
153 176 0
153 176 0
151 173 0
157 181 0
158 180 0
157 179 0
150 173 0
152 175 0
153 175 0
151 173 0
166 189 0
156 179 0
154 176 0
158 180 0
152 174 0
160 183 0
154 175 0
151 174 0
153 175 0
151 174 0
149 171 0
142 165 0
156 178 0
160 181 0
155 176 0
152 173 0
153 175 0
154 176 0
154 176 0
148 170 0
153 175 0
148 170 0
153 175 0
153 176 0
149 172 0
144 165 0
146 168 0
155 178 0
149 171 0
156 178 0
149 172 0
156 177 0
156 178 0
150 171 0
146 169 0
157 178 0
146 168 0
157 179 0
149 171 0
150 172 0
147 168 0
150 171 0
154 177 0
150 171 0
148 168 0
145 167 0
151 172 0
144 165 0
142 163 0
148 170 0
146 168 0
151 174 0
148 170 0
150 170 0
153 174 0
149 172 0
152 174 0
145 166 0
141 162 0
149 169 0
145 166 0
147 168 0
148 170 0
152 173 0
140 161 0
141 161 0
146 167 0
147 169 0
146 166 0
135 155 0
148 169 0
151 172 0
153 176 0
150 171 0
150 171 0
144 165 0
142 163 0
146 167 0
148 169 0
144 164 0
149 171 0
156 177 0
140 161 0
152 173 0
148 169 0
145 166 0
144 163 0
146 167 0
138 158 0
145 165 0
143 164 0
151 173 0
153 175 0
147 168 0
147 169 0
152 173 0
143 164 0
151 172 0
143 165 0
146 166 0
149 169 0
145 165 0
144 163 0
149 169 0
152 172 0
151 172 0
140 159 0
150 170 0
157 178 0
150 170 0
147 165 0
140 159 0
141 160 0
144 163 0
148 168 0
151 171 0
146 166 0
151 173 0
147 165 0
146 164 0
148 169 0
138 157 0
145 165 0
147 165 0
143 162 0
151 169 0
146 167 0
141 160 0
142 162 0
147 168 0
156 175 0
144 163 0
141 159 0
141 158 0
141 157 0
145 164 0
155 173 0
146 165 0
150 170 0
146 164 0
149 167 0
148 167 0
145 162 0
155 173 0
147 168 0
154 173 0
151 168 0
148 166 0
149 167 0
152 169 0
150 168 0
155 171 0
144 161 0
143 160 0
151 169 0
155 173 0
151 168 0
152 169 0
147 165 0
144 161 0
150 167 0
137 154 0
158 177 0
148 165 0
142 159 0
148 166 0
154 172 0
160 177 0
153 169 0
140 157 0
155 172 0
147 163 0
140 156 0
146 161 0
152 167 0
151 168 0
147 162 0
141 156 0
151 165 0
154 167 0
150 167 0
151 167 0
148 161 0
153 169 0
140 157 0
145 158 0
152 166 0
144 157 0
155 172 0
156 170 0
143 156 0
150 164 0
149 164 0
148 163 0
144 155 0
150 162 0
150 163 0
149 165 0
146 159 0
153 165 0
150 162 0
142 154 0
150 165 0
155 169 0
150 164 0
145 157 0
147 161 0
147 160 0
146 162 0
145 156 0
142 155 0
151 166 0
142 153 0
153 166 0
153 167 0
148 161 0
153 166 0
143 153 0
147 159 0
149 159 0
154 166 0
143 152 0
147 159 0
154 166 0
144 157 0
152 164 0
151 164 0
153 166 0
157 168 0
144 155 0
144 152 0
142 156 0
151 161 0
153 163 0
143 154 0
148 160 0
147 160 0
149 160 0
149 159 0
148 157 0
155 168 0
145 156 0
150 160 0
148 157 0
143 150 0
148 156 0
151 159 0
150 163 0
152 163 0
151 160 0
153 163 0
157 170 0
155 167 0
156 168 0
155 166 0
160 172 0
156 167 0
155 167 0
152 162 0
151 160 0
166 189 0
171 193 0
176 198 0
173 196 0
171 193 0
171 193 0
169 192 0
168 191 0
166 187 0
172 195 0
169 191 0
163 186 0
167 189 0
166 188 0
165 188 0
169 192 0
170 192 0
170 193 0
169 192 0
167 190 0
168 190 0
165 187 0
167 190 0
168 190 0
171 193 0
173 195 0
166 189 0
166 188 0
166 188 0
168 190 0
170 193 0
171 193 0
163 185 0
165 188 0
165 188 0
169 191 0
166 189 0
166 190 0
160 183 0
166 188 0
165 187 0
159 182 0
163 186 0
162 186 0
168 191 0
171 192 0
166 187 0
163 185 0
166 189 0
170 192 0
167 189 0
167 189 0
167 189 0
164 188 0
160 183 0
168 191 0
166 189 0
162 184 0
166 189 0
157 180 0
164 186 0
160 182 0
163 184 0
164 188 0
164 187 0
168 189 0
165 187 0
166 189 0
164 187 0
167 189 0
166 189 0
159 182 0
163 185 0
162 184 0
155 178 0
161 184 0
164 186 0
167 190 0
163 186 0
161 183 0
161 184 0
158 181 0
160 183 0
150 174 0
160 183 0
159 182 0
162 184 0
163 186 0
156 178 0
155 178 0
164 187 0
163 186 0
160 183 0
160 182 0
159 182 0
157 179 0
163 186 0
165 188 0
158 180 0
157 180 0
164 187 0
162 185 0
162 185 0
162 185 0
154 177 0
154 176 0
157 181 0
161 183 0
160 182 0
163 185 0
153 176 0
163 186 0
158 180 0
153 176 0
168 191 0
155 178 0
152 174 0
162 185 0
162 185 0
156 179 0
154 176 0
157 180 0
159 181 0
158 181 0
160 183 0
155 176 0
159 181 0
157 179 0
150 172 0
157 179 0
149 171 0
152 174 0
154 177 0
155 178 0
148 170 0
155 177 0
152 176 0
158 181 0
156 178 0
156 179 0
152 173 0
155 177 0
161 183 0
159 182 0
161 183 0
154 177 0
159 182 0
148 171 0
159 181 0
149 172 0
148 169 0
146 168 0
157 180 0
153 175 0
156 178 0
146 168 0
154 177 0
156 178 0
159 181 0
151 173 0
159 181 0
150 171 0
151 174 0
149 172 0
153 175 0
152 173 0
144 167 0
151 172 0
151 172 0
143 165 0
149 171 0
150 172 0
150 173 0
152 173 0
146 168 0
149 171 0
145 165 0
143 166 0
149 170 0
154 177 0
154 175 0
155 176 0
145 168 0
153 175 0
147 170 0
147 168 0
153 174 0
139 160 0
150 171 0
146 166 0
151 172 0
157 179 0
142 163 0
150 172 0
152 172 0
146 167 0
146 167 0
143 165 0
146 167 0
145 165 0
152 172 0
144 167 0
153 177 0
140 161 0
149 169 0
147 169 0
150 172 0
138 157 0
149 171 0
141 162 0
147 169 0
149 172 0
147 169 0
149 170 0
151 171 0
146 167 0
153 174 0
148 169 0
150 171 0
143 164 0
150 170 0
143 164 0
144 165 0
144 163 0
142 163 0
146 168 0
145 167 0
145 167 0
153 173 0
153 173 0
152 173 0
150 171 0
148 170 0
142 163 0
159 181 0
142 163 0
151 172 0
149 171 0
143 162 0
144 164 0
148 166 0
142 162 0
152 173 0
146 167 0
147 168 0
149 170 0
151 170 0
149 170 0
158 177 0
148 167 0
153 172 0
151 171 0
152 172 0
145 165 0
152 173 0
154 173 0
147 167 0
150 170 0
149 169 0
152 170 0
150 168 0
149 168 0
155 174 0
147 167 0
153 173 0
143 163 0
145 164 0
140 160 0
154 173 0
152 172 0
145 162 0
152 173 0
140 158 0
148 169 0
149 170 0
152 171 0
151 170 0
146 166 0
151 168 0
145 164 0
145 164 0
144 164 0
146 165 0
149 167 0
150 170 0
150 167 0
156 175 0
145 164 0
148 167 0
155 173 0
147 166 0
149 167 0
156 176 0
141 159 0
152 169 0
149 165 0
151 168 0
145 162 0
146 164 0
146 164 0
154 171 0
144 162 0
149 167 0
148 165 0
146 162 0
151 169 0
147 163 0
150 167 0
153 169 0
148 164 0
146 163 0
156 173 0
151 168 0
145 162 0
150 165 0
146 164 0
157 174 0
150 166 0
151 168 0
150 166 0
152 168 0
145 161 0
151 164 0
146 162 0
150 165 0
148 162 0
147 165 0
149 164 0
154 172 0
146 161 0
147 163 0
155 173 0
151 166 0
155 171 0
156 172 0
146 160 0
161 177 0
152 167 0
149 164 0
144 157 0
151 165 0
149 162 0
153 166 0
157 171 0
151 165 0
149 163 0
152 165 0
156 172 0
153 167 0
146 159 0
145 157 0
144 154 0
150 162 0
149 164 0
149 162 0
145 155 0
152 167 0
148 162 0
154 166 0
142 152 0
157 169 0
146 159 0
148 159 0
151 161 0
154 165 0
146 156 0
149 162 0
149 160 0
150 159 0
157 170 0
153 163 0
147 159 0
148 159 0
157 170 0
149 158 0
149 160 0
153 165 0
153 164 0
153 166 0
150 159 0
153 165 0
161 173 0
151 163 0
151 162 0
158 168 0
156 168 0
153 162 0
156 167 0
147 158 0
148 157 0
149 158 0
152 159 0
151 164 0
152 162 0
160 171 0
153 164 0
152 162 0
155 167 0
151 160 0
159 172 0
171 193 0
170 192 0
169 192 0
168 191 0
164 188 0
170 192 0
171 194 0
169 191 0
167 190 0
166 190 0
171 193 0
170 192 0
165 188 0
171 193 0
170 192 0
167 189 0
167 189 0
167 190 0
169 192 0
166 188 0
170 192 0
168 191 0
162 186 0
166 189 0
171 194 0
165 188 0
163 185 0
167 191 0
169 192 0
172 194 0
162 184 0
167 190 0
168 190 0
163 185 0
169 191 0
167 189 0
168 190 0
172 194 0
167 189 0
166 189 0
165 187 0
161 183 0
165 187 0
171 194 0
165 188 0
169 192 0
166 188 0
164 186 0
164 186 0
163 184 0
163 186 0
166 189 0
161 184 0
169 191 0
163 186 0
164 187 0
162 186 0
167 190 0
164 187 0
172 194 0
168 190 0
162 185 0
159 182 0
166 189 0
155 178 0
168 190 0
160 183 0
159 182 0
167 190 0
159 181 0
164 187 0
165 188 0
165 189 0
161 183 0
164 186 0
158 181 0
164 187 0
163 185 0
167 190 0
159 182 0
166 189 0
167 190 0
164 186 0
161 185 0
161 184 0
160 182 0
159 182 0
160 184 0
166 189 0
160 182 0
154 177 0
167 190 0
162 184 0
159 181 0
162 185 0
165 188 0
166 188 0
159 181 0
163 185 0
161 184 0
155 176 0
160 183 0
158 181 0
159 182 0
158 180 0
162 185 0
161 184 0
156 179 0
154 177 0
160 182 0
162 186 0
157 180 0
156 179 0
154 177 0
158 181 0
158 181 0
157 181 0
160 182 0
166 188 0
156 179 0
160 182 0
152 174 0
155 176 0
161 183 0
166 189 0
159 182 0
162 185 0
157 179 0
154 176 0
160 183 0
162 186 0
150 174 0
154 177 0
155 178 0
158 182 0
157 179 0
154 177 0
159 182 0
160 182 0
156 179 0
153 176 0
152 173 0
156 179 0
153 176 0
158 180 0
155 177 0
156 178 0
156 178 0
149 172 0
154 177 0
154 176 0
149 171 0
154 177 0
153 175 0
147 170 0
147 168 0
156 179 0
155 178 0
157 180 0
158 180 0
157 179 0
161 184 0
157 180 0
151 173 0
153 176 0
151 173 0
150 171 0
150 171 0
153 176 0
151 174 0
148 169 0
153 173 0
154 177 0
147 170 0
153 176 0
153 175 0
151 172 0
144 167 0
157 179 0
153 177 0
148 171 0
146 168 0
149 170 0
144 165 0
143 165 0
144 165 0
144 165 0
145 166 0
150 171 0
150 172 0
158 178 0
146 168 0
147 168 0
137 158 0
157 178 0
146 167 0
140 161 0
151 171 0
147 168 0
154 175 0
151 173 0
154 175 0
141 163 0
148 170 0
153 175 0
138 159 0
144 166 0
148 169 0
150 172 0
151 172 0
148 169 0
147 169 0
146 168 0
149 170 0
153 175 0
142 163 0
146 166 0
151 172 0
141 162 0
147 167 0
145 167 0
151 170 0
149 170 0
149 171 0
148 170 0
142 161 0
147 169 0
150 172 0
150 170 0
152 172 0
152 173 0
150 169 0
154 176 0
146 168 0
152 173 0
157 177 0
141 162 0
146 166 0
145 165 0
150 169 0
146 166 0
146 166 0
146 167 0
151 172 0
145 164 0
142 161 0
150 170 0
147 168 0
146 166 0
152 173 0
153 174 0
145 163 0
150 170 0
144 164 0
148 169 0
149 169 0
149 170 0
138 157 0
145 166 0
143 162 0
149 167 0
144 165 0
156 177 0
143 164 0
149 166 0
155 176 0
145 164 0
156 176 0
146 167 0
150 169 0
149 169 0
148 167 0
150 170 0
153 172 0
154 173 0
156 174 0
152 171 0
153 172 0
153 172 0
150 169 0
155 176 0
150 169 0
150 169 0
149 169 0
144 162 0
151 169 0
147 166 0
145 162 0
147 165 0
150 167 0
151 169 0
152 170 0
148 166 0
142 160 0
145 161 0
148 167 0
151 168 0
145 159 0
146 161 0
152 170 0
148 166 0
149 166 0
151 168 0
150 168 0
154 173 0
143 159 0
152 169 0
153 171 0
136 153 0
149 164 0
146 162 0
149 166 0
144 160 0
147 163 0
152 171 0
149 165 0
156 170 0
144 160 0
152 168 0
148 164 0
152 168 0
148 163 0
148 163 0
149 166 0
147 162 0
153 169 0
152 168 0
147 161 0
147 161 0
151 167 0
152 167 0
147 162 0
145 161 0
143 156 0
153 168 0
146 159 0
157 172 0
147 160 0
151 163 0
146 159 0
151 166 0
144 155 0
149 163 0
150 164 0
157 171 0
139 151 0
153 167 0
146 158 0
142 154 0
148 163 0
154 170 0
150 164 0
153 165 0
147 161 0
152 165 0
151 165 0
155 168 0
150 163 0
144 155 0
154 168 0
147 161 0
140 153 0
152 164 0
150 163 0
151 162 0
147 156 0
152 165 0
149 164 0
152 165 0
155 165 0
151 165 0
150 161 0
155 164 0
145 155 0
152 163 0
148 161 0
157 171 0
141 150 0
147 157 0
151 162 0
157 168 0
151 161 0
143 151 0
152 162 0
153 165 0
157 171 0
152 163 0
152 164 0
150 159 0
156 167 0
148 157 0
151 163 0
151 162 0
152 164 0
153 165 0
154 169 0
159 171 0
154 165 0
155 166 0
155 169 0
170 193 0
165 188 0
169 192 0
168 191 0
170 192 0
168 190 0
168 191 0
170 192 0
170 192 0
169 192 0
170 192 0
168 190 0
168 190 0
171 193 0
170 192 0
173 196 0
170 193 0
171 193 0
171 193 0
166 188 0
169 192 0
166 189 0
168 191 0
167 189 0
168 190 0
171 193 0
170 192 0
166 188 0
168 191 0
164 186 0
166 188 0
168 191 0
170 192 0
164 187 0
165 188 0
169 191 0
170 192 0
166 189 0
167 190 0
166 188 0
165 188 0
168 191 0
167 190 0
164 187 0
168 190 0
163 185 0
168 190 0
163 186 0
163 186 0
164 187 0
163 185 0
164 186 0
164 186 0
169 191 0
169 191 0
163 186 0
165 188 0
167 191 0
161 183 0
162 186 0
166 190 0
159 182 0
166 189 0
163 185 0
162 185 0
161 185 0
162 184 0
158 180 0
159 182 0
164 186 0
162 185 0
168 190 0
164 187 0
165 187 0
160 183 0
160 184 0
164 187 0
162 184 0
162 185 0
160 183 0
163 185 0
161 182 0
162 185 0
164 187 0
160 183 0
164 186 0
155 179 0
161 184 0
164 187 0
166 188 0
156 179 0
165 188 0
166 188 0
160 184 0
161 184 0
161 184 0
160 183 0
161 184 0
165 188 0
161 183 0
162 185 0
163 185 0
164 187 0
155 178 0
163 186 0
162 185 0
155 177 0
153 176 0
158 180 0
165 188 0
157 180 0
150 173 0
154 176 0
156 179 0
150 173 0
159 182 0
160 182 0
152 174 0
163 186 0
153 176 0
156 178 0
157 178 0
154 177 0
156 180 0
155 178 0
156 180 0
152 175 0
160 183 0
159 181 0
158 180 0
156 179 0
159 181 0
152 176 0
159 182 0
153 175 0
153 176 0
157 179 0
159 181 0
148 171 0
153 174 0
157 179 0
149 173 0
161 184 0
154 177 0
160 182 0
153 173 0
157 179 0
154 177 0
156 178 0
152 174 0
155 178 0
156 178 0
149 170 0
158 181 0
155 178 0
160 183 0
155 177 0
151 171 0
153 175 0
158 180 0
150 171 0
157 178 0
149 172 0
153 175 0
151 173 0
156 178 0
152 175 0
151 172 0
150 173 0
151 174 0
151 173 0
147 170 0
149 171 0
144 167 0
152 175 0
151 172 0
160 182 0
143 166 0
147 169 0
152 174 0
160 181 0
152 174 0
145 168 0
141 164 0
149 170 0
147 168 0
150 172 0
150 172 0
153 174 0
145 167 0
143 164 0
154 177 0
150 171 0
154 175 0
151 173 0
150 173 0
155 177 0
147 168 0
147 168 0
152 174 0
153 175 0
150 171 0
152 174 0
134 157 0
147 168 0
153 174 0
147 168 0
143 163 0
150 171 0
142 162 0
140 162 0
147 167 0
144 165 0
147 169 0
148 169 0
144 165 0
144 166 0
150 171 0
146 166 0
153 174 0
150 170 0
143 164 0
147 168 0
155 177 0
153 174 0
145 165 0
151 171 0
146 168 0
146 168 0
145 165 0
148 167 0
146 166 0
144 165 0
154 175 0
149 169 0
149 170 0
148 169 0
145 166 0
151 171 0
145 166 0
151 172 0
142 163 0
146 168 0
145 164 0
146 168 0
148 167 0
149 171 0
145 166 0
149 170 0
153 175 0
146 166 0
144 164 0
149 168 0
148 168 0
148 168 0
154 173 0
147 167 0
154 175 0
144 164 0
147 168 0
146 165 0
148 168 0
147 166 0
151 172 0
152 173 0
145 165 0
148 170 0
145 164 0
149 169 0
150 170 0
150 168 0
146 166 0
151 170 0
146 166 0
152 170 0
149 169 0
145 165 0
148 168 0
142 161 0
156 174 0
145 164 0
149 168 0
154 173 0
148 166 0
152 170 0
141 159 0
149 168 0
156 176 0
144 161 0
145 163 0
145 163 0
139 158 0
152 170 0
143 162 0
155 175 0
152 170 0
148 163 0
154 171 0
154 172 0
151 169 0
144 162 0
153 171 0
152 168 0
143 158 0
146 163 0
150 166 0
146 163 0
151 170 0
158 175 0
156 176 0
148 166 0
150 166 0
149 166 0
148 163 0
143 160 0
155 173 0
140 155 0
150 167 0
153 169 0
152 169 0
148 161 0
147 164 0
149 165 0
155 171 0
151 167 0
143 158 0
156 173 0
151 167 0
142 156 0
154 170 0
146 160 0
149 164 0
145 162 0
147 163 0
152 169 0
149 165 0
156 172 0
153 168 0
149 163 0
147 161 0
142 155 0
146 159 0
151 166 0
151 164 0
148 160 0
152 166 0
142 155 0
151 165 0
153 164 0
154 167 0
143 157 0
145 158 0
149 163 0
156 171 0
153 166 0
151 162 0
157 173 0
155 169 0
151 164 0
151 163 0
150 163 0
148 160 0
146 159 0
148 159 0
159 172 0
146 156 0
148 162 0
152 162 0
152 163 0
150 162 0
150 163 0
148 162 0
149 160 0
154 165 0
151 164 0
140 151 0
152 163 0
148 157 0
152 165 0
148 161 0
152 166 0
152 165 0
151 161 0
152 164 0
155 166 0
153 164 0
156 168 0
153 163 0
153 167 0
151 161 0
164 179 0
153 166 0
153 165 0
155 166 0
156 167 0
150 160 0
153 163 0
155 165 0
156 169 0
156 168 0
168 192 0
169 191 0
171 194 0
167 190 0
168 191 0
170 193 0
170 191 0
167 190 0
167 190 0
169 191 0
165 187 0
168 191 0
169 191 0
168 191 0
169 192 0
169 192 0
167 190 0
168 190 0
167 189 0
166 188 0
170 192 0
172 195 0
166 189 0
167 190 0
167 190 0
168 190 0
164 186 0
167 190 0
166 189 0
163 186 0
171 193 0
167 190 0
165 188 0
169 192 0
170 192 0
161 185 0
168 190 0
161 183 0
166 188 0
164 186 0
168 191 0
161 185 0
164 187 0
167 189 0
165 188 0
159 182 0
166 189 0
166 188 0
167 189 0
158 181 0
164 187 0
169 191 0
167 189 0
165 189 0
161 183 0
159 181 0
161 184 0
160 183 0
156 179 0
166 189 0
163 187 0
165 188 0
164 186 0
166 189 0
167 190 0
163 185 0
162 185 0
166 188 0
164 185 0
158 180 0
170 193 0
163 186 0
165 188 0
165 187 0
165 186 0
163 186 0
161 184 0
160 183 0
162 185 0
165 187 0
162 184 0
159 182 0
162 184 0
161 185 0
158 182 0
161 184 0
164 187 0
166 190 0
165 187 0
163 186 0
158 180 0
159 182 0
165 188 0
162 185 0
162 185 0
161 184 0
158 180 0
165 187 0
159 181 0
165 187 0
155 179 0
156 179 0
162 185 0
163 185 0
154 177 0
167 189 0
158 181 0
156 178 0
159 181 0
154 177 0
165 187 0
162 185 0
160 182 0
161 184 0
155 178 0
162 186 0
158 181 0
159 182 0
160 182 0
150 172 0
160 183 0
157 180 0
158 181 0
154 177 0
157 180 0
158 180 0
156 179 0
159 183 0
156 179 0
155 177 0
157 179 0
157 179 0
154 174 0
153 176 0
148 171 0
158 181 0
158 180 0
153 177 0
160 182 0
152 173 0
159 182 0
151 173 0
158 180 0
151 174 0
155 178 0
154 177 0
150 173 0
156 178 0
154 177 0
149 172 0
157 180 0
155 179 0
148 169 0
155 177 0
154 178 0
153 176 0
156 178 0
156 179 0
153 175 0
154 175 0
149 172 0
149 172 0
157 178 0
154 176 0
156 179 0
153 176 0
160 182 0
146 167 0
150 172 0
155 177 0
152 174 0
154 176 0
146 168 0
153 172 0
156 178 0
151 174 0
153 175 0
154 175 0
150 172 0
154 176 0
152 174 0
146 167 0
149 171 0
147 170 0
149 171 0
157 179 0
153 174 0
149 171 0
150 172 0
154 177 0
155 177 0
142 164 0
148 169 0
147 169 0
149 170 0
149 171 0
151 172 0
157 179 0
146 168 0
149 171 0
149 172 0
148 169 0
149 170 0
145 166 0
153 174 0
153 175 0
152 175 0
145 168 0
143 164 0
152 174 0
149 171 0
151 172 0
153 173 0
149 170 0
149 171 0
147 168 0
143 164 0
154 176 0
143 162 0
154 173 0
144 166 0
142 162 0
148 169 0
149 171 0
151 172 0
143 165 0
148 170 0
149 170 0
152 173 0
158 180 0
145 164 0
145 166 0
150 172 0
153 174 0
148 169 0
148 168 0
156 177 0
152 173 0
152 172 0
152 170 0
150 170 0
145 167 0
152 174 0
143 161 0
137 156 0
142 162 0
154 174 0
149 168 0
147 166 0
150 171 0
148 169 0
147 169 0
141 162 0
155 176 0
145 164 0
147 168 0
145 163 0
149 168 0
153 174 0
154 174 0
149 170 0
149 168 0
150 170 0
153 172 0
147 167 0
147 168 0
149 169 0
151 173 0
145 164 0
147 167 0
152 173 0
148 168 0
150 169 0
150 172 0
146 164 0
150 169 0
146 164 0
152 171 0
152 172 0
147 165 0
149 169 0
148 166 0
145 165 0
150 168 0
152 170 0
150 169 0
150 169 0
151 170 0
144 163 0
154 172 0
151 169 0
153 172 0
147 167 0
148 166 0
148 166 0
156 174 0
151 170 0
152 171 0
145 162 0
143 160 0
149 168 0
154 173 0
155 175 0
149 167 0
138 156 0
145 162 0
151 171 0
155 173 0
155 175 0
151 170 0
149 168 0
151 167 0
157 175 0
148 164 0
145 161 0
148 165 0
149 167 0
148 166 0
144 158 0
157 175 0
150 168 0
155 173 0
150 168 0
155 173 0
153 173 0
144 158 0
137 153 0
150 165 0
151 167 0
147 162 0
155 172 0
148 165 0
156 175 0
142 157 0
151 167 0
146 160 0
151 166 0
140 155 0
148 161 0
151 165 0
153 169 0
153 166 0
145 161 0
154 169 0
151 164 0
148 162 0
151 166 0
142 154 0
153 168 0
158 175 0
155 170 0
147 162 0
148 162 0
154 167 0
149 161 0
156 171 0
148 158 0
148 160 0
151 163 0
151 165 0
144 158 0
160 174 0
145 157 0
150 163 0
151 165 0
152 166 0
149 161 0
154 169 0
153 166 0
151 165 0
155 168 0
151 165 0
153 164 0
155 170 0
153 165 0
162 176 0
154 166 0
145 158 0
153 166 0
152 165 0
154 165 0
157 169 0
158 169 0
155 170 0
153 165 0
156 169 0
148 161 0
155 166 0
153 163 0
155 166 0
153 165 0
151 162 0
152 165 0
154 164 0
150 161 0
158 171 0
154 165 0
158 171 0
154 165 0
152 164 0
169 192 0
168 190 0
172 194 0
165 188 0
170 193 0
172 194 0
168 191 0
173 196 0
171 192 0
173 195 0
170 192 0
168 191 0
170 193 0
170 193 0
168 191 0
165 188 0
168 191 0
167 190 0
167 190 0
165 188 0
169 192 0
168 191 0
168 191 0
164 186 0
169 191 0
165 187 0
169 191 0
168 191 0
169 191 0
157 180 0
168 190 0
165 188 0
164 186 0
168 190 0
161 183 0
162 184 0
168 191 0
163 186 0
166 188 0
166 188 0
167 190 0
170 193 0
163 185 0
166 189 0
165 187 0
163 185 0
162 185 0
164 186 0
168 191 0
166 188 0
166 189 0
160 183 0
158 181 0
165 188 0
160 184 0
166 189 0
166 188 0
168 190 0
163 186 0
167 190 0
164 187 0
160 183 0
166 189 0
163 185 0
161 183 0
160 183 0
167 189 0
166 189 0
170 192 0
161 183 0
161 182 0
165 187 0
169 192 0
159 181 0
158 181 0
160 183 0
160 183 0
154 177 0
160 184 0
155 178 0
162 185 0
164 187 0
159 183 0
159 182 0
165 188 0
159 181 0
162 184 0
160 183 0
164 186 0
159 181 0
160 183 0
157 180 0
162 186 0
159 182 0
155 178 0
159 182 0
152 176 0
167 190 0
156 179 0
158 181 0
159 182 0
158 179 0
164 186 0
165 188 0
165 188 0
157 178 0
158 180 0
152 175 0
155 177 0
165 187 0
156 179 0
157 179 0
157 180 0
161 184 0
161 183 0
158 180 0
157 180 0
156 179 0
149 171 0
152 175 0
157 180 0
156 178 0
157 180 0
159 182 0
160 182 0
160 182 0
157 180 0
156 178 0
147 170 0
154 176 0
159 182 0
159 182 0
156 179 0
155 177 0
158 180 0
152 175 0
156 178 0
151 174 0
153 175 0
161 184 0
155 177 0
159 182 0
153 175 0
150 172 0
149 172 0
154 176 0
158 181 0
157 180 0
158 181 0
156 178 0
152 174 0
156 178 0
148 171 0
151 172 0
152 175 0
151 173 0
146 168 0
159 179 0
149 171 0
152 174 0
152 174 0
155 178 0
155 176 0
159 181 0
153 175 0
149 170 0
154 175 0
151 173 0
147 168 0
146 169 0
149 170 0
140 160 0
150 172 0
155 176 0
152 175 0
149 171 0
155 177 0
146 167 0
151 173 0
152 174 0
150 171 0
151 173 0
157 180 0
149 171 0
152 174 0
151 174 0
147 169 0
151 174 0
154 177 0
155 177 0
148 170 0
156 178 0
155 177 0
147 167 0
155 176 0
154 176 0
152 172 0
147 168 0
147 169 0
151 172 0
153 175 0
145 168 0
152 173 0
139 161 0
153 175 0
144 164 0
153 177 0
148 169 0
139 159 0
152 173 0
142 163 0
145 167 0
150 171 0
149 170 0
146 168 0
153 175 0
148 169 0
140 161 0
152 173 0
150 171 0
147 170 0
152 173 0
151 172 0
147 169 0
150 171 0
149 171 0
144 166 0
142 164 0
137 157 0
151 171 0
144 164 0
149 169 0
147 168 0
145 167 0
153 176 0
141 162 0
147 170 0
151 172 0
158 180 0
151 171 0
155 176 0
146 166 0
156 177 0
145 167 0
142 161 0
147 168 0
151 171 0
158 180 0
146 168 0
151 172 0
147 168 0
149 166 0
152 172 0
151 171 0
160 181 0
146 163 0
147 166 0
141 161 0
144 164 0
155 176 0
144 164 0
145 165 0
151 170 0
155 175 0
150 170 0
147 166 0
148 167 0
140 160 0
154 175 0
153 174 0
152 172 0
154 176 0
144 164 0
150 171 0
146 166 0
153 175 0
154 173 0
160 179 0
146 165 0
147 164 0
150 170 0
156 177 0
155 177 0
149 166 0
146 166 0
152 172 0
155 172 0
149 168 0
145 161 0
151 169 0
141 158 0
146 165 0
149 165 0
148 167 0
146 164 0
149 167 0
155 175 0
154 172 0
160 179 0
153 171 0
136 153 0
157 175 0
148 165 0
153 170 0
142 161 0
142 157 0
152 170 0
149 168 0
143 163 0
154 171 0
149 164 0
153 171 0
152 170 0
152 168 0
146 165 0
154 171 0
152 169 0
148 164 0
146 165 0
151 168 0
149 165 0
157 175 0
153 169 0
148 164 0
149 167 0
155 171 0
143 158 0
145 159 0
155 171 0
146 163 0
150 167 0
151 166 0
153 169 0
153 167 0
148 164 0
149 167 0
143 157 0
148 163 0
143 158 0
155 169 0
149 165 0
153 169 0
149 164 0
153 168 0
144 159 0
149 163 0
149 163 0
150 165 0
155 170 0
153 166 0
154 167 0
142 153 0
152 165 0
159 174 0
140 155 0
156 170 0
158 173 0
150 162 0
157 172 0
151 164 0
148 163 0
149 163 0
151 165 0
154 168 0
150 161 0
158 171 0
152 165 0
156 169 0
148 160 0
147 160 0
149 162 0
150 162 0
152 167 0
155 168 0
149 159 0
150 160 0
150 164 0
152 165 0
152 165 0
150 162 0
154 168 0
152 161 0
149 161 0
151 162 0
160 172 0
156 168 0
153 166 0
154 167 0
152 163 0
151 161 0
151 163 0
156 168 0
151 164 0
156 165 0
146 155 0
157 167 0
158 169 0
152 165 0
157 170 0
146 157 0
168 191 0
168 191 0
170 193 0
171 193 0
168 190 0
166 188 0
167 190 0
169 191 0
165 187 0
166 188 0
165 187 0
167 190 0
167 189 0
168 191 0
170 192 0
164 186 0
167 189 0
168 190 0
166 188 0
172 195 0
170 193 0
165 188 0
167 189 0
167 190 0
164 186 0
169 192 0
164 187 0
164 187 0
167 190 0
172 194 0
166 189 0
167 190 0
165 187 0
170 193 0
164 187 0
168 190 0
162 185 0
160 182 0
164 187 0
166 188 0
166 188 0
165 188 0
165 188 0
167 190 0
167 189 0
164 186 0
166 188 0
165 188 0
163 186 0
164 187 0
158 181 0
164 187 0
165 188 0
164 187 0
158 181 0
164 187 0
165 189 0
163 186 0
167 190 0
159 182 0
162 185 0
162 184 0
163 187 0
157 179 0
158 181 0
162 185 0
156 178 0
164 188 0
161 184 0
163 185 0
161 184 0
160 183 0
166 188 0
166 188 0
163 186 0
159 182 0
159 181 0
162 185 0
158 181 0
160 183 0
167 189 0
159 182 0
159 183 0
160 182 0
161 184 0
166 190 0
164 186 0
159 181 0
165 187 0
161 185 0
163 186 0
157 180 0
158 181 0
168 191 0
167 189 0
155 178 0
159 182 0
156 180 0
157 179 0
164 187 0
157 180 0
156 178 0
159 182 0
156 179 0
163 185 0
162 185 0
163 186 0
160 183 0
163 185 0
157 181 0
159 182 0
155 177 0
154 176 0
154 177 0
155 177 0
156 179 0
157 179 0
162 185 0
154 177 0
160 183 0
156 179 0
159 181 0
155 178 0
161 184 0
162 185 0
159 182 0
155 176 0
158 179 0
155 178 0
155 177 0
155 179 0
157 179 0
157 179 0
154 177 0
150 172 0
159 181 0
152 174 0
156 178 0
146 168 0
159 181 0
154 178 0
156 178 0
156 179 0
158 181 0
157 180 0
149 172 0
154 175 0
162 184 0
147 169 0
152 174 0
151 174 0
152 175 0
152 175 0
153 175 0
154 176 0
156 179 0
152 175 0
152 176 0
156 179 0
155 176 0
150 173 0
147 170 0
153 175 0
151 173 0
157 179 0
155 178 0
149 172 0
151 173 0
150 173 0
151 172 0
150 172 0
141 162 0
152 173 0
153 175 0
158 180 0
147 170 0
151 173 0
150 173 0
155 176 0
149 172 0
145 167 0
151 171 0
147 168 0
156 178 0
153 176 0
146 168 0
157 179 0
142 165 0
156 177 0
152 174 0
153 176 0
157 178 0
154 176 0
152 174 0
151 174 0
145 167 0
156 178 0
151 173 0
150 172 0
150 171 0
155 175 0
147 168 0
151 173 0
149 170 0
150 173 0
151 173 0
149 172 0
152 173 0
153 174 0
149 172 0
150 170 0
151 172 0
149 171 0
152 174 0
146 166 0
147 169 0
154 175 0
148 169 0
144 165 0
146 168 0
143 164 0
147 168 0
146 168 0
150 171 0
144 165 0
149 171 0
150 170 0
150 171 0
139 160 0
150 171 0
151 171 0
155 175 0
155 176 0
150 172 0
145 165 0
147 168 0
144 164 0
150 170 0
148 169 0
155 176 0
150 169 0
144 163 0
150 169 0
146 166 0
156 177 0
142 163 0
156 176 0
151 172 0
154 176 0
147 170 0
145 165 0
154 175 0
153 173 0
144 162 0
150 171 0
149 168 0
142 163 0
155 176 0
149 171 0
152 173 0
144 164 0
144 162 0
154 175 0
146 166 0
148 167 0
144 163 0
157 177 0
154 174 0
147 165 0
147 168 0
157 177 0
153 174 0
145 164 0
147 167 0
150 170 0
147 166 0
151 171 0
152 171 0
147 167 0
152 172 0
150 170 0
150 169 0
152 172 0
153 171 0
155 177 0
152 173 0
147 166 0
148 167 0
155 175 0
150 170 0
154 173 0
146 162 0
148 168 0
154 173 0
156 173 0
153 173 0
148 167 0
148 166 0
152 172 0
150 167 0
151 171 0
152 172 0
140 156 0
154 173 0
155 173 0
151 168 0
150 166 0
154 174 0
154 172 0
144 160 0
152 169 0
154 171 0
152 170 0
148 166 0
146 164 0
150 167 0
147 162 0
147 166 0
147 162 0
149 167 0
154 170 0
148 166 0
151 168 0
149 167 0
153 168 0
149 165 0
155 170 0
148 164 0
149 165 0
144 160 0
147 165 0
154 170 0
152 170 0
144 157 0
145 164 0
151 169 0
147 162 0
153 169 0
151 166 0
160 176 0
149 162 0
148 165 0
154 170 0
148 163 0
149 165 0
144 157 0
145 160 0
154 170 0
154 168 0
149 164 0
150 162 0
148 161 0
150 164 0
146 160 0
152 167 0
153 166 0
149 164 0
157 173 0
150 163 0
156 171 0
146 159 0
150 163 0
150 161 0
150 163 0
146 159 0
150 162 0
158 171 0
152 164 0
149 160 0
154 167 0
147 160 0
146 158 0
147 159 0
152 165 0
150 160 0
153 165 0
159 172 0
154 166 0
151 166 0
158 169 0
149 161 0
161 174 0
151 160 0
152 166 0
154 165 0
149 163 0
158 170 0
152 161 0
151 162 0
152 163 0
162 176 0
151 161 0
153 166 0
149 159 0
158 171 0
158 172 0
163 178 0
156 169 0
154 165 0
151 163 0
170 193 0
169 192 0
167 190 0
170 193 0
171 193 0
171 194 0
170 192 0
167 190 0
165 187 0
164 186 0
165 188 0
167 190 0
169 191 0
166 188 0
170 193 0
170 192 0
169 192 0
167 190 0
163 185 0
167 190 0
170 192 0
169 191 0
171 194 0
167 190 0
166 189 0
168 191 0
163 186 0
168 192 0
165 188 0
170 192 0
169 192 0
164 187 0
167 190 0
168 192 0
161 184 0
164 188 0
160 182 0
167 189 0
165 188 0
169 191 0
171 193 0
165 187 0
165 187 0
163 186 0
164 187 0
164 187 0
159 182 0
159 182 0
161 185 0
157 179 0
165 188 0
160 182 0
166 187 0
165 187 0
164 187 0
160 183 0
162 185 0
168 191 0
161 184 0
163 186 0
160 183 0
161 182 0
165 188 0
170 192 0
161 184 0
164 187 0
167 190 0
162 184 0
166 189 0
164 187 0
158 181 0
167 190 0
161 184 0
162 185 0
160 184 0
163 185 0
160 183 0
161 184 0
166 189 0
163 187 0
162 185 0
161 184 0
163 186 0
164 187 0
161 185 0
160 182 0
161 185 0
169 192 0
155 178 0
163 186 0
167 190 0
158 180 0
159 182 0
156 179 0
158 182 0
163 186 0
154 176 0
161 185 0
154 178 0
149 173 0
159 183 0
151 174 0
159 182 0
160 184 0
160 182 0
165 188 0
159 182 0
167 190 0
157 179 0
160 182 0
162 185 0
156 178 0
155 178 0
163 186 0
159 181 0
159 182 0
159 182 0
156 180 0
156 179 0
155 178 0
158 181 0
152 175 0
162 184 0
157 179 0
151 174 0
155 178 0
154 177 0
160 182 0
159 181 0
155 177 0
152 174 0
148 171 0
159 182 0
160 183 0
157 180 0
162 184 0
155 178 0
151 173 0
157 180 0
153 175 0
155 177 0
154 176 0
152 174 0
157 179 0
159 181 0
154 176 0
155 178 0
154 177 0
159 181 0
154 176 0
155 178 0
157 179 0
154 176 0
154 178 0
161 185 0
165 188 0
151 173 0
151 173 0
154 176 0
155 178 0
150 172 0
150 171 0
152 174 0
148 169 0
155 178 0
154 176 0
156 177 0
148 171 0
147 170 0
144 165 0
150 172 0
149 171 0
160 183 0
159 180 0
150 173 0
154 175 0
153 175 0
145 167 0
153 175 0
150 172 0
153 175 0
153 174 0
150 173 0
151 172 0
147 168 0
152 175 0
156 177 0
148 170 0
155 176 0
144 166 0
144 166 0
150 172 0
143 164 0
147 168 0
152 174 0
152 174 0
152 174 0
161 183 0
143 164 0
149 170 0
146 168 0
151 173 0
155 178 0
150 172 0
154 176 0
147 170 0
148 168 0
149 171 0
150 171 0
146 168 0
142 163 0
145 167 0
141 163 0
143 164 0
155 176 0
144 164 0
149 168 0
148 170 0
142 164 0
146 167 0
149 171 0
148 168 0
155 176 0
144 164 0
146 167 0
156 176 0
146 168 0
143 165 0
150 170 0
150 170 0
150 172 0
134 153 0
154 175 0
153 173 0
150 170 0
148 170 0
150 171 0
147 166 0
154 174 0
153 174 0
149 171 0
147 168 0
147 169 0
148 168 0
151 172 0
155 174 0
150 172 0
151 172 0
143 164 0
148 168 0
144 163 0
153 174 0
144 165 0
149 170 0
151 171 0
145 162 0
152 173 0
145 166 0
152 173 0
150 171 0
141 160 0
145 165 0
149 169 0
149 168 0
149 170 0
153 174 0
155 175 0
150 170 0
153 175 0
154 172 0
154 172 0
147 166 0
152 172 0
157 177 0
151 170 0
154 174 0
150 168 0
155 175 0
150 170 0
146 166 0
151 171 0
156 177 0
150 169 0
155 174 0
148 166 0
149 167 0
154 173 0
150 170 0
145 165 0
149 169 0
150 170 0
153 173 0
152 171 0
153 172 0
143 159 0
145 162 0
149 168 0
152 171 0
145 163 0
152 171 0
148 167 0
148 166 0
144 162 0
152 170 0
151 166 0
143 161 0
153 170 0
146 163 0
155 171 0
151 169 0
149 167 0
150 169 0
142 159 0
149 166 0
152 170 0
157 175 0
159 175 0
155 173 0
143 160 0
145 162 0
149 165 0
143 161 0
160 175 0
154 172 0
147 161 0
155 172 0
148 165 0
159 177 0
148 166 0
149 163 0
150 168 0
142 158 0
148 165 0
144 161 0
154 171 0
148 165 0
150 167 0
155 173 0
150 163 0
150 165 0
146 163 0
148 162 0
151 166 0
156 173 0
148 161 0
148 164 0
148 163 0
154 168 0
150 166 0
146 158 0
155 171 0
153 167 0
154 170 0
153 165 0
152 168 0
152 166 0
155 169 0
154 167 0
154 171 0
150 166 0
152 166 0
155 167 0
142 156 0
154 169 0
157 171 0
153 166 0
156 171 0
153 165 0
149 161 0
149 162 0
146 159 0
150 162 0
150 165 0
148 161 0
155 168 0
153 166 0
157 171 0
153 165 0
142 151 0
153 168 0
153 166 0
153 164 0
156 169 0
148 161 0
161 172 0
155 168 0
155 169 0
152 164 0
146 156 0
159 172 0
153 165 0
150 161 0
149 161 0
154 164 0
152 165 0
152 163 0
148 162 0
159 174 0
157 170 0
162 178 0
168 192 0
167 190 0
162 186 0
168 191 0
171 194 0
167 191 0
169 190 0
169 192 0
167 189 0
172 195 0
168 190 0
171 194 0
165 189 0
170 193 0
171 192 0
168 191 0
166 188 0
169 192 0
172 194 0
163 186 0
168 191 0
164 187 0
174 197 0
169 192 0
165 187 0
172 194 0
168 191 0
163 187 0
168 191 0
164 187 0
170 192 0
169 192 0
166 188 0
165 188 0
167 190 0
163 187 0
166 189 0
165 187 0
167 191 0
164 187 0
162 185 0
164 187 0
166 189 0
165 187 0
163 186 0
164 187 0
166 189 0
163 186 0
168 191 0
162 186 0
165 188 0
162 184 0
165 186 0
161 184 0
165 188 0
162 184 0
162 183 0
165 188 0
164 187 0
160 182 0
165 188 0
163 187 0
164 186 0
165 187 0
159 182 0
166 189 0
163 185 0
155 178 0
165 189 0
159 181 0
165 187 0
157 181 0
166 190 0
158 181 0
164 188 0
160 183 0
163 187 0
164 187 0
165 187 0
158 181 0
159 182 0
163 185 0
161 183 0
164 187 0
163 184 0
160 183 0
168 190 0
157 179 0
155 179 0
161 184 0
159 182 0
165 188 0
163 186 0
165 187 0
161 184 0
157 180 0
162 183 0
165 187 0
153 176 0
161 184 0
158 182 0
166 188 0
162 185 0
162 186 0
157 181 0
158 180 0
158 182 0
165 188 0
162 185 0
157 180 0
159 183 0
161 184 0
153 175 0
158 181 0
159 182 0
150 173 0
163 184 0
159 182 0
162 185 0
160 182 0
157 180 0
156 178 0
159 182 0
156 180 0
166 189 0
156 180 0
151 173 0
157 178 0
163 185 0
148 170 0
158 180 0
149 171 0
162 185 0
153 175 0
149 172 0
156 179 0
156 179 0
159 181 0
150 172 0
152 176 0
159 182 0
159 182 0
155 177 0
155 177 0
155 178 0
151 174 0
156 180 0
154 177 0
157 179 0
156 178 0
150 172 0
158 180 0
156 178 0
150 172 0
150 173 0
156 178 0
150 171 0
152 174 0
152 175 0
154 177 0
152 174 0
153 175 0
157 180 0
153 174 0
153 175 0
156 179 0
144 166 0
158 181 0
149 171 0
157 179 0
151 173 0
159 182 0
154 175 0
156 177 0
154 177 0
158 181 0
150 172 0
150 172 0
150 171 0
152 175 0
155 177 0
154 177 0
158 180 0
149 171 0
154 176 0
158 180 0
148 169 0
153 176 0
151 174 0
152 173 0
157 179 0
155 176 0
140 160 0
153 174 0
142 164 0
148 169 0
151 173 0
155 177 0
158 180 0
152 174 0
155 174 0
146 168 0
155 175 0
150 172 0
149 171 0
148 170 0
150 172 0
149 171 0
147 168 0
156 177 0
141 162 0
151 174 0
157 178 0
153 175 0
151 171 0
147 168 0
160 181 0
152 174 0
146 167 0
141 161 0
147 167 0
153 175 0
154 176 0
149 169 0
149 169 0
153 173 0
150 171 0
152 175 0
151 174 0
143 163 0
149 169 0
146 166 0
155 176 0
140 160 0
149 171 0
155 179 0
142 163 0
155 176 0
149 171 0
147 168 0
143 164 0
148 169 0
150 169 0
141 162 0
155 177 0
147 167 0
154 174 0
153 174 0
148 168 0
149 170 0
157 178 0
149 168 0
153 173 0
156 176 0
146 166 0
151 174 0
148 170 0
150 170 0
148 168 0
153 172 0
149 170 0
153 172 0
142 161 0
151 171 0
151 171 0
157 177 0
144 163 0
151 170 0
149 169 0
155 174 0
152 172 0
151 169 0
151 170 0
149 168 0
150 171 0
156 176 0
154 174 0
154 173 0
154 175 0
155 177 0
154 174 0
156 175 0
154 173 0
148 167 0
151 171 0
145 164 0
147 167 0
159 179 0
149 169 0
151 168 0
148 166 0
155 174 0
148 167 0
154 174 0
157 178 0
154 172 0
154 173 0
147 165 0
153 172 0
147 165 0
147 166 0
150 168 0
162 183 0
153 173 0
143 161 0
152 172 0
151 167 0
155 174 0
154 172 0
145 163 0
157 175 0
155 171 0
144 160 0
153 171 0
154 174 0
153 171 0
149 169 0
146 162 0
151 167 0
150 170 0
152 170 0
149 165 0
151 168 0
158 174 0
149 163 0
154 172 0
144 162 0
151 166 0
150 167 0
150 168 0
150 169 0
148 163 0
155 172 0
156 170 0
151 167 0
156 171 0
152 167 0
151 167 0
153 166 0
152 168 0
145 162 0
151 166 0
153 168 0
155 169 0
153 168 0
158 176 0
156 169 0
154 168 0
148 162 0
153 170 0
151 164 0
154 170 0
146 161 0
151 166 0
150 165 0
149 164 0
152 168 0
149 164 0
145 157 0
146 159 0
142 156 0
153 167 0
153 166 0
152 167 0
149 164 0
156 172 0
157 171 0
149 163 0
149 162 0
153 167 0
147 161 0
148 161 0
150 163 0
151 164 0
144 157 0
154 169 0
155 166 0
154 167 0
151 162 0
155 169 0
157 170 0
146 158 0
146 157 0
163 177 0
155 166 0
152 165 0
157 171 0
154 167 0
158 173 0
158 170 0
156 167 0
154 168 0
154 166 0
154 168 0
157 170 0
159 171 0
157 168 0
154 168 0
156 169 0
145 156 0
165 188 0
165 189 0
170 193 0
171 193 0
168 192 0
169 192 0
164 187 0
168 191 0
166 188 0
169 192 0
170 192 0
168 191 0
168 190 0
168 191 0
172 195 0
170 193 0
167 189 0
169 192 0
171 193 0
167 191 0
166 189 0
170 193 0
164 187 0
167 190 0
168 191 0
166 188 0
166 188 0
166 189 0
162 185 0
167 190 0
170 193 0
169 191 0
168 190 0
170 192 0
161 183 0
168 191 0
166 189 0
167 190 0
162 185 0
164 187 0
167 190 0
167 190 0
166 190 0
163 186 0
163 186 0
167 189 0
161 184 0
163 186 0
160 183 0
164 188 0
168 191 0
167 190 0
164 186 0
160 183 0
163 186 0
169 191 0
167 189 0
162 184 0
166 189 0
162 185 0
168 191 0
167 189 0
164 187 0
163 186 0
167 189 0
160 183 0
161 185 0
156 180 0
164 187 0
166 188 0
165 188 0
168 191 0
163 186 0
162 185 0
166 188 0
166 189 0
160 183 0
162 185 0
159 183 0
160 184 0
165 187 0
162 185 0
153 176 0
158 180 0
163 186 0
157 180 0
160 183 0
160 183 0
162 185 0
159 181 0
161 183 0
161 183 0
166 188 0
162 185 0
162 185 0
161 183 0
161 184 0
158 181 0
160 184 0
155 178 0
161 185 0
158 182 0
165 188 0
161 184 0
158 181 0
153 176 0
165 187 0
162 184 0
159 181 0
161 184 0
156 179 0
161 184 0
154 177 0
157 179 0
156 178 0
157 179 0
153 176 0
151 174 0
158 180 0
157 180 0
155 179 0
156 178 0
158 181 0
164 186 0
156 178 0
165 188 0
155 179 0
155 177 0
158 182 0
159 182 0
152 175 0
161 184 0
154 176 0
161 185 0
158 180 0
153 175 0
158 181 0
148 169 0
154 177 0
153 175 0
158 181 0
159 181 0
160 183 0
154 177 0
151 173 0
153 175 0
157 180 0
163 186 0
161 183 0
152 174 0
150 173 0
160 183 0
156 178 0
150 171 0
150 172 0
152 174 0
154 176 0
149 171 0
152 174 0
146 167 0
154 176 0
156 179 0
155 177 0
152 174 0
155 178 0
154 176 0
155 177 0
157 180 0
152 174 0
151 173 0
159 181 0
152 174 0
157 179 0
154 177 0
150 173 0
149 171 0
151 174 0
146 167 0
154 176 0
152 175 0
149 171 0
152 175 0
150 170 0
154 176 0
159 181 0
148 172 0
151 173 0
148 172 0
157 179 0
148 169 0
160 181 0
149 171 0
155 177 0
155 176 0
155 177 0
155 176 0
147 166 0
154 177 0
151 173 0
152 174 0
151 173 0
151 173 0
150 171 0
147 169 0
147 168 0
160 182 0
144 166 0
154 175 0
153 174 0
155 177 0
154 176 0
151 172 0
139 160 0
143 165 0
147 169 0
157 178 0
150 172 0
154 175 0
149 170 0
154 174 0
151 170 0
153 174 0
148 168 0
149 168 0
148 170 0
151 173 0
149 171 0
149 171 0
148 168 0
147 167 0
153 174 0
148 170 0
150 171 0
150 173 0
153 174 0
144 164 0
149 170 0
139 159 0
144 165 0
155 177 0
149 171 0
146 165 0
149 169 0
152 175 0
153 174 0
148 168 0
152 174 0
153 173 0
148 170 0
145 164 0
155 175 0
153 172 0
145 167 0
149 168 0
145 166 0
144 165 0
154 174 0
155 175 0
149 168 0
140 160 0
154 174 0
152 172 0
143 162 0
153 173 0
149 169 0
151 170 0
146 166 0
153 176 0
150 169 0
151 170 0
152 173 0
150 167 0
150 171 0
150 169 0
154 173 0
147 169 0
147 168 0
153 172 0
156 178 0
150 170 0
149 169 0
151 170 0
154 173 0
152 172 0
152 173 0
149 170 0
153 173 0
156 175 0
155 174 0
158 176 0
152 169 0
154 171 0
153 171 0
152 172 0
146 165 0
149 169 0
144 163 0
152 172 0
149 169 0
145 163 0
157 176 0
151 168 0
148 166 0
155 173 0
149 168 0
155 173 0
149 165 0
150 168 0
152 170 0
151 169 0
153 168 0
151 167 0
145 162 0
148 166 0
144 161 0
147 166 0
150 168 0
156 174 0
156 172 0
155 173 0
142 159 0
159 178 0
155 173 0
149 164 0
154 172 0
157 176 0
154 171 0
156 176 0
151 168 0
154 173 0
152 170 0
158 175 0
150 166 0
156 176 0
143 158 0
152 167 0
148 162 0
149 164 0
154 171 0
155 171 0
153 169 0
154 173 0
154 170 0
155 172 0
150 166 0
153 170 0
149 165 0
144 156 0
159 174 0
145 163 0
153 167 0
155 171 0
145 158 0
155 172 0
144 157 0
154 170 0
160 175 0
145 161 0
157 172 0
151 164 0
147 159 0
159 174 0
146 161 0
148 162 0
152 168 0
154 168 0
155 168 0
149 163 0
152 167 0
152 167 0
153 168 0
148 158 0
158 172 0
153 168 0
155 168 0
153 166 0
155 170 0
158 174 0
154 167 0
146 157 0
154 167 0
152 169 0
146 160 0
148 163 0
151 167 0
154 166 0
154 167 0
155 168 0
153 166 0
153 164 0
158 172 0
158 171 0
159 171 0
154 168 0
151 165 0
157 170 0
152 163 0
153 164 0
154 168 0
160 173 0
170 192 0
170 193 0
165 188 0
169 190 0
165 188 0
168 191 0
166 189 0
163 185 0
168 192 0
170 192 0
172 194 0
166 189 0
167 189 0
168 191 0
167 189 0
171 194 0
166 189 0
170 192 0
167 189 0
168 191 0
167 190 0
168 191 0
166 189 0
163 187 0
166 190 0
166 189 0
170 192 0
167 189 0
166 189 0
163 185 0
160 183 0
164 187 0
162 185 0
167 189 0
165 188 0
167 190 0
169 191 0
166 190 0
168 191 0
169 191 0
159 182 0
168 190 0
165 188 0
162 185 0
164 186 0
159 181 0
167 190 0
165 189 0
161 184 0
165 187 0
164 187 0
165 189 0
161 184 0
167 190 0
165 188 0
162 185 0
165 188 0
167 190 0
167 190 0
164 187 0
162 184 0
161 184 0
169 191 0
171 195 0
164 187 0
163 186 0
163 185 0
167 190 0
161 183 0
167 189 0
164 187 0
161 184 0
165 188 0
165 188 0
160 183 0
162 185 0
158 181 0
161 184 0
162 185 0
163 187 0
154 177 0
159 182 0
164 188 0
157 180 0
165 188 0
161 184 0
164 187 0
161 183 0
166 189 0
159 182 0
164 187 0
165 187 0
158 181 0
159 181 0
157 181 0
164 185 0
157 179 0
161 183 0
158 179 0
164 188 0
159 181 0
163 187 0
158 181 0
160 183 0
162 186 0
160 183 0
158 180 0
154 176 0
160 183 0
163 185 0
163 185 0
158 181 0
158 181 0
161 185 0
152 175 0
158 181 0
158 181 0
151 174 0
156 179 0
162 185 0
156 180 0
159 182 0
159 182 0
154 176 0
155 178 0
164 187 0
160 183 0
159 183 0
160 184 0
160 182 0
155 178 0
159 181 0
158 180 0
153 176 0
160 182 0
153 176 0
158 182 0
150 172 0
149 171 0
157 180 0
158 181 0
157 179 0
157 181 0
156 179 0
148 170 0
157 180 0
159 181 0
155 179 0
158 181 0
158 181 0
157 179 0
155 178 0
151 174 0
156 178 0
148 170 0
155 178 0
148 172 0
153 176 0
161 183 0
155 178 0
146 167 0
154 176 0
149 171 0
152 174 0
156 179 0
151 174 0
146 169 0
149 171 0
157 180 0
150 171 0
157 179 0
151 172 0
150 173 0
146 168 0
156 178 0
144 166 0
147 169 0
152 173 0
149 170 0
149 172 0
150 172 0
149 172 0
145 167 0
146 168 0
158 180 0
156 178 0
153 176 0
150 171 0
149 171 0
155 177 0
151 173 0
152 175 0
156 177 0
156 178 0
145 168 0
151 172 0
149 171 0
142 163 0
149 171 0
144 165 0
144 167 0
154 176 0
154 175 0
154 175 0
149 170 0
144 165 0
154 175 0
153 176 0
150 170 0
151 172 0
157 181 0
155 178 0
148 168 0
145 167 0
157 178 0
152 174 0
149 170 0
150 171 0
155 177 0
152 173 0
153 175 0
148 170 0
151 172 0
142 163 0
149 169 0
150 171 0
154 176 0
146 167 0
151 172 0
147 169 0
151 174 0
152 175 0
146 168 0
151 173 0
149 168 0
150 171 0
155 176 0
151 171 0
148 168 0
156 178 0
157 178 0
148 169 0
154 174 0
150 171 0
151 171 0
151 173 0
147 168 0
152 174 0
146 167 0
153 172 0
151 173 0
154 176 0
154 175 0
147 167 0
154 175 0
147 166 0
155 176 0
152 174 0
151 169 0
147 167 0
144 163 0
148 168 0
150 171 0
150 170 0
148 169 0
152 171 0
152 171 0
154 175 0
148 169 0
151 171 0
150 170 0
151 171 0
149 170 0
146 165 0
147 167 0
152 171 0
156 176 0
143 163 0
148 168 0
153 173 0
154 174 0
149 169 0
146 167 0
150 171 0
158 179 0
150 171 0
153 172 0
148 167 0
143 162 0
149 169 0
154 175 0
157 177 0
149 169 0
146 165 0
144 163 0
150 168 0
151 169 0
142 161 0
147 164 0
148 167 0
152 172 0
151 168 0
153 170 0
153 171 0
149 168 0
152 172 0
148 166 0
155 173 0
152 172 0
153 172 0
151 167 0
155 175 0
155 172 0
152 169 0
148 168 0
143 161 0
147 165 0
147 165 0
149 165 0
150 168 0
154 171 0
147 164 0
154 172 0
154 171 0
149 166 0
148 163 0
148 166 0
154 171 0
155 174 0
152 169 0
155 171 0
149 165 0
152 168 0
148 165 0
155 171 0
152 169 0
154 169 0
153 171 0
157 174 0
147 164 0
151 168 0
155 171 0
153 171 0
147 162 0
156 170 0
144 161 0
153 169 0
161 180 0
151 167 0
157 175 0
147 161 0
158 171 0
149 164 0
145 157 0
157 173 0
156 172 0
155 170 0
150 166 0
154 168 0
147 162 0
158 172 0
154 168 0
150 163 0
154 168 0
156 172 0
157 172 0
151 164 0
150 163 0
151 165 0
156 170 0
158 175 0
145 159 0
153 166 0
154 169 0
150 165 0
153 170 0
147 162 0
154 169 0
149 163 0
155 170 0
156 168 0
159 172 0
154 167 0
158 173 0
150 164 0
154 167 0
156 168 0
150 161 0
153 166 0
153 167 0
154 169 0
153 167 0
153 166 0
149 161 0
158 169 0
153 166 0
158 170 0
151 163 0
156 172 0
157 171 0
172 195 0
172 194 0
165 188 0
167 190 0
167 190 0
173 196 0
169 192 0
171 193 0
168 190 0
169 192 0
166 188 0
166 188 0
165 188 0
163 186 0
164 186 0
165 188 0
167 190 0
168 191 0
167 190 0
166 189 0
160 183 0
167 190 0
169 192 0
171 194 0
167 190 0
169 192 0
166 189 0
167 189 0
164 187 0
167 189 0
168 191 0
171 194 0
163 186 0
164 187 0
165 188 0
169 191 0
171 193 0
168 191 0
164 187 0
170 192 0
165 188 0
157 180 0
165 188 0
167 190 0
167 190 0
162 185 0
163 186 0
165 188 0
162 185 0
167 189 0
168 191 0
166 189 0
166 189 0
163 185 0
158 180 0
166 188 0
164 186 0
159 182 0
164 186 0
165 187 0
167 191 0
168 190 0
163 186 0
164 187 0
164 187 0
161 183 0
161 184 0
164 188 0
165 187 0
159 182 0
160 184 0
161 184 0
161 184 0
164 187 0
166 189 0
165 188 0
163 185 0
161 184 0
162 185 0
163 187 0
163 186 0
159 183 0
159 181 0
163 186 0
158 181 0
154 178 0
161 184 0
164 187 0
159 182 0
164 186 0
165 189 0
164 186 0
160 184 0
162 184 0
164 186 0
162 184 0
161 185 0
164 186 0
156 180 0
162 185 0
153 175 0
153 176 0
156 179 0
159 182 0
157 180 0
158 181 0
155 178 0
167 190 0
159 182 0
165 188 0
160 183 0
162 185 0
156 178 0
159 181 0
150 173 0
157 180 0
161 184 0
160 184 0
162 184 0
164 186 0
159 183 0
159 181 0
160 183 0
154 176 0
156 179 0
161 182 0
162 184 0
156 179 0
158 180 0
154 177 0
156 179 0
153 174 0
160 182 0
160 182 0
157 181 0
157 180 0
157 180 0
158 180 0
156 178 0
159 182 0
153 174 0
160 182 0
159 181 0
160 183 0
154 176 0
154 176 0
149 171 0
151 174 0
157 179 0
161 184 0
148 171 0
157 180 0
150 172 0
154 177 0
156 179 0
156 178 0
156 177 0
153 177 0
159 182 0
153 176 0
155 177 0
158 181 0
153 175 0
156 177 0
163 185 0
146 168 0
153 175 0
153 177 0
149 171 0
155 178 0
153 175 0
155 178 0
154 175 0
155 177 0
155 176 0
151 174 0
154 176 0
151 173 0
152 175 0
161 182 0
152 173 0
151 172 0
150 173 0
153 174 0
154 177 0
153 176 0
149 173 0
153 175 0
145 167 0
149 171 0
156 179 0
158 179 0
149 171 0
150 171 0
153 176 0
153 173 0
153 176 0
154 176 0
149 170 0
151 171 0
153 175 0
150 171 0
150 171 0
151 173 0
150 171 0
154 177 0
148 170 0
154 176 0
155 177 0
153 174 0
152 173 0
156 178 0
150 171 0
153 175 0
151 174 0
153 175 0
144 166 0
148 169 0
151 171 0
141 162 0
154 176 0
154 176 0
139 161 0
150 173 0
147 170 0
153 174 0
157 179 0
148 169 0
156 176 0
155 177 0
147 167 0
152 174 0
148 169 0
160 182 0
155 178 0
153 175 0
157 179 0
156 177 0
150 171 0
150 171 0
149 169 0
144 164 0
147 167 0
143 164 0
152 173 0
150 171 0
155 177 0
140 158 0
148 166 0
147 167 0
154 174 0
154 176 0
146 165 0
156 178 0
152 173 0
160 179 0
152 172 0
146 166 0
150 170 0
150 171 0
143 163 0
152 171 0
147 168 0
150 169 0
160 179 0
158 178 0
155 175 0
146 165 0
150 168 0
151 170 0
145 165 0
147 168 0
148 166 0
153 173 0
147 167 0
152 172 0
151 170 0
154 175 0
154 173 0
149 169 0
153 173 0
148 167 0
146 165 0
155 175 0
159 178 0
156 176 0
152 172 0
146 165 0
155 175 0
155 175 0
153 172 0
150 170 0
152 170 0
153 173 0
146 165 0
143 160 0
154 173 0
152 174 0
150 169 0
156 175 0
152 170 0
153 171 0
151 171 0
150 168 0
142 159 0
149 166 0
145 165 0
153 172 0
152 171 0
148 165 0
144 161 0
155 175 0
140 158 0
152 172 0
157 174 0
157 175 0
154 174 0
153 170 0
154 170 0
156 175 0
150 167 0
152 172 0
156 173 0
153 172 0
151 170 0
151 167 0
154 171 0
150 168 0
149 168 0
152 168 0
151 168 0
153 170 0
154 170 0
152 168 0
156 174 0
148 167 0
152 167 0
163 178 0
155 170 0
152 169 0
151 168 0
148 165 0
148 164 0
154 171 0
145 158 0
154 169 0
157 174 0
153 168 0
150 166 0
146 159 0
155 171 0
158 175 0
148 162 0
159 178 0
153 168 0
153 168 0
152 167 0
152 165 0
157 173 0
158 173 0
157 172 0
160 178 0
158 174 0
154 167 0
156 173 0
156 169 0
151 167 0
151 164 0
154 168 0
162 176 0
150 163 0
160 176 0
153 166 0
156 172 0
148 162 0
153 167 0
153 167 0
155 169 0
154 166 0
154 169 0
156 171 0
154 165 0
153 169 0
146 160 0
160 172 0
155 167 0
151 163 0
158 172 0
159 170 0
158 172 0
152 165 0
150 162 0
152 164 0
161 175 0
155 169 0
156 171 0
152 167 0
158 171 0
156 169 0
151 165 0
171 193 0
167 190 0
168 191 0
167 190 0
170 192 0
168 190 0
170 193 0
167 189 0
169 192 0
164 188 0
165 189 0
169 192 0
169 192 0
166 189 0
166 189 0
166 188 0
163 186 0
169 192 0
168 191 0
166 189 0
164 188 0
164 187 0
166 188 0
167 189 0
166 189 0
169 192 0
165 188 0
164 188 0
166 189 0
166 189 0
166 189 0
168 190 0
166 189 0
164 187 0
163 186 0
162 186 0
162 185 0
167 190 0
167 189 0
160 183 0
169 192 0
169 192 0
162 185 0
160 184 0
162 184 0
169 192 0
165 188 0
167 191 0
166 189 0
165 188 0
165 188 0
164 187 0
167 190 0
160 184 0
165 189 0
160 184 0
165 188 0
161 184 0
163 185 0
165 189 0
161 183 0
158 182 0
161 184 0
159 182 0
163 186 0
161 183 0
161 184 0
165 187 0
162 185 0
159 182 0
159 183 0
158 181 0
159 182 0
157 181 0
161 184 0
161 184 0
162 185 0
161 184 0
163 187 0
160 183 0
162 185 0
159 183 0
161 183 0
162 186 0
161 184 0
155 178 0
163 186 0
161 184 0
163 186 0
161 183 0
170 193 0
162 186 0
161 184 0
165 188 0
164 186 0
160 182 0
156 177 0
156 179 0
162 184 0
159 182 0
164 186 0
167 190 0
167 190 0
162 185 0
160 183 0
161 183 0
158 181 0
156 178 0
157 179 0
160 183 0
167 188 0
153 176 0
159 183 0
159 183 0
161 184 0
157 179 0
163 186 0
152 175 0
157 180 0
159 182 0
160 182 0
159 182 0
163 186 0
154 177 0
165 188 0
167 189 0
159 182 0
151 175 0
155 176 0
155 177 0
158 180 0
163 186 0
155 178 0
153 176 0
155 178 0
157 180 0
154 178 0
154 176 0
158 181 0
153 176 0
158 181 0
156 178 0
159 181 0
162 184 0
156 179 0
158 180 0
161 184 0
149 172 0
156 179 0
156 179 0
151 173 0
154 176 0
160 183 0
154 176 0
156 178 0
159 180 0
150 173 0
153 176 0
151 174 0
155 178 0
151 174 0
158 181 0
152 172 0
157 180 0
152 174 0
148 170 0
155 177 0
153 175 0
154 176 0
158 180 0
158 182 0
147 170 0
151 173 0
152 175 0
149 170 0
152 174 0
151 173 0
156 177 0
148 170 0
158 180 0
149 171 0
151 172 0
149 172 0
154 176 0
153 175 0
150 172 0
155 178 0
155 176 0
154 175 0
143 163 0
153 175 0
155 177 0
152 174 0
154 177 0
148 171 0
151 172 0
157 178 0
150 172 0
152 174 0
155 176 0
150 171 0
150 172 0
145 168 0
154 174 0
151 172 0
150 170 0
156 179 0
143 164 0
144 165 0
155 177 0
153 173 0
148 168 0
158 179 0
148 169 0
149 171 0
153 175 0
147 168 0
154 174 0
145 167 0
153 174 0
153 174 0
147 168 0
152 175 0
149 169 0
148 169 0
149 171 0
150 171 0
145 166 0
154 175 0
152 173 0
155 176 0
148 169 0
153 174 0
150 170 0
151 170 0
152 173 0
155 176 0
150 170 0
152 173 0
149 170 0
155 177 0
144 164 0
153 173 0
157 179 0
151 171 0
143 164 0
152 173 0
151 172 0
150 170 0
153 173 0
155 176 0
152 171 0
153 174 0
156 177 0
153 174 0
140 160 0
147 168 0
147 170 0
153 173 0
156 177 0
158 179 0
156 179 0
154 174 0
150 170 0
146 164 0
147 167 0
150 171 0
154 175 0
152 171 0
157 178 0
148 169 0
148 169 0
155 174 0
151 170 0
153 174 0
144 164 0
149 170 0
140 159 0
148 167 0
152 172 0
154 173 0
149 168 0
151 171 0
159 178 0
152 171 0
153 173 0
148 166 0
148 168 0
148 168 0
151 170 0
152 169 0
154 173 0
150 168 0
151 170 0
156 175 0
151 170 0
151 169 0
148 167 0
156 174 0
151 170 0
153 171 0
151 169 0
151 169 0
150 169 0
154 173 0
154 172 0
151 170 0
158 176 0
153 173 0
151 169 0
153 171 0
152 169 0
152 169 0
158 178 0
152 171 0
147 165 0
147 167 0
150 169 0
152 168 0
147 164 0
156 174 0
151 169 0
157 174 0
151 169 0
155 174 0
153 171 0
147 164 0
153 170 0
148 167 0
149 166 0
153 171 0
140 157 0
151 168 0
154 171 0
154 172 0
157 174 0
151 168 0
149 167 0
150 166 0
154 171 0
149 164 0
145 160 0
150 166 0
146 162 0
153 170 0
154 171 0
149 163 0
155 173 0
152 168 0
154 168 0
156 173 0
148 166 0
160 177 0
154 167 0
148 164 0
149 165 0
156 174 0
155 171 0
153 167 0
153 169 0
155 172 0
147 162 0
155 172 0
158 172 0
153 170 0
154 168 0
159 175 0
152 165 0
158 173 0
152 167 0
153 165 0
153 165 0
153 167 0
152 165 0
157 173 0
155 171 0
152 167 0
149 163 0
153 168 0
148 161 0
151 164 0
152 166 0
156 171 0
157 170 0
151 164 0
152 166 0
158 173 0
157 172 0
153 165 0
152 165 0
154 164 0
154 168 0
152 166 0
155 167 0
156 170 0
155 168 0
159 173 0
160 174 0
151 164 0
154 169 0
170 192 0
169 192 0
167 190 0
169 191 0
169 192 0
161 183 0
173 196 0
169 192 0
169 193 0
164 186 0
164 188 0
168 190 0
166 188 0
168 190 0
164 186 0
164 188 0
169 192 0
169 192 0
162 185 0
162 185 0
172 195 0
167 190 0
165 187 0
164 186 0
164 188 0
166 188 0
162 186 0
167 189 0
167 190 0
168 191 0
165 187 0
163 187 0
163 186 0
164 187 0
162 185 0
165 187 0
165 187 0
169 191 0
162 185 0
163 186 0
165 188 0
164 186 0
162 184 0
168 191 0
168 191 0
160 183 0
169 192 0
165 188 0
167 191 0
164 186 0
163 186 0
165 188 0
166 189 0
159 182 0
162 185 0
156 180 0
163 186 0
165 188 0
164 187 0
159 181 0
159 182 0
163 185 0
161 185 0
160 183 0
168 190 0
158 180 0
160 183 0
165 187 0
160 183 0
160 184 0
160 183 0
162 184 0
162 185 0
165 188 0
163 187 0
167 189 0
158 181 0
156 178 0
164 187 0
161 185 0
159 182 0
166 189 0
161 184 0
157 179 0
165 188 0
158 181 0
161 184 0
164 187 0
161 185 0
154 177 0
165 187 0
156 179 0
157 180 0
161 184 0
162 184 0
160 182 0
165 189 0
161 184 0
158 180 0
158 181 0
166 189 0
153 177 0
157 179 0
155 177 0
166 190 0
163 185 0
155 178 0
157 180 0
159 181 0
154 177 0
158 182 0
159 181 0
161 184 0
159 182 0
165 188 0
159 182 0
162 184 0
160 182 0
156 178 0
159 183 0
156 179 0
153 176 0
155 177 0
157 180 0
158 181 0
155 178 0
157 180 0
159 182 0
153 176 0
162 185 0
156 180 0
153 175 0
161 184 0
160 182 0
151 173 0
157 179 0
157 180 0
153 176 0
153 175 0
154 177 0
154 176 0
154 176 0
159 180 0
158 181 0
155 179 0
155 178 0
159 181 0
154 178 0
157 180 0
155 178 0
161 184 0
158 180 0
156 180 0
154 176 0
156 179 0
147 170 0
156 178 0
157 180 0
151 173 0
155 178 0
155 178 0
152 173 0
154 176 0
159 181 0
157 179 0
148 170 0
156 179 0
156 177 0
150 172 0
154 176 0
155 177 0
147 169 0
153 175 0
136 158 0
147 169 0
150 171 0
149 171 0
152 173 0
155 177 0
156 179 0
155 177 0
152 174 0
154 176 0
158 182 0
154 177 0
152 174 0
151 173 0
154 175 0
150 172 0
141 163 0
149 172 0
158 180 0
159 179 0
155 177 0
148 170 0
153 175 0
153 176 0
151 173 0
155 176 0
156 177 0
145 167 0
156 178 0
157 178 0
143 165 0
150 172 0
146 167 0
156 177 0
146 168 0
142 163 0
149 170 0
154 175 0
152 172 0
147 168 0
161 182 0
149 171 0
151 173 0
156 176 0
148 171 0
155 177 0
154 175 0
152 173 0
149 172 0
155 176 0
155 176 0
155 175 0
155 177 0
148 168 0
156 178 0
157 179 0
151 173 0
155 178 0
148 166 0
148 169 0
152 176 0
148 168 0
154 176 0
154 176 0
152 173 0
159 180 0
151 172 0
154 175 0
156 177 0
146 168 0
153 173 0
155 175 0
153 176 0
155 175 0
159 181 0
150 172 0
148 170 0
150 170 0
150 171 0
157 178 0
148 170 0
154 175 0
153 174 0
147 168 0
153 172 0
151 170 0
157 177 0
146 167 0
148 169 0
149 169 0
145 164 0
156 176 0
150 171 0
150 170 0
150 169 0
156 176 0
155 176 0
153 175 0
149 169 0
151 171 0
151 170 0
151 172 0
148 168 0
148 169 0
157 178 0
154 175 0
151 172 0
159 178 0
150 170 0
154 174 0
154 173 0
153 175 0
153 172 0
157 175 0
146 165 0
151 170 0
157 177 0
150 169 0
150 170 0
148 167 0
155 175 0
151 170 0
152 171 0
151 170 0
149 167 0
153 172 0
156 175 0
150 168 0
159 178 0
152 172 0
147 166 0
154 173 0
149 167 0
153 172 0
152 171 0
155 174 0
151 169 0
147 166 0
150 168 0
151 169 0
158 178 0
148 167 0
151 171 0
152 170 0
145 161 0
144 162 0
146 164 0
151 168 0
153 171 0
151 171 0
146 162 0
157 175 0
155 169 0
148 166 0
152 171 0
165 183 0
149 167 0
147 165 0
154 172 0
150 165 0
149 164 0
155 174 0
156 174 0
150 167 0
151 168 0
147 163 0
148 166 0
159 177 0
160 177 0
148 167 0
156 171 0
150 166 0
154 170 0
153 168 0
158 174 0
152 168 0
154 168 0
150 166 0
154 172 0
149 166 0
149 165 0
157 174 0
151 166 0
156 172 0
154 170 0
157 173 0
153 169 0
156 173 0
150 165 0
156 171 0
152 166 0
149 165 0
148 163 0
148 161 0
152 167 0
155 168 0
160 179 0
156 171 0
159 176 0
151 164 0
157 174 0
149 161 0
148 163 0
154 170 0
152 167 0
149 166 0
155 170 0
151 165 0
157 171 0
153 170 0
153 168 0
153 168 0
161 176 0
153 167 0
162 175 0
148 162 0
159 174 0
156 172 0
156 170 0
152 166 0
156 171 0
156 168 0
161 176 0
152 168 0
155 171 0
157 172 0
162 179 0
168 191 0
167 190 0
168 192 0
170 194 0
166 189 0
168 190 0
168 191 0
163 187 0
169 192 0
166 189 0
171 194 0
167 191 0
167 189 0
170 193 0
169 191 0
164 188 0
162 184 0
168 190 0
168 192 0
166 189 0
164 187 0
169 192 0
167 189 0
167 189 0
169 191 0
167 190 0
170 192 0
163 187 0
168 190 0
166 190 0
165 188 0
167 189 0
167 190 0
165 186 0
166 190 0
165 188 0
168 190 0
162 185 0
164 186 0
165 187 0
165 186 0
160 184 0
161 184 0
165 188 0
165 188 0
166 189 0
166 189 0
160 183 0
166 189 0
161 185 0
163 186 0
163 186 0
169 192 0
163 186 0
166 189 0
163 185 0
164 188 0
167 191 0
161 184 0
158 181 0
167 190 0
165 188 0
163 186 0
162 185 0
163 187 0
159 182 0
162 185 0
158 181 0
160 184 0
157 180 0
160 183 0
164 186 0
162 185 0
161 183 0
164 186 0
155 178 0
166 188 0
161 184 0
165 189 0
162 185 0
161 184 0
160 183 0
158 182 0
157 180 0
159 183 0
164 186 0
156 179 0
154 177 0
165 188 0
162 185 0
164 186 0
161 184 0
155 177 0
161 184 0
158 181 0
160 184 0
158 182 0
160 184 0
163 185 0
157 180 0
162 184 0
158 180 0
163 187 0
156 178 0
154 177 0
165 188 0
169 192 0
161 184 0
155 178 0
161 184 0
159 182 0
157 180 0
160 183 0
159 183 0
154 177 0
161 184 0
154 176 0
154 177 0
161 183 0
155 178 0
160 183 0
154 178 0
160 183 0
158 181 0
156 179 0
155 178 0
154 177 0
156 179 0
150 173 0
158 180 0
157 180 0
155 178 0
156 179 0
163 185 0
153 175 0
162 185 0
155 177 0
160 183 0
154 176 0
159 180 0
158 180 0
158 179 0
156 178 0
156 179 0
159 181 0
156 178 0
164 187 0
158 181 0
153 174 0
162 184 0
159 180 0
159 180 0
153 174 0
158 181 0
152 175 0
154 177 0
159 181 0
155 177 0
150 172 0
153 176 0
160 182 0
156 179 0
153 175 0
150 172 0
160 183 0
154 176 0
155 177 0
155 176 0
159 183 0
153 175 0
159 180 0
161 184 0
157 178 0
149 171 0
152 173 0
159 181 0
160 182 0
157 181 0
152 175 0
154 177 0
156 180 0
152 174 0
150 173 0
145 168 0
158 180 0
152 174 0
157 179 0
148 170 0
155 178 0
153 176 0
150 169 0
151 173 0
155 178 0
156 178 0
157 179 0
156 177 0
152 174 0
165 187 0
157 179 0
151 173 0
152 174 0
154 177 0
153 175 0
157 178 0
155 176 0
157 180 0
150 172 0
153 175 0
152 174 0
155 178 0
147 169 0
158 181 0
158 179 0
158 178 0
158 179 0
151 174 0
151 174 0
147 168 0
156 179 0
149 171 0
147 169 0
157 180 0
152 173 0
155 176 0
150 170 0
151 173 0
150 172 0
151 172 0
158 179 0
152 172 0
157 179 0
154 175 0
155 176 0
156 177 0
156 176 0
151 174 0
154 175 0
150 171 0
154 176 0
159 179 0
151 172 0
145 167 0
149 171 0
155 175 0
155 176 0
150 171 0
145 166 0
153 175 0
150 172 0
144 165 0
152 173 0
147 168 0
152 173 0
151 172 0
155 176 0
149 168 0
150 170 0
159 180 0
151 171 0
150 171 0
152 174 0
144 163 0
155 177 0
155 176 0
152 172 0
146 166 0
154 175 0
153 173 0
147 167 0
155 177 0
154 175 0
151 169 0
152 172 0
151 170 0
150 171 0
153 173 0
152 172 0
146 164 0
152 172 0
157 178 0
156 176 0
154 175 0
154 174 0
150 171 0
153 173 0
157 175 0
151 170 0
152 172 0
155 174 0
153 171 0
154 173 0
152 172 0
154 173 0
145 164 0
144 162 0
152 171 0
146 166 0
156 177 0
149 167 0
150 167 0
151 169 0
149 168 0
154 173 0
152 170 0
151 170 0
156 173 0
157 177 0
158 176 0
158 177 0
155 175 0
148 168 0
154 171 0
160 179 0
151 171 0
152 171 0
148 167 0
159 178 0
156 176 0
158 177 0
153 172 0
152 169 0
151 167 0
157 176 0
157 176 0
145 163 0
152 170 0
156 174 0
153 171 0
145 161 0
152 169 0
150 169 0
159 177 0
149 167 0
148 167 0
155 173 0
153 169 0
147 164 0
152 165 0
145 161 0
157 174 0
157 174 0
152 170 0
150 168 0
148 167 0
154 172 0
149 166 0
154 170 0
150 166 0
145 159 0
152 169 0
153 170 0
157 173 0
151 166 0
155 170 0
152 169 0
153 168 0
152 169 0
150 168 0
150 165 0
149 163 0
150 163 0
151 165 0
147 161 0
153 168 0
156 172 0
155 170 0
161 179 0
154 171 0
151 164 0
155 172 0
157 173 0
160 175 0
145 160 0
147 162 0
151 166 0
148 161 0
159 173 0
153 168 0
151 167 0
158 174 0
146 161 0
148 164 0
158 173 0
155 172 0
153 168 0
145 159 0
157 173 0
152 167 0
158 172 0
154 167 0
153 165 0
151 164 0
152 166 0
151 166 0
159 174 0
155 170 0
153 169 0
157 170 0
160 175 0
153 166 0
168 191 0
165 188 0
163 186 0
169 192 0
165 188 0
168 191 0
171 193 0
166 189 0
173 195 0
167 189 0
168 190 0
165 187 0
166 189 0
169 192 0
166 188 0
166 189 0
167 190 0
170 192 0
165 188 0
169 192 0
161 184 0
163 187 0
169 192 0
160 183 0
167 190 0
169 192 0
164 187 0
166 188 0
168 191 0
166 188 0
166 189 0
164 187 0
167 190 0
159 183 0
167 189 0
164 186 0
163 186 0
166 189 0
165 188 0
164 188 0
161 184 0
162 186 0
164 187 0
162 185 0
161 184 0
161 185 0
164 187 0
165 188 0
160 182 0
164 186 0
160 183 0
165 188 0
161 185 0
163 186 0
160 184 0
160 183 0
161 183 0
164 187 0
161 183 0
163 186 0
160 182 0
164 187 0
163 186 0
169 191 0
164 187 0
158 181 0
168 190 0
166 189 0
163 186 0
165 187 0
158 181 0
160 184 0
159 183 0
160 183 0
161 184 0
162 184 0
162 184 0
163 184 0
160 183 0
160 182 0
161 184 0
162 185 0
162 185 0
166 189 0
163 186 0
164 187 0
163 185 0
165 189 0
165 188 0
169 191 0
158 181 0
155 179 0
167 190 0
163 186 0
161 183 0
163 185 0
160 184 0
164 187 0
164 187 0
161 185 0
165 187 0
158 181 0
159 183 0
163 185 0
158 181 0
155 176 0
159 180 0
165 188 0
161 185 0
161 183 0
162 185 0
159 182 0
159 183 0
158 180 0
156 180 0
160 183 0
153 176 0
162 185 0
158 180 0
156 179 0
160 184 0
159 182 0
153 175 0
160 183 0
154 176 0
156 179 0
156 179 0
163 185 0
155 178 0
156 178 0
161 184 0
152 176 0
157 179 0
157 180 0
154 177 0
158 182 0
155 178 0
154 177 0
152 174 0
155 178 0
158 181 0
153 176 0
157 179 0
155 178 0
157 180 0
151 173 0
163 186 0
154 176 0
152 174 0
158 180 0
157 179 0
160 182 0
154 176 0
162 184 0
155 178 0
154 176 0
155 177 0
153 176 0
162 184 0
152 176 0
163 184 0
156 179 0
150 173 0
157 180 0
152 174 0
164 187 0
148 171 0
152 173 0
153 173 0
152 173 0
155 176 0
156 178 0
149 171 0
153 176 0
154 176 0
154 174 0
150 172 0
153 175 0
144 165 0
155 177 0
153 175 0
149 171 0
155 178 0
154 177 0
151 173 0
156 177 0
149 171 0
160 183 0
149 172 0
157 178 0
147 169 0
149 172 0
154 176 0
150 173 0
152 173 0
150 172 0
154 175 0
149 172 0
154 176 0
156 177 0
152 174 0
150 170 0
157 180 0
151 173 0
156 177 0
155 177 0
151 172 0
158 179 0
151 172 0
153 175 0
153 174 0
155 176 0
151 171 0
156 177 0
151 173 0
155 177 0
154 176 0
153 175 0
147 169 0
154 175 0
149 171 0
144 165 0
149 171 0
153 176 0
155 179 0
153 174 0
150 172 0
152 174 0
145 166 0
156 177 0
151 173 0
151 173 0
150 171 0
151 173 0
152 174 0
158 180 0
154 175 0
151 172 0
149 169 0
157 177 0
153 175 0
151 173 0
156 179 0
150 171 0
153 174 0
162 185 0
151 173 0
152 173 0
149 170 0
145 165 0
148 170 0
150 172 0
156 180 0
155 176 0
154 177 0
148 168 0
152 174 0
152 172 0
151 172 0
157 178 0
146 166 0
151 170 0
146 168 0
160 182 0
151 171 0
151 172 0
156 177 0
153 172 0
145 166 0
152 172 0
149 169 0
150 170 0
149 169 0
138 158 0
151 171 0
159 181 0
149 168 0
149 170 0
156 176 0
151 172 0
158 178 0
153 172 0
153 173 0
153 174 0
157 177 0
155 176 0
153 173 0
161 181 0
153 175 0
153 172 0
146 166 0
156 175 0
151 170 0
155 174 0
151 169 0
152 172 0
151 171 0
153 173 0
154 174 0
155 175 0
154 173 0
149 168 0
150 170 0
156 175 0
149 169 0
149 168 0
153 173 0
142 161 0
147 167 0
149 169 0
149 168 0
149 166 0
157 176 0
149 170 0
147 166 0
155 174 0
143 162 0
152 171 0
149 167 0
156 176 0
160 179 0
152 170 0
153 171 0
155 173 0
150 167 0
152 168 0
145 162 0
150 169 0
153 171 0
156 175 0
158 175 0
152 170 0
154 171 0
155 174 0
152 169 0
156 175 0
154 171 0
151 169 0
148 165 0
156 174 0
149 168 0
154 172 0
149 167 0
156 173 0
151 169 0
157 176 0
155 173 0
153 171 0
155 171 0
157 174 0
147 163 0
152 169 0
153 171 0
157 171 0
150 165 0
153 168 0
150 163 0
147 162 0
152 168 0
154 171 0
155 172 0
156 173 0
155 172 0
156 171 0
151 168 0
159 173 0
163 180 0
153 169 0
158 175 0
150 165 0
153 169 0
156 173 0
151 166 0
153 167 0
157 171 0
159 176 0
154 167 0
162 178 0
156 174 0
151 165 0
150 163 0
154 168 0
157 173 0
148 162 0
153 167 0
155 173 0
158 172 0
154 167 0
149 164 0
149 163 0
146 161 0
157 173 0
146 160 0
154 170 0
158 173 0
149 163 0
146 158 0
159 173 0
156 171 0
156 169 0
167 190 0
166 189 0
166 189 0
169 191 0
163 187 0
165 187 0
168 191 0
165 188 0
168 192 0
169 193 0
165 189 0
167 190 0
164 188 0
169 192 0
167 190 0
159 182 0
165 189 0
173 194 0
165 189 0
166 190 0
169 192 0
163 186 0
172 194 0
169 191 0
166 188 0
165 188 0
168 190 0
164 187 0
166 188 0
166 189 0
166 189 0
165 188 0
165 187 0
164 187 0
171 195 0
164 187 0
167 191 0
164 186 0
167 190 0
164 187 0
164 186 0
168 190 0
162 185 0
159 182 0
161 184 0
155 178 0
164 187 0
163 186 0
159 182 0
166 189 0
164 187 0
164 187 0
165 188 0
168 190 0
160 183 0
162 184 0
163 186 0
165 189 0
166 188 0
164 187 0
159 182 0
160 182 0
166 189 0
162 186 0
161 184 0
162 185 0
160 183 0
164 186 0
164 187 0
165 188 0
158 182 0
160 182 0
159 182 0
161 184 0
160 183 0
157 179 0
160 183 0
166 188 0
163 185 0
164 187 0
164 187 0
165 187 0
167 190 0
161 185 0
161 185 0
166 188 0
161 184 0
162 184 0
164 187 0
162 184 0
162 184 0
157 180 0
160 183 0
163 186 0
160 182 0
160 184 0
160 183 0
161 185 0
162 184 0
163 186 0
158 181 0
159 183 0
158 181 0
162 184 0
156 179 0
157 180 0
159 182 0
158 182 0
162 185 0
159 183 0
158 181 0
161 182 0
154 177 0
163 186 0
157 180 0
164 187 0
156 179 0
162 186 0
157 180 0
160 183 0
162 185 0
154 175 0
156 179 0
151 173 0
158 181 0
162 185 0
163 186 0
154 177 0
157 180 0
156 179 0
164 186 0
157 181 0
153 175 0
158 181 0
156 179 0
159 183 0
160 183 0
157 180 0
160 183 0
149 171 0
154 175 0
154 177 0
149 172 0
158 180 0
160 183 0
157 179 0
158 180 0
158 181 0
153 175 0
156 179 0
158 182 0
155 178 0
159 182 0
160 182 0
156 177 0
154 177 0
160 184 0
154 177 0
158 181 0
155 177 0
158 181 0
151 173 0
155 178 0
148 170 0
158 180 0
150 172 0
153 175 0
152 174 0
156 179 0
155 176 0
152 174 0
157 179 0
142 164 0
159 182 0
146 168 0
156 179 0
158 180 0
143 166 0
151 173 0
156 178 0
164 185 0
151 174 0
157 178 0
159 181 0
160 181 0
154 177 0
150 173 0
156 177 0
161 182 0
155 177 0
155 178 0
158 181 0
158 181 0
149 170 0
156 178 0
152 174 0
158 180 0
147 167 0
147 169 0
150 171 0
149 171 0
162 184 0
155 176 0
153 175 0
154 177 0
148 169 0
152 175 0
159 181 0
148 169 0
155 177 0
155 176 0
154 176 0
151 172 0
141 163 0
152 172 0
146 168 0
149 168 0
155 176 0
146 167 0
147 169 0
149 171 0
151 172 0
158 178 0
155 177 0
148 170 0
146 166 0
150 172 0
148 169 0
152 174 0
155 176 0
149 171 0
148 169 0
152 174 0
153 175 0
143 164 0
144 164 0
141 161 0
146 167 0
155 176 0
151 172 0
155 176 0
153 175 0
157 180 0
155 177 0
155 176 0
153 174 0
140 160 0
144 165 0
148 169 0
148 167 0
156 177 0
152 173 0
148 169 0
150 171 0
155 176 0
148 169 0
160 181 0
158 179 0
153 175 0
144 164 0
152 173 0
157 176 0
154 175 0
145 166 0
150 170 0
156 175 0
156 177 0
145 164 0
156 175 0
154 173 0
150 168 0
153 174 0
152 173 0
144 163 0
150 171 0
151 173 0
149 169 0
155 177 0
157 177 0
153 175 0
156 177 0
148 169 0
153 174 0
155 174 0
154 174 0
150 171 0
155 176 0
153 172 0
150 170 0
154 175 0
158 178 0
153 171 0
153 174 0
151 167 0
155 174 0
153 173 0
159 177 0
148 167 0
156 177 0
150 169 0
147 165 0
150 166 0
155 173 0
151 171 0
150 167 0
146 165 0
154 174 0
148 169 0
155 174 0
153 171 0
161 180 0
160 178 0
153 171 0
155 173 0
160 179 0
148 166 0
151 170 0
154 173 0
149 166 0
154 172 0
156 173 0
158 177 0
157 175 0
152 170 0
150 167 0
155 173 0
151 169 0
152 169 0
148 167 0
154 171 0
146 163 0
147 164 0
152 167 0
150 166 0
142 158 0
156 174 0
146 164 0
150 168 0
146 162 0
151 168 0
151 169 0
153 171 0
155 171 0
156 173 0
149 164 0
149 163 0
156 172 0
153 170 0
154 173 0
153 170 0
154 171 0
154 168 0
158 174 0
153 167 0
156 172 0
153 170 0
154 170 0
158 174 0
150 166 0
155 170 0
153 167 0
155 170 0
152 169 0
154 169 0
149 165 0
153 169 0
147 161 0
159 175 0
151 165 0
154 170 0
155 171 0
153 169 0
155 171 0
157 175 0
147 164 0
151 166 0
161 179 0
154 169 0
159 175 0
155 170 0
160 176 0
153 168 0
148 162 0
158 173 0
158 173 0
153 168 0
156 173 0
155 169 0
155 169 0
154 168 0
157 170 0
150 161 0
154 168 0
159 174 0
157 169 0
157 173 0
154 170 0
150 164 0
153 166 0
160 176 0
170 194 0
166 189 0
169 192 0
164 187 0
168 191 0
165 188 0
168 191 0
167 190 0
168 192 0
164 188 0
164 188 0
166 189 0
163 186 0
168 191 0
164 186 0
164 188 0
166 188 0
166 189 0
160 183 0
166 190 0
168 190 0
165 188 0
168 191 0
166 188 0
165 187 0
167 189 0
163 185 0
163 186 0
169 191 0
167 191 0
169 192 0
165 188 0
164 186 0
159 181 0
166 189 0
171 194 0
163 186 0
167 190 0
165 188 0
169 193 0
164 187 0
165 188 0
164 187 0
163 185 0
169 191 0
162 186 0
162 185 0
166 189 0
163 186 0
164 188 0
167 191 0
164 187 0
165 188 0
163 186 0
168 191 0
164 187 0
161 184 0
163 186 0
161 184 0
162 185 0
164 187 0
163 186 0
164 187 0
164 188 0
163 186 0
164 188 0
162 185 0
163 186 0
163 185 0
164 188 0
166 190 0
156 179 0
161 183 0
165 189 0
163 187 0
162 185 0
165 188 0
161 184 0
162 185 0
162 185 0
164 187 0
151 174 0
161 184 0
164 187 0
165 187 0
164 186 0
164 186 0
158 181 0
160 184 0
159 182 0
161 184 0
161 184 0
163 186 0
164 187 0
162 185 0
154 177 0
158 181 0
159 182 0
155 177 0
161 184 0
161 184 0
161 184 0
159 181 0
162 186 0
164 187 0
161 184 0
162 184 0
160 183 0
160 183 0
166 188 0
161 183 0
168 191 0
158 180 0
153 176 0
158 181 0
163 185 0
166 189 0
154 176 0
157 180 0
150 173 0
154 176 0
160 184 0
159 183 0
163 186 0
156 178 0
164 187 0
158 181 0
156 179 0
157 180 0
160 183 0
155 177 0
158 180 0
155 179 0
157 180 0
155 178 0
158 181 0
157 179 0
153 174 0
154 176 0
159 181 0
156 179 0
158 180 0
157 178 0
159 182 0
160 183 0
154 177 0
159 183 0
156 179 0
160 182 0
154 178 0
163 185 0
155 177 0
155 177 0
152 175 0
153 175 0
157 181 0
156 178 0
156 178 0
153 176 0
154 175 0
158 181 0
158 181 0
157 180 0
147 169 0
156 178 0
154 175 0
144 166 0
159 181 0
154 176 0
156 179 0
157 179 0
157 178 0
149 172 0
153 176 0
156 178 0
147 168 0
157 180 0
159 180 0
150 173 0
160 182 0
165 188 0
153 177 0
152 173 0
151 174 0
151 174 0
154 175 0
153 176 0
151 173 0
152 175 0
154 176 0
154 175 0
157 179 0
153 174 0
155 176 0
160 181 0
156 178 0
154 176 0
154 176 0
158 179 0
159 180 0
149 169 0
151 173 0
151 173 0
152 173 0
154 177 0
153 175 0
149 169 0
148 170 0
146 167 0
150 171 0
145 166 0
153 175 0
156 176 0
148 169 0
152 173 0
148 170 0
148 169 0
150 171 0
155 177 0
149 172 0
154 174 0
149 172 0
151 172 0
148 171 0
153 175 0
155 177 0
144 165 0
153 174 0
153 175 0
155 177 0
155 176 0
141 162 0
148 168 0
155 179 0
158 179 0
151 173 0
155 176 0
150 173 0
156 176 0
152 173 0
153 175 0
150 171 0
148 169 0
152 172 0
148 170 0
148 170 0
154 176 0
157 179 0
153 174 0
151 172 0
154 175 0
147 168 0
155 176 0
153 174 0
152 174 0
160 182 0
152 174 0
154 174 0
150 171 0
161 181 0
153 174 0
157 179 0
153 174 0
150 170 0
152 172 0
146 166 0
154 173 0
154 175 0
153 174 0
155 177 0
149 168 0
146 166 0
156 177 0
148 167 0
154 175 0
155 175 0
153 173 0
150 168 0
145 164 0
157 178 0
151 172 0
152 172 0
160 180 0
146 167 0
152 172 0
153 172 0
157 178 0
155 176 0
157 176 0
145 164 0
150 171 0
147 167 0
148 167 0
159 180 0
151 169 0
149 169 0
157 174 0
154 174 0
157 176 0
161 183 0
153 173 0
153 172 0
160 180 0
152 169 0
151 171 0
160 179 0
154 173 0
156 175 0
152 173 0
152 170 0
151 170 0
160 179 0
156 175 0
155 171 0
150 169 0
154 174 0
146 163 0
154 175 0
159 177 0
152 170 0
157 176 0
153 172 0
151 169 0
155 173 0
150 170 0
154 173 0
154 173 0
154 172 0
150 167 0
150 168 0
152 171 0
156 176 0
160 179 0
155 171 0
153 170 0
151 170 0
150 166 0
152 171 0
152 171 0
151 168 0
149 168 0
156 174 0
155 175 0
157 178 0
151 170 0
153 171 0
153 171 0
152 168 0
151 168 0
150 168 0
150 167 0
156 174 0
153 171 0
151 167 0
156 174 0
157 173 0
159 176 0
156 172 0
156 173 0
151 168 0
154 170 0
153 170 0
158 173 0
148 162 0
153 169 0
152 169 0
154 173 0
147 160 0
154 169 0
154 169 0
154 170 0
157 173 0
158 175 0
152 168 0
154 170 0
152 165 0
157 172 0
151 170 0
158 172 0
156 171 0
153 169 0
154 169 0
154 167 0
156 171 0
159 174 0
158 175 0
150 165 0
151 167 0
155 169 0
156 170 0
158 173 0
148 162 0
156 172 0
157 171 0
158 173 0
155 170 0
155 169 0
159 172 0
149 165 0
157 171 0
170 193 0
171 193 0
164 187 0
170 194 0
170 192 0
170 193 0
168 192 0
163 186 0
171 193 0
169 192 0
166 188 0
170 194 0
162 184 0
165 188 0
168 191 0
168 190 0
168 191 0
167 190 0
167 190 0
165 187 0
162 184 0
164 187 0
164 188 0
167 190 0
168 190 0
165 188 0
167 190 0
164 187 0
162 185 0
164 187 0
162 184 0
163 186 0
169 193 0
167 190 0
164 188 0
166 190 0
161 184 0
166 190 0
163 186 0
163 186 0
162 185 0
162 186 0
167 190 0
162 185 0
165 188 0
161 183 0
160 183 0
163 187 0
163 186 0
161 184 0
165 189 0
159 182 0
160 183 0
168 190 0
157 180 0
157 180 0
165 188 0
165 188 0
156 179 0
162 186 0
164 187 0
158 180 0
161 185 0
160 183 0
167 190 0
164 187 0
161 183 0
164 187 0
169 192 0
162 185 0
165 189 0
160 184 0
161 184 0
159 182 0
162 184 0
162 185 0
169 191 0
163 186 0
157 180 0
167 190 0
162 185 0
156 179 0
160 182 0
161 184 0
162 185 0
160 183 0
160 182 0
161 184 0
161 183 0
153 176 0
162 184 0
166 189 0
161 184 0
164 187 0
158 182 0
154 178 0
159 182 0
161 184 0
163 185 0
156 179 0
157 180 0
159 182 0
162 185 0
155 177 0
153 176 0
164 188 0
158 180 0
161 184 0
162 185 0
160 183 0
158 181 0
165 189 0
156 178 0
164 187 0
158 181 0
162 185 0
156 180 0
154 176 0
161 184 0
159 182 0
155 178 0
156 179 0
157 178 0
156 178 0
159 182 0
159 181 0
157 180 0
159 181 0
160 182 0
158 181 0
155 178 0
158 182 0
156 179 0
160 183 0
154 177 0
157 180 0
159 181 0
153 175 0
160 184 0
151 173 0
160 182 0
151 172 0
158 181 0
154 176 0
155 179 0
160 183 0
156 179 0
161 183 0
161 183 0
153 176 0
156 179 0
158 180 0
158 181 0
154 177 0
148 169 0
157 179 0
154 176 0
155 177 0
160 183 0
155 177 0
149 171 0
154 175 0
150 171 0
154 176 0
152 174 0
153 175 0
151 172 0
151 173 0
151 174 0
148 169 0
156 178 0
154 178 0
157 180 0
152 174 0
154 175 0
151 173 0
150 173 0
150 173 0
154 177 0
156 179 0
159 181 0
152 175 0
157 179 0
150 172 0
155 177 0
156 178 0
159 181 0
146 168 0
156 179 0
159 180 0
154 176 0
150 172 0
149 171 0
160 182 0
155 177 0
154 174 0
153 175 0
150 172 0
157 177 0
155 176 0
160 181 0
159 180 0
150 172 0
157 178 0
152 172 0
148 169 0
152 175 0
155 178 0
158 180 0
153 174 0
151 174 0
151 173 0
147 169 0
151 173 0
152 175 0
153 175 0
149 172 0
158 180 0
152 172 0
148 170 0
156 178 0
152 172 0
149 172 0
158 180 0
147 168 0
155 176 0
152 175 0
154 176 0
156 177 0
147 168 0
157 180 0
166 188 0
152 174 0
152 174 0
155 175 0
152 173 0
158 178 0
149 170 0
157 178 0
153 173 0
153 176 0
156 177 0
146 167 0
157 178 0
150 170 0
142 162 0
158 179 0
149 170 0
155 176 0
152 173 0
151 173 0
154 176 0
158 180 0
155 176 0
152 172 0
147 167 0
154 175 0
151 171 0
149 170 0
153 175 0
152 172 0
150 170 0
154 175 0
153 175 0
151 172 0
149 170 0
151 171 0
151 171 0
146 166 0
148 168 0
151 172 0
159 179 0
150 168 0
151 172 0
142 162 0
147 166 0
147 167 0
150 170 0
158 177 0
152 173 0
154 173 0
152 172 0
153 172 0
145 165 0
151 170 0
156 174 0
148 168 0
147 167 0
156 177 0
150 172 0
155 176 0
150 170 0
149 169 0
146 165 0
147 168 0
153 173 0
157 178 0
159 178 0
153 174 0
151 171 0
150 168 0
156 175 0
147 167 0
156 176 0
150 168 0
154 171 0
159 179 0
152 171 0
163 183 0
147 167 0
147 165 0
151 168 0
151 170 0
158 178 0
151 171 0
161 182 0
154 174 0
149 169 0
149 167 0
155 174 0
154 172 0
156 175 0
152 170 0
141 159 0
153 173 0
154 172 0
151 170 0
146 164 0
152 168 0
157 176 0
150 170 0
152 170 0
149 167 0
154 171 0
155 172 0
150 171 0
150 169 0
154 173 0
157 174 0
156 175 0
149 167 0
155 173 0
156 175 0
154 172 0
160 180 0
148 167 0
157 175 0
150 168 0
153 169 0
159 175 0
159 175 0
153 170 0
150 167 0
157 174 0
157 177 0
156 171 0
150 166 0
153 170 0
148 166 0
152 170 0
161 178 0
156 173 0
157 174 0
154 168 0
153 168 0
150 164 0
154 170 0
152 168 0
158 173 0
153 171 0
153 168 0
154 173 0
161 177 0
153 169 0
155 171 0
157 173 0
155 170 0
154 169 0
158 173 0
160 174 0
156 171 0
147 158 0
154 168 0
151 166 0
148 163 0
147 162 0
156 169 0
152 166 0
155 172 0
160 175 0
155 170 0
155 170 0
153 167 0
158 173 0
155 170 0
159 176 0
153 165 0
154 169 0
153 167 0
155 172 0
