P3
400 225
255
217 233 255
217 233 255
217 233 255
217 233 255
217 233 255
217 233 255
217 233 255
217 233 255
217 233 255
217 233 255
217 233 255
217 233 255
217 233 255
217 233 255
217 233 255
217 233 255
217 233 255
217 233 255
217 233 255
217 233 255
217 233 255
217 233 255
217 233 255
217 233 255
217 233 255
217 233 255
217 233 255
217 233 255
217 233 255
217 233 255
217 233 255
217 233 255
217 233 255
217 233 255
217 233 255
217 233 255
217 233 255
217 233 255
217 233 255
217 233 255
217 233 255
217 233 255
217 233 255
217 233 255
217 233 255
217 233 255
217 233 255
217 233 255
217 233 255
217 233 255
217 233 255
217 233 255
217 233 255
217 233 255
217 233 255
217 233 255
217 233 255
217 233 255
217 233 255
217 233 255
217 233 255
217 233 255
216 233 255
216 233 255
216 233 255
216 233 255
216 233 255
216 233 255
216 233 255
216 233 255
216 233 255
216 233 255
216 233 255
216 233 255
216 233 255
216 233 255
216 233 255
216 233 255
216 233 255
216 233 255
216 233 255
216 233 255
216 233 255
216 233 255
216 233 255
216 233 255
216 233 255
216 233 255
216 233 255
216 233 255
216 233 255
216 233 255
216 233 255
216 233 255
216 233 255
216 233 255
216 233 255
216 233 255
216 233 255
216 233 255
216 233 255
216 233 255
216 233 255
216 233 255
216 233 255
216 233 255
216 233 255
216 233 255
216 232 255
216 232 255
216 232 255
216 232 255
216 232 255
216 232 255
216 232 255
216 232 255
216 232 255
216 232 255
216 232 255
216 232 255
216 232 255
216 232 255
216 232 255
216 232 255
216 232 255
216 232 255
216 232 255
216 232 255
216 232 255
215 232 255
215 232 255
215 232 255
215 232 255
215 232 255
215 232 255
215 232 255
215 232 255
215 232 255
215 232 255
215 232 255
215 232 255
215 232 255
215 232 255
215 232 255
215 232 255
215 232 255
215 232 255
215 232 255
215 232 255
215 232 255
215 232 255
215 232 255
215 232 255
215 232 255
215 232 255
215 232 255
215 232 255
215 232 255
215 232 255
215 232 255
215 232 255
215 232 255
215 232 255
215 232 255
215 232 255
215 232 255
215 232 255
215 232 255
215 232 255
215 232 255
215 232 255
215 232 255
215 232 255
215 232 255
215 232 255
215 232 255
215 232 255
215 232 255
215 232 255
215 232 255
215 232 255
215 232 255
215 232 255
215 232 255
215 232 255
215 232 255
215 232 255
215 232 255
215 232 255
215 232 255
215 232 255
215 232 255
215 232 255
215 232 255
215 232 255
215 232 255
215 232 255
215 232 255
215 232 255
215 232 255
215 232 255
215 232 255
215 232 255
215 232 255
215 232 255
215 232 255
215 232 255
215 232 255
215 232 255
215 232 255
215 232 255
215 232 255
215 232 255
215 232 255
215 232 255
215 232 255
215 232 255
215 232 255
215 232 255
215 232 255
215 232 255
215 232 255
215 232 255
215 232 255
215 232 255
215 232 255
215 232 255
215 232 255
215 232 255
215 232 255
215 232 255
215 232 255
215 232 255
215 232 255
215 232 255
215 232 255
215 232 255
215 232 255
215 232 255
215 232 255
215 232 255
215 232 255
215 232 255
215 232 255
215 232 255
215 232 255
215 232 255
215 232 255
215 232 255
215 232 255
215 232 255
215 232 255
215 232 255
215 232 255
215 232 255
215 232 255
215 232 255
215 232 255
215 232 255
215 232 255
215 232 255
215 232 255
215 232 255
215 232 255
215 232 255
215 232 255
215 232 255
215 232 255
215 232 255
215 232 255
215 232 255
215 232 255
216 232 255
216 232 255
216 232 255
216 232 255
216 232 255
216 232 255
216 232 255
216 232 255
216 232 255
216 232 255
216 232 255
216 232 255
216 232 255
216 232 255
216 232 255
216 232 255
216 232 255
216 232 255
216 232 255
216 232 255
216 232 255
216 233 255
216 233 255
216 233 255
216 233 255
216 233 255
216 233 255
216 233 255
216 233 255
216 233 255
216 233 255
216 233 255
216 233 255
216 233 255
216 233 255
216 233 255
216 233 255
216 233 255
216 233 255
216 233 255
216 233 255
216 233 255
216 233 255
216 233 255
216 233 255
216 233 255
216 233 255
216 233 255
216 233 255
216 233 255
216 233 255
216 233 255
216 233 255
216 233 255
216 233 255
216 233 255
216 233 255
216 233 255
216 233 255
216 233 255
216 233 255
216 233 255
216 233 255
216 233 255
216 233 255
216 233 255
217 233 255
217 233 255
217 233 255
217 233 255
217 233 255
217 233 255
217 233 255
217 233 255
217 233 255
217 233 255
217 233 255
217 233 255
217 233 255
217 233 255
217 233 255
217 233 255
217 233 255
217 233 255
217 233 255
217 233 255
217 233 255
217 233 255
217 233 255
217 233 255
217 233 255
217 233 255
217 233 255
217 233 255
217 233 255
217 233 255
217 233 255
217 233 255
217 233 255
217 233 255
217 233 255
217 233 255
217 233 255
217 233 255
217 233 255
217 233 255
217 233 255
217 233 255
217 233 255
217 233 255
217 233 255
217 233 255
217 233 255
217 233 255
217 233 255
217 233 255
217 233 255
217 233 255
217 233 255
217 233 255
217 233 255
217 233 255
217 233 255
217 233 255
217 233 255
217 233 255
217 233 255
217 233 255
217 233 255
217 233 255
217 233 255
217 233 255
217 233 255
217 233 255
217 233 255
217 233 255
217 233 255
217 233 255
217 233 255
217 233 255
217 233 255
217 233 255
217 233 255
217 233 255
217 233 255
217 233 255
217 233 255
217 233 255
217 233 255
217 233 255
217 233 255
217 233 255
217 233 255
217 233 255
217 233 255
217 233 255
217 233 255
217 233 255
217 233 255
217 233 255
217 233 255
217 233 255
217 233 255
217 233 255
217 233 255
217 233 255
217 233 255
217 233 255
217 233 255
217 233 255
217 233 255
217 233 255
217 233 255
217 233 255
217 233 255
217 233 255
217 233 255
217 233 255
217 233 255
217 233 255
217 233 255
217 233 255
217 233 255
217 233 255
217 233 255
217 233 255
217 233 255
217 233 255
217 233 255
217 233 255
217 233 255
217 233 255
217 233 255
217 233 255
217 233 255
217 233 255
217 233 255
217 233 255
217 233 255
216 233 255
216 233 255
216 233 255
216 233 255
216 233 255
216 233 255
216 233 255
216 233 255
216 233 255
216 233 255
216 233 255
216 233 255
216 233 255
216 233 255
216 233 255
216 233 255
216 233 255
216 233 255
216 233 255
216 233 255
216 233 255
216 233 255
216 233 255
216 233 255
216 233 255
216 233 255
216 233 255
216 233 255
216 233 255
216 233 255
216 233 255
216 233 255
216 233 255
216 233 255
216 233 255
216 233 255
216 233 255
216 233 255
216 233 255
216 233 255
216 233 255
216 233 255
216 233 255
216 233 255
216 233 255
216 233 255
216 233 255
216 232 255
216 232 255
216 232 255
216 232 255
216 232 255
216 232 255
216 232 255
216 232 255
216 232 255
216 232 255
216 232 255
216 232 255
216 232 255
216 232 255
216 232 255
216 232 255
216 232 255
216 232 255
216 232 255
216 232 255
216 232 255
216 232 255
216 232 255
215 232 255
215 232 255
215 232 255
215 232 255
215 232 255
215 232 255
215 232 255
215 232 255
215 232 255
215 232 255
215 232 255
215 232 255
215 232 255
215 232 255
215 232 255
215 232 255
215 232 255
215 232 255
215 232 255
215 232 255
215 232 255
215 232 255
215 232 255
215 232 255
215 232 255
215 232 255
215 232 255
215 232 255
215 232 255
215 232 255
215 232 255
215 232 255
215 232 255
215 232 255
215 232 255
215 232 255
215 232 255
215 232 255
215 232 255
215 232 255
215 232 255
215 232 255
215 232 255
215 232 255
215 232 255
215 232 255
215 232 255
215 232 255
215 232 255
215 232 255
215 232 255
215 232 255
215 232 255
215 232 255
215 232 255
215 232 255
215 232 255
215 232 255
215 232 255
215 232 255
215 232 255
215 232 255
215 232 255
215 232 255
215 232 255
215 232 255
215 232 255
215 232 255
215 232 255
215 232 255
215 232 255
215 232 255
215 232 255
215 232 255
215 232 255
215 232 255
215 232 255
215 232 255
215 232 255
215 232 255
215 232 255
215 232 255
215 232 255
215 232 255
215 232 255
215 232 255
215 232 255
215 232 255
215 232 255
215 232 255
215 232 255
215 232 255
215 232 255
215 232 255
215 232 255
215 232 255
215 232 255
215 232 255
215 232 255
215 232 255
215 232 255
215 232 255
215 232 255
215 232 255
215 232 255
215 232 255
215 232 255
215 232 255
215 232 255
215 232 255
215 232 255
215 232 255
215 232 255
215 232 255
215 232 255
215 232 255
215 232 255
216 232 255
216 232 255
216 232 255
216 232 255
216 232 255
216 232 255
216 232 255
216 232 255
216 232 255
216 232 255
216 232 255
216 232 255
216 232 255
216 232 255
216 232 255
216 232 255
216 232 255
216 232 255
216 232 255
216 232 255
216 232 255
216 232 255
216 232 255
216 232 255
216 233 255
216 233 255
216 233 255
216 233 255
216 233 255
216 233 255
216 233 255
216 233 255
216 233 255
216 233 255
216 233 255
216 233 255
216 233 255
216 233 255
216 233 255
216 233 255
216 233 255
216 233 255
216 233 255
216 233 255
216 233 255
216 233 255
216 233 255
216 233 255
216 233 255
216 233 255
216 233 255
216 233 255
216 233 255
216 233 255
216 233 255
216 233 255
216 233 255
216 233 255
216 233 255
216 233 255
216 233 255
216 233 255
216 233 255
216 233 255
216 233 255
216 233 255
216 233 255
216 233 255
216 233 255
216 233 255
216 233 255
217 233 255
217 233 255
217 233 255
217 233 255
217 233 255
217 233 255
217 233 255
217 233 255
217 233 255
217 233 255
217 233 255
217 233 255
217 233 255
217 233 255
217 233 255
217 233 255
217 233 255
217 233 255
217 233 255
217 233 255
217 233 255
217 233 255
217 233 255
217 233 255
217 233 255
217 233 255
217 233 255
217 233 255
217 233 255
217 233 255
217 233 255
217 233 255
217 233 255
217 233 255
217 233 255
217 233 255
217 233 255
217 233 255
217 233 255
217 233 255
217 233 255
217 233 255
217 233 255
217 233 255
217 233 255
217 233 255
217 233 255
217 233 255
217 233 255
217 233 255
217 233 255
217 233 255
217 233 255
217 233 255
217 233 255
217 233 255
217 233 255
217 233 255
217 233 255
217 233 255
217 233 255
217 233 255
217 233 255
217 233 255
217 233 255
217 233 255
217 233 255
217 233 255
217 233 255
217 233 255
217 233 255
218 233 255
218 233 255
218 233 255
218 233 255
218 233 255
217 233 255
217 233 255
217 233 255
217 233 255
217 233 255
217 233 255
217 233 255
217 233 255
217 233 255
217 233 255
217 233 255
217 233 255
217 233 255
217 233 255
217 233 255
217 233 255
217 233 255
217 233 255
217 233 255
217 233 255
217 233 255
217 233 255
217 233 255
217 233 255
217 233 255
217 233 255
217 233 255
217 233 255
217 233 255
217 233 255
217 233 255
217 233 255
217 233 255
217 233 255
217 233 255
217 233 255
217 233 255
217 233 255
217 233 255
217 233 255
217 233 255
217 233 255
217 233 255
217 233 255
217 233 255
217 233 255
217 233 255
217 233 255
217 233 255
217 233 255
217 233 255
217 233 255
217 233 255
217 233 255
217 233 255
217 233 255
217 233 255
217 233 255
217 233 255
217 233 255
217 233 255
217 233 255
217 233 255
217 233 255
217 233 255
217 233 255
217 233 255
217 233 255
217 233 255
217 233 255
217 233 255
217 233 255
217 233 255
217 233 255
217 233 255
217 233 255
216 233 255
216 233 255
216 233 255
216 233 255
216 233 255
216 233 255
216 233 255
216 233 255
216 233 255
216 233 255
216 233 255
216 233 255
216 233 255
216 233 255
216 233 255
216 233 255
216 233 255
216 233 255
216 233 255
216 233 255
216 233 255
216 233 255
216 233 255
216 233 255
216 233 255
216 233 255
216 233 255
216 233 255
216 233 255
216 233 255
216 233 255
216 233 255
216 233 255
216 233 255
216 233 255
216 233 255
216 233 255
216 233 255
216 233 255
216 233 255
216 233 255
216 233 255
216 233 255
216 233 255
216 233 255
216 233 255
216 233 255
216 233 255
216 232 255
216 232 255
216 232 255
216 232 255
216 232 255
216 232 255
216 232 255
216 232 255
216 232 255
216 232 255
216 232 255
216 232 255
216 232 255
216 232 255
216 232 255
216 232 255
216 232 255
216 232 255
216 232 255
216 232 255
216 232 255
216 232 255
216 232 255
216 232 255
216 232 255
216 232 255
216 232 255
215 232 255
215 232 255
215 232 255
215 232 255
215 232 255
215 232 255
215 232 255
215 232 255
215 232 255
215 232 255
215 232 255
215 232 255
215 232 255
215 232 255
215 232 255
215 232 255
215 232 255
215 232 255
215 232 255
215 232 255
215 232 255
215 232 255
215 232 255
215 232 255
215 232 255
215 232 255
215 232 255
215 232 255
215 232 255
215 232 255
215 232 255
215 232 255
215 232 255
215 232 255
215 232 255
215 232 255
215 232 255
215 232 255
215 232 255
215 232 255
215 232 255
215 232 255
215 232 255
215 232 255
215 232 255
215 232 255
215 232 255
215 232 255
215 232 255
215 232 255
215 232 255
215 232 255
215 232 255
215 232 255
215 232 255
215 232 255
215 232 255
215 232 255
215 232 255
215 232 255
215 232 255
215 232 255
215 232 255
215 232 255
215 232 255
215 232 255
215 232 255
215 232 255
215 232 255
215 232 255
215 232 255
215 232 255
215 232 255
215 232 255
215 232 255
215 232 255
215 232 255
215 232 255
215 232 255
215 232 255
215 232 255
215 232 255
215 232 255
215 232 255
215 232 255
215 232 255
215 232 255
216 232 255
216 232 255
216 232 255
216 232 255
216 232 255
216 232 255
216 232 255
216 232 255
216 232 255
216 232 255
216 232 255
216 232 255
216 232 255
216 232 255
216 232 255
216 232 255
216 232 255
216 232 255
216 232 255
216 232 255
216 232 255
216 232 255
216 232 255
216 232 255
216 232 255
216 232 255
216 232 255
216 232 255
216 233 255
216 233 255
216 233 255
216 233 255
216 233 255
216 233 255
216 233 255
216 233 255
216 233 255
216 233 255
216 233 255
216 233 255
216 233 255
216 233 255
216 233 255
216 233 255
216 233 255
216 233 255
216 233 255
216 233 255
216 233 255
216 233 255
216 233 255
216 233 255
216 233 255
216 233 255
216 233 255
216 233 255
216 233 255
216 233 255
216 233 255
216 233 255
216 233 255
216 233 255
216 233 255
216 233 255
216 233 255
216 233 255
216 233 255
216 233 255
216 233 255
216 233 255
216 233 255
216 233 255
216 233 255
216 233 255
216 233 255
216 233 255
217 233 255
217 233 255
217 233 255
217 233 255
217 233 255
217 233 255
217 233 255
217 233 255
217 233 255
217 233 255
217 233 255
217 233 255
217 233 255
217 233 255
217 233 255
217 233 255
217 233 255
217 233 255
217 233 255
217 233 255
217 233 255
217 233 255
217 233 255
217 233 255
217 233 255
217 233 255
217 233 255
217 233 255
217 233 255
217 233 255
217 233 255
217 233 255
217 233 255
217 233 255
217 233 255
217 233 255
217 233 255
217 233 255
217 233 255
217 233 255
217 233 255
217 233 255
217 233 255
217 233 255
217 233 255
217 233 255
217 233 255
217 233 255
217 233 255
217 233 255
217 233 255
217 233 255
217 233 255
217 233 255
217 233 255
217 233 255
217 233 255
217 233 255
217 233 255
217 233 255
217 233 255
217 233 255
217 233 255
217 233 255
217 233 255
217 233 255
217 233 255
217 233 255
217 233 255
217 233 255
217 233 255
217 233 255
217 233 255
217 233 255
217 233 255
217 233 255
218 233 255
218 233 255
218 233 255
218 233 255
218 233 255
218 234 255
218 234 255
218 234 255
218 234 255
218 234 255
218 234 255
218 233 255
218 233 255
218 233 255
218 233 255
218 233 255
218 233 255
218 233 255
218 233 255
218 233 255
218 233 255
217 233 255
217 233 255
217 233 255
217 233 255
217 233 255
217 233 255
217 233 255
217 233 255
217 233 255
217 233 255
217 233 255
217 233 255
217 233 255
217 233 255
217 233 255
217 233 255
217 233 255
217 233 255
217 233 255
217 233 255
217 233 255
217 233 255
217 233 255
217 233 255
217 233 255
217 233 255
217 233 255
217 233 255
217 233 255
217 233 255
217 233 255
217 233 255
217 233 255
217 233 255
217 233 255
217 233 255
217 233 255
217 233 255
217 233 255
217 233 255
217 233 255
217 233 255
217 233 255
217 233 255
217 233 255
217 233 255
217 233 255
217 233 255
217 233 255
217 233 255
217 233 255
217 233 255
217 233 255
217 233 255
217 233 255
217 233 255
217 233 255
217 233 255
217 233 255
217 233 255
217 233 255
217 233 255
217 233 255
217 233 255
217 233 255
217 233 255
217 233 255
217 233 255
217 233 255
217 233 255
217 233 255
217 233 255
217 233 255
217 233 255
217 233 255
216 233 255
216 233 255
216 233 255
216 233 255
216 233 255
216 233 255
216 233 255
216 233 255
216 233 255
216 233 255
216 233 255
216 233 255
216 233 255
216 233 255
216 233 255
216 233 255
216 233 255
216 233 255
216 233 255
216 233 255
216 233 255
216 233 255
216 233 255
216 233 255
216 233 255
216 233 255
216 233 255
216 233 255
216 233 255
216 233 255
216 233 255
216 233 255
216 233 255
216 233 255
216 233 255
216 233 255
216 233 255
216 233 255
216 233 255
216 233 255
216 233 255
216 233 255
216 233 255
216 233 255
216 233 255
216 233 255
216 233 255
216 233 255
216 233 255
216 233 255
216 233 255
216 232 255
216 232 255
216 232 255
216 232 255
216 232 255
216 232 255
216 232 255
216 232 255
216 232 255
216 232 255
216 232 255
216 232 255
216 232 255
216 232 255
216 232 255
216 232 255
216 232 255
216 232 255
216 232 255
216 232 255
216 232 255
216 232 255
216 232 255
216 232 255
216 232 255
216 232 255
216 232 255
216 232 255
216 232 255
216 232 255
216 232 255
216 232 255
216 232 255
216 232 255
216 232 255
216 232 255
216 232 255
216 232 255
216 232 255
215 232 255
215 232 255
215 232 255
215 232 255
215 232 255
215 232 255
215 232 255
215 232 255
215 232 255
215 232 255
215 232 255
215 232 255
215 232 255
215 232 255
215 232 255
215 232 255
215 232 255
215 232 255
215 232 255
215 232 255
215 232 255
215 232 255
215 232 255
215 232 255
215 232 255
215 232 255
215 232 255
215 232 255
215 232 255
215 232 255
215 232 255
215 232 255
215 232 255
215 232 255
215 232 255
215 232 255
215 232 255
215 232 255
215 232 255
216 232 255
216 232 255
216 232 255
216 232 255
216 232 255
216 232 255
216 232 255
216 232 255
216 232 255
216 232 255
216 232 255
216 232 255
216 232 255
216 232 255
216 232 255
216 232 255
216 232 255
216 232 255
216 232 255
216 232 255
216 232 255
216 232 255
216 232 255
216 232 255
216 232 255
216 232 255
216 232 255
216 232 255
216 232 255
216 232 255
216 232 255
216 232 255
216 232 255
216 232 255
216 232 255
216 232 255
216 232 255
216 232 255
216 233 255
216 233 255
216 233 255
216 233 255
216 233 255
216 233 255
216 233 255
216 233 255
216 233 255
216 233 255
216 233 255
216 233 255
216 233 255
216 233 255
216 233 255
216 233 255
216 233 255
216 233 255
216 233 255
216 233 255
216 233 255
216 233 255
216 233 255
216 233 255
216 233 255
216 233 255
216 233 255
216 233 255
216 233 255
216 233 255
216 233 255
216 233 255
216 233 255
216 233 255
216 233 255
216 233 255
216 233 255
216 233 255
216 233 255
216 233 255
216 233 255
216 233 255
216 233 255
216 233 255
216 233 255
216 233 255
216 233 255
216 233 255
216 233 255
216 233 255
216 233 255
217 233 255
217 233 255
217 233 255
217 233 255
217 233 255
217 233 255
217 233 255
217 233 255
217 233 255
217 233 255
217 233 255
217 233 255
217 233 255
217 233 255
217 233 255
217 233 255
217 233 255
217 233 255
217 233 255
217 233 255
217 233 255
217 233 255
217 233 255
217 233 255
217 233 255
217 233 255
217 233 255
217 233 255
217 233 255
217 233 255
217 233 255
217 233 255
217 233 255
217 233 255
217 233 255
217 233 255
217 233 255
217 233 255
217 233 255
217 233 255
217 233 255
217 233 255
217 233 255
217 233 255
217 233 255
217 233 255
217 233 255
217 233 255
217 233 255
217 233 255
217 233 255
217 233 255
217 233 255
217 233 255
217 233 255
217 233 255
217 233 255
217 233 255
217 233 255
217 233 255
217 233 255
217 233 255
217 233 255
217 233 255
217 233 255
217 233 255
217 233 255
217 233 255
217 233 255
217 233 255
217 233 255
217 233 255
217 233 255
217 233 255
217 233 255
217 233 255
218 233 255
218 233 255
218 233 255
218 233 255
218 233 255
218 233 255
218 233 255
218 233 255
218 233 255
218 234 255
218 234 255
218 234 255
218 234 255
218 234 255
218 234 255
218 234 255
218 234 255
218 234 255
218 234 255
218 234 255
218 234 255
218 234 255
218 234 255
218 234 255
218 234 255
218 234 255
218 234 255
218 234 255
218 234 255
218 234 255
218 234 255
218 234 255
218 233 255
218 233 255
218 233 255
218 233 255
218 233 255
218 233 255
218 233 255
218 233 255
218 233 255
217 233 255
217 233 255
217 233 255
217 233 255
217 233 255
217 233 255
217 233 255
217 233 255
217 233 255
217 233 255
217 233 255
217 233 255
217 233 255
217 233 255
217 233 255
217 233 255
217 233 255
217 233 255
217 233 255
217 233 255
217 233 255
217 233 255
217 233 255
217 233 255
217 233 255
217 233 255
217 233 255
217 233 255
217 233 255
217 233 255
217 233 255
217 233 255
217 233 255
217 233 255
217 233 255
217 233 255
217 233 255
217 233 255
217 233 255
217 233 255
217 233 255
217 233 255
217 233 255
217 233 255
217 233 255
217 233 255
217 233 255
217 233 255
217 233 255
217 233 255
217 233 255
217 233 255
217 233 255
217 233 255
217 233 255
217 233 255
217 233 255
217 233 255
217 233 255
217 233 255
217 233 255
217 233 255
217 233 255
217 233 255
217 233 255
217 233 255
217 233 255
217 233 255
217 233 255
217 233 255
217 233 255
217 233 255
217 233 255
217 233 255
217 233 255
217 233 255
216 233 255
216 233 255
216 233 255
216 233 255
216 233 255
216 233 255
216 233 255
216 233 255
216 233 255
216 233 255
216 233 255
216 233 255
216 233 255
216 233 255
216 233 255
216 233 255
216 233 255
216 233 255
216 233 255
216 233 255
216 233 255
216 233 255
216 233 255
216 233 255
216 233 255
216 233 255
216 233 255
216 233 255
216 233 255
216 233 255
216 233 255
216 233 255
216 233 255
216 233 255
216 233 255
216 233 255
216 233 255
216 233 255
216 233 255
216 233 255
216 233 255
216 233 255
216 233 255
216 233 255
216 233 255
216 233 255
216 233 255
216 233 255
216 233 255
216 233 255
216 233 255
216 233 255
216 233 255
216 233 255
216 233 255
216 233 255
216 233 255
216 232 255
216 232 255
216 232 255
216 232 255
216 232 255
216 232 255
216 232 255
216 232 255
216 232 255
216 232 255
216 232 255
216 232 255
216 232 255
216 232 255
216 232 255
216 232 255
216 232 255
216 232 255
216 232 255
216 232 255
216 232 255
216 232 255
216 232 255
216 232 255
216 232 255
216 232 255
216 232 255
216 232 255
216 232 255
216 232 255
216 232 255
216 232 255
216 232 255
216 232 255
216 232 255
216 232 255
216 232 255
216 232 255
216 232 255
216 232 255
216 232 255
216 232 255
216 232 255
216 232 255
216 232 255
216 232 255
216 232 255
216 232 255
216 232 255
216 232 255
216 232 255
216 232 255
216 232 255
216 232 255
216 232 255
216 232 255
216 232 255
216 232 255
216 232 255
216 232 255
216 232 255
216 232 255
216 232 255
216 232 255
216 232 255
216 232 255
216 232 255
216 232 255
216 232 255
216 232 255
216 232 255
216 232 255
216 232 255
216 232 255
216 232 255
216 232 255
216 232 255
216 232 255
216 232 255
216 232 255
216 232 255
216 233 255
216 233 255
216 233 255
216 233 255
216 233 255
216 233 255
216 233 255
216 233 255
216 233 255
216 233 255
216 233 255
216 233 255
216 233 255
216 233 255
216 233 255
216 233 255
216 233 255
216 233 255
216 233 255
216 233 255
216 233 255
216 233 255
216 233 255
216 233 255
216 233 255
216 233 255
216 233 255
216 233 255
216 233 255
216 233 255
216 233 255
216 233 255
216 233 255
216 233 255
216 233 255
216 233 255
216 233 255
216 233 255
216 233 255
216 233 255
216 233 255
216 233 255
216 233 255
216 233 255
216 233 255
216 233 255
216 233 255
216 233 255
216 233 255
216 233 255
216 233 255
216 233 255
216 233 255
216 233 255
216 233 255
216 233 255
216 233 255
216 233 255
216 233 255
217 233 255
217 233 255
217 233 255
217 233 255
217 233 255
217 233 255
217 233 255
217 233 255
217 233 255
217 233 255
217 233 255
217 233 255
217 233 255
217 233 255
217 233 255
217 233 255
217 233 255
217 233 255
217 233 255
217 233 255
217 233 255
217 233 255
217 233 255
217 233 255
217 233 255
217 233 255
217 233 255
217 233 255
217 233 255
217 233 255
217 233 255
217 233 255
217 233 255
217 233 255
217 233 255
217 233 255
217 233 255
217 233 255
217 233 255
217 233 255
217 233 255
217 233 255
217 233 255
217 233 255
217 233 255
217 233 255
217 233 255
217 233 255
217 233 255
217 233 255
217 233 255
217 233 255
217 233 255
217 233 255
217 233 255
217 233 255
217 233 255
217 233 255
217 233 255
217 233 255
217 233 255
217 233 255
217 233 255
217 233 255
217 233 255
217 233 255
217 233 255
217 233 255
217 233 255
217 233 255
217 233 255
217 233 255
217 233 255
217 233 255
217 233 255
217 233 255
218 233 255
218 233 255
218 233 255
218 233 255
218 233 255
218 233 255
218 233 255
218 233 255
218 234 255
218 234 255
218 234 255
218 234 255
218 234 255
218 234 255
218 234 255
218 234 255
218 234 255
218 234 255
218 234 255
218 234 255
218 234 255
218 234 255
218 234 255
218 234 255
218 234 255
218 234 255
218 234 255
218 234 255
218 234 255
218 234 255
218 234 255
218 234 255
218 234 255
218 234 255
218 234 255
218 234 255
218 234 255
218 234 255
218 234 255
218 234 255
218 234 255
218 234 255
218 234 255
218 234 255
218 234 255
218 234 255
218 234 255
218 234 255
218 234 255
218 234 255
218 234 255
218 234 255
218 234 255
218 233 255
218 233 255
218 233 255
218 233 255
218 233 255
218 233 255
218 233 255
218 233 255
217 233 255
217 233 255
217 233 255
217 233 255
217 233 255
217 233 255
217 233 255
217 233 255
217 233 255
217 233 255
217 233 255
217 233 255
217 233 255
217 233 255
217 233 255
217 233 255
217 233 255
217 233 255
217 233 255
217 233 255
217 233 255
217 233 255
217 233 255
217 233 255
217 233 255
217 233 255
217 233 255
217 233 255
217 233 255
217 233 255
217 233 255
217 233 255
217 233 255
217 233 255
217 233 255
217 233 255
217 233 255
217 233 255
217 233 255
217 233 255
217 233 255
217 233 255
217 233 255
217 233 255
217 233 255
217 233 255
217 233 255
217 233 255
217 233 255
217 233 255
217 233 255
217 233 255
217 233 255
217 233 255
217 233 255
217 233 255
217 233 255
217 233 255
217 233 255
217 233 255
217 233 255
217 233 255
217 233 255
217 233 255
217 233 255
217 233 255
217 233 255
217 233 255
217 233 255
217 233 255
217 233 255
217 233 255
217 233 255
217 233 255
217 233 255
217 233 255
217 233 255
216 233 255
216 233 255
216 233 255
216 233 255
216 233 255
216 233 255
216 233 255
216 233 255
216 233 255
216 233 255
216 233 255
216 233 255
216 233 255
216 233 255
216 233 255
216 233 255
216 233 255
216 233 255
216 233 255
216 233 255
216 233 255
216 233 255
216 233 255
216 233 255
216 233 255
216 233 255
216 233 255
216 233 255
216 233 255
216 233 255
216 233 255
216 233 255
216 233 255
216 233 255
216 233 255
216 233 255
216 233 255
216 233 255
216 233 255
216 233 255
216 233 255
216 233 255
216 233 255
216 233 255
216 233 255
216 233 255
216 233 255
216 233 255
216 233 255
216 233 255
216 233 255
216 233 255
216 233 255
216 233 255
216 233 255
216 233 255
216 233 255
216 233 255
216 233 255
216 233 255
216 233 255
216 233 255
216 233 255
216 233 255
216 233 255
216 233 255
216 233 255
216 233 255
216 233 255
216 233 255
216 233 255
216 233 255
216 233 255
216 233 255
216 233 255
216 233 255
216 233 255
216 233 255
216 232 255
216 232 255
216 232 255
216 233 255
216 232 255
216 232 255
216 232 255
216 232 255
216 232 255
216 232 255
216 232 255
216 232 255
216 232 255
216 232 255
216 232 255
216 233 255
216 233 255
216 232 255
216 232 255
216 232 255
216 233 255
216 233 255
216 233 255
216 233 255
216 233 255
216 233 255
216 233 255
216 233 255
216 233 255
216 233 255
216 233 255
216 233 255
216 233 255
216 233 255
216 233 255
216 233 255
216 233 255
216 233 255
216 233 255
216 233 255
216 233 255
216 233 255
216 233 255
216 233 255
216 233 255
216 233 255
216 233 255
216 233 255
216 233 255
216 233 255
216 233 255
216 233 255
216 233 255
216 233 255
216 233 255
216 233 255
216 233 255
216 233 255
216 233 255
216 233 255
216 233 255
216 233 255
216 233 255
216 233 255
216 233 255
216 233 255
216 233 255
216 233 255
216 233 255
216 233 255
216 233 255
216 233 255
216 233 255
216 233 255
216 233 255
216 233 255
216 233 255
216 233 255
216 233 255
216 233 255
216 233 255
216 233 255
216 233 255
216 233 255
216 233 255
216 233 255
216 233 255
216 233 255
216 233 255
216 233 255
216 233 255
216 233 255
216 233 255
216 233 255
216 233 255
216 233 255
217 233 255
217 233 255
217 233 255
217 233 255
217 233 255
217 233 255
217 233 255
217 233 255
217 233 255
217 233 255
217 233 255
217 233 255
217 233 255
217 233 255
217 233 255
217 233 255
217 233 255
217 233 255
217 233 255
217 233 255
217 233 255
217 233 255
217 233 255
217 233 255
217 233 255
217 233 255
217 233 255
217 233 255
217 233 255
217 233 255
217 233 255
217 233 255
217 233 255
217 233 255
217 233 255
217 233 255
217 233 255
217 233 255
217 233 255
217 233 255
217 233 255
217 233 255
217 233 255
217 233 255
217 233 255
217 233 255
217 233 255
217 233 255
217 233 255
217 233 255
217 233 255
217 233 255
217 233 255
217 233 255
217 233 255
217 233 255
217 233 255
217 233 255
217 233 255
217 233 255
217 233 255
217 233 255
217 233 255
217 233 255
217 233 255
217 233 255
217 233 255
217 233 255
217 233 255
217 233 255
217 233 255
217 233 255
217 233 255
217 233 255
217 233 255
217 233 255
218 233 255
218 233 255
218 233 255
218 233 255
218 233 255
218 233 255
218 233 255
218 233 255
218 233 255
218 233 255
218 234 255
218 234 255
218 234 255
218 234 255
218 234 255
218 234 255
218 234 255
218 234 255
218 234 255
218 234 255
218 234 255
218 234 255
218 234 255
218 234 255
218 234 255
218 234 255
218 234 255
218 234 255
218 234 255
218 234 255
218 234 255
218 234 255
218 234 255
218 234 255
218 234 255
218 234 255
218 234 255
218 234 255
218 234 255
218 234 255
218 234 255
218 234 255
218 234 255
218 234 255
218 234 255
218 234 255
218 234 255
218 234 255
218 234 255
218 234 255
218 234 255
218 234 255
218 234 255
218 234 255
218 234 255
218 234 255
218 234 255
218 234 255
218 234 255
218 234 255
218 234 255
218 234 255
218 234 255
218 234 255
218 234 255
218 234 255
218 234 255
218 234 255
218 234 255
218 234 255
218 234 255
218 234 255
218 234 255
218 234 255
218 234 255
218 233 255
218 233 255
218 233 255
218 233 255
218 233 255
218 233 255
218 233 255
218 233 255
218 233 255
217 233 255
217 233 255
217 233 255
217 233 255
217 233 255
217 233 255
217 233 255
217 233 255
217 233 255
217 233 255
217 233 255
217 233 255
217 233 255
217 233 255
217 233 255
217 233 255
217 233 255
217 233 255
217 233 255
217 233 255
217 233 255
217 233 255
217 233 255
217 233 255
217 233 255
217 233 255
217 233 255
217 233 255
217 233 255
217 233 255
217 233 255
217 233 255
217 233 255
217 233 255
217 233 255
217 233 255
217 233 255
217 233 255
217 233 255
217 233 255
217 233 255
217 233 255
217 233 255
217 233 255
217 233 255
217 233 255
217 233 255
217 233 255
217 233 255
217 233 255
217 233 255
217 233 255
217 233 255
217 233 255
217 233 255
217 233 255
217 233 255
217 233 255
217 233 255
217 233 255
217 233 255
217 233 255
217 233 255
217 233 255
217 233 255
217 233 255
217 233 255
217 233 255
217 233 255
217 233 255
217 233 255
217 233 255
217 233 255
217 233 255
217 233 255
217 233 255
217 233 255
217 233 255
217 233 255
216 233 255
216 233 255
216 233 255
216 233 255
216 233 255
216 233 255
216 233 255
216 233 255
216 233 255
216 233 255
216 233 255
216 233 255
216 233 255
216 233 255
216 233 255
216 233 255
216 233 255
216 233 255
216 233 255
216 233 255
216 233 255
216 233 255
216 233 255
216 233 255
216 233 255
216 233 255
216 233 255
216 233 255
216 233 255
216 233 255
216 233 255
216 233 255
216 233 255
216 233 255
216 233 255
216 233 255
216 233 255
216 233 255
216 233 255
216 233 255
216 233 255
216 233 255
216 233 255
216 233 255
216 233 255
216 233 255
216 233 255
216 233 255
216 233 255
216 233 255
216 233 255
216 233 255
216 233 255
216 233 255
216 233 255
216 233 255
216 233 255
216 233 255
216 233 255
216 233 255
216 233 255
216 233 255
216 233 255
216 233 255
216 233 255
216 233 255
216 233 255
216 233 255
216 233 255
216 233 255
216 233 255
216 233 255
216 233 255
216 233 255
216 233 255
216 233 255
216 233 255
216 233 255
216 233 255
216 233 255
216 233 255
216 233 255
216 233 255
216 233 255
216 233 255
216 233 255
216 233 255
216 233 255
216 233 255
216 233 255
216 233 255
216 233 255
216 233 255
216 233 255
216 233 255
216 233 255
216 233 255
216 233 255
216 233 255
216 233 255
216 233 255
216 233 255
216 233 255
216 233 255
216 233 255
216 233 255
216 233 255
216 233 255
216 233 255
216 233 255
216 233 255
216 233 255
216 233 255
216 233 255
216 233 255
216 233 255
216 233 255
216 233 255
216 233 255
216 233 255
216 233 255
216 233 255
216 233 255
216 233 255
216 233 255
216 233 255
216 233 255
216 233 255
216 233 255
216 233 255
216 233 255
216 233 255
216 233 255
216 233 255
216 233 255
216 233 255
216 233 255
216 233 255
216 233 255
216 233 255
216 233 255
216 233 255
216 233 255
216 233 255
216 233 255
216 233 255
216 233 255
216 233 255
216 233 255
217 233 255
217 233 255
217 233 255
217 233 255
217 233 255
217 233 255
217 233 255
217 233 255
217 233 255
217 233 255
217 233 255
217 233 255
217 233 255
217 233 255
217 233 255
217 233 255
217 233 255
217 233 255
217 233 255
217 233 255
217 233 255
217 233 255
217 233 255
217 233 255
217 233 255
217 233 255
217 233 255
217 233 255
217 233 255
217 233 255
217 233 255
217 233 255
217 233 255
217 233 255
217 233 255
217 233 255
217 233 255
217 233 255
217 233 255
217 233 255
217 233 255
217 233 255
217 233 255
217 233 255
217 233 255
217 233 255
217 233 255
217 233 255
217 233 255
217 233 255
217 233 255
217 233 255
217 233 255
217 233 255
217 233 255
217 233 255
217 233 255
217 233 255
217 233 255
217 233 255
217 233 255
217 233 255
217 233 255
217 233 255
217 233 255
217 233 255
217 233 255
217 233 255
217 233 255
217 233 255
217 233 255
217 233 255
217 233 255
217 233 255
217 233 255
217 233 255
217 233 255
217 233 255
218 233 255
218 233 255
218 233 255
218 233 255
218 233 255
218 233 255
218 233 255
218 233 255
218 233 255
218 234 255
218 234 255
218 234 255
218 234 255
218 234 255
218 234 255
218 234 255
218 234 255
218 234 255
218 234 255
218 234 255
218 234 255
218 234 255
218 234 255
218 234 255
218 234 255
218 234 255
218 234 255
218 234 255
218 234 255
218 234 255
218 234 255
218 234 255
218 234 255
218 234 255
218 234 255
218 234 255
218 234 255
218 234 255
218 234 255
218 234 255
218 234 255
218 234 255
218 234 255
218 234 255
218 234 255
218 234 255
218 234 255
218 234 255
218 234 255
218 234 255
218 234 255
218 234 255
218 234 255
218 234 255
218 234 255
218 234 255
218 234 255
218 234 255
218 234 255
218 234 255
218 234 255
218 234 255
218 234 255
218 234 255
218 234 255
218 234 255
218 234 255
218 234 255
218 234 255
218 234 255
218 234 255
218 234 255
218 234 255
218 234 255
218 234 255
218 234 255
218 234 255
218 234 255
218 234 255
218 234 255
218 234 255
218 234 255
218 234 255
218 234 255
218 234 255
218 234 255
218 234 255
218 234 255
218 234 255
218 234 255
218 234 255
218 234 255
218 234 255
218 234 255
218 234 255
218 234 255
218 233 255
218 233 255
218 233 255
218 233 255
218 233 255
218 233 255
218 233 255
218 233 255
218 233 255
217 233 255
217 233 255
217 233 255
217 233 255
217 233 255
217 233 255
217 233 255
217 233 255
217 233 255
217 233 255
217 233 255
217 233 255
217 233 255
217 233 255
217 233 255
217 233 255
217 233 255
217 233 255
217 233 255
217 233 255
217 233 255
217 233 255
217 233 255
217 233 255
217 233 255
217 233 255
217 233 255
217 233 255
217 233 255
217 233 255
217 233 255
217 233 255
217 233 255
217 233 255
217 233 255
217 233 255
217 233 255
217 233 255
217 233 255
217 233 255
217 233 255
217 233 255
217 233 255
217 233 255
217 233 255
217 233 255
217 233 255
217 233 255
217 233 255
217 233 255
217 233 255
217 233 255
217 233 255
217 233 255
217 233 255
217 233 255
217 233 255
217 233 255
217 233 255
217 233 255
217 233 255
217 233 255
217 233 255
217 233 255
217 233 255
217 233 255
217 233 255
217 233 255
217 233 255
217 233 255
217 233 255
217 233 255
217 233 255
217 233 255
217 233 255
217 233 255
217 233 255
217 233 255
217 233 255
217 233 255
217 233 255
217 233 255
217 233 255
216 233 255
216 233 255
216 233 255
216 233 255
216 233 255
216 233 255
216 233 255
216 233 255
216 233 255
216 233 255
216 233 255
216 233 255
216 233 255
216 233 255
216 233 255
216 233 255
216 233 255
216 233 255
216 233 255
216 233 255
216 233 255
216 233 255
216 233 255
216 233 255
216 233 255
216 233 255
216 233 255
216 233 255
216 233 255
216 233 255
216 233 255
216 233 255
216 233 255
216 233 255
216 233 255
216 233 255
216 233 255
216 233 255
216 233 255
216 233 255
216 233 255
216 233 255
216 233 255
216 233 255
216 233 255
216 233 255
216 233 255
216 233 255
216 233 255
216 233 255
216 233 255
216 233 255
216 233 255
216 233 255
216 233 255
216 233 255
216 233 255
216 233 255
216 233 255
216 233 255
216 233 255
216 233 255
216 233 255
216 233 255
216 233 255
216 233 255
216 233 255
216 233 255
216 233 255
216 233 255
216 233 255
216 233 255
216 233 255
216 233 255
216 233 255
216 233 255
216 233 255
216 233 255
216 233 255
216 233 255
216 233 255
216 233 255
216 233 255
216 233 255
216 233 255
216 233 255
216 233 255
216 233 255
216 233 255
216 233 255
216 233 255
216 233 255
216 233 255
216 233 255
216 233 255
216 233 255
216 233 255
216 233 255
216 233 255
216 233 255
216 233 255
216 233 255
216 233 255
216 233 255
216 233 255
216 233 255
216 233 255
216 233 255
216 233 255
216 233 255
216 233 255
216 233 255
216 233 255
216 233 255
216 233 255
216 233 255
216 233 255
216 233 255
217 233 255
217 233 255
217 233 255
217 233 255
217 233 255
217 233 255
217 233 255
217 233 255
217 233 255
217 233 255
217 233 255
217 233 255
217 233 255
217 233 255
217 233 255
217 233 255
217 233 255
217 233 255
217 233 255
217 233 255
217 233 255
217 233 255
217 233 255
217 233 255
217 233 255
217 233 255
217 233 255
217 233 255
217 233 255
217 233 255
217 233 255
217 233 255
217 233 255
217 233 255
217 233 255
217 233 255
217 233 255
217 233 255
217 233 255
217 233 255
217 233 255
217 233 255
217 233 255
217 233 255
217 233 255
217 233 255
217 233 255
217 233 255
217 233 255
217 233 255
217 233 255
217 233 255
217 233 255
217 233 255
217 233 255
217 233 255
217 233 255
217 233 255
217 233 255
217 233 255
217 233 255
217 233 255
217 233 255
217 233 255
217 233 255
217 233 255
217 233 255
217 233 255
217 233 255
217 233 255
217 233 255
217 233 255
217 233 255
217 233 255
217 233 255
217 233 255
217 233 255
217 233 255
217 233 255
217 233 255
217 233 255
217 233 255
218 233 255
218 233 255
218 233 255
218 233 255
218 233 255
218 233 255
218 233 255
218 233 255
218 233 255
218 234 255
218 234 255
218 234 255
218 234 255
218 234 255
218 234 255
218 234 255
218 234 255
218 234 255
218 234 255
218 234 255
218 234 255
218 234 255
218 234 255
218 234 255
218 234 255
218 234 255
218 234 255
218 234 255
218 234 255
218 234 255
218 234 255
218 234 255
218 234 255
218 234 255
218 234 255
218 234 255
218 234 255
218 234 255
218 234 255
218 234 255
218 234 255
218 234 255
218 234 255
218 234 255
218 234 255
218 234 255
218 234 255
218 234 255
218 234 255
218 234 255
218 234 255
218 234 255
218 234 255
218 234 255
218 234 255
218 234 255
218 234 255
218 234 255
218 234 255
218 234 255
218 234 255
218 234 255
218 234 255
218 234 255
218 234 255
218 234 255
218 234 255
218 234 255
218 234 255
218 234 255
218 234 255
218 234 255
218 234 255
218 234 255
218 234 255
218 234 255
218 234 255
218 234 255
218 234 255
218 234 255
218 234 255
218 234 255
218 234 255
218 234 255
218 234 255
218 234 255
218 234 255
218 234 255
218 234 255
218 234 255
218 234 255
218 234 255
218 234 255
218 234 255
218 234 255
218 234 255
218 234 255
218 234 255
218 234 255
218 234 255
218 234 255
218 234 255
218 234 255
218 234 255
218 234 255
218 234 255
218 234 255
218 234 255
218 234 255
218 234 255
218 234 255
218 234 255
218 234 255
218 234 255
218 234 255
218 234 255
218 234 255
218 234 255
218 234 255
218 234 255
218 233 255
218 233 255
218 233 255
218 233 255
218 233 255
218 233 255
218 233 255
218 233 255
218 233 255
217 233 255
217 233 255
217 233 255
217 233 255
217 233 255
217 233 255
217 233 255
217 233 255
217 233 255
217 233 255
217 233 255
217 233 255
217 233 255
217 233 255
217 233 255
217 233 255
217 233 255
217 233 255
217 233 255
217 233 255
217 233 255
217 233 255
217 233 255
217 233 255
217 233 255
217 233 255
217 233 255
217 233 255
217 233 255
217 233 255
217 233 255
217 233 255
217 233 255
217 233 255
217 233 255
217 233 255
217 233 255
217 233 255
217 233 255
217 233 255
217 233 255
217 233 255
217 233 255
217 233 255
217 233 255
217 233 255
217 233 255
217 233 255
217 233 255
217 233 255
217 233 255
217 233 255
217 233 255
217 233 255
217 233 255
217 233 255
217 233 255
217 233 255
217 233 255
217 233 255
217 233 255
217 233 255
217 233 255
217 233 255
217 233 255
217 233 255
217 233 255
217 233 255
217 233 255
217 233 255
217 233 255
217 233 255
217 233 255
217 233 255
217 233 255
217 233 255
217 233 255
217 233 255
217 233 255
217 233 255
217 233 255
217 233 255
217 233 255
217 233 255
217 233 255
217 233 255
217 233 255
217 233 255
216 233 255
216 233 255
216 233 255
216 233 255
216 233 255
216 233 255
216 233 255
216 233 255
216 233 255
216 233 255
216 233 255
216 233 255
216 233 255
216 233 255
216 233 255
216 233 255
216 233 255
216 233 255
216 233 255
216 233 255
216 233 255
216 233 255
216 233 255
216 233 255
216 233 255
216 233 255
216 233 255
216 233 255
216 233 255
216 233 255
216 233 255
216 233 255
216 233 255
216 233 255
216 233 255
216 233 255
216 233 255
216 233 255
216 233 255
216 233 255
216 233 255
216 233 255
216 233 255
216 233 255
216 233 255
216 233 255
216 233 255
216 233 255
216 233 255
216 233 255
216 233 255
216 233 255
216 233 255
216 233 255
216 233 255
216 233 255
216 233 255
216 233 255
216 233 255
216 233 255
216 233 255
216 233 255
216 233 255
216 233 255
216 233 255
216 233 255
216 233 255
216 233 255
216 233 255
216 233 255
216 233 255
216 233 255
216 233 255
216 233 255
216 233 255
216 233 255
216 233 255
216 233 255
216 233 255
216 233 255
216 233 255
216 233 255
216 233 255
216 233 255
217 233 255
217 233 255
217 233 255
217 233 255
217 233 255
217 233 255
217 233 255
217 233 255
217 233 255
217 233 255
217 233 255
217 233 255
217 233 255
217 233 255
217 233 255
217 233 255
217 233 255
217 233 255
217 233 255
217 233 255
217 233 255
217 233 255
217 233 255
217 233 255
217 233 255
217 233 255
217 233 255
217 233 255
217 233 255
217 233 255
217 233 255
217 233 255
217 233 255
217 233 255
217 233 255
217 233 255
217 233 255
217 233 255
217 233 255
217 233 255
217 233 255
217 233 255
217 233 255
217 233 255
217 233 255
217 233 255
217 233 255
217 233 255
217 233 255
217 233 255
217 233 255
217 233 255
217 233 255
217 233 255
217 233 255
217 233 255
217 233 255
217 233 255
217 233 255
217 233 255
217 233 255
217 233 255
217 233 255
217 233 255
217 233 255
217 233 255
217 233 255
217 233 255
217 233 255
217 233 255
217 233 255
217 233 255
217 233 255
217 233 255
217 233 255
217 233 255
217 233 255
217 233 255
217 233 255
217 233 255
217 233 255
217 233 255
217 233 255
217 233 255
217 233 255
217 233 255
217 233 255
217 233 255
218 233 255
218 233 255
218 233 255
218 233 255
218 233 255
218 233 255
218 233 255
218 233 255
218 233 255
218 234 255
218 234 255
218 234 255
218 234 255
218 234 255
218 234 255
218 234 255
218 234 255
218 234 255
218 234 255
218 234 255
218 234 255
218 234 255
218 234 255
218 234 255
218 234 255
218 234 255
218 234 255
218 234 255
218 234 255
218 234 255
218 234 255
218 234 255
218 234 255
218 234 255
218 234 255
218 234 255
218 234 255
218 234 255
218 234 255
218 234 255
218 234 255
218 234 255
218 234 255
218 234 255
218 234 255
218 234 255
218 234 255
218 234 255
218 234 255
218 234 255
218 234 255
218 234 255
218 234 255
218 234 255
218 234 255
218 234 255
218 234 255
218 234 255
218 234 255
218 234 255
218 234 255
218 234 255
218 234 255
218 234 255
218 234 255
218 234 255
218 234 255
218 234 255
218 234 255
218 234 255
218 234 255
218 234 255
218 234 255
218 234 255
218 234 255
218 234 255
218 234 255
218 234 255
218 234 255
218 234 255
218 234 255
218 234 255
218 234 255
218 234 255
218 234 255
218 234 255
218 234 255
218 234 255
218 234 255
218 234 255
218 234 255
218 234 255
218 234 255
218 234 255
218 234 255
218 234 255
218 234 255
218 234 255
218 234 255
218 234 255
218 234 255
218 234 255
218 234 255
218 234 255
218 234 255
218 234 255
218 234 255
218 234 255
218 234 255
218 234 255
218 234 255
218 234 255
218 234 255
218 234 255
218 234 255
218 234 255
218 234 255
218 234 255
218 234 255
218 234 255
218 234 255
218 234 255
218 234 255
218 234 255
218 234 255
218 234 255
218 234 255
218 234 255
218 234 255
218 234 255
218 234 255
218 234 255
218 234 255
218 234 255
218 234 255
218 234 255
218 234 255
218 234 255
218 234 255
218 234 255
218 234 255
218 234 255
218 234 255
218 233 255
218 233 255
218 233 255
218 233 255
218 233 255
218 233 255
218 233 255
218 233 255
218 233 255
218 233 255
217 233 255
217 233 255
217 233 255
217 233 255
217 233 255
217 233 255
217 233 255
217 233 255
217 233 255
217 233 255
217 233 255
217 233 255
217 233 255
217 233 255
217 233 255
217 233 255
217 233 255
217 233 255
217 233 255
217 233 255
217 233 255
217 233 255
217 233 255
217 233 255
217 233 255
217 233 255
217 233 255
217 233 255
217 233 255
217 233 255
217 233 255
217 233 255
217 233 255
217 233 255
217 233 255
217 233 255
217 233 255
217 233 255
217 233 255
217 233 255
217 233 255
217 233 255
217 233 255
217 233 255
217 233 255
217 233 255
217 233 255
217 233 255
217 233 255
217 233 255
217 233 255
217 233 255
217 233 255
217 233 255
217 233 255
217 233 255
217 233 255
217 233 255
217 233 255
217 233 255
217 233 255
217 233 255
217 233 255
217 233 255
217 233 255
217 233 255
217 233 255
217 233 255
217 233 255
217 233 255
217 233 255
217 233 255
217 233 255
217 233 255
217 233 255
217 233 255
217 233 255
217 233 255
217 233 255
217 233 255
217 233 255
217 233 255
217 233 255
217 233 255
217 233 255
217 233 255
217 233 255
217 233 255
217 233 255
217 233 255
217 233 255
217 233 255
217 233 255
217 233 255
217 233 255
217 233 255
217 233 255
217 233 255
217 233 255
217 233 255
217 233 255
217 233 255
217 233 255
217 233 255
217 233 255
217 233 255
217 233 255
217 233 255
217 233 255
217 233 255
217 233 255
217 233 255
217 233 255
217 233 255
217 233 255
217 233 255
217 233 255
217 233 255
217 233 255
217 233 255
217 233 255
217 233 255
217 233 255
217 233 255
217 233 255
217 233 255
217 233 255
217 233 255
217 233 255
217 233 255
217 233 255
217 233 255
217 233 255
217 233 255
217 233 255
217 233 255
217 233 255
217 233 255
217 233 255
217 233 255
217 233 255
217 233 255
217 233 255
217 233 255
217 233 255
217 233 255
217 233 255
217 233 255
217 233 255
217 233 255
217 233 255
217 233 255
217 233 255
217 233 255
217 233 255
217 233 255
217 233 255
217 233 255
217 233 255
217 233 255
217 233 255
217 233 255
217 233 255
217 233 255
217 233 255
217 233 255
217 233 255
217 233 255
217 233 255
217 233 255
217 233 255
217 233 255
217 233 255
217 233 255
217 233 255
217 233 255
217 233 255
217 233 255
217 233 255
217 233 255
217 233 255
217 233 255
217 233 255
217 233 255
217 233 255
217 233 255
217 233 255
217 233 255
217 233 255
217 233 255
217 233 255
217 233 255
217 233 255
217 233 255
217 233 255
217 233 255
217 233 255
217 233 255
217 233 255
217 233 255
217 233 255
217 233 255
217 233 255
217 233 255
217 233 255
217 233 255
217 233 255
217 233 255
217 233 255
217 233 255
217 233 255
217 233 255
217 233 255
217 233 255
217 233 255
217 233 255
217 233 255
217 233 255
217 233 255
217 233 255
217 233 255
217 233 255
217 233 255
217 233 255
217 233 255
217 233 255
217 233 255
217 233 255
217 233 255
217 233 255
217 233 255
217 233 255
217 233 255
217 233 255
217 233 255
218 233 255
218 233 255
218 233 255
218 233 255
218 233 255
218 233 255
218 233 255
218 233 255
218 233 255
218 234 255
218 234 255
218 234 255
218 234 255
218 234 255
218 234 255
218 234 255
218 234 255
218 234 255
218 234 255
218 234 255
218 234 255
218 234 255
218 234 255
218 234 255
218 234 255
218 234 255
218 234 255
218 234 255
218 234 255
218 234 255
218 234 255
218 234 255
218 234 255
218 234 255
218 234 255
218 234 255
218 234 255
218 234 255
218 234 255
218 234 255
218 234 255
218 234 255
218 234 255
218 234 255
218 234 255
218 234 255
218 234 255
218 234 255
218 234 255
218 234 255
218 234 255
218 234 255
218 234 255
218 234 255
218 234 255
218 234 255
218 234 255
218 234 255
218 234 255
218 234 255
218 234 255
218 234 255
218 234 255
218 234 255
218 234 255
218 234 255
218 234 255
218 234 255
218 234 255
218 234 255
218 234 255
218 234 255
218 234 255
218 234 255
218 234 255
218 234 255
218 234 255
218 234 255
218 234 255
218 234 255
218 234 255
218 234 255
218 234 255
218 234 255
218 234 255
218 234 255
218 234 255
218 234 255
218 234 255
218 234 255
218 234 255
218 234 255
218 234 255
218 234 255
218 234 255
218 234 255
218 234 255
218 234 255
218 234 255
218 234 255
218 234 255
218 234 255
218 234 255
218 234 255
218 234 255
218 234 255
218 234 255
218 234 255
218 234 255
218 234 255
218 234 255
218 234 255
218 234 255
218 234 255
218 234 255
218 234 255
218 234 255
218 234 255
218 234 255
218 234 255
218 234 255
218 234 255
218 234 255
218 234 255
218 234 255
218 234 255
218 234 255
218 234 255
218 234 255
218 234 255
218 234 255
218 234 255
218 234 255
218 234 255
218 234 255
218 234 255
218 234 255
218 234 255
218 234 255
218 234 255
218 234 255
218 234 255
218 234 255
218 234 255
218 234 255
218 234 255
218 234 255
218 234 255
218 234 255
218 234 255
218 234 255
218 234 255
218 234 255
218 234 255
218 234 255
218 234 255
218 234 255
218 234 255
218 234 255
218 234 255
218 234 255
218 234 255
218 234 255
218 234 255
218 234 255
218 234 255
218 234 255
218 234 255
218 233 255
218 233 255
218 233 255
218 233 255
218 233 255
218 233 255
218 233 255
218 233 255
218 233 255
218 233 255
217 233 255
217 233 255
217 233 255
217 233 255
217 233 255
217 233 255
217 233 255
217 233 255
217 233 255
217 233 255
217 233 255
217 233 255
217 233 255
217 233 255
217 233 255
217 233 255
217 233 255
217 233 255
217 233 255
217 233 255
217 233 255
217 233 255
217 233 255
217 233 255
217 233 255
217 233 255
217 233 255
217 233 255
217 233 255
217 233 255
217 233 255
217 233 255
217 233 255
217 233 255
217 233 255
217 233 255
217 233 255
217 233 255
217 233 255
217 233 255
217 233 255
217 233 255
217 233 255
217 233 255
217 233 255
217 233 255
217 233 255
217 233 255
217 233 255
217 233 255
217 233 255
217 233 255
217 233 255
217 233 255
217 233 255
217 233 255
217 233 255
217 233 255
217 233 255
217 233 255
217 233 255
217 233 255
217 233 255
217 233 255
217 233 255
217 233 255
217 233 255
217 233 255
217 233 255
217 233 255
217 233 255
217 233 255
217 233 255
217 233 255
217 233 255
217 233 255
217 233 255
217 233 255
217 233 255
217 233 255
217 233 255
217 233 255
217 233 255
217 233 255
217 233 255
217 233 255
217 233 255
217 233 255
217 233 255
217 233 255
217 233 255
217 233 255
217 233 255
217 233 255
217 233 255
217 233 255
217 233 255
217 233 255
217 233 255
217 233 255
217 233 255
217 233 255
217 233 255
217 233 255
217 233 255
217 233 255
217 233 255
217 233 255
217 233 255
217 233 255
217 233 255
217 233 255
217 233 255
217 233 255
217 233 255
217 233 255
217 233 255
217 233 255
217 233 255
217 233 255
217 233 255
217 233 255
217 233 255
217 233 255
217 233 255
217 233 255
217 233 255
217 233 255
217 233 255
217 233 255
217 233 255
217 233 255
217 233 255
217 233 255
217 233 255
217 233 255
217 233 255
217 233 255
217 233 255
217 233 255
217 233 255
217 233 255
217 233 255
217 233 255
217 233 255
217 233 255
217 233 255
217 233 255
217 233 255
217 233 255
217 233 255
217 233 255
217 233 255
217 233 255
217 233 255
217 233 255
217 233 255
217 233 255
217 233 255
217 233 255
217 233 255
217 233 255
217 233 255
217 233 255
217 233 255
217 233 255
217 233 255
217 233 255
217 233 255
217 233 255
217 233 255
217 233 255
217 233 255
217 233 255
217 233 255
217 233 255
217 233 255
217 233 255
217 233 255
217 233 255
217 233 255
217 233 255
217 233 255
217 233 255
217 233 255
217 233 255
217 233 255
217 233 255
217 233 255
217 233 255
217 233 255
217 233 255
217 233 255
217 233 255
217 233 255
217 233 255
217 233 255
217 233 255
217 233 255
217 233 255
217 233 255
217 233 255
217 233 255
217 233 255
217 233 255
217 233 255
217 233 255
217 233 255
217 233 255
218 233 255
218 233 255
218 233 255
218 233 255
218 233 255
218 233 255
218 233 255
218 233 255
218 233 255
218 234 255
218 234 255
218 234 255
218 234 255
218 234 255
218 234 255
218 234 255
218 234 255
218 234 255
218 234 255
218 234 255
218 234 255
218 234 255
218 234 255
218 234 255
218 234 255
218 234 255
218 234 255
218 234 255
218 234 255
218 234 255
218 234 255
218 234 255
218 234 255
218 234 255
218 234 255
218 234 255
218 234 255
218 234 255
218 234 255
218 234 255
218 234 255
218 234 255
218 234 255
218 234 255
218 234 255
218 234 255
218 234 255
218 234 255
218 234 255
218 234 255
218 234 255
218 234 255
218 234 255
218 234 255
218 234 255
218 234 255
218 234 255
218 234 255
218 234 255
218 234 255
218 234 255
218 234 255
218 234 255
218 234 255
218 234 255
218 234 255
218 234 255
218 234 255
218 234 255
218 234 255
218 234 255
218 234 255
218 234 255
218 234 255
218 234 255
218 234 255
218 234 255
218 234 255
218 234 255
218 234 255
218 234 255
218 234 255
218 234 255
218 234 255
218 234 255
218 234 255
218 234 255
218 234 255
218 234 255
218 234 255
218 234 255
218 234 255
218 234 255
218 234 255
218 234 255
219 234 255
219 234 255
219 234 255
219 234 255
219 234 255
219 234 255
219 234 255
219 234 255
219 234 255
219 234 255
219 234 255
219 234 255
218 234 255
218 234 255
218 234 255
218 234 255
218 234 255
218 234 255
218 234 255
218 234 255
218 234 255
218 234 255
218 234 255
218 234 255
218 234 255
218 234 255
218 234 255
218 234 255
218 234 255
218 234 255
218 234 255
218 234 255
218 234 255
218 234 255
218 234 255
218 234 255
218 234 255
218 234 255
218 234 255
218 234 255
218 234 255
218 234 255
218 234 255
218 234 255
218 234 255
218 234 255
218 234 255
218 234 255
218 234 255
218 234 255
218 234 255
218 234 255
218 234 255
218 234 255
218 234 255
218 234 255
218 234 255
218 234 255
218 234 255
218 234 255
218 234 255
218 234 255
218 234 255
218 234 255
218 234 255
218 234 255
218 234 255
218 234 255
218 234 255
218 234 255
218 234 255
218 234 255
218 234 255
218 234 255
218 234 255
218 234 255
218 234 255
218 234 255
218 234 255
218 234 255
218 234 255
218 234 255
218 234 255
218 234 255
218 234 255
218 234 255
218 234 255
218 234 255
218 234 255
218 234 255
218 234 255
218 234 255
218 234 255
218 234 255
218 234 255
218 234 255
218 234 255
218 234 255
218 234 255
218 234 255
218 233 255
218 233 255
218 233 255
218 233 255
218 233 255
218 233 255
218 233 255
218 233 255
218 233 255
217 233 255
217 233 255
217 233 255
217 233 255
217 233 255
217 233 255
217 233 255
217 233 255
217 233 255
217 233 255
217 233 255
217 233 255
217 233 255
217 233 255
217 233 255
217 233 255
217 233 255
217 233 255
217 233 255
217 233 255
217 233 255
217 233 255
217 233 255
217 233 255
217 233 255
217 233 255
217 233 255
217 233 255
217 233 255
217 233 255
217 233 255
217 233 255
217 233 255
217 233 255
217 233 255
217 233 255
217 233 255
217 233 255
217 233 255
217 233 255
217 233 255
217 233 255
217 233 255
217 233 255
217 233 255
217 233 255
217 233 255
217 233 255
217 233 255
217 233 255
217 233 255
217 233 255
217 233 255
217 233 255
217 233 255
217 233 255
217 233 255
217 233 255
217 233 255
217 233 255
217 233 255
217 233 255
217 233 255
217 233 255
217 233 255
217 233 255
217 233 255
217 233 255
217 233 255
217 233 255
217 233 255
217 233 255
217 233 255
217 233 255
217 233 255
217 233 255
217 233 255
217 233 255
217 233 255
217 233 255
217 233 255
217 233 255
217 233 255
217 233 255
217 233 255
217 233 255
217 233 255
217 233 255
217 233 255
217 233 255
217 233 255
217 233 255
217 233 255
217 233 255
217 233 255
217 233 255
217 233 255
217 233 255
217 233 255
217 233 255
217 233 255
217 233 255
217 233 255
217 233 255
217 233 255
217 233 255
217 233 255
217 233 255
217 233 255
217 233 255
217 233 255
217 233 255
217 233 255
217 233 255
217 233 255
217 233 255
217 233 255
217 233 255
217 233 255
217 233 255
217 233 255
217 233 255
217 233 255
217 233 255
217 233 255
217 233 255
217 233 255
217 233 255
217 233 255
217 233 255
217 233 255
217 233 255
217 233 255
217 233 255
217 233 255
217 233 255
217 233 255
217 233 255
217 233 255
217 233 255
217 233 255
217 233 255
217 233 255
217 233 255
217 233 255
217 233 255
217 233 255
217 233 255
217 233 255
217 233 255
217 233 255
217 233 255
217 233 255
217 233 255
217 233 255
217 233 255
217 233 255
217 233 255
217 233 255
217 233 255
217 233 255
217 233 255
217 233 255
217 233 255
217 233 255
217 233 255
217 233 255
217 233 255
217 233 255
217 233 255
217 233 255
217 233 255
217 233 255
217 233 255
217 233 255
217 233 255
217 233 255
217 233 255
217 233 255
217 233 255
217 233 255
217 233 255
218 233 255
218 233 255
218 233 255
218 233 255
218 233 255
218 233 255
218 233 255
218 233 255
218 233 255
218 234 255
218 234 255
218 234 255
218 234 255
218 234 255
218 234 255
218 234 255
218 234 255
218 234 255
218 234 255
218 234 255
218 234 255
218 234 255
218 234 255
218 234 255
218 234 255
218 234 255
218 234 255
218 234 255
218 234 255
218 234 255
218 234 255
218 234 255
218 234 255
218 234 255
218 234 255
218 234 255
218 234 255
218 234 255
218 234 255
218 234 255
218 234 255
218 234 255
218 234 255
218 234 255
218 234 255
218 234 255
218 234 255
218 234 255
218 234 255
218 234 255
218 234 255
218 234 255
218 234 255
218 234 255
218 234 255
218 234 255
218 234 255
218 234 255
218 234 255
218 234 255
218 234 255
218 234 255
218 234 255
218 234 255
218 234 255
218 234 255
218 234 255
218 234 255
218 234 255
218 234 255
218 234 255
218 234 255
218 234 255
218 234 255
218 234 255
218 234 255
218 234 255
218 234 255
218 234 255
218 234 255
218 234 255
218 234 255
218 234 255
218 234 255
218 234 255
218 234 255
218 234 255
218 234 255
218 234 255
218 234 255
218 234 255
218 234 255
218 234 255
218 234 255
218 234 255
218 234 255
218 234 255
219 234 255
219 234 255
219 234 255
219 234 255
219 234 255
219 234 255
219 234 255
219 234 255
219 234 255
219 234 255
219 234 255
219 234 255
219 234 255
219 234 255
219 234 255
219 234 255
219 234 255
219 234 255
219 234 255
219 234 255
219 234 255
219 234 255
219 234 255
219 234 255
219 234 255
219 234 255
219 234 255
219 234 255
219 234 255
219 234 255
219 234 255
219 234 255
219 234 255
219 234 255
219 234 255
219 234 255
219 234 255
219 234 255
219 234 255
218 234 255
218 234 255
218 234 255
218 234 255
218 234 255
218 234 255
218 234 255
218 234 255
218 234 255
218 234 255
218 234 255
218 234 255
218 234 255
218 234 255
218 234 255
218 234 255
218 234 255
218 234 255
218 234 255
218 234 255
218 234 255
218 234 255
218 234 255
218 234 255
218 234 255
218 234 255
218 234 255
218 234 255
218 234 255
218 234 255
218 234 255
218 234 255
218 234 255
218 234 255
218 234 255
218 234 255
218 234 255
218 234 255
218 234 255
218 234 255
218 234 255
218 234 255
218 234 255
218 234 255
218 234 255
218 234 255
218 234 255
218 234 255
218 234 255
218 234 255
218 234 255
218 234 255
218 234 255
218 234 255
218 234 255
218 234 255
218 234 255
218 234 255
218 234 255
218 234 255
218 234 255
218 234 255
218 234 255
218 234 255
218 234 255
218 234 255
218 234 255
218 234 255
218 234 255
218 234 255
218 234 255
218 234 255
218 234 255
218 234 255
218 234 255
218 234 255
218 234 255
218 234 255
218 234 255
218 234 255
218 234 255
218 234 255
218 234 255
218 234 255
218 234 255
218 234 255
218 234 255
218 234 255
218 233 255
218 233 255
218 233 255
218 233 255
218 233 255
218 233 255
218 233 255
218 233 255
218 233 255
218 233 255
217 233 255
217 233 255
217 233 255
217 233 255
217 233 255
217 233 255
217 233 255
217 233 255
217 233 255
217 233 255
217 233 255
217 233 255
217 233 255
217 233 255
217 233 255
217 233 255
217 233 255
217 233 255
217 233 255
217 233 255
217 233 255
217 233 255
217 233 255
217 233 255
217 233 255
217 233 255
217 233 255
217 233 255
217 233 255
217 233 255
217 233 255
217 233 255
217 233 255
217 233 255
217 233 255
217 233 255
217 233 255
217 233 255
217 233 255
217 233 255
217 233 255
217 233 255
217 233 255
217 233 255
217 233 255
217 233 255
217 233 255
217 233 255
217 233 255
217 233 255
217 233 255
217 233 255
217 233 255
217 233 255
217 233 255
217 233 255
217 233 255
217 233 255
217 233 255
217 233 255
217 233 255
217 233 255
217 233 255
217 233 255
217 233 255
217 233 255
217 233 255
217 233 255
217 233 255
217 233 255
217 233 255
217 233 255
217 233 255
217 233 255
217 233 255
217 233 255
217 233 255
217 233 255
217 233 255
217 233 255
217 233 255
217 233 255
217 233 255
217 233 255
217 233 255
217 233 255
217 233 255
217 233 255
217 233 255
217 233 255
217 233 255
217 233 255
217 233 255
217 233 255
217 233 255
217 233 255
217 233 255
217 233 255
217 233 255
217 233 255
217 233 255
217 233 255
217 233 255
217 233 255
217 233 255
217 233 255
217 233 255
217 233 255
217 233 255
217 233 255
217 233 255
217 233 255
217 233 255
217 233 255
217 233 255
217 233 255
217 233 255
217 233 255
217 233 255
217 233 255
217 233 255
217 233 255
217 233 255
217 233 255
217 233 255
217 233 255
217 233 255
217 233 255
217 233 255
217 233 255
217 233 255
217 233 255
217 233 255
217 233 255
217 233 255
217 233 255
217 233 255
217 233 255
217 233 255
217 233 255
217 233 255
217 233 255
217 233 255
217 233 255
217 233 255
217 233 255
217 233 255
217 233 255
217 233 255
217 233 255
218 233 255
218 233 255
218 233 255
218 233 255
218 233 255
218 233 255
218 233 255
218 233 255
218 233 255
218 233 255
218 234 255
218 234 255
218 234 255
218 234 255
218 234 255
218 234 255
218 234 255
218 234 255
218 234 255
218 234 255
218 234 255
218 234 255
218 234 255
218 234 255
218 234 255
218 234 255
218 234 255
218 234 255
218 234 255
218 234 255
218 234 255
218 234 255
218 234 255
218 234 255
218 234 255
218 234 255
218 234 255
218 234 255
218 234 255
218 234 255
218 234 255
218 234 255
218 234 255
218 234 255
218 234 255
218 234 255
218 234 255
218 234 255
218 234 255
218 234 255
218 234 255
218 234 255
218 234 255
218 234 255
218 234 255
218 234 255
218 234 255
218 234 255
218 234 255
218 234 255
218 234 255
218 234 255
218 234 255
218 234 255
218 234 255
218 234 255
218 234 255
218 234 255
218 234 255
218 234 255
218 234 255
218 234 255
218 234 255
218 234 255
218 234 255
218 234 255
218 234 255
218 234 255
218 234 255
218 234 255
218 234 255
218 234 255
218 234 255
218 234 255
218 234 255
218 234 255
218 234 255
218 234 255
218 234 255
218 234 255
218 234 255
218 234 255
218 234 255
218 234 255
218 234 255
218 234 255
218 234 255
218 234 255
218 234 255
219 234 255
219 234 255
219 234 255
219 234 255
219 234 255
219 234 255
219 234 255
219 234 255
219 234 255
219 234 255
219 234 255
219 234 255
219 234 255
219 234 255
219 234 255
219 234 255
219 234 255
219 234 255
219 234 255
219 234 255
219 234 255
219 234 255
219 234 255
219 234 255
219 234 255
219 234 255
219 234 255
219 234 255
219 234 255
219 234 255
219 234 255
219 234 255
219 234 255
219 234 255
219 234 255
219 234 255
219 234 255
219 234 255
219 234 255
219 234 255
219 234 255
219 234 255
219 234 255
219 234 255
219 234 255
219 234 255
219 234 255
219 234 255
219 234 255
219 234 255
219 234 255
219 234 255
219 234 255
219 234 255
219 234 255
219 234 255
219 234 255
219 234 255
219 234 255
219 234 255
219 234 255
219 234 255
219 234 255
219 234 255
219 234 255
219 234 255
219 234 255
218 234 255
218 234 255
218 234 255
218 234 255
218 234 255
218 234 255
218 234 255
218 234 255
218 234 255
218 234 255
218 234 255
218 234 255
218 234 255
218 234 255
218 234 255
218 234 255
218 234 255
218 234 255
218 234 255
218 234 255
218 234 255
218 234 255
218 234 255
218 234 255
218 234 255
218 234 255
218 234 255
218 234 255
218 234 255
218 234 255
218 234 255
218 234 255
218 234 255
218 234 255
218 234 255
218 234 255
218 234 255
218 234 255
218 234 255
218 234 255
218 234 255
218 234 255
218 234 255
218 234 255
218 234 255
218 234 255
218 234 255
218 234 255
218 234 255
218 234 255
218 234 255
218 234 255
218 234 255
218 234 255
218 234 255
218 234 255
218 234 255
218 234 255
218 234 255
218 234 255
218 234 255
218 234 255
218 234 255
218 234 255
218 234 255
218 234 255
218 234 255
218 234 255
218 234 255
218 234 255
218 234 255
218 234 255
218 234 255
218 234 255
218 234 255
218 234 255
218 234 255
218 234 255
218 234 255
218 234 255
218 234 255
218 234 255
218 234 255
218 234 255
218 234 255
218 234 255
218 234 255
218 234 255
218 234 255
218 234 255
218 234 255
218 233 255
218 233 255
218 233 255
218 233 255
218 233 255
218 233 255
218 233 255
218 233 255
218 233 255
218 233 255
218 233 255
218 233 255
217 233 255
217 233 255
217 233 255
217 233 255
217 233 255
217 233 255
217 233 255
217 233 255
217 233 255
217 233 255
217 233 255
217 233 255
217 233 255
217 233 255
217 233 255
217 233 255
217 233 255
217 233 255
217 233 255
217 233 255
217 233 255
217 233 255
217 233 255
217 233 255
217 233 255
217 233 255
217 233 255
217 233 255
217 233 255
217 233 255
217 233 255
217 233 255
217 233 255
217 233 255
217 233 255
217 233 255
217 233 255
217 233 255
217 233 255
217 233 255
217 233 255
217 233 255
217 233 255
217 233 255
217 233 255
217 233 255
217 233 255
217 233 255
217 233 255
217 233 255
217 233 255
217 233 255
217 233 255
217 233 255
217 233 255
217 233 255
217 233 255
217 233 255
217 233 255
217 233 255
217 233 255
217 233 255
217 233 255
217 233 255
217 233 255
217 233 255
217 233 255
217 233 255
217 233 255
217 233 255
217 233 255
217 233 255
217 233 255
217 233 255
217 233 255
217 233 255
217 233 255
217 233 255
217 233 255
217 233 255
217 233 255
217 233 255
217 233 255
217 233 255
217 233 255
217 233 255
217 233 255
217 233 255
217 233 255
217 233 255
217 233 255
217 233 255
217 233 255
217 233 255
217 233 255
217 233 255
217 233 255
217 233 255
217 233 255
217 233 255
217 233 255
217 233 255
217 233 255
217 233 255
217 233 255
217 233 255
217 233 255
217 233 255
217 233 255
217 233 255
217 233 255
217 233 255
218 233 255
218 233 255
218 233 255
218 233 255
218 233 255
218 233 255
218 233 255
218 233 255
218 233 255
218 233 255
218 233 255
218 233 255
218 234 255
218 234 255
218 234 255
218 234 255
218 234 255
218 234 255
218 234 255
218 234 255
218 234 255
218 234 255
218 234 255
218 234 255
218 234 255
218 234 255
218 234 255
218 234 255
218 234 255
218 234 255
218 234 255
218 234 255
218 234 255
218 234 255
218 234 255
218 234 255
218 234 255
218 234 255
218 234 255
218 234 255
218 234 255
218 234 255
218 234 255
218 234 255
218 234 255
218 234 255
218 234 255
218 234 255
218 234 255
218 234 255
218 234 255
218 234 255
218 234 255
218 234 255
218 234 255
218 234 255
218 234 255
218 234 255
218 234 255
218 234 255
218 234 255
218 234 255
218 234 255
218 234 255
218 234 255
218 234 255
218 234 255
218 234 255
218 234 255
218 234 255
218 234 255
218 234 255
218 234 255
218 234 255
218 234 255
218 234 255
218 234 255
218 234 255
218 234 255
218 234 255
218 234 255
218 234 255
218 234 255
218 234 255
218 234 255
218 234 255
218 234 255
218 234 255
218 234 255
218 234 255
218 234 255
218 234 255
218 234 255
218 234 255
218 234 255
218 234 255
218 234 255
218 234 255
218 234 255
218 234 255
218 234 255
218 234 255
218 234 255
219 234 255
219 234 255
219 234 255
219 234 255
219 234 255
219 234 255
219 234 255
219 234 255
219 234 255
219 234 255
219 234 255
219 234 255
219 234 255
219 234 255
219 234 255
219 234 255
219 234 255
219 234 255
219 234 255
219 234 255
219 234 255
219 234 255
219 234 255
219 234 255
219 234 255
219 234 255
219 234 255
219 234 255
219 234 255
219 234 255
219 234 255
219 234 255
219 234 255
219 234 255
219 234 255
219 234 255
219 234 255
219 234 255
219 234 255
219 234 255
219 234 255
219 234 255
219 234 255
219 234 255
219 234 255
219 234 255
219 234 255
219 234 255
219 234 255
219 234 255
219 234 255
219 234 255
219 234 255
219 234 255
219 234 255
219 234 255
219 234 255
219 234 255
219 234 255
219 234 255
219 234 255
219 234 255
219 234 255
219 234 255
219 234 255
219 234 255
219 234 255
219 234 255
219 234 255
219 234 255
219 234 255
219 234 255
219 234 255
219 234 255
219 234 255
219 234 255
219 234 255
219 234 255
219 234 255
219 234 255
219 234 255
219 234 255
219 234 255
219 234 255
219 234 255
219 234 255
219 234 255
219 234 255
219 234 255
219 234 255
219 234 255
219 234 255
219 234 255
219 234 255
219 234 255
219 234 255
219 234 255
218 234 255
218 234 255
218 234 255
218 234 255
218 234 255
218 234 255
218 234 255
218 234 255
218 234 255
218 234 255
218 234 255
218 234 255
218 234 255
218 234 255
218 234 255
218 234 255
218 234 255
218 234 255
218 234 255
218 234 255
218 234 255
218 234 255
218 234 255
218 234 255
218 234 255
218 234 255
218 234 255
218 234 255
218 234 255
218 234 255
218 234 255
218 234 255
218 234 255
218 234 255
218 234 255
218 234 255
218 234 255
218 234 255
218 234 255
218 234 255
218 234 255
218 234 255
218 234 255
218 234 255
218 234 255
218 234 255
218 234 255
218 234 255
218 234 255
218 234 255
218 234 255
218 234 255
218 234 255
218 234 255
218 234 255
218 234 255
218 234 255
218 234 255
218 234 255
218 234 255
218 234 255
218 234 255
218 234 255
218 234 255
218 234 255
218 234 255
218 234 255
218 234 255
218 234 255
218 234 255
218 234 255
218 234 255
218 234 255
218 234 255
218 234 255
218 234 255
218 234 255
218 234 255
218 234 255
218 234 255
218 234 255
218 234 255
218 234 255
218 234 255
218 234 255
218 234 255
218 234 255
218 234 255
218 234 255
218 234 255
218 234 255
218 234 255
218 234 255
218 234 255
218 234 255
218 234 255
218 234 255
218 234 255
218 233 255
218 233 255
218 233 255
218 233 255
218 233 255
218 233 255
218 233 255
218 233 255
218 233 255
218 233 255
218 233 255
218 233 255
218 233 255
218 233 255
218 233 255
218 233 255
218 233 255
218 233 255
218 233 255
217 233 255
217 233 255
217 233 255
217 233 255
217 233 255
217 233 255
217 233 255
217 233 255
217 233 255
217 233 255
217 233 255
217 233 255
217 233 255
217 233 255
217 233 255
217 233 255
217 233 255
217 233 255
217 233 255
217 233 255
217 233 255
217 233 255
217 233 255
217 233 255
217 233 255
217 233 255
217 233 255
217 233 255
217 233 255
217 233 255
217 233 255
217 233 255
217 233 255
217 233 255
217 233 255
217 233 255
217 233 255
217 233 255
217 233 255
217 233 255
217 233 255
217 233 255
217 233 255
217 233 255
217 233 255
217 233 255
217 233 255
217 233 255
217 233 255
217 233 255
217 233 255
217 233 255
217 233 255
217 233 255
218 233 255
218 233 255
218 233 255
218 233 255
218 233 255
218 233 255
218 233 255
218 233 255
218 233 255
218 233 255
218 233 255
218 233 255
218 233 255
218 233 255
218 233 255
218 233 255
218 233 255
218 233 255
218 234 255
218 233 255
218 234 255
218 234 255
218 234 255
218 234 255
218 234 255
218 234 255
218 234 255
218 234 255
218 234 255
218 234 255
218 234 255
218 234 255
218 234 255
218 234 255
218 234 255
218 234 255
218 234 255
218 234 255
218 234 255
218 234 255
218 234 255
218 234 255
218 234 255
218 234 255
218 234 255
218 234 255
218 234 255
218 234 255
218 234 255
218 234 255
218 234 255
218 234 255
218 234 255
218 234 255
218 234 255
218 234 255
218 234 255
218 234 255
218 234 255
218 234 255
218 234 255
218 234 255
218 234 255
218 234 255
218 234 255
218 234 255
218 234 255
218 234 255
218 234 255
218 234 255
218 234 255
218 234 255
218 234 255
218 234 255
218 234 255
218 234 255
218 234 255
218 234 255
218 234 255
218 234 255
218 234 255
218 234 255
218 234 255
218 234 255
218 234 255
218 234 255
218 234 255
218 234 255
218 234 255
218 234 255
218 234 255
218 234 255
218 234 255
218 234 255
218 234 255
218 234 255
218 234 255
218 234 255
218 234 255
218 234 255
218 234 255
218 234 255
218 234 255
218 234 255
218 234 255
218 234 255
218 234 255
218 234 255
218 234 255
218 234 255
218 234 255
218 234 255
218 234 255
218 234 255
218 234 255
218 234 255
219 234 255
219 234 255
219 234 255
219 234 255
219 234 255
219 234 255
219 234 255
219 234 255
219 234 255
219 234 255
219 234 255
219 234 255
219 234 255
219 234 255
219 234 255
219 234 255
219 234 255
219 234 255
219 234 255
219 234 255
219 234 255
219 234 255
219 234 255
219 234 255
219 234 255
219 234 255
219 234 255
219 234 255
219 234 255
219 234 255
219 234 255
219 234 255
219 234 255
219 234 255
219 234 255
219 234 255
219 234 255
219 234 255
219 234 255
219 234 255
219 234 255
219 234 255
219 234 255
219 234 255
219 234 255
219 234 255
219 234 255
219 234 255
219 234 255
219 234 255
219 234 255
219 234 255
219 234 255
219 234 255
219 234 255
219 234 255
219 234 255
219 234 255
219 234 255
219 234 255
219 234 255
219 234 255
219 234 255
219 234 255
219 234 255
219 234 255
219 234 255
219 234 255
219 234 255
219 234 255
219 234 255
219 234 255
219 234 255
219 234 255
219 234 255
219 234 255
219 234 255
219 234 255
219 234 255
219 234 255
219 234 255
219 234 255
219 234 255
219 234 255
219 234 255
219 234 255
219 234 255
219 234 255
219 234 255
219 234 255
219 234 255
219 234 255
219 234 255
219 234 255
219 234 255
219 234 255
219 234 255
219 234 255
219 234 255
219 234 255
219 234 255
219 234 255
219 234 255
219 234 255
219 234 255
219 234 255
219 234 255
219 234 255
219 234 255
219 234 255
219 234 255
219 234 255
219 234 255
219 234 255
219 234 255
219 234 255
219 234 255
219 234 255
219 234 255
219 234 255
219 234 255
219 234 255
219 234 255
219 234 255
219 234 255
219 234 255
219 234 255
219 234 255
219 234 255
218 234 255
218 234 255
218 234 255
218 234 255
218 234 255
218 234 255
218 234 255
218 234 255
218 234 255
218 234 255
218 234 255
218 234 255
218 234 255
218 234 255
218 234 255
218 234 255
218 234 255
218 234 255
218 234 255
218 234 255
218 234 255
218 234 255
218 234 255
218 234 255
218 234 255
218 234 255
218 234 255
218 234 255
218 234 255
218 234 255
218 234 255
218 234 255
218 234 255
218 234 255
218 234 255
218 234 255
218 234 255
218 234 255
218 234 255
218 234 255
218 234 255
218 234 255
218 234 255
218 234 255
218 234 255
218 234 255
218 234 255
218 234 255
218 234 255
218 234 255
218 234 255
218 234 255
218 234 255
218 234 255
218 234 255
218 234 255
218 234 255
218 234 255
218 234 255
218 234 255
218 234 255
218 234 255
218 234 255
218 234 255
218 234 255
218 234 255
218 234 255
218 234 255
218 234 255
218 234 255
218 234 255
218 234 255
218 234 255
218 234 255
218 234 255
218 234 255
218 234 255
218 234 255
218 234 255
218 234 255
218 234 255
218 234 255
218 234 255
218 234 255
218 234 255
218 234 255
218 234 255
218 234 255
218 234 255
218 234 255
218 234 255
218 234 255
218 234 255
218 234 255
218 234 255
218 234 255
218 234 255
218 234 255
218 234 255
218 234 255
218 234 255
218 234 255
218 234 255
218 234 255
218 234 255
218 234 255
218 234 255
218 234 255
218 234 255
218 234 255
218 234 255
218 234 255
218 234 255
218 234 255
218 234 255
218 234 255
218 234 255
218 234 255
218 234 255
218 234 255
218 234 255
218 234 255
218 234 255
218 234 255
218 234 255
218 234 255
218 234 255
218 234 255
218 234 255
218 234 255
218 234 255
218 234 255
218 234 255
218 234 255
218 234 255
218 234 255
218 234 255
218 234 255
218 234 255
218 234 255
218 234 255
218 234 255
218 234 255
218 234 255
218 234 255
218 234 255
218 234 255
218 234 255
218 234 255
218 234 255
218 234 255
218 234 255
218 234 255
218 234 255
218 234 255
218 234 255
218 234 255
218 234 255
218 234 255
218 234 255
218 234 255
218 234 255
218 234 255
218 234 255
218 234 255
218 234 255
218 234 255
218 234 255
218 234 255
218 234 255
218 234 255
218 234 255
218 234 255
218 234 255
218 234 255
218 234 255
218 234 255
218 234 255
218 234 255
218 234 255
218 234 255
218 234 255
218 234 255
218 234 255
218 234 255
218 234 255
218 234 255
218 234 255
218 234 255
218 234 255
218 234 255
218 234 255
218 234 255
218 234 255
218 234 255
218 234 255
218 234 255
218 234 255
218 234 255
218 234 255
218 234 255
218 234 255
218 234 255
218 234 255
218 234 255
218 234 255
218 234 255
218 234 255
218 234 255
218 234 255
218 234 255
218 234 255
218 234 255
218 234 255
218 234 255
218 234 255
218 234 255
218 234 255
218 234 255
218 234 255
218 234 255
218 234 255
218 234 255
218 234 255
218 234 255
218 234 255
218 234 255
218 234 255
218 234 255
218 234 255
218 234 255
218 234 255
218 234 255
218 234 255
218 234 255
218 234 255
218 234 255
218 234 255
218 234 255
218 234 255
218 234 255
218 234 255
218 234 255
218 234 255
218 234 255
218 234 255
218 234 255
218 234 255
218 234 255
218 234 255
218 234 255
218 234 255
218 234 255
218 234 255
218 234 255
218 234 255
219 234 255
219 234 255
219 234 255
219 234 255
219 234 255
219 234 255
219 234 255
219 234 255
219 234 255
219 234 255
219 234 255
219 234 255
219 234 255
219 234 255
219 234 255
219 234 255
219 234 255
219 234 255
219 234 255
219 234 255
219 234 255
219 234 255
219 234 255
219 234 255
219 234 255
219 234 255
219 234 255
219 234 255
219 234 255
219 234 255
219 234 255
219 234 255
219 234 255
219 234 255
219 234 255
219 234 255
219 234 255
219 234 255
219 234 255
219 234 255
219 234 255
219 234 255
219 234 255
219 234 255
219 234 255
219 234 255
219 234 255
219 234 255
219 234 255
219 234 255
219 234 255
219 234 255
219 234 255
219 234 255
219 234 255
219 234 255
219 234 255
219 234 255
219 234 255
219 234 255
219 234 255
219 234 255
219 234 255
219 234 255
219 234 255
219 234 255
219 234 255
219 234 255
219 234 255
219 234 255
219 234 255
219 234 255
219 234 255
219 234 255
219 234 255
219 234 255
219 234 255
219 234 255
219 234 255
219 234 255
219 234 255
219 234 255
219 234 255
219 234 255
219 234 255
219 234 255
219 234 255
219 234 255
219 234 255
219 234 255
219 234 255
219 234 255
219 234 255
219 234 255
219 234 255
219 234 255
219 234 255
219 234 255
219 234 255
219 234 255
219 234 255
219 234 255
219 234 255
219 234 255
219 234 255
219 234 255
219 234 255
219 234 255
219 234 255
219 234 255
219 234 255
219 234 255
219 234 255
219 234 255
219 234 255
219 234 255
219 234 255
219 234 255
219 234 255
219 234 255
219 234 255
219 234 255
219 234 255
219 234 255
219 234 255
219 234 255
219 234 255
219 234 255
219 234 255
219 234 255
219 234 255
219 234 255
219 234 255
219 234 255
219 234 255
219 234 255
219 234 255
219 234 255
219 234 255
219 234 255
219 234 255
219 234 255
219 234 255
219 234 255
219 234 255
219 234 255
219 234 255
219 234 255
219 234 255
219 234 255
219 234 255
219 234 255
219 234 255
219 234 255
219 234 255
219 234 255
219 234 255
219 234 255
219 234 255
219 234 255
219 234 255
218 234 255
218 234 255
218 234 255
218 234 255
218 234 255
218 234 255
218 234 255
218 234 255
218 234 255
218 234 255
218 234 255
218 234 255
218 234 255
218 234 255
218 234 255
218 234 255
218 234 255
218 234 255
218 234 255
218 234 255
218 234 255
218 234 255
218 234 255
218 234 255
218 234 255
218 234 255
218 234 255
218 234 255
218 234 255
218 234 255
218 234 255
218 234 255
218 234 255
218 234 255
218 234 255
218 234 255
218 234 255
218 234 255
218 234 255
218 234 255
218 234 255
218 234 255
218 234 255
218 234 255
218 234 255
218 234 255
218 234 255
218 234 255
218 234 255
218 234 255
218 234 255
218 234 255
218 234 255
218 234 255
218 234 255
218 234 255
218 234 255
218 234 255
218 234 255
218 234 255
218 234 255
218 234 255
218 234 255
218 234 255
218 234 255
218 234 255
218 234 255
218 234 255
218 234 255
218 234 255
218 234 255
218 234 255
218 234 255
218 234 255
218 234 255
218 234 255
218 234 255
218 234 255
218 234 255
218 234 255
218 234 255
218 234 255
218 234 255
218 234 255
218 234 255
218 234 255
218 234 255
218 234 255
218 234 255
218 234 255
218 234 255
218 234 255
218 234 255
218 234 255
218 234 255
218 234 255
218 234 255
218 234 255
218 234 255
218 234 255
218 234 255
218 234 255
218 234 255
218 234 255
218 234 255
218 234 255
218 234 255
218 234 255
218 234 255
218 234 255
218 234 255
218 234 255
218 234 255
218 234 255
218 234 255
218 234 255
218 234 255
218 234 255
218 234 255
218 234 255
218 234 255
218 234 255
218 234 255
218 234 255
218 234 255
218 234 255
218 234 255
218 234 255
218 234 255
218 234 255
218 234 255
218 234 255
218 234 255
218 234 255
218 234 255
218 234 255
218 234 255
218 234 255
218 234 255
218 234 255
218 234 255
218 234 255
218 234 255
218 234 255
218 234 255
218 234 255
218 234 255
218 234 255
218 234 255
218 234 255
218 234 255
218 234 255
218 234 255
218 234 255
218 234 255
218 234 255
218 234 255
218 234 255
218 234 255
218 234 255
218 234 255
218 234 255
218 234 255
218 234 255
218 234 255
218 234 255
218 234 255
218 234 255
218 234 255
218 234 255
218 234 255
218 234 255
218 234 255
218 234 255
218 234 255
218 234 255
218 234 255
218 234 255
218 234 255
218 234 255
218 234 255
218 234 255
218 234 255
218 234 255
218 234 255
218 234 255
218 234 255
218 234 255
218 234 255
218 234 255
218 234 255
218 234 255
218 234 255
218 234 255
218 234 255
218 234 255
218 234 255
218 234 255
218 234 255
218 234 255
218 234 255
218 234 255
218 234 255
218 234 255
218 234 255
218 234 255
218 234 255
218 234 255
218 234 255
218 234 255
218 234 255
218 234 255
218 234 255
218 234 255
218 234 255
218 234 255
218 234 255
218 234 255
218 234 255
218 234 255
218 234 255
218 234 255
219 234 255
219 234 255
219 234 255
219 234 255
219 234 255
219 234 255
219 234 255
219 234 255
219 234 255
219 234 255
219 234 255
219 234 255
219 234 255
219 234 255
219 234 255
219 234 255
219 234 255
219 234 255
219 234 255
219 234 255
219 234 255
219 234 255
219 234 255
219 234 255
219 234 255
219 234 255
219 234 255
219 234 255
219 234 255
219 234 255
219 234 255
219 234 255
219 234 255
219 234 255
219 234 255
219 234 255
219 234 255
219 234 255
219 234 255
219 234 255
219 234 255
219 234 255
219 234 255
219 234 255
219 234 255
219 234 255
219 234 255
219 234 255
219 234 255
219 234 255
219 234 255
219 234 255
219 234 255
219 234 255
219 234 255
219 234 255
219 234 255
219 234 255
219 234 255
219 234 255
219 234 255
219 234 255
219 234 255
219 234 255
219 234 255
219 234 255
219 234 255
219 234 255
219 234 255
219 234 255
219 234 255
219 234 255
219 234 255
219 234 255
219 234 255
219 234 255
219 234 255
219 234 255
219 234 255
219 234 255
219 234 255
219 234 255
219 234 255
219 234 255
219 234 255
219 234 255
219 234 255
219 234 255
219 234 255
219 234 255
219 234 255
219 234 255
219 234 255
219 234 255
219 234 255
219 234 255
219 234 255
219 234 255
219 234 255
219 234 255
219 234 255
219 234 255
219 234 255
219 234 255
219 234 255
219 234 255
219 234 255
219 234 255
219 234 255
219 234 255
219 234 255
219 234 255
219 234 255
219 234 255
219 234 255
219 234 255
219 234 255
219 234 255
219 234 255
219 234 255
219 234 255
219 234 255
219 234 255
219 234 255
219 234 255
219 234 255
219 234 255
219 234 255
219 234 255
219 234 255
219 234 255
219 234 255
219 234 255
219 234 255
219 234 255
219 234 255
219 234 255
219 234 255
219 234 255
219 234 255
219 234 255
219 234 255
219 234 255
219 234 255
219 234 255
219 234 255
219 234 255
219 234 255
219 234 255
219 234 255
219 234 255
219 234 255
219 234 255
219 234 255
219 234 255
219 234 255
219 234 255
219 234 255
219 234 255
219 234 255
219 234 255
219 234 255
219 234 255
219 234 255
219 234 255
219 234 255
219 234 255
219 234 255
219 234 255
219 234 255
219 234 255
219 234 255
219 234 255
219 234 255
219 234 255
219 234 255
219 234 255
219 234 255
219 234 255
219 234 255
219 234 255
219 234 255
219 234 255
219 234 255
219 234 255
219 234 255
219 234 255
219 234 255
219 234 255
219 234 255
219 234 255
219 234 255
219 234 255
219 234 255
219 234 255
219 234 255
219 234 255
219 234 255
218 234 255
218 234 255
218 234 255
218 234 255
218 234 255
218 234 255
218 234 255
218 234 255
218 234 255
218 234 255
218 234 255
218 234 255
218 234 255
218 234 255
218 234 255
218 234 255
218 234 255
218 234 255
218 234 255
218 234 255
218 234 255
218 234 255
218 234 255
218 234 255
218 234 255
218 234 255
218 234 255
218 234 255
218 234 255
218 234 255
218 234 255
218 234 255
218 234 255
218 234 255
218 234 255
218 234 255
218 234 255
218 234 255
218 234 255
218 234 255
218 234 255
218 234 255
218 234 255
218 234 255
218 234 255
218 234 255
218 234 255
218 234 255
218 234 255
218 234 255
218 234 255
218 234 255
218 234 255
218 234 255
218 234 255
218 234 255
218 234 255
218 234 255
218 234 255
218 234 255
218 234 255
218 234 255
218 234 255
218 234 255
218 234 255
218 234 255
218 234 255
218 234 255
218 234 255
218 234 255
218 234 255
218 234 255
218 234 255
218 234 255
218 234 255
218 234 255
218 234 255
218 234 255
218 234 255
218 234 255
218 234 255
218 234 255
218 234 255
218 234 255
218 234 255
218 234 255
218 234 255
218 234 255
218 234 255
218 234 255
218 234 255
218 234 255
218 234 255
218 234 255
218 234 255
218 234 255
218 234 255
218 234 255
218 234 255
218 234 255
218 234 255
218 234 255
218 234 255
218 234 255
218 234 255
218 234 255
218 234 255
218 234 255
218 234 255
218 234 255
218 234 255
218 234 255
218 234 255
218 234 255
218 234 255
218 234 255
218 234 255
218 234 255
218 234 255
218 234 255
218 234 255
218 234 255
218 234 255
218 234 255
218 234 255
218 234 255
218 234 255
218 234 255
218 234 255
218 234 255
218 234 255
218 234 255
218 234 255
218 234 255
218 234 255
218 234 255
218 234 255
218 234 255
218 234 255
218 234 255
218 234 255
218 234 255
218 234 255
218 234 255
218 234 255
218 234 255
218 234 255
218 234 255
218 234 255
218 234 255
218 234 255
218 234 255
218 234 255
218 234 255
218 234 255
218 234 255
218 234 255
218 234 255
218 234 255
218 234 255
218 234 255
218 234 255
218 234 255
218 234 255
218 234 255
218 234 255
218 234 255
218 234 255
218 234 255
218 234 255
218 234 255
218 234 255
218 234 255
218 234 255
218 234 255
218 234 255
218 234 255
218 234 255
218 234 255
218 234 255
218 234 255
218 234 255
218 234 255
219 234 255
219 234 255
219 234 255
219 234 255
219 234 255
219 234 255
219 234 255
219 234 255
219 234 255
219 234 255
219 234 255
219 234 255
219 234 255
219 234 255
219 234 255
219 234 255
219 234 255
219 234 255
219 234 255
219 234 255
219 234 255
219 234 255
219 234 255
219 234 255
219 234 255
219 234 255
219 234 255
219 234 255
219 234 255
219 234 255
219 234 255
219 234 255
219 234 255
219 234 255
219 234 255
219 234 255
219 234 255
219 234 255
219 234 255
219 234 255
219 234 255
219 234 255
219 234 255
219 234 255
219 234 255
219 234 255
219 234 255
219 234 255
219 234 255
219 234 255
219 234 255
219 234 255
219 234 255
219 234 255
219 234 255
219 234 255
219 234 255
219 234 255
219 234 255
219 234 255
219 234 255
219 234 255
219 234 255
219 234 255
219 234 255
219 234 255
219 234 255
219 234 255
219 234 255
219 234 255
219 234 255
219 234 255
219 234 255
219 234 255
219 234 255
219 234 255
219 234 255
219 234 255
219 234 255
219 234 255
219 234 255
219 234 255
219 234 255
219 234 255
219 234 255
219 234 255
219 234 255
219 234 255
219 234 255
219 234 255
219 234 255
219 234 255
219 234 255
219 234 255
219 234 255
219 234 255
219 234 255
219 234 255
219 234 255
219 234 255
219 234 255
219 234 255
219 234 255
219 234 255
219 234 255
219 234 255
219 234 255
219 234 255
219 235 255
219 235 255
219 235 255
219 235 255
219 235 255
219 235 255
219 235 255
219 235 255
219 235 255
219 234 255
219 234 255
219 234 255
219 234 255
219 234 255
219 234 255
219 234 255
219 234 255
219 234 255
219 234 255
219 234 255
219 234 255
219 234 255
219 234 255
219 234 255
219 234 255
219 234 255
219 234 255
219 234 255
219 234 255
219 234 255
219 234 255
219 234 255
219 234 255
219 234 255
219 234 255
219 234 255
219 234 255
219 234 255
219 234 255
219 234 255
219 234 255
219 234 255
219 234 255
219 234 255
219 234 255
219 234 255
219 234 255
219 234 255
219 234 255
219 234 255
219 234 255
219 234 255
219 234 255
219 234 255
219 234 255
219 234 255
219 234 255
219 234 255
219 234 255
219 234 255
219 234 255
219 234 255
219 234 255
219 234 255
219 234 255
219 234 255
219 234 255
219 234 255
219 234 255
219 234 255
219 234 255
219 234 255
219 234 255
219 234 255
219 234 255
219 234 255
219 234 255
219 234 255
219 234 255
219 234 255
219 234 255
219 234 255
219 234 255
219 234 255
219 234 255
219 234 255
219 234 255
219 234 255
219 234 255
219 234 255
219 234 255
219 234 255
219 234 255
219 234 255
219 234 255
219 234 255
219 234 255
219 234 255
219 234 255
219 234 255
219 234 255
219 234 255
219 234 255
219 234 255
219 234 255
219 234 255
219 234 255
219 234 255
219 234 255
219 234 255
219 234 255
219 234 255
219 234 255
219 234 255
219 234 255
219 234 255
219 234 255
219 234 255
219 234 255
219 234 255
219 234 255
219 234 255
219 234 255
219 234 255
219 234 255
219 234 255
219 234 255
219 234 255
219 234 255
219 234 255
218 234 255
218 234 255
218 234 255
218 234 255
218 234 255
218 234 255
218 234 255
218 234 255
218 234 255
218 234 255
218 234 255
218 234 255
218 234 255
218 234 255
218 234 255
218 234 255
218 234 255
218 234 255
218 234 255
218 234 255
218 234 255
218 234 255
218 234 255
218 234 255
218 234 255
218 234 255
218 234 255
218 234 255
218 234 255
218 234 255
218 234 255
218 234 255
218 234 255
218 234 255
218 234 255
218 234 255
218 234 255
218 234 255
218 234 255
218 234 255
218 234 255
218 234 255
218 234 255
218 234 255
218 234 255
218 234 255
218 234 255
218 234 255
218 234 255
218 234 255
218 234 255
218 234 255
218 234 255
218 234 255
218 234 255
218 234 255
218 234 255
218 234 255
218 234 255
218 234 255
218 234 255
218 234 255
218 234 255
218 234 255
218 234 255
218 234 255
218 234 255
218 234 255
218 234 255
218 234 255
218 234 255
218 234 255
218 234 255
218 234 255
218 234 255
218 234 255
218 234 255
218 234 255
218 234 255
218 234 255
218 234 255
218 234 255
218 234 255
218 234 255
218 234 255
218 234 255
218 234 255
218 234 255
218 234 255
218 234 255
218 234 255
218 234 255
218 234 255
218 234 255
218 234 255
218 234 255
218 234 255
218 234 255
218 234 255
218 234 255
218 234 255
218 234 255
218 234 255
218 234 255
218 234 255
218 234 255
218 234 255
218 234 255
218 234 255
218 234 255
218 234 255
218 234 255
218 234 255
218 234 255
218 234 255
218 234 255
218 234 255
218 234 255
218 234 255
218 234 255
218 234 255
218 234 255
218 234 255
218 234 255
218 234 255
218 234 255
218 234 255
218 234 255
218 234 255
218 234 255
218 234 255
218 234 255
218 234 255
218 234 255
218 234 255
218 234 255
218 234 255
218 234 255
218 234 255
219 234 255
218 234 255
219 234 255
219 234 255
219 234 255
219 234 255
219 234 255
219 234 255
219 234 255
219 234 255
219 234 255
219 234 255
219 234 255
219 234 255
219 234 255
219 234 255
219 234 255
219 234 255
219 234 255
219 234 255
219 234 255
219 234 255
219 234 255
219 234 255
219 234 255
219 234 255
219 234 255
219 234 255
219 234 255
219 234 255
219 234 255
219 234 255
219 234 255
219 234 255
219 234 255
219 234 255
219 234 255
219 234 255
219 234 255
219 234 255
219 234 255
219 234 255
219 234 255
219 234 255
219 234 255
219 234 255
219 234 255
219 234 255
219 234 255
219 234 255
219 234 255
219 234 255
219 234 255
219 234 255
219 234 255
219 234 255
219 234 255
219 234 255
219 234 255
219 234 255
219 234 255
219 234 255
219 234 255
219 234 255
219 234 255
219 234 255
219 234 255
219 234 255
219 234 255
219 234 255
219 234 255
219 234 255
219 234 255
219 234 255
219 234 255
219 234 255
219 234 255
219 234 255
219 234 255
219 234 255
219 234 255
219 234 255
219 234 255
219 234 255
219 234 255
219 234 255
219 234 255
219 234 255
219 234 255
219 234 255
219 234 255
219 234 255
219 234 255
219 234 255
219 234 255
219 234 255
219 234 255
219 234 255
219 234 255
219 234 255
219 234 255
219 234 255
219 234 255
219 234 255
219 234 255
219 234 255
219 234 255
219 234 255
219 234 255
219 234 255
219 234 255
219 234 255
219 234 255
219 234 255
219 234 255
219 234 255
219 234 255
219 234 255
219 234 255
219 234 255
219 234 255
219 234 255
219 234 255
219 234 255
219 235 255
219 235 255
219 235 255
219 235 255
219 235 255
219 235 255
219 235 255
220 235 255
220 235 255
220 235 255
220 235 255
220 235 255
220 235 255
220 235 255
220 235 255
220 235 255
220 235 255
219 235 255
219 235 255
219 235 255
219 235 255
219 235 255
219 235 255
219 235 255
219 235 255
219 235 255
219 235 255
219 235 255
219 235 255
219 235 255
219 235 255
219 235 255
219 235 255
219 235 255
219 235 255
219 235 255
219 234 255
219 234 255
219 234 255
219 234 255
219 234 255
219 234 255
219 234 255
219 234 255
219 234 255
219 234 255
219 234 255
219 234 255
219 234 255
219 234 255
219 234 255
219 234 255
219 234 255
219 234 255
219 234 255
219 234 255
219 234 255
219 234 255
219 234 255
219 234 255
219 234 255
219 234 255
219 234 255
219 234 255
219 234 255
219 234 255
219 234 255
219 234 255
219 234 255
219 234 255
219 234 255
219 234 255
219 234 255
219 234 255
219 234 255
219 234 255
219 234 255
219 234 255
219 234 255
219 234 255
219 234 255
219 234 255
219 234 255
219 234 255
219 234 255
219 234 255
219 234 255
219 234 255
219 234 255
219 234 255
219 234 255
219 234 255
219 234 255
219 234 255
219 234 255
219 234 255
219 234 255
219 234 255
219 234 255
219 234 255
219 234 255
219 234 255
219 234 255
219 234 255
219 234 255
219 234 255
219 234 255
219 234 255
219 234 255
219 234 255
219 234 255
219 234 255
219 234 255
219 234 255
219 234 255
219 234 255
219 234 255
219 234 255
219 234 255
219 234 255
219 234 255
219 234 255
219 234 255
219 234 255
219 234 255
219 234 255
219 234 255
219 234 255
219 234 255
219 234 255
219 234 255
219 234 255
219 234 255
219 234 255
219 234 255
219 234 255
219 234 255
219 234 255
219 234 255
219 234 255
219 234 255
219 234 255
219 234 255
219 234 255
219 234 255
219 234 255
219 234 255
219 234 255
219 234 255
219 234 255
219 234 255
219 234 255
219 234 255
219 234 255
219 234 255
219 234 255
219 234 255
219 234 255
219 234 255
219 234 255
219 234 255
219 234 255
219 234 255
219 234 255
219 234 255
219 234 255
219 234 255
218 234 255
218 234 255
218 234 255
218 234 255
218 234 255
218 234 255
218 234 255
218 234 255
218 234 255
218 234 255
218 234 255
218 234 255
218 234 255
218 234 255
218 234 255
218 234 255
218 234 255
218 234 255
218 234 255
218 234 255
218 234 255
218 234 255
218 234 255
218 234 255
218 234 255
218 234 255
218 234 255
218 234 255
218 234 255
218 234 255
218 234 255
218 234 255
218 234 255
218 234 255
218 234 255
218 234 255
218 234 255
218 234 255
218 234 255
218 234 255
218 234 255
218 234 255
218 234 255
218 234 255
218 234 255
218 234 255
218 234 255
218 234 255
218 234 255
218 234 255
218 234 255
218 234 255
218 234 255
218 234 255
218 234 255
218 234 255
218 234 255
218 234 255
218 234 255
218 234 255
218 234 255
218 234 255
218 234 255
218 234 255
218 234 255
218 234 255
218 234 255
218 234 255
218 234 255
218 234 255
218 234 255
218 234 255
218 234 255
218 234 255
218 234 255
218 234 255
218 234 255
219 234 255
218 234 255
219 234 255
219 234 255
219 234 255
219 234 255
219 234 255
219 234 255
219 234 255
219 234 255
219 234 255
219 234 255
219 234 255
219 234 255
219 234 255
219 234 255
219 234 255
219 234 255
219 234 255
219 234 255
219 234 255
219 234 255
219 234 255
219 234 255
219 234 255
219 234 255
219 234 255
219 234 255
219 234 255
219 234 255
219 234 255
219 234 255
219 234 255
219 234 255
219 234 255
219 234 255
219 234 255
219 234 255
219 234 255
219 234 255
219 234 255
219 234 255
219 234 255
219 234 255
219 234 255
219 234 255
219 234 255
219 234 255
219 234 255
219 234 255
219 234 255
219 234 255
219 234 255
219 234 255
219 234 255
219 234 255
219 234 255
219 234 255
219 234 255
219 234 255
219 234 255
219 234 255
219 234 255
219 234 255
219 234 255
219 234 255
219 234 255
219 234 255
219 234 255
219 234 255
219 234 255
219 234 255
219 234 255
219 234 255
219 234 255
219 234 255
219 234 255
219 234 255
219 234 255
219 234 255
219 234 255
219 234 255
219 234 255
219 234 255
219 234 255
219 234 255
219 234 255
219 234 255
219 234 255
219 234 255
219 234 255
219 234 255
219 234 255
219 234 255
219 234 255
219 234 255
219 234 255
219 234 255
219 234 255
219 234 255
219 234 255
219 234 255
219 234 255
219 234 255
219 234 255
219 234 255
219 234 255
219 234 255
219 234 255
219 234 255
219 234 255
219 234 255
219 234 255
219 234 255
219 234 255
219 234 255
219 234 255
219 234 255
219 234 255
219 234 255
219 234 255
219 234 255
219 234 255
219 234 255
219 234 255
219 234 255
219 234 255
219 234 255
219 234 255
219 234 255
219 234 255
219 234 255
219 234 255
219 234 255
219 235 255
219 235 255
219 235 255
219 235 255
219 235 255
219 235 255
219 235 255
219 235 255
219 235 255
219 235 255
219 235 255
219 235 255
219 235 255
219 235 255
219 235 255
219 235 255
219 235 255
219 235 255
220 235 255
220 235 255
220 235 255
220 235 255
220 235 255
220 235 255
220 235 255
220 235 255
220 235 255
220 235 255
220 235 255
220 235 255
220 235 255
220 235 255
220 235 255
220 235 255
220 235 255
220 235 255
220 235 255
220 235 255
220 235 255
220 235 255
220 235 255
220 235 255
220 235 255
220 235 255
220 235 255
220 235 255
220 235 255
220 235 255
220 235 255
220 235 255
220 235 255
220 235 255
220 235 255
220 235 255
220 235 255
220 235 255
220 235 255
220 235 255
220 235 255
220 235 255
220 235 255
219 235 255
219 235 255
219 235 255
219 235 255
219 235 255
219 235 255
219 235 255
219 235 255
219 235 255
219 235 255
219 235 255
219 235 255
219 235 255
219 235 255
219 235 255
219 235 255
219 235 255
219 235 255
219 235 255
219 234 255
219 234 255
219 234 255
219 234 255
219 234 255
219 234 255
219 234 255
219 234 255
219 234 255
219 234 255
219 234 255
219 234 255
219 234 255
219 234 255
219 234 255
219 234 255
219 234 255
219 234 255
219 234 255
219 234 255
219 234 255
219 234 255
219 234 255
219 234 255
219 234 255
219 234 255
219 234 255
219 234 255
219 234 255
219 234 255
219 234 255
219 234 255
219 234 255
219 234 255
219 234 255
219 234 255
219 234 255
219 234 255
219 234 255
219 234 255
219 234 255
219 234 255
219 234 255
219 234 255
219 234 255
219 234 255
219 234 255
219 234 255
219 234 255
219 234 255
219 234 255
219 234 255
219 234 255
219 234 255
219 234 255
219 234 255
219 234 255
219 234 255
219 234 255
219 234 255
219 234 255
219 234 255
219 234 255
219 234 255
219 234 255
219 234 255
219 234 255
219 234 255
219 234 255
219 234 255
219 234 255
219 234 255
219 234 255
219 234 255
219 234 255
219 234 255
219 234 255
219 234 255
219 234 255
219 234 255
219 234 255
219 234 255
219 234 255
219 234 255
219 234 255
219 234 255
219 234 255
219 234 255
219 234 255
219 234 255
219 234 255
219 234 255
219 234 255
219 234 255
219 234 255
219 234 255
219 234 255
219 234 255
219 234 255
219 234 255
219 234 255
219 234 255
219 234 255
219 234 255
219 234 255
219 234 255
219 234 255
219 234 255
219 234 255
219 234 255
219 234 255
219 234 255
219 234 255
219 234 255
219 234 255
219 234 255
219 234 255
219 234 255
219 234 255
219 234 255
219 234 255
219 234 255
219 234 255
219 234 255
219 234 255
219 234 255
219 234 255
219 234 255
219 234 255
219 234 255
219 234 255
219 234 255
219 234 255
219 234 255
219 234 255
219 234 255
219 234 255
219 234 255
219 234 255
219 234 255
219 234 255
219 234 255
219 234 255
219 234 255
219 234 255
219 234 255
219 234 255
219 234 255
219 234 255
219 234 255
219 234 255
219 234 255
219 234 255
219 234 255
219 234 255
219 234 255
219 234 255
219 234 255
219 234 255
219 234 255
219 234 255
219 234 255
219 234 255
219 234 255
219 234 255
219 234 255
219 234 255
219 234 255
219 234 255
219 234 255
219 234 255
219 234 255
219 234 255
219 234 255
219 234 255
219 234 255
219 234 255
219 234 255
219 234 255
219 234 255
219 234 255
219 234 255
219 234 255
219 234 255
219 234 255
219 234 255
219 234 255
219 234 255
219 234 255
219 234 255
219 234 255
219 234 255
219 234 255
219 234 255
219 234 255
219 234 255
219 234 255
219 234 255
219 234 255
219 234 255
219 234 255
219 234 255
219 234 255
219 234 255
219 234 255
219 234 255
219 234 255
219 234 255
219 234 255
219 234 255
219 234 255
219 234 255
219 234 255
219 234 255
219 234 255
219 234 255
219 234 255
219 234 255
219 234 255
219 234 255
219 234 255
219 234 255
219 234 255
219 234 255
219 234 255
219 234 255
219 234 255
219 234 255
219 234 255
219 234 255
219 234 255
219 234 255
219 234 255
219 234 255
219 234 255
219 234 255
219 234 255
219 234 255
219 234 255
219 234 255
219 234 255
219 234 255
219 234 255
219 234 255
219 234 255
219 234 255
219 234 255
219 234 255
219 234 255
219 234 255
219 234 255
219 234 255
219 234 255
219 234 255
219 234 255
219 234 255
219 234 255
219 234 255
219 234 255
219 234 255
219 234 255
219 234 255
219 234 255
219 234 255
219 234 255
219 234 255
219 234 255
219 234 255
219 234 255
219 234 255
219 234 255
219 234 255
219 234 255
219 234 255
219 234 255
219 234 255
219 234 255
219 234 255
219 234 255
219 234 255
219 234 255
219 234 255
219 234 255
219 234 255
219 234 255
219 234 255
219 234 255
219 234 255
219 234 255
219 234 255
219 234 255
219 234 255
219 234 255
219 234 255
219 234 255
219 234 255
219 234 255
219 234 255
219 234 255
219 235 255
219 235 255
219 235 255
219 235 255
219 235 255
219 235 255
219 235 255
219 235 255
219 235 255
219 235 255
219 235 255
219 235 255
219 235 255
219 235 255
219 235 255
219 235 255
219 235 255
220 235 255
220 235 255
220 235 255
220 235 255
220 235 255
220 235 255
220 235 255
220 235 255
220 235 255
220 235 255
220 235 255
220 235 255
220 235 255
220 235 255
220 235 255
220 235 255
220 235 255
220 235 255
220 235 255
220 235 255
220 235 255
220 235 255
220 235 255
220 235 255
220 235 255
220 235 255
220 235 255
220 235 255
220 235 255
220 235 255
220 235 255
220 235 255
220 235 255
220 235 255
220 235 255
220 235 255
220 235 255
220 235 255
220 235 255
220 235 255
220 235 255
220 235 255
220 235 255
220 235 255
220 235 255
220 235 255
220 235 255
220 235 255
220 235 255
220 235 255
220 235 255
220 235 255
220 235 255
220 235 255
220 235 255
220 235 255
220 235 255
220 235 255
220 235 255
220 235 255
220 235 255
220 235 255
220 235 255
220 235 255
220 235 255
220 235 255
220 235 255
220 235 255
220 235 255
220 235 255
220 235 255
220 235 255
220 235 255
220 235 255
220 235 255
220 235 255
220 235 255
220 235 255
220 235 255
220 235 255
220 235 255
220 235 255
220 235 255
220 235 255
220 235 255
220 235 255
220 235 255
220 235 255
220 235 255
220 235 255
219 235 255
219 235 255
219 235 255
219 235 255
219 235 255
219 235 255
219 235 255
219 235 255
219 235 255
219 235 255
219 235 255
219 235 255
219 235 255
219 235 255
219 235 255
219 235 255
219 235 255
219 235 255
219 234 255
219 234 255
219 234 255
219 234 255
219 234 255
219 234 255
219 234 255
219 234 255
219 234 255
219 234 255
219 234 255
219 234 255
219 234 255
219 234 255
219 234 255
219 234 255
219 234 255
219 234 255
219 234 255
219 234 255
219 234 255
219 234 255
219 234 255
219 234 255
219 234 255
219 234 255
219 234 255
219 234 255
219 234 255
219 234 255
219 234 255
219 234 255
219 234 255
219 234 255
219 234 255
219 234 255
219 234 255
219 234 255
219 234 255
219 234 255
219 234 255
219 234 255
219 234 255
219 234 255
219 234 255
219 234 255
219 234 255
219 234 255
219 234 255
219 234 255
219 234 255
219 234 255
219 234 255
219 234 255
219 234 255
219 234 255
219 234 255
219 234 255
219 234 255
219 234 255
219 234 255
219 234 255
219 234 255
219 234 255
219 234 255
219 234 255
219 234 255
219 234 255
219 234 255
219 234 255
219 234 255
219 234 255
219 234 255
219 234 255
219 234 255
219 234 255
219 234 255
219 234 255
219 234 255
219 234 255
219 234 255
219 234 255
219 234 255
219 234 255
219 234 255
219 234 255
219 234 255
219 234 255
219 234 255
219 234 255
219 234 255
219 234 255
219 234 255
219 234 255
219 234 255
219 234 255
219 234 255
219 234 255
219 234 255
219 234 255
219 234 255
219 234 255
219 234 255
219 234 255
219 234 255
219 234 255
219 234 255
219 234 255
219 234 255
219 234 255
219 234 255
219 234 255
219 234 255
219 234 255
219 234 255
219 234 255
219 234 255
219 234 255
219 234 255
219 234 255
219 234 255
219 234 255
219 234 255
219 234 255
219 234 255
219 234 255
219 234 255
219 234 255
219 234 255
219 234 255
219 234 255
219 234 255
219 234 255
219 234 255
219 234 255
219 234 255
219 234 255
219 234 255
219 234 255
219 234 255
219 234 255
219 234 255
219 234 255
219 234 255
219 234 255
219 234 255
219 234 255
219 234 255
219 234 255
219 234 255
219 234 255
219 234 255
219 234 255
219 234 255
219 234 255
219 234 255
219 234 255
219 234 255
219 234 255
219 234 255
219 234 255
219 234 255
219 234 255
219 234 255
219 234 255
219 234 255
219 234 255
219 234 255
219 234 255
219 234 255
219 234 255
219 234 255
219 234 255
219 234 255
219 234 255
219 234 255
219 234 255
219 234 255
219 234 255
219 234 255
219 234 255
219 234 255
219 234 255
219 234 255
219 234 255
219 234 255
219 234 255
219 234 255
219 234 255
219 234 255
219 234 255
219 234 255
219 234 255
219 234 255
219 234 255
219 234 255
219 234 255
219 234 255
219 234 255
219 234 255
219 234 255
219 234 255
219 234 255
219 234 255
219 234 255
219 234 255
219 234 255
219 234 255
219 234 255
219 234 255
219 234 255
219 234 255
219 234 255
219 234 255
219 234 255
219 234 255
219 234 255
219 234 255
219 234 255
219 234 255
219 234 255
219 234 255
219 234 255
219 234 255
219 234 255
219 234 255
219 234 255
219 234 255
219 234 255
219 234 255
219 234 255
219 234 255
219 234 255
219 234 255
219 234 255
219 234 255
219 234 255
219 234 255
219 234 255
219 234 255
219 234 255
219 234 255
219 234 255
219 234 255
219 234 255
219 234 255
219 234 255
219 234 255
219 234 255
219 235 255
219 235 255
219 235 255
219 235 255
219 235 255
219 235 255
219 235 255
219 235 255
219 235 255
219 235 255
219 235 255
219 235 255
219 235 255
219 235 255
219 235 255
219 235 255
219 235 255
219 235 255
219 235 255
219 235 255
220 235 255
220 235 255
220 235 255
220 235 255
220 235 255
220 235 255
220 235 255
220 235 255
220 235 255
220 235 255
220 235 255
220 235 255
220 235 255
220 235 255
220 235 255
220 235 255
220 235 255
220 235 255
220 235 255
220 235 255
220 235 255
220 235 255
220 235 255
220 235 255
220 235 255
220 235 255
220 235 255
220 235 255
220 235 255
220 235 255
220 235 255
220 235 255
220 235 255
220 235 255
220 235 255
220 235 255
220 235 255
220 235 255
220 235 255
220 235 255
220 235 255
220 235 255
220 235 255
220 235 255
220 235 255
220 235 255
220 235 255
220 235 255
220 235 255
220 235 255
220 235 255
220 235 255
220 235 255
220 235 255
220 235 255
220 235 255
220 235 255
220 235 255
220 235 255
220 235 255
220 235 255
220 235 255
220 235 255
220 235 255
220 235 255
220 235 255
220 235 255
220 235 255
220 235 255
220 235 255
220 235 255
220 235 255
220 235 255
220 235 255
220 235 255
220 235 255
220 235 255
220 235 255
220 235 255
220 235 255
220 235 255
220 235 255
220 235 255
220 235 255
220 235 255
220 235 255
220 235 255
220 235 255
220 235 255
220 235 255
220 235 255
220 235 255
220 235 255
220 235 255
220 235 255
220 235 255
220 235 255
220 235 255
220 235 255
220 235 255
220 235 255
220 235 255
220 235 255
220 235 255
220 235 255
220 235 255
220 235 255
220 235 255
220 235 255
220 235 255
220 235 255
220 235 255
220 235 255
220 235 255
220 235 255
220 235 255
220 235 255
220 235 255
220 235 255
220 235 255
220 235 255
220 235 255
220 235 255
220 235 255
220 235 255
220 235 255
220 235 255
220 235 255
220 235 255
220 235 255
220 235 255
220 235 255
220 235 255
220 235 255
220 235 255
220 235 255
220 235 255
220 235 255
219 235 255
219 235 255
219 235 255
219 235 255
219 235 255
219 235 255
219 235 255
219 235 255
219 235 255
219 235 255
219 235 255
219 235 255
219 235 255
219 235 255
219 235 255
219 235 255
219 235 255
219 235 255
219 234 255
219 234 255
219 234 255
219 234 255
219 234 255
219 234 255
219 234 255
219 234 255
219 234 255
219 234 255
219 234 255
219 234 255
219 234 255
219 234 255
219 234 255
219 234 255
219 234 255
219 234 255
219 234 255
219 234 255
219 234 255
219 234 255
219 234 255
219 234 255
219 234 255
219 234 255
219 234 255
219 234 255
219 234 255
219 234 255
219 234 255
219 234 255
219 234 255
219 234 255
219 234 255
219 234 255
219 234 255
219 234 255
219 234 255
219 234 255
219 234 255
219 234 255
219 234 255
219 234 255
219 234 255
219 234 255
219 234 255
219 234 255
219 234 255
219 234 255
219 234 255
219 234 255
219 234 255
219 234 255
219 234 255
219 234 255
219 234 255
219 234 255
219 234 255
219 234 255
219 234 255
219 234 255
219 234 255
219 234 255
219 234 255
219 234 255
219 234 255
219 234 255
219 234 255
219 234 255
219 234 255
219 234 255
219 234 255
219 234 255
219 234 255
219 234 255
219 234 255
219 234 255
219 234 255
219 234 255
219 234 255
219 234 255
219 234 255
219 234 255
219 234 255
219 234 255
219 234 255
219 234 255
219 234 255
219 234 255
219 234 255
219 234 255
219 234 255
219 234 255
219 234 255
219 234 255
219 234 255
219 234 255
219 234 255
219 234 255
219 234 255
219 234 255
219 234 255
219 234 255
219 234 255
219 234 255
219 234 255
219 234 255
219 234 255
219 234 255
219 234 255
219 234 255
219 234 255
219 234 255
219 234 255
219 234 255
219 234 255
219 234 255
219 234 255
219 234 255
219 234 255
219 234 255
219 234 255
219 234 255
219 234 255
219 234 255
219 234 255
219 234 255
219 234 255
219 234 255
219 234 255
219 234 255
219 234 255
219 234 255
219 234 255
219 234 255
219 234 255
219 234 255
219 234 255
219 234 255
219 234 255
219 234 255
219 234 255
219 234 255
219 234 255
219 234 255
219 234 255
219 234 255
219 234 255
219 234 255
219 234 255
219 234 255
219 234 255
219 234 255
219 234 255
219 234 255
219 234 255
219 234 255
219 234 255
219 234 255
219 234 255
219 234 255
219 234 255
219 234 255
219 234 255
219 234 255
219 234 255
219 234 255
219 234 255
219 234 255
219 234 255
219 234 255
219 234 255
219 234 255
219 234 255
219 234 255
219 234 255
219 234 255
219 234 255
219 234 255
219 234 255
219 234 255
219 234 255
219 234 255
219 234 255
219 234 255
219 234 255
219 234 255
219 234 255
219 234 255
219 234 255
219 234 255
219 234 255
219 234 255
219 234 255
219 234 255
219 234 255
219 234 255
219 235 255
219 235 255
219 235 255
219 235 255
219 235 255
219 235 255
219 235 255
219 235 255
219 235 255
219 235 255
219 235 255
219 235 255
219 235 255
219 235 255
219 235 255
219 235 255
219 235 255
219 235 255
219 235 255
219 235 255
220 235 255
220 235 255
220 235 255
220 235 255
220 235 255
220 235 255
220 235 255
220 235 255
220 235 255
220 235 255
220 235 255
220 235 255
220 235 255
220 235 255
220 235 255
220 235 255
220 235 255
220 235 255
220 235 255
220 235 255
220 235 255
220 235 255
220 235 255
220 235 255
220 235 255
220 235 255
220 235 255
220 235 255
220 235 255
220 235 255
220 235 255
220 235 255
220 235 255
220 235 255
220 235 255
220 235 255
220 235 255
220 235 255
220 235 255
220 235 255
220 235 255
220 235 255
220 235 255
220 235 255
220 235 255
220 235 255
220 235 255
220 235 255
220 235 255
220 235 255
220 235 255
220 235 255
220 235 255
220 235 255
220 235 255
220 235 255
220 235 255
220 235 255
220 235 255
220 235 255
220 235 255
220 235 255
220 235 255
220 235 255
220 235 255
220 235 255
220 235 255
220 235 255
220 235 255
220 235 255
220 235 255
220 235 255
220 235 255
220 235 255
220 235 255
220 235 255
220 235 255
220 235 255
220 235 255
220 235 255
220 235 255
220 235 255
220 235 255
220 235 255
220 235 255
220 235 255
220 235 255
220 235 255
220 235 255
220 235 255
220 235 255
220 235 255
220 235 255
220 235 255
220 235 255
220 235 255
220 235 255
220 235 255
220 235 255
220 235 255
220 235 255
220 235 255
220 235 255
220 235 255
220 235 255
220 235 255
220 235 255
220 235 255
220 235 255
220 235 255
220 235 255
220 235 255
220 235 255
220 235 255
220 235 255
220 235 255
220 235 255
220 235 255
220 235 255
220 235 255
220 235 255
220 235 255
220 235 255
220 235 255
220 235 255
220 235 255
220 235 255
220 235 255
220 235 255
220 235 255
220 235 255
220 235 255
220 235 255
220 235 255
220 235 255
220 235 255
220 235 255
220 235 255
220 235 255
220 235 255
220 235 255
220 235 255
220 235 255
220 235 255
220 235 255
220 235 255
220 235 255
220 235 255
220 235 255
220 235 255
220 235 255
220 235 255
220 235 255
220 235 255
220 235 255
220 235 255
220 235 255
220 235 255
220 235 255
220 235 255
220 235 255
220 235 255
220 235 255
220 235 255
220 235 255
220 235 255
220 235 255
220 235 255
220 235 255
220 235 255
220 235 255
220 235 255
220 235 255
220 235 255
220 235 255
220 235 255
220 235 255
220 235 255
220 235 255
220 235 255
220 235 255
220 235 255
220 235 255
220 235 255
220 235 255
220 235 255
220 235 255
220 235 255
220 235 255
220 235 255
220 235 255
220 235 255
220 235 255
219 235 255
219 235 255
220 235 255
219 235 255
219 235 255
219 235 255
219 235 255
219 235 255
219 235 255
219 235 255
219 235 255
219 235 255
219 235 255
219 235 255
219 235 255
219 235 255
219 235 255
219 235 255
219 235 255
219 235 255
219 235 255
219 235 255
219 235 255
219 234 255
219 234 255
219 234 255
219 234 255
219 234 255
219 234 255
219 234 255
219 234 255
219 234 255
219 234 255
219 234 255
219 234 255
219 234 255
219 234 255
219 234 255
219 234 255
219 234 255
219 234 255
219 234 255
219 234 255
219 234 255
219 234 255
219 234 255
219 234 255
219 234 255
219 234 255
219 234 255
219 234 255
219 234 255
219 234 255
219 234 255
219 234 255
219 234 255
219 234 255
219 234 255
219 234 255
219 234 255
219 234 255
219 234 255
219 234 255
219 234 255
219 234 255
219 234 255
219 234 255
219 234 255
219 234 255
219 234 255
219 234 255
219 234 255
219 234 255
219 234 255
219 234 255
219 234 255
219 234 255
219 234 255
219 234 255
219 234 255
219 234 255
219 234 255
219 234 255
219 234 255
219 234 255
219 234 255
219 234 255
219 234 255
219 234 255
219 234 255
219 234 255
219 234 255
219 234 255
219 234 255
219 234 255
219 234 255
219 234 255
219 234 255
219 234 255
219 234 255
219 234 255
219 234 255
219 234 255
219 234 255
219 234 255
219 234 255
219 234 255
219 234 255
219 234 255
219 234 255
219 234 255
219 234 255
219 234 255
219 234 255
219 234 255
219 234 255
219 234 255
219 234 255
219 234 255
219 234 255
219 234 255
219 234 255
219 234 255
219 234 255
219 234 255
219 234 255
219 234 255
219 234 255
219 234 255
219 234 255
219 234 255
219 234 255
219 234 255
219 234 255
219 234 255
219 234 255
219 234 255
219 234 255
219 234 255
219 234 255
219 234 255
219 234 255
219 234 255
219 234 255
219 234 255
219 234 255
219 234 255
219 234 255
219 234 255
219 234 255
219 234 255
219 234 255
219 234 255
219 234 255
219 234 255
219 235 255
219 235 255
219 235 255
219 235 255
219 235 255
219 235 255
219 235 255
219 235 255
219 235 255
219 235 255
219 235 255
219 235 255
219 235 255
219 235 255
219 235 255
219 235 255
219 235 255
219 235 255
219 235 255
219 235 255
219 235 255
219 235 255
220 235 255
220 235 255
220 235 255
220 235 255
220 235 255
220 235 255
220 235 255
220 235 255
220 235 255
220 235 255
220 235 255
220 235 255
220 235 255
220 235 255
220 235 255
220 235 255
220 235 255
220 235 255
220 235 255
220 235 255
220 235 255
220 235 255
220 235 255
220 235 255
220 235 255
220 235 255
220 235 255
220 235 255
220 235 255
220 235 255
220 235 255
220 235 255
220 235 255
220 235 255
220 235 255
220 235 255
220 235 255
220 235 255
220 235 255
220 235 255
220 235 255
220 235 255
220 235 255
220 235 255
220 235 255
220 235 255
220 235 255
220 235 255
220 235 255
220 235 255
220 235 255
220 235 255
220 235 255
220 235 255
220 235 255
220 235 255
220 235 255
220 235 255
220 235 255
220 235 255
220 235 255
220 235 255
220 235 255
220 235 255
220 235 255
220 235 255
220 235 255
220 235 255
220 235 255
220 235 255
220 235 255
220 235 255
220 235 255
220 235 255
220 235 255
220 235 255
220 235 255
220 235 255
220 235 255
220 235 255
220 235 255
220 235 255
220 235 255
220 235 255
220 235 255
220 235 255
220 235 255
220 235 255
220 235 255
220 235 255
220 235 255
220 235 255
220 235 255
220 235 255
220 235 255
220 235 255
220 235 255
220 235 255
220 235 255
220 235 255
220 235 255
220 235 255
220 235 255
220 235 255
220 235 255
220 235 255
220 235 255
220 235 255
220 235 255
220 235 255
220 235 255
220 235 255
220 235 255
220 235 255
220 235 255
220 235 255
220 235 255
220 235 255
220 235 255
220 235 255
220 235 255
220 235 255
220 235 255
220 235 255
220 235 255
220 235 255
220 235 255
220 235 255
220 235 255
220 235 255
220 235 255
220 235 255
220 235 255
220 235 255
220 235 255
220 235 255
220 235 255
220 235 255
220 235 255
220 235 255
220 235 255
220 235 255
220 235 255
220 235 255
220 235 255
220 235 255
220 235 255
220 235 255
220 235 255
220 235 255
220 235 255
220 235 255
220 235 255
220 235 255
220 235 255
220 235 255
220 235 255
220 235 255
220 235 255
220 235 255
220 235 255
220 235 255
220 235 255
220 235 255
220 235 255
220 235 255
220 235 255
220 235 255
220 235 255
220 235 255
220 235 255
220 235 255
220 235 255
220 235 255
220 235 255
220 235 255
220 235 255
220 235 255
220 235 255
220 235 255
220 235 255
220 235 255
220 235 255
220 235 255
220 235 255
220 235 255
220 235 255
220 235 255
220 235 255
220 235 255
220 235 255
220 235 255
220 235 255
220 235 255
220 235 255
220 235 255
220 235 255
220 235 255
220 235 255
220 235 255
220 235 255
220 235 255
220 235 255
220 235 255
220 235 255
220 235 255
220 235 255
220 235 255
220 235 255
220 235 255
220 235 255
220 235 255
220 235 255
220 235 255
220 235 255
220 235 255
220 235 255
220 235 255
220 235 255
220 235 255
220 235 255
220 235 255
220 235 255
220 235 255
220 235 255
220 235 255
220 235 255
220 235 255
220 235 255
220 235 255
220 235 255
220 235 255
220 235 255
220 235 255
220 235 255
220 235 255
220 235 255
220 235 255
220 235 255
220 235 255
220 235 255
220 235 255
220 235 255
220 235 255
220 235 255
220 235 255
220 235 255
220 235 255
220 235 255
220 235 255
220 235 255
220 235 255
220 235 255
220 235 255
220 235 255
220 235 255
220 235 255
220 235 255
220 235 255
220 235 255
220 235 255
220 235 255
220 235 255
220 235 255
220 235 255
219 235 255
220 235 255
219 235 255
219 235 255
219 235 255
219 235 255
219 235 255
219 235 255
219 235 255
219 235 255
219 235 255
219 235 255
219 235 255
219 235 255
219 235 255
219 235 255
219 235 255
219 235 255
219 235 255
219 235 255
219 235 255
219 235 255
219 235 255
219 235 255
219 235 255
219 235 255
219 235 255
219 235 255
219 235 255
219 235 255
219 235 255
219 235 255
219 235 255
219 235 255
219 235 255
219 235 255
219 235 255
219 235 255
219 235 255
219 235 255
219 235 255
219 235 255
219 235 255
219 235 255
219 235 255
219 235 255
219 235 255
219 235 255
219 235 255
219 235 255
219 235 255
219 235 255
219 235 255
219 235 255
219 235 255
219 235 255
219 235 255
219 235 255
219 235 255
219 235 255
219 235 255
219 235 255
219 235 255
219 235 255
219 235 255
219 235 255
219 235 255
219 235 255
219 235 255
219 235 255
219 235 255
219 235 255
219 235 255
219 235 255
219 235 255
219 235 255
219 235 255
219 235 255
219 235 255
219 235 255
219 235 255
219 235 255
219 235 255
219 235 255
219 235 255
219 235 255
219 235 255
219 235 255
219 235 255
219 235 255
219 235 255
219 235 255
220 235 255
219 235 255
219 235 255
220 235 255
220 235 255
220 235 255
220 235 255
220 235 255
220 235 255
220 235 255
220 235 255
220 235 255
220 235 255
220 235 255
220 235 255
220 235 255
220 235 255
220 235 255
220 235 255
220 235 255
220 235 255
220 235 255
220 235 255
220 235 255
220 235 255
220 235 255
220 235 255
220 235 255
220 235 255
220 235 255
220 235 255
220 235 255
220 235 255
220 235 255
220 235 255
220 235 255
220 235 255
220 235 255
220 235 255
220 235 255
220 235 255
220 235 255
220 235 255
220 235 255
220 235 255
220 235 255
220 235 255
220 235 255
220 235 255
220 235 255
220 235 255
220 235 255
220 235 255
220 235 255
220 235 255
220 235 255
220 235 255
220 235 255
220 235 255
220 235 255
220 235 255
220 235 255
220 235 255
220 235 255
220 235 255
220 235 255
220 235 255
220 235 255
220 235 255
220 235 255
220 235 255
220 235 255
220 235 255
220 235 255
220 235 255
220 235 255
220 235 255
220 235 255
220 235 255
220 235 255
220 235 255
220 235 255
220 235 255
220 235 255
220 235 255
220 235 255
220 235 255
220 235 255
220 235 255
220 235 255
220 235 255
220 235 255
220 235 255
220 235 255
220 235 255
220 235 255
220 235 255
220 235 255
220 235 255
220 235 255
220 235 255
220 235 255
220 235 255
220 235 255
220 235 255
220 235 255
220 235 255
220 235 255
220 235 255
220 235 255
220 235 255
220 235 255
220 235 255
220 235 255
220 235 255
220 235 255
220 235 255
220 235 255
220 235 255
220 235 255
220 235 255
220 235 255
220 235 255
220 235 255
220 235 255
220 235 255
220 235 255
220 235 255
220 235 255
220 235 255
220 235 255
220 235 255
220 235 255
220 235 255
220 235 255
220 235 255
220 235 255
220 235 255
220 235 255
220 235 255
220 235 255
220 235 255
220 235 255
220 235 255
220 235 255
220 235 255
220 235 255
220 235 255
220 235 255
220 235 255
220 235 255
220 235 255
220 235 255
220 235 255
220 235 255
220 235 255
220 235 255
220 235 255
220 235 255
220 235 255
220 235 255
220 235 255
220 235 255
220 235 255
220 235 255
220 235 255
220 235 255
220 235 255
220 235 255
220 235 255
220 235 255
220 235 255
220 235 255
220 235 255
220 235 255
220 235 255
220 235 255
220 235 255
220 235 255
220 235 255
220 235 255
220 235 255
220 235 255
220 235 255
220 235 255
220 235 255
220 235 255
220 235 255
220 235 255
220 235 255
220 235 255
220 235 255
220 235 255
220 235 255
220 235 255
220 235 255
220 235 255
220 235 255
220 235 255
220 235 255
220 235 255
220 235 255
220 235 255
220 235 255
220 235 255
220 235 255
220 235 255
220 235 255
220 235 255
220 235 255
220 235 255
220 235 255
220 235 255
220 235 255
220 235 255
220 235 255
220 235 255
220 235 255
220 235 255
220 235 255
220 235 255
220 235 255
220 235 255
220 235 255
220 235 255
220 235 255
220 235 255
220 235 255
220 235 255
220 235 255
220 235 255
220 235 255
220 235 255
220 235 255
220 235 255
220 235 255
220 235 255
220 235 255
220 235 255
220 235 255
220 235 255
220 235 255
220 235 255
220 235 255
220 235 255
220 235 255
220 235 255
220 235 255
220 235 255
220 235 255
220 235 255
220 235 255
220 235 255
220 235 255
220 235 255
220 235 255
220 235 255
220 235 255
220 235 255
220 235 255
220 235 255
220 235 255
220 235 255
220 235 255
220 235 255
220 235 255
220 235 255
220 235 255
220 235 255
220 235 255
220 235 255
220 235 255
220 235 255
220 235 255
220 235 255
220 235 255
220 235 255
220 235 255
220 235 255
220 235 255
220 235 255
220 235 255
220 235 255
220 235 255
220 235 255
220 235 255
220 235 255
220 235 255
220 235 255
220 235 255
220 235 255
220 235 255
220 235 255
220 235 255
220 235 255
220 235 255
220 235 255
220 235 255
220 235 255
220 235 255
220 235 255
220 235 255
220 235 255
220 235 255
220 235 255
220 235 255
220 235 255
220 235 255
220 235 255
220 235 255
220 235 255
220 235 255
220 235 255
220 235 255
220 235 255
220 235 255
220 235 255
220 235 255
220 235 255
220 235 255
220 235 255
220 235 255
220 235 255
220 235 255
220 235 255
220 235 255
220 235 255
220 235 255
220 235 255
220 235 255
220 235 255
220 235 255
220 235 255
220 235 255
220 235 255
220 235 255
220 235 255
220 235 255
220 235 255
220 235 255
220 235 255
220 235 255
220 235 255
220 235 255
220 235 255
220 235 255
220 235 255
220 235 255
220 235 255
220 235 255
220 235 255
220 235 255
220 235 255
220 235 255
220 235 255
220 235 255
220 235 255
220 235 255
220 235 255
220 235 255
220 235 255
220 235 255
220 235 255
220 235 255
220 235 255
220 235 255
220 235 255
220 235 255
220 235 255
220 235 255
220 235 255
220 235 255
220 235 255
220 235 255
220 235 255
220 235 255
220 235 255
220 235 255
220 235 255
220 235 255
220 235 255
220 235 255
220 235 255
220 235 255
220 235 255
220 235 255
220 235 255
220 235 255
220 235 255
220 235 255
220 235 255
220 235 255
220 235 255
220 235 255
220 235 255
220 235 255
220 235 255
220 235 255
220 235 255
220 235 255
220 235 255
220 235 255
220 235 255
220 235 255
220 235 255
220 235 255
220 235 255
220 235 255
220 235 255
220 235 255
220 235 255
220 235 255
220 235 255
220 235 255
220 235 255
220 235 255
220 235 255
220 235 255
220 235 255
220 235 255
220 235 255
220 235 255
220 235 255
220 235 255
220 235 255
220 235 255
220 235 255
220 235 255
220 235 255
220 235 255
220 235 255
220 235 255
220 235 255
220 235 255
220 235 255
220 235 255
220 235 255
220 235 255
220 235 255
220 235 255
220 235 255
220 235 255
220 235 255
220 235 255
220 235 255
220 235 255
220 235 255
220 235 255
220 235 255
220 235 255
220 235 255
220 235 255
220 235 255
220 235 255
220 235 255
220 235 255
220 235 255
220 235 255
220 235 255
220 235 255
220 235 255
220 235 255
220 235 255
220 235 255
220 235 255
220 235 255
220 235 255
220 235 255
220 235 255
220 235 255
220 235 255
220 235 255
220 235 255
220 235 255
220 235 255
220 235 255
220 235 255
220 235 255
220 235 255
220 235 255
220 235 255
220 235 255
220 235 255
220 235 255
220 235 255
220 235 255
220 235 255
220 235 255
220 235 255
220 235 255
220 235 255
220 235 255
220 235 255
220 235 255
220 235 255
220 235 255
220 235 255
220 235 255
220 235 255
220 235 255
220 235 255
220 235 255
220 235 255
220 235 255
220 235 255
220 235 255
220 235 255
220 235 255
220 235 255
220 235 255
220 235 255
220 235 255
220 235 255
220 235 255
220 235 255
220 235 255
220 235 255
220 235 255
220 235 255
220 235 255
220 235 255
220 235 255
220 235 255
220 235 255
220 235 255
220 235 255
220 235 255
220 235 255
220 235 255
220 235 255
220 235 255
220 235 255
220 235 255
220 235 255
220 235 255
220 235 255
220 235 255
220 235 255
220 235 255
220 235 255
220 235 255
220 235 255
220 235 255
220 235 255
220 235 255
220 235 255
220 235 255
220 235 255
220 235 255
220 235 255
220 235 255
220 235 255
220 235 255
220 235 255
220 235 255
220 235 255
220 235 255
220 235 255
220 235 255
220 235 255
220 235 255
220 235 255
220 235 255
220 235 255
220 235 255
220 235 255
220 235 255
220 235 255
220 235 255
220 235 255
220 235 255
220 235 255
220 235 255
220 235 255
220 235 255
220 235 255
220 235 255
220 235 255
220 235 255
220 235 255
220 235 255
220 235 255
220 235 255
220 235 255
220 235 255
220 235 255
220 235 255
220 235 255
220 235 255
220 235 255
220 235 255
220 235 255
220 235 255
220 235 255
220 235 255
220 235 255
220 235 255
220 235 255
220 235 255
220 235 255
220 235 255
220 235 255
220 235 255
220 235 255
220 235 255
220 235 255
220 235 255
220 235 255
220 235 255
220 235 255
220 235 255
220 235 255
220 235 255
220 235 255
220 235 255
220 235 255
220 235 255
220 235 255
220 235 255
220 235 255
220 235 255
220 235 255
220 235 255
220 235 255
220 235 255
220 235 255
220 235 255
220 235 255
220 235 255
220 235 255
220 235 255
220 235 255
220 235 255
220 235 255
220 235 255
220 235 255
220 235 255
220 235 255
220 235 255
220 235 255
220 235 255
220 235 255
220 235 255
220 235 255
220 235 255
220 235 255
220 235 255
220 235 255
220 235 255
220 235 255
220 235 255
220 235 255
220 235 255
220 235 255
220 235 255
220 235 255
220 235 255
220 235 255
220 235 255
220 235 255
220 235 255
220 235 255
220 235 255
220 235 255
220 235 255
220 235 255
220 235 255
220 235 255
220 235 255
220 235 255
220 235 255
220 235 255
220 235 255
220 235 255
220 235 255
220 235 255
220 235 255
220 235 255
220 235 255
220 235 255
220 235 255
220 235 255
220 235 255
220 235 255
220 235 255
220 235 255
220 235 255
220 235 255
220 235 255
220 235 255
220 235 255
220 235 255
220 235 255
220 235 255
220 235 255
220 235 255
220 235 255
220 235 255
220 235 255
220 235 255
220 235 255
220 235 255
220 235 255
220 235 255
220 235 255
220 235 255
220 235 255
220 235 255
220 235 255
220 235 255
220 235 255
220 235 255
220 235 255
220 235 255
220 235 255
220 235 255
220 235 255
220 235 255
220 235 255
220 235 255
220 235 255
220 235 255
220 235 255
220 235 255
220 235 255
220 235 255
220 235 255
220 235 255
220 235 255
220 235 255
220 235 255
220 235 255
220 235 255
220 235 255
220 235 255
220 235 255
220 235 255
220 235 255
220 235 255
220 235 255
220 235 255
220 235 255
220 235 255
220 235 255
220 235 255
220 235 255
220 235 255
220 235 255
220 235 255
220 235 255
220 235 255
220 235 255
220 235 255
220 235 255
220 235 255
220 235 255
220 235 255
220 235 255
220 235 255
220 235 255
220 235 255
220 235 255
220 235 255
220 235 255
220 235 255
220 235 255
220 235 255
220 235 255
220 235 255
220 235 255
220 235 255
220 235 255
220 235 255
220 235 255
220 235 255
220 235 255
220 235 255
220 235 255
220 235 255
220 235 255
220 235 255
220 235 255
220 235 255
220 235 255
220 235 255
220 235 255
220 235 255
220 235 255
220 235 255
220 235 255
220 235 255
220 235 255
220 235 255
220 235 255
220 235 255
220 235 255
220 235 255
220 235 255
220 235 255
220 235 255
220 235 255
220 235 255
220 235 255
220 235 255
220 235 255
220 235 255
220 235 255
220 235 255
220 235 255
220 235 255
220 235 255
220 235 255
220 235 255
220 235 255
220 235 255
220 235 255
220 235 255
220 235 255
220 235 255
220 235 255
220 235 255
220 235 255
220 235 255
220 235 255
220 235 255
220 235 255
220 235 255
220 235 255
220 235 255
220 235 255
220 235 255
220 235 255
220 235 255
220 235 255
220 235 255
220 235 255
220 235 255
220 235 255
220 235 255
220 235 255
220 235 255
220 235 255
220 235 255
220 235 255
220 235 255
220 235 255
220 235 255
220 235 255
220 235 255
220 235 255
220 235 255
220 235 255
220 235 255
220 235 255
220 235 255
220 235 255
220 235 255
220 235 255
220 235 255
220 235 255
220 235 255
220 235 255
220 235 255
220 235 255
220 235 255
220 235 255
220 235 255
220 235 255
220 235 255
220 235 255
220 235 255
220 235 255
220 235 255
220 235 255
220 235 255
220 235 255
220 235 255
220 235 255
220 235 255
220 235 255
220 235 255
220 235 255
220 235 255
220 235 255
220 235 255
220 235 255
220 235 255
220 235 255
220 235 255
220 235 255
220 235 255
220 235 255
220 235 255
220 235 255
220 235 255
220 235 255
220 235 255
220 235 255
220 235 255
220 235 255
220 235 255
220 235 255
220 235 255
220 235 255
220 235 255
220 235 255
220 235 255
220 235 255
220 235 255
220 235 255
220 235 255
220 235 255
220 235 255
220 235 255
220 235 255
220 235 255
220 235 255
220 235 255
220 235 255
220 235 255
220 235 255
220 235 255
220 235 255
220 235 255
220 235 255
220 235 255
220 235 255
220 235 255
220 235 255
220 235 255
220 235 255
220 235 255
220 235 255
220 235 255
220 235 255
220 235 255
220 235 255
220 235 255
220 235 255
220 235 255
220 235 255
220 235 255
220 235 255
220 235 255
220 235 255
220 235 255
220 235 255
220 235 255
220 235 255
220 235 255
220 235 255
220 235 255
220 235 255
220 235 255
220 235 255
221 235 255
221 235 255
221 235 255
221 235 255
221 235 255
221 235 255
221 235 255
221 235 255
221 235 255
221 235 255
220 235 255
220 235 255
220 235 255
220 235 255
220 235 255
220 235 255
220 235 255
220 235 255
220 235 255
220 235 255
220 235 255
220 235 255
220 235 255
220 235 255
220 235 255
220 235 255
220 235 255
220 235 255
220 235 255
220 235 255
220 235 255
220 235 255
220 235 255
220 235 255
220 235 255
220 235 255
220 235 255
220 235 255
220 235 255
220 235 255
220 235 255
220 235 255
220 235 255
220 235 255
220 235 255
220 235 255
220 235 255
220 235 255
220 235 255
220 235 255
220 235 255
220 235 255
220 235 255
220 235 255
220 235 255
220 235 255
220 235 255
220 235 255
220 235 255
220 235 255
220 235 255
220 235 255
220 235 255
220 235 255
220 235 255
220 235 255
220 235 255
220 235 255
220 235 255
220 235 255
220 235 255
220 235 255
220 235 255
220 235 255
220 235 255
220 235 255
220 235 255
220 235 255
220 235 255
220 235 255
220 235 255
220 235 255
220 235 255
220 235 255
220 235 255
220 235 255
220 235 255
220 235 255
220 235 255
220 235 255
220 235 255
220 235 255
220 235 255
220 235 255
220 235 255
220 235 255
220 235 255
220 235 255
220 235 255
220 235 255
220 235 255
220 235 255
220 235 255
220 235 255
220 235 255
220 235 255
220 235 255
220 235 255
220 235 255
220 235 255
220 235 255
220 235 255
220 235 255
220 235 255
220 235 255
220 235 255
220 235 255
220 235 255
220 235 255
220 235 255
220 235 255
220 235 255
220 235 255
220 235 255
220 235 255
220 235 255
220 235 255
220 235 255
220 235 255
220 235 255
220 235 255
220 235 255
220 235 255
220 235 255
220 235 255
220 235 255
220 235 255
220 235 255
220 235 255
220 235 255
220 235 255
220 235 255
220 235 255
220 235 255
220 235 255
220 235 255
220 235 255
220 235 255
220 235 255
220 235 255
220 235 255
220 235 255
220 235 255
220 235 255
220 235 255
220 235 255
220 235 255
220 235 255
220 235 255
220 235 255
220 235 255
220 235 255
220 235 255
220 235 255
220 235 255
220 235 255
220 235 255
220 235 255
220 235 255
220 235 255
220 235 255
220 235 255
220 235 255
220 235 255
220 235 255
220 235 255
220 235 255
220 235 255
220 235 255
220 235 255
220 235 255
220 235 255
220 235 255
220 235 255
220 235 255
220 235 255
220 235 255
220 235 255
220 235 255
220 235 255
220 235 255
220 235 255
220 235 255
220 235 255
220 235 255
220 235 255
220 235 255
220 235 255
220 235 255
220 235 255
220 235 255
220 235 255
220 235 255
220 235 255
220 235 255
220 235 255
220 235 255
220 235 255
220 235 255
220 235 255
220 235 255
220 235 255
220 235 255
220 235 255
220 235 255
220 235 255
220 235 255
220 235 255
220 235 255
220 235 255
220 235 255
220 235 255
220 235 255
220 235 255
220 235 255
220 235 255
220 235 255
220 235 255
220 235 255
220 235 255
220 235 255
220 235 255
220 235 255
220 235 255
220 235 255
220 235 255
220 235 255
220 235 255
220 235 255
220 235 255
220 235 255
220 235 255
220 235 255
220 235 255
220 235 255
220 235 255
220 235 255
220 235 255
220 235 255
220 235 255
220 235 255
220 235 255
220 235 255
220 235 255
220 235 255
220 235 255
220 235 255
220 235 255
220 235 255
220 235 255
220 235 255
220 235 255
220 235 255
220 235 255
220 235 255
220 235 255
220 235 255
220 235 255
220 235 255
220 235 255
220 235 255
220 235 255
220 235 255
220 235 255
220 235 255
220 235 255
220 235 255
220 235 255
220 235 255
220 235 255
220 235 255
220 235 255
220 235 255
220 235 255
220 235 255
220 235 255
220 235 255
220 235 255
220 235 255
220 235 255
220 235 255
220 235 255
220 235 255
220 235 255
220 235 255
220 235 255
220 235 255
220 235 255
220 235 255
220 235 255
220 235 255
220 235 255
220 235 255
220 235 255
220 235 255
220 235 255
220 235 255
220 235 255
220 235 255
220 235 255
220 235 255
220 235 255
220 235 255
220 235 255
220 235 255
220 235 255
220 235 255
220 235 255
220 235 255
220 235 255
220 235 255
220 235 255
220 235 255
220 235 255
220 235 255
220 235 255
220 235 255
220 235 255
220 235 255
220 235 255
220 235 255
220 235 255
220 235 255
220 235 255
220 235 255
220 235 255
220 235 255
220 235 255
220 235 255
220 235 255
220 235 255
220 235 255
220 235 255
220 235 255
220 235 255
220 235 255
220 235 255
220 235 255
220 235 255
220 235 255
220 235 255
220 235 255
220 235 255
220 235 255
220 235 255
220 235 255
220 235 255
220 235 255
220 235 255
220 235 255
220 235 255
220 235 255
220 235 255
220 235 255
220 235 255
220 235 255
220 235 255
220 235 255
220 235 255
220 235 255
220 235 255
220 235 255
220 235 255
220 235 255
220 235 255
220 235 255
220 235 255
220 235 255
220 235 255
220 235 255
220 235 255
220 235 255
220 235 255
220 235 255
220 235 255
220 235 255
220 235 255
220 235 255
220 235 255
221 235 255
221 235 255
221 235 255
221 235 255
221 235 255
221 235 255
221 235 255
221 235 255
221 235 255
221 235 255
221 235 255
221 235 255
221 235 255
221 235 255
221 235 255
221 235 255
221 235 255
221 235 255
221 235 255
221 235 255
221 235 255
221 235 255
221 235 255
221 235 255
221 235 255
221 235 255
221 235 255
221 235 255
221 235 255
221 235 255
221 235 255
221 235 255
221 235 255
221 235 255
221 235 255
221 235 255
221 235 255
221 235 255
221 235 255
221 235 255
221 235 255
221 235 255
221 235 255
221 235 255
221 235 255
221 235 255
221 235 255
221 235 255
221 235 255
221 235 255
221 235 255
221 235 255
221 235 255
221 235 255
221 235 255
221 235 255
221 235 255
221 235 255
221 235 255
221 235 255
221 235 255
221 235 255
221 235 255
221 235 255
221 235 255
221 235 255
221 235 255
221 235 255
221 235 255
221 235 255
221 235 255
221 235 255
221 235 255
221 235 255
221 235 255
221 235 255
220 235 255
221 235 255
221 235 255
220 235 255
221 235 255
221 235 255
220 235 255
220 235 255
220 235 255
220 235 255
220 235 255
220 235 255
220 235 255
220 235 255
220 235 255
220 235 255
220 235 255
220 235 255
220 235 255
220 235 255
220 235 255
220 235 255
220 235 255
220 235 255
220 235 255
220 235 255
220 235 255
220 235 255
220 235 255
220 235 255
220 235 255
220 235 255
220 235 255
220 235 255
220 235 255
220 235 255
220 235 255
220 235 255
220 235 255
220 235 255
220 235 255
220 235 255
220 235 255
220 235 255
220 235 255
220 235 255
220 235 255
220 235 255
220 235 255
220 235 255
220 235 255
220 235 255
220 235 255
220 235 255
220 235 255
220 235 255
220 235 255
220 235 255
220 235 255
220 235 255
220 235 255
220 235 255
220 235 255
220 235 255
220 235 255
220 235 255
220 235 255
220 235 255
220 235 255
220 235 255
220 235 255
220 235 255
220 235 255
220 235 255
220 235 255
220 235 255
220 235 255
220 235 255
220 235 255
220 235 255
220 235 255
220 235 255
220 235 255
220 235 255
220 235 255
220 235 255
220 235 255
220 235 255
220 235 255
220 235 255
220 235 255
220 235 255
220 235 255
220 235 255
220 235 255
220 235 255
220 235 255
220 235 255
220 235 255
220 235 255
220 235 255
220 235 255
220 235 255
220 235 255
220 235 255
220 235 255
220 235 255
220 235 255
220 235 255
220 235 255
220 235 255
220 235 255
220 235 255
220 235 255
220 235 255
220 235 255
220 235 255
220 235 255
220 235 255
220 235 255
220 235 255
220 235 255
220 235 255
220 235 255
220 235 255
220 235 255
220 235 255
220 235 255
220 235 255
220 235 255
220 235 255
220 235 255
220 235 255
220 235 255
220 235 255
220 235 255
220 235 255
220 235 255
220 235 255
220 235 255
220 235 255
220 235 255
220 235 255
220 235 255
220 235 255
220 235 255
220 235 255
220 235 255
220 235 255
220 235 255
220 235 255
220 235 255
220 235 255
220 235 255
220 235 255
220 235 255
220 235 255
220 235 255
220 235 255
220 235 255
220 235 255
220 235 255
220 235 255
220 235 255
220 235 255
220 235 255
220 235 255
220 235 255
220 235 255
220 235 255
220 235 255
220 235 255
220 235 255
220 235 255
220 235 255
220 235 255
220 235 255
220 235 255
220 235 255
220 235 255
220 235 255
220 235 255
220 235 255
220 235 255
220 235 255
220 235 255
220 235 255
220 235 255
220 235 255
220 235 255
220 235 255
220 235 255
220 235 255
220 235 255
220 235 255
220 235 255
220 235 255
220 235 255
220 235 255
220 235 255
220 235 255
220 235 255
220 235 255
220 235 255
220 235 255
220 235 255
220 235 255
220 235 255
220 235 255
220 235 255
220 235 255
220 235 255
220 235 255
220 235 255
220 235 255
220 235 255
220 235 255
220 235 255
220 235 255
220 235 255
220 235 255
220 235 255
220 235 255
220 235 255
220 235 255
220 235 255
220 235 255
220 235 255
220 235 255
220 235 255
220 235 255
220 235 255
220 235 255
220 235 255
220 235 255
220 235 255
220 235 255
220 235 255
220 235 255
220 235 255
220 235 255
220 235 255
220 235 255
220 235 255
220 235 255
220 235 255
220 235 255
220 235 255
220 235 255
220 235 255
220 235 255
220 235 255
220 235 255
220 235 255
220 235 255
220 235 255
220 235 255
220 235 255
220 235 255
220 235 255
220 235 255
220 235 255
220 235 255
221 235 255
220 235 255
221 235 255
220 235 255
220 235 255
221 235 255
221 235 255
221 235 255
221 235 255
221 235 255
221 235 255
221 235 255
221 235 255
221 235 255
221 235 255
221 235 255
221 235 255
221 235 255
221 235 255
221 235 255
221 235 255
221 235 255
221 235 255
221 235 255
221 235 255
221 235 255
221 235 255
221 235 255
221 235 255
221 235 255
221 235 255
221 235 255
221 235 255
221 235 255
221 235 255
221 235 255
221 235 255
221 235 255
221 235 255
221 235 255
221 235 255
221 235 255
221 235 255
221 235 255
221 235 255
221 235 255
221 235 255
221 235 255
221 235 255
221 235 255
221 235 255
221 235 255
221 235 255
221 235 255
221 235 255
221 235 255
221 235 255
221 235 255
221 235 255
221 235 255
221 235 255
221 235 255
221 235 255
221 235 255
221 235 255
221 235 255
221 235 255
221 235 255
221 235 255
221 235 255
221 235 255
221 235 255
221 235 255
221 235 255
221 235 255
221 235 255
221 235 255
221 235 255
221 235 255
221 235 255
221 235 255
221 235 255
221 235 255
221 235 255
221 235 255
221 235 255
221 235 255
221 235 255
221 235 255
221 235 255
221 235 255
221 235 255
221 235 255
221 235 255
221 235 255
221 235 255
221 235 255
221 235 255
221 235 255
221 235 255
221 235 255
221 235 255
221 235 255
221 235 255
221 235 255
221 235 255
221 235 255
221 235 255
221 235 255
221 235 255
221 235 255
221 235 255
221 235 255
221 235 255
221 235 255
221 235 255
221 235 255
221 235 255
221 235 255
221 235 255
221 235 255
221 235 255
221 235 255
221 235 255
221 235 255
221 235 255
221 235 255
221 235 255
221 235 255
221 235 255
221 235 255
221 235 255
221 235 255
221 235 255
221 235 255
221 235 255
221 235 255
221 235 255
221 235 255
221 235 255
221 235 255
221 235 255
221 235 255
221 235 255
221 235 255
221 235 255
221 235 255
221 235 255
221 235 255
221 235 255
221 235 255
221 235 255
221 235 255
221 235 255
221 235 255
221 235 255
221 235 255
221 235 255
221 235 255
221 235 255
221 235 255
221 235 255
221 235 255
221 235 255
221 235 255
221 235 255
221 235 255
221 235 255
221 235 255
221 235 255
221 235 255
221 235 255
221 235 255
221 235 255
221 235 255
221 235 255
221 235 255
221 235 255
221 235 255
221 235 255
221 235 255
221 235 255
221 235 255
221 235 255
221 235 255
221 235 255
221 235 255
221 235 255
221 235 255
221 235 255
221 235 255
221 235 255
221 235 255
221 235 255
221 235 255
221 235 255
221 235 255
221 235 255
221 235 255
221 235 255
221 235 255
221 235 255
221 235 255
221 235 255
221 235 255
221 235 255
221 235 255
221 235 255
221 235 255
221 235 255
221 235 255
221 235 255
221 235 255
221 235 255
221 235 255
221 235 255
221 235 255
221 235 255
221 235 255
221 235 255
221 235 255
221 235 255
221 235 255
221 235 255
220 235 255
220 235 255
220 235 255
220 235 255
220 235 255
220 235 255
220 235 255
220 235 255
220 235 255
220 235 255
220 235 255
220 235 255
220 235 255
220 235 255
220 235 255
220 235 255
220 235 255
220 235 255
220 235 255
220 235 255
220 235 255
220 235 255
220 235 255
220 235 255
220 235 255
220 235 255
220 235 255
220 235 255
220 235 255
220 235 255
220 235 255
220 235 255
220 235 255
220 235 255
220 235 255
220 235 255
220 235 255
220 235 255
220 235 255
220 235 255
220 235 255
220 235 255
220 235 255
220 235 255
220 235 255
220 235 255
220 235 255
220 235 255
220 235 255
220 235 255
220 235 255
220 235 255
220 235 255
220 235 255
220 235 255
220 235 255
220 235 255
220 235 255
220 235 255
220 235 255
220 235 255
220 235 255
220 235 255
220 235 255
220 235 255
220 235 255
220 235 255
220 235 255
220 235 255
220 235 255
220 235 255
220 235 255
220 235 255
220 235 255
220 235 255
220 235 255
220 235 255
220 235 255
220 235 255
220 235 255
220 235 255
220 235 255
220 235 255
220 235 255
220 235 255
220 235 255
220 235 255
220 235 255
220 235 255
220 235 255
220 235 255
220 235 255
220 235 255
220 235 255
221 235 255
220 235 255
221 235 255
220 235 255
220 235 255
220 235 255
221 235 255
221 235 255
221 235 255
221 235 255
221 235 255
221 235 255
221 235 255
221 235 255
221 235 255
221 235 255
221 235 255
221 235 255
221 235 255
221 235 255
221 235 255
221 235 255
221 235 255
221 235 255
221 235 255
221 235 255
221 235 255
221 235 255
221 235 255
221 235 255
221 235 255
221 235 255
221 235 255
221 235 255
221 235 255
221 235 255
221 235 255
221 235 255
221 235 255
221 235 255
221 235 255
221 235 255
221 235 255
221 235 255
221 235 255
221 235 255
221 235 255
221 235 255
221 235 255
221 235 255
221 235 255
221 235 255
221 235 255
221 235 255
221 235 255
221 235 255
221 235 255
221 235 255
221 235 255
221 235 255
221 235 255
221 235 255
221 235 255
221 235 255
221 235 255
221 235 255
221 235 255
221 235 255
221 235 255
221 235 255
221 235 255
221 235 255
221 235 255
221 235 255
221 235 255
221 235 255
221 235 255
221 235 255
221 235 255
221 235 255
221 235 255
221 235 255
221 235 255
221 235 255
221 235 255
221 235 255
221 235 255
221 235 255
221 235 255
221 235 255
221 235 255
221 235 255
221 235 255
221 235 255
221 235 255
221 235 255
221 235 255
221 235 255
221 235 255
221 235 255
221 235 255
221 235 255
221 235 255
221 235 255
221 235 255
221 235 255
221 235 255
221 235 255
221 235 255
221 235 255
221 235 255
221 235 255
221 235 255
221 235 255
221 235 255
221 235 255
221 235 255
221 235 255
221 235 255
221 235 255
221 235 255
221 235 255
221 235 255
221 235 255
221 235 255
221 235 255
221 235 255
221 235 255
221 235 255
221 235 255
221 235 255
221 235 255
221 235 255
221 235 255
221 235 255
221 235 255
221 235 255
221 235 255
221 235 255
221 235 255
221 235 255
221 235 255
221 235 255
221 235 255
221 235 255
221 235 255
221 235 255
221 235 255
221 235 255
221 235 255
221 235 255
221 235 255
221 235 255
221 235 255
221 235 255
221 235 255
221 235 255
221 235 255
221 235 255
221 235 255
221 235 255
221 235 255
221 235 255
221 235 255
221 235 255
221 235 255
221 235 255
221 235 255
221 235 255
221 235 255
221 235 255
221 235 255
221 235 255
221 235 255
221 235 255
221 235 255
221 235 255
221 235 255
221 235 255
221 235 255
221 235 255
221 235 255
221 235 255
221 235 255
221 235 255
221 235 255
221 235 255
221 235 255
221 235 255
221 235 255
221 235 255
221 235 255
221 235 255
221 235 255
221 235 255
221 235 255
221 235 255
221 235 255
221 235 255
221 235 255
221 235 255
221 235 255
221 235 255
221 235 255
221 235 255
221 235 255
221 235 255
221 235 255
221 235 255
221 235 255
221 235 255
221 235 255
221 235 255
221 235 255
221 235 255
221 235 255
221 235 255
221 235 255
221 235 255
221 235 255
221 235 255
221 235 255
221 235 255
221 235 255
221 235 255
221 235 255
221 235 255
221 235 255
221 235 255
221 235 255
221 235 255
221 235 255
221 235 255
221 235 255
221 235 255
221 235 255
221 235 255
221 235 255
221 235 255
221 235 255
221 235 255
221 235 255
221 235 255
221 235 255
221 235 255
221 235 255
221 235 255
221 235 255
221 235 255
221 235 255
221 235 255
221 235 255
221 235 255
221 235 255
221 235 255
221 235 255
221 235 255
221 235 255
221 235 255
221 235 255
221 235 255
221 235 255
221 235 255
221 235 255
221 235 255
221 235 255
221 235 255
221 235 255
221 235 255
221 235 255
221 235 255
221 235 255
221 235 255
221 235 255
221 235 255
221 235 255
221 235 255
221 235 255
221 235 255
221 235 255
221 235 255
221 235 255
221 235 255
221 235 255
221 235 255
221 235 255
221 235 255
221 235 255
221 235 255
221 235 255
221 235 255
221 235 255
221 235 255
221 235 255
221 235 255
221 235 255
221 235 255
221 235 255
221 235 255
221 235 255
221 235 255
221 235 255
221 235 255
221 235 255
221 235 255
221 235 255
221 235 255
221 235 255
221 235 255
221 235 255
221 235 255
221 235 255
221 235 255
221 235 255
221 235 255
221 235 255
221 235 255
221 235 255
221 235 255
221 235 255
221 235 255
221 235 255
221 235 255
221 235 255
221 235 255
221 235 255
221 235 255
221 235 255
221 235 255
221 235 255
221 235 255
221 235 255
221 235 255
221 235 255
221 235 255
221 235 255
221 235 255
221 235 255
221 235 255
221 235 255
221 235 255
221 235 255
221 235 255
221 235 255
221 235 255
221 235 255
221 235 255
221 235 255
221 235 255
221 235 255
221 235 255
221 235 255
221 235 255
221 235 255
221 235 255
221 235 255
221 235 255
221 235 255
221 235 255
221 235 255
221 235 255
221 235 255
221 235 255
221 235 255
221 235 255
221 235 255
221 235 255
221 235 255
221 235 255
221 235 255
221 235 255
221 235 255
221 235 255
221 235 255
221 235 255
221 235 255
221 235 255
221 235 255
221 235 255
221 235 255
221 235 255
221 235 255
221 235 255
221 235 255
221 235 255
221 235 255
221 235 255
221 235 255
221 235 255
221 235 255
221 235 255
221 235 255
221 235 255
221 235 255
221 235 255
221 235 255
221 235 255
221 235 255
221 235 255
221 235 255
221 235 255
221 235 255
221 235 255
221 235 255
221 235 255
221 235 255
221 235 255
221 235 255
221 235 255
221 235 255
221 235 255
221 235 255
221 235 255
221 235 255
221 235 255
221 235 255
221 235 255
221 235 255
221 235 255
221 235 255
221 235 255
221 235 255
221 235 255
221 235 255
221 235 255
221 235 255
221 235 255
221 235 255
221 235 255
221 235 255
221 235 255
221 235 255
221 235 255
221 235 255
221 235 255
221 235 255
221 235 255
221 235 255
221 235 255
221 235 255
221 235 255
221 235 255
221 235 255
221 235 255
221 235 255
221 235 255
221 235 255
221 235 255
221 235 255
221 235 255
221 235 255
221 235 255
221 235 255
221 235 255
221 235 255
221 235 255
221 235 255
221 235 255
221 235 255
221 235 255
221 235 255
221 235 255
221 235 255
221 235 255
221 235 255
221 235 255
221 235 255
221 235 255
221 235 255
221 235 255
221 235 255
221 235 255
221 235 255
221 235 255
221 235 255
221 235 255
221 235 255
221 235 255
221 235 255
221 235 255
221 235 255
221 235 255
221 235 255
221 235 255
221 235 255
221 235 255
221 235 255
221 235 255
221 235 255
221 235 255
221 235 255
221 235 255
221 235 255
221 235 255
221 235 255
221 235 255
221 235 255
221 235 255
221 235 255
221 235 255
221 235 255
221 235 255
221 235 255
221 235 255
221 235 255
221 235 255
221 235 255
221 235 255
221 235 255
221 235 255
221 235 255
221 235 255
221 235 255
221 235 255
221 235 255
221 235 255
221 235 255
221 235 255
221 235 255
221 235 255
221 235 255
221 235 255
221 235 255
221 235 255
221 235 255
221 235 255
221 235 255
221 235 255
221 235 255
221 235 255
221 235 255
221 235 255
221 235 255
221 235 255
221 235 255
221 235 255
221 235 255
221 235 255
221 235 255
221 235 255
221 235 255
221 235 255
221 235 255
221 235 255
221 235 255
221 235 255
221 235 255
221 235 255
221 235 255
221 235 255
221 235 255
221 235 255
221 235 255
221 235 255
221 235 255
221 235 255
221 235 255
221 235 255
221 235 255
221 235 255
221 235 255
221 235 255
221 235 255
221 235 255
221 235 255
221 235 255
221 235 255
221 235 255
221 235 255
221 235 255
221 235 255
221 235 255
221 235 255
221 235 255
221 235 255
221 235 255
221 235 255
221 235 255
221 235 255
221 235 255
221 235 255
221 235 255
221 235 255
221 235 255
221 235 255
221 235 255
221 235 255
221 235 255
221 235 255
221 235 255
221 235 255
221 235 255
221 235 255
221 235 255
221 235 255
221 235 255
221 235 255
221 235 255
221 235 255
221 235 255
221 235 255
221 235 255
221 235 255
221 235 255
221 235 255
221 235 255
221 235 255
221 235 255
221 235 255
221 235 255
221 235 255
221 235 255
221 235 255
221 235 255
221 235 255
221 235 255
221 235 255
221 235 255
221 235 255
221 235 255
221 235 255
221 235 255
221 235 255
221 235 255
221 235 255
221 235 255
221 235 255
221 235 255
221 235 255
221 235 255
221 235 255
221 235 255
221 235 255
221 235 255
221 235 255
221 235 255
221 235 255
221 235 255
221 235 255
221 235 255
221 235 255
221 235 255
221 235 255
221 235 255
221 235 255
221 235 255
221 235 255
221 235 255
221 235 255
221 235 255
221 235 255
221 235 255
221 235 255
221 235 255
221 235 255
221 235 255
221 235 255
221 235 255
221 235 255
221 235 255
221 235 255
221 235 255
221 235 255
221 235 255
221 235 255
221 235 255
221 235 255
221 235 255
221 235 255
221 235 255
221 235 255
221 235 255
221 235 255
221 235 255
221 235 255
221 235 255
221 235 255
221 235 255
221 235 255
221 235 255
221 235 255
221 235 255
221 235 255
221 235 255
221 235 255
221 235 255
221 235 255
221 235 255
221 235 255
221 235 255
221 235 255
221 235 255
221 235 255
221 235 255
221 235 255
221 235 255
221 235 255
221 235 255
221 235 255
221 235 255
221 235 255
221 235 255
221 235 255
221 235 255
221 235 255
221 235 255
221 235 255
221 235 255
221 235 255
221 235 255
221 235 255
221 235 255
221 235 255
221 235 255
221 235 255
221 235 255
221 235 255
221 235 255
221 235 255
221 235 255
221 235 255
221 235 255
221 235 255
221 235 255
221 235 255
221 235 255
221 235 255
221 235 255
221 235 255
221 235 255
221 235 255
221 235 255
221 235 255
221 235 255
221 235 255
221 235 255
221 235 255
221 235 255
221 235 255
221 235 255
221 235 255
221 235 255
221 235 255
221 235 255
221 235 255
221 235 255
221 235 255
221 235 255
221 235 255
221 235 255
221 235 255
221 235 255
221 235 255
221 235 255
221 235 255
221 235 255
221 235 255
221 235 255
221 235 255
221 235 255
221 235 255
221 235 255
221 235 255
221 235 255
221 235 255
221 235 255
221 235 255
221 235 255
221 235 255
221 235 255
221 235 255
221 235 255
221 235 255
221 235 255
221 235 255
221 235 255
221 235 255
221 235 255
221 235 255
221 235 255
221 235 255
221 235 255
221 235 255
221 235 255
221 235 255
221 235 255
221 235 255
221 235 255
221 235 255
221 235 255
221 235 255
221 235 255
221 235 255
221 235 255
221 235 255
221 235 255
221 235 255
221 235 255
221 235 255
221 235 255
221 235 255
221 235 255
221 235 255
221 235 255
221 235 255
221 235 255
221 235 255
221 235 255
221 235 255
221 235 255
221 235 255
221 235 255
221 235 255
221 235 255
221 235 255
221 235 255
221 235 255
221 235 255
221 235 255
221 235 255
221 235 255
221 235 255
221 235 255
221 235 255
221 235 255
221 235 255
221 235 255
221 235 255
221 235 255
221 235 255
221 235 255
221 235 255
221 235 255
221 235 255
221 235 255
221 235 255
221 235 255
221 235 255
221 235 255
221 235 255
221 235 255
221 235 255
221 235 255
221 235 255
221 235 255
221 235 255
221 235 255
221 235 255
221 235 255
221 235 255
221 235 255
221 235 255
221 235 255
221 235 255
221 235 255
221 235 255
221 235 255
221 235 255
221 235 255
221 235 255
221 235 255
221 235 255
221 235 255
221 235 255
221 235 255
221 235 255
221 235 255
221 235 255
221 235 255
221 235 255
221 235 255
221 235 255
221 235 255
221 235 255
221 235 255
221 235 255
221 235 255
221 235 255
221 235 255
221 235 255
221 235 255
221 235 255
221 235 255
221 235 255
221 235 255
221 235 255
221 235 255
221 235 255
221 235 255
221 235 255
221 235 255
221 235 255
221 235 255
221 235 255
221 235 255
221 235 255
221 235 255
221 235 255
221 235 255
221 235 255
221 235 255
221 235 255
221 235 255
221 235 255
221 235 255
221 235 255
221 235 255
221 235 255
221 235 255
221 235 255
221 235 255
221 235 255
221 235 255
221 235 255
221 235 255
221 235 255
221 235 255
221 235 255
221 235 255
221 235 255
221 235 255
221 235 255
221 235 255
221 235 255
221 235 255
221 235 255
221 235 255
221 235 255
221 235 255
221 235 255
221 235 255
221 235 255
221 235 255
221 235 255
221 235 255
221 235 255
221 235 255
221 235 255
221 235 255
221 235 255
221 235 255
221 235 255
221 235 255
221 235 255
221 235 255
221 235 255
221 235 255
221 235 255
221 235 255
221 235 255
221 235 255
221 235 255
221 235 255
221 235 255
221 235 255
221 235 255
221 235 255
221 235 255
221 235 255
221 235 255
221 235 255
221 235 255
221 235 255
221 235 255
221 235 255
221 235 255
221 235 255
221 235 255
221 235 255
221 235 255
221 235 255
221 235 255
221 235 255
221 235 255
221 235 255
221 235 255
221 235 255
221 235 255
221 235 255
221 235 255
221 235 255
221 235 255
221 235 255
221 235 255
221 235 255
221 235 255
221 235 255
221 235 255
221 235 255
221 235 255
221 235 255
221 235 255
221 235 255
221 235 255
221 235 255
221 235 255
221 235 255
221 235 255
221 235 255
221 235 255
221 235 255
221 235 255
221 235 255
221 235 255
221 235 255
221 235 255
221 235 255
221 235 255
221 235 255
221 235 255
221 235 255
221 235 255
221 235 255
221 235 255
221 235 255
221 235 255
221 235 255
221 235 255
221 235 255
221 235 255
221 235 255
221 235 255
221 235 255
221 235 255
221 235 255
221 235 255
221 235 255
221 235 255
221 235 255
221 235 255
221 235 255
221 235 255
221 235 255
221 235 255
221 235 255
221 235 255
221 235 255
221 235 255
221 235 255
221 235 255
221 235 255
221 235 255
221 235 255
221 235 255
221 235 255
221 235 255
221 235 255
221 235 255
221 235 255
221 235 255
221 235 255
221 235 255
221 235 255
221 235 255
221 235 255
221 235 255
221 235 255
221 235 255
221 235 255
221 235 255
221 235 255
221 235 255
221 235 255
221 235 255
221 235 255
221 235 255
221 235 255
221 235 255
221 235 255
221 235 255
221 235 255
221 235 255
221 235 255
221 235 255
221 235 255
221 235 255
221 235 255
221 235 255
221 235 255
221 235 255
221 235 255
221 235 255
221 235 255
221 235 255
221 235 255
221 235 255
221 235 255
221 235 255
221 235 255
221 235 255
221 235 255
221 235 255
221 235 255
221 235 255
221 235 255
221 235 255
221 235 255
221 235 255
221 235 255
221 235 255
221 235 255
221 235 255
221 235 255
221 235 255
221 235 255
221 235 255
221 235 255
221 235 255
221 235 255
221 235 255
221 235 255
221 235 255
221 235 255
221 235 255
221 235 255
221 235 255
221 235 255
221 235 255
221 235 255
221 235 255
221 235 255
221 235 255
221 235 255
221 235 255
221 235 255
221 235 255
221 235 255
221 235 255
221 235 255
221 235 255
221 235 255
221 235 255
221 235 255
221 235 255
221 235 255
221 235 255
221 235 255
221 235 255
221 235 255
221 235 255
221 235 255
221 235 255
221 235 255
221 235 255
221 235 255
221 235 255
221 235 255
221 235 255
221 235 255
221 235 255
221 235 255
221 235 255
221 235 255
221 235 255
221 235 255
221 235 255
221 235 255
221 235 255
221 235 255
221 235 255
221 235 255
221 235 255
221 235 255
221 235 255
221 235 255
221 235 255
221 235 255
221 235 255
221 235 255
221 235 255
221 235 255
221 235 255
221 235 255
221 235 255
221 235 255
221 235 255
221 235 255
221 235 255
221 235 255
221 235 255
221 235 255
221 235 255
221 235 255
221 235 255
221 235 255
221 235 255
221 235 255
221 235 255
221 235 255
221 235 255
221 235 255
221 235 255
221 235 255
221 235 255
221 235 255
221 235 255
221 235 255
221 235 255
221 235 255
221 235 255
221 235 255
221 235 255
221 235 255
221 235 255
221 235 255
221 235 255
221 235 255
221 235 255
221 235 255
221 235 255
221 235 255
221 235 255
221 235 255
221 235 255
221 235 255
221 235 255
221 235 255
221 235 255
221 235 255
221 235 255
221 235 255
221 235 255
221 235 255
221 235 255
221 235 255
221 235 255
221 235 255
221 235 255
221 235 255
221 235 255
221 235 255
221 235 255
221 235 255
221 235 255
221 235 255
221 235 255
221 235 255
221 235 255
221 235 255
221 235 255
221 235 255
221 235 255
221 235 255
221 235 255
221 235 255
221 235 255
221 235 255
221 235 255
221 235 255
221 235 255
221 235 255
221 235 255
221 235 255
221 235 255
221 235 255
221 235 255
221 235 255
221 235 255
221 235 255
221 235 255
221 235 255
221 235 255
221 235 255
221 235 255
221 235 255
221 235 255
221 235 255
221 235 255
221 235 255
221 235 255
221 235 255
221 235 255
221 235 255
221 235 255
221 235 255
221 235 255
221 235 255
221 235 255
221 235 255
221 235 255
221 235 255
221 235 255
221 235 255
221 235 255
221 235 255
221 235 255
221 235 255
221 235 255
221 235 255
221 235 255
221 235 255
221 235 255
221 235 255
221 235 255
221 235 255
221 235 255
221 235 255
221 235 255
221 235 255
221 235 255
221 235 255
221 235 255
221 235 255
221 235 255
221 235 255
221 235 255
221 235 255
221 235 255
221 235 255
221 235 255
221 235 255
221 235 255
221 235 255
221 235 255
221 235 255
221 235 255
221 235 255
221 235 255
221 235 255
221 235 255
221 235 255
221 235 255
221 235 255
221 235 255
221 235 255
221 235 255
221 235 255
221 235 255
221 235 255
221 235 255
221 235 255
221 235 255
221 235 255
221 235 255
221 235 255
221 235 255
221 235 255
221 235 255
221 235 255
221 235 255
221 235 255
221 235 255
221 235 255
221 235 255
221 235 255
221 235 255
221 235 255
221 235 255
221 235 255
221 235 255
221 235 255
221 235 255
221 235 255
221 235 255
221 236 255
221 236 255
221 236 255
221 236 255
221 236 255
221 236 255
221 236 255
221 236 255
221 236 255
221 236 255
221 236 255
221 236 255
221 236 255
221 236 255
221 236 255
221 236 255
221 236 255
221 236 255
221 236 255
221 236 255
221 236 255
221 236 255
221 236 255
221 236 255
221 236 255
221 236 255
221 236 255
221 236 255
221 236 255
221 236 255
221 236 255
221 236 255
221 236 255
221 236 255
221 236 255
221 236 255
221 236 255
221 236 255
221 236 255
221 236 255
221 236 255
221 236 255
221 236 255
221 236 255
221 236 255
221 236 255
221 236 255
221 236 255
221 236 255
221 236 255
221 236 255
221 236 255
221 236 255
221 236 255
221 236 255
221 236 255
221 236 255
221 236 255
221 236 255
221 236 255
221 236 255
221 236 255
221 236 255
221 236 255
221 236 255
221 236 255
221 236 255
221 236 255
221 236 255
221 236 255
221 236 255
221 236 255
221 236 255
221 236 255
221 236 255
221 236 255
221 236 255
221 236 255
221 236 255
221 236 255
221 236 255
221 236 255
221 236 255
221 236 255
221 236 255
221 236 255
221 236 255
221 236 255
221 236 255
221 236 255
221 236 255
221 236 255
221 236 255
221 236 255
221 236 255
221 236 255
221 236 255
221 236 255
221 236 255
221 236 255
221 236 255
221 236 255
221 236 255
221 236 255
221 236 255
221 236 255
221 236 255
221 236 255
221 236 255
221 236 255
221 236 255
221 236 255
221 236 255
221 236 255
221 236 255
221 236 255
221 236 255
221 236 255
221 236 255
221 236 255
221 236 255
221 236 255
221 236 255
221 236 255
221 236 255
221 236 255
221 236 255
221 236 255
221 236 255
221 236 255
221 236 255
221 236 255
221 236 255
221 236 255
221 236 255
221 236 255
221 236 255
221 236 255
221 236 255
221 236 255
221 236 255
221 236 255
221 236 255
221 236 255
221 236 255
221 236 255
221 236 255
221 236 255
221 236 255
221 236 255
221 236 255
221 236 255
221 236 255
221 236 255
221 236 255
221 236 255
221 236 255
221 236 255
221 236 255
221 236 255
221 236 255
221 236 255
221 236 255
221 236 255
221 236 255
221 236 255
221 236 255
221 236 255
221 236 255
221 236 255
221 236 255
221 236 255
221 236 255
221 236 255
221 236 255
221 236 255
221 236 255
221 236 255
221 236 255
221 236 255
221 236 255
221 236 255
221 236 255
221 236 255
221 236 255
221 236 255
221 236 255
221 236 255
221 236 255
221 236 255
221 236 255
221 236 255
221 236 255
221 236 255
221 236 255
221 236 255
221 236 255
221 236 255
221 236 255
221 236 255
221 236 255
221 236 255
221 236 255
221 236 255
221 236 255
221 236 255
221 236 255
221 236 255
221 236 255
221 236 255
221 236 255
221 236 255
221 236 255
221 236 255
221 236 255
221 236 255
221 236 255
221 236 255
221 236 255
221 236 255
221 236 255
221 236 255
221 236 255
221 236 255
221 236 255
221 236 255
221 236 255
221 236 255
221 236 255
221 236 255
221 236 255
221 236 255
221 236 255
221 236 255
221 236 255
221 236 255
221 236 255
221 236 255
221 236 255
221 236 255
221 236 255
221 236 255
221 236 255
221 236 255
221 236 255
221 236 255
221 236 255
221 236 255
221 236 255
221 236 255
221 236 255
221 236 255
221 236 255
221 236 255
221 236 255
221 236 255
221 236 255
221 236 255
221 236 255
221 236 255
221 236 255
221 236 255
221 236 255
221 236 255
221 236 255
221 236 255
221 236 255
221 236 255
221 236 255
221 236 255
221 236 255
221 236 255
221 236 255
221 236 255
221 236 255
221 236 255
221 236 255
221 236 255
221 236 255
221 236 255
221 236 255
221 236 255
221 236 255
221 236 255
221 236 255
221 236 255
221 236 255
221 236 255
221 236 255
221 236 255
221 236 255
221 236 255
221 236 255
221 236 255
221 236 255
221 236 255
221 236 255
221 236 255
221 236 255
221 236 255
221 236 255
221 236 255
221 236 255
221 236 255
221 236 255
221 236 255
221 236 255
221 236 255
221 236 255
221 236 255
221 236 255
221 236 255
221 236 255
221 236 255
221 236 255
221 236 255
221 236 255
221 236 255
221 236 255
221 236 255
221 236 255
221 236 255
221 236 255
221 236 255
221 236 255
221 236 255
221 236 255
221 236 255
221 236 255
221 236 255
221 236 255
221 236 255
221 236 255
221 236 255
221 236 255
221 236 255
221 236 255
221 236 255
221 236 255
221 236 255
221 236 255
221 236 255
221 236 255
221 236 255
221 236 255
221 236 255
221 236 255
221 236 255
221 236 255
221 236 255
221 236 255
221 236 255
221 236 255
221 236 255
221 236 255
221 236 255
221 236 255
221 236 255
221 236 255
221 236 255
221 236 255
221 236 255
221 236 255
221 236 255
221 236 255
221 236 255
221 236 255
221 236 255
221 236 255
221 236 255
221 236 255
221 236 255
221 236 255
221 236 255
221 236 255
221 236 255
221 236 255
221 236 255
221 236 255
221 236 255
221 236 255
221 236 255
221 236 255
221 236 255
221 236 255
221 236 255
221 236 255
221 236 255
221 236 255
221 236 255
221 236 255
221 236 255
221 236 255
221 236 255
221 236 255
221 236 255
221 236 255
221 236 255
221 236 255
221 236 255
221 236 255
221 236 255
221 236 255
221 236 255
221 236 255
221 236 255
221 236 255
221 236 255
221 236 255
221 236 255
221 236 255
221 236 255
221 236 255
221 236 255
221 236 255
221 236 255
221 236 255
221 236 255
221 236 255
221 236 255
221 236 255
221 236 255
221 236 255
221 236 255
221 236 255
221 236 255
221 236 255
221 236 255
221 236 255
221 236 255
221 236 255
221 236 255
221 236 255
221 236 255
221 236 255
221 236 255
221 236 255
221 236 255
221 236 255
221 236 255
221 236 255
221 236 255
221 236 255
221 236 255
221 236 255
221 236 255
221 236 255
221 236 255
221 236 255
221 236 255
221 236 255
221 236 255
221 236 255
221 236 255
221 236 255
221 236 255
221 236 255
221 236 255
221 236 255
221 236 255
221 236 255
221 236 255
221 236 255
221 236 255
221 236 255
221 236 255
221 236 255
221 236 255
221 236 255
221 236 255
221 236 255
221 236 255
221 236 255
221 236 255
221 236 255
221 236 255
221 236 255
221 236 255
221 236 255
221 236 255
221 236 255
221 236 255
221 236 255
221 236 255
221 236 255
221 236 255
221 236 255
221 236 255
221 236 255
221 236 255
221 236 255
221 236 255
221 236 255
221 236 255
221 236 255
221 236 255
221 236 255
221 236 255
221 236 255
221 236 255
221 236 255
221 236 255
221 236 255
221 236 255
221 236 255
221 236 255
221 236 255
221 236 255
221 236 255
221 236 255
221 236 255
221 236 255
221 236 255
221 236 255
221 236 255
221 236 255
222 236 255
221 236 255
221 236 255
222 236 255
222 236 255
222 236 255
221 236 255
221 236 255
222 236 255
221 236 255
221 236 255
222 236 255
221 236 255
221 236 255
222 236 255
222 236 255
222 236 255
222 236 255
222 236 255
222 236 255
222 236 255
222 236 255
222 236 255
222 236 255
222 236 255
222 236 255
222 236 255
222 236 255
222 236 255
222 236 255
222 236 255
222 236 255
222 236 255
222 236 255
222 236 255
222 236 255
222 236 255
222 236 255
222 236 255
222 236 255
222 236 255
222 236 255
222 236 255
222 236 255
222 236 255
222 236 255
222 236 255
222 236 255
222 236 255
222 236 255
222 236 255
222 236 255
222 236 255
222 236 255
222 236 255
222 236 255
222 236 255
222 236 255
222 236 255
222 236 255
222 236 255
222 236 255
222 236 255
222 236 255
222 236 255
222 236 255
222 236 255
222 236 255
222 236 255
222 236 255
222 236 255
222 236 255
222 236 255
222 236 255
222 236 255
222 236 255
222 236 255
222 236 255
222 236 255
222 236 255
222 236 255
222 236 255
222 236 255
222 236 255
222 236 255
222 236 255
222 236 255
222 236 255
222 236 255
222 236 255
222 236 255
222 236 255
222 236 255
222 236 255
222 236 255
222 236 255
222 236 255
222 236 255
222 236 255
222 236 255
222 236 255
222 236 255
222 236 255
222 236 255
222 236 255
222 236 255
222 236 255
222 236 255
222 236 255
222 236 255
222 236 255
222 236 255
222 236 255
222 236 255
222 236 255
222 236 255
222 236 255
222 236 255
222 236 255
222 236 255
222 236 255
222 236 255
222 236 255
222 236 255
222 236 255
222 236 255
222 236 255
222 236 255
222 236 255
222 236 255
222 236 255
222 236 255
222 236 255
222 236 255
222 236 255
222 236 255
222 236 255
222 236 255
222 236 255
222 236 255
222 236 255
222 236 255
222 236 255
222 236 255
222 236 255
222 236 255
222 236 255
222 236 255
222 236 255
222 236 255
222 236 255
222 236 255
222 236 255
222 236 255
222 236 255
221 236 255
222 236 255
222 236 255
221 236 255
222 236 255
221 236 255
221 236 255
222 236 255
221 236 255
221 236 255
221 236 255
221 236 255
221 236 255
221 236 255
221 236 255
221 236 255
221 236 255
221 236 255
221 236 255
221 236 255
221 236 255
221 236 255
221 236 255
221 236 255
221 236 255
221 236 255
221 236 255
221 236 255
221 236 255
221 236 255
221 236 255
221 236 255
221 236 255
221 236 255
221 236 255
221 236 255
221 236 255
221 236 255
221 236 255
221 236 255
221 236 255
221 236 255
221 236 255
221 236 255
221 236 255
221 236 255
221 236 255
221 236 255
221 236 255
221 236 255
221 236 255
221 236 255
221 236 255
221 236 255
221 236 255
221 236 255
221 236 255
221 236 255
221 236 255
221 236 255
221 236 255
221 236 255
221 236 255
221 236 255
221 236 255
221 236 255
221 236 255
221 236 255
221 236 255
221 236 255
221 236 255
221 236 255
221 236 255
221 236 255
221 236 255
221 236 255
221 236 255
221 236 255
221 236 255
221 236 255
221 236 255
221 236 255
221 236 255
221 236 255
221 236 255
221 236 255
221 236 255
221 236 255
221 236 255
221 236 255
221 236 255
221 236 255
221 236 255
221 236 255
221 236 255
221 236 255
221 236 255
221 236 255
221 236 255
221 236 255
221 236 255
221 236 255
221 236 255
221 236 255
221 236 255
221 236 255
221 236 255
221 236 255
221 236 255
221 236 255
221 236 255
221 236 255
221 236 255
221 236 255
221 236 255
221 236 255
221 236 255
221 236 255
221 236 255
221 236 255
221 236 255
221 236 255
221 236 255
221 236 255
221 236 255
221 236 255
221 236 255
221 236 255
221 236 255
222 236 255
222 236 255
222 236 255
222 236 255
222 236 255
222 236 255
222 236 255
222 236 255
222 236 255
222 236 255
222 236 255
222 236 255
222 236 255
222 236 255
222 236 255
222 236 255
222 236 255
222 236 255
222 236 255
222 236 255
222 236 255
222 236 255
222 236 255
222 236 255
222 236 255
222 236 255
222 236 255
222 236 255
222 236 255
222 236 255
222 236 255
222 236 255
222 236 255
222 236 255
222 236 255
222 236 255
222 236 255
222 236 255
222 236 255
222 236 255
222 236 255
222 236 255
222 236 255
222 236 255
222 236 255
222 236 255
222 236 255
222 236 255
222 236 255
222 236 255
222 236 255
222 236 255
222 236 255
222 236 255
222 236 255
222 236 255
222 236 255
222 236 255
222 236 255
222 236 255
222 236 255
222 236 255
222 236 255
222 236 255
222 236 255
222 236 255
222 236 255
222 236 255
222 236 255
222 236 255
222 236 255
222 236 255
222 236 255
222 236 255
222 236 255
222 236 255
222 236 255
222 236 255
222 236 255
222 236 255
222 236 255
222 236 255
222 236 255
222 236 255
222 236 255
222 236 255
222 236 255
222 236 255
222 236 255
222 236 255
222 236 255
222 236 255
222 236 255
222 236 255
222 236 255
222 236 255
222 236 255
222 236 255
222 236 255
222 236 255
222 236 255
222 236 255
222 236 255
222 236 255
222 236 255
222 236 255
222 236 255
222 236 255
222 236 255
222 236 255
222 236 255
222 236 255
222 236 255
222 236 255
222 236 255
222 236 255
222 236 255
222 236 255
222 236 255
222 236 255
222 236 255
222 236 255
222 236 255
222 236 255
222 236 255
222 236 255
222 236 255
222 236 255
222 236 255
222 236 255
222 236 255
222 236 255
222 236 255
222 236 255
222 236 255
222 236 255
222 236 255
222 236 255
222 236 255
222 236 255
222 236 255
222 236 255
222 236 255
222 236 255
222 236 255
222 236 255
222 236 255
222 236 255
222 236 255
222 236 255
222 236 255
222 236 255
222 236 255
222 236 255
222 236 255
222 236 255
222 236 255
222 236 255
222 236 255
222 236 255
222 236 255
222 236 255
222 236 255
222 236 255
222 236 255
222 236 255
222 236 255
222 236 255
222 236 255
222 236 255
222 236 255
222 236 255
222 236 255
222 236 255
222 236 255
222 236 255
222 236 255
222 236 255
222 236 255
222 236 255
222 236 255
222 236 255
222 236 255
222 236 255
222 236 255
222 236 255
222 236 255
222 236 255
222 236 255
222 236 255
222 236 255
222 236 255
222 236 255
222 236 255
222 236 255
222 236 255
222 236 255
222 236 255
222 236 255
222 236 255
222 236 255
222 236 255
222 236 255
222 236 255
222 236 255
222 236 255
222 236 255
222 236 255
222 236 255
222 236 255
222 236 255
222 236 255
222 236 255
222 236 255
222 236 255
222 236 255
222 236 255
222 236 255
222 236 255
222 236 255
222 236 255
222 236 255
222 236 255
222 236 255
222 236 255
222 236 255
222 236 255
222 236 255
222 236 255
222 236 255
222 236 255
222 236 255
222 236 255
222 236 255
222 236 255
222 236 255
222 236 255
222 236 255
222 236 255
222 236 255
222 236 255
222 236 255
222 236 255
222 236 255
222 236 255
222 236 255
222 236 255
222 236 255
222 236 255
222 236 255
222 236 255
222 236 255
222 236 255
222 236 255
222 236 255
222 236 255
222 236 255
222 236 255
222 236 255
222 236 255
222 236 255
222 236 255
222 236 255
222 236 255
222 236 255
222 236 255
222 236 255
222 236 255
222 236 255
222 236 255
222 236 255
222 236 255
222 236 255
222 236 255
222 236 255
222 236 255
222 236 255
222 236 255
222 236 255
222 236 255
222 236 255
222 236 255
222 236 255
222 236 255
222 236 255
222 236 255
222 236 255
222 236 255
222 236 255
222 236 255
222 236 255
222 236 255
222 236 255
222 236 255
222 236 255
222 236 255
222 236 255
222 236 255
222 236 255
222 236 255
222 236 255
222 236 255
222 236 255
222 236 255
222 236 255
222 236 255
222 236 255
222 236 255
222 236 255
222 236 255
222 236 255
222 236 255
222 236 255
222 236 255
222 236 255
222 236 255
222 236 255
222 236 255
222 236 255
222 236 255
222 236 255
222 236 255
222 236 255
222 236 255
222 236 255
222 236 255
222 236 255
222 236 255
222 236 255
222 236 255
222 236 255
222 236 255
222 236 255
222 236 255
222 236 255
222 236 255
222 236 255
222 236 255
222 236 255
222 236 255
222 236 255
222 236 255
222 236 255
222 236 255
222 236 255
222 236 255
222 236 255
222 236 255
222 236 255
222 236 255
222 236 255
222 236 255
222 236 255
222 236 255
222 236 255
222 236 255
222 236 255
222 236 255
222 236 255
222 236 255
222 236 255
222 236 255
222 236 255
222 236 255
222 236 255
222 236 255
222 236 255
222 236 255
222 236 255
222 236 255
222 236 255
222 236 255
222 236 255
222 236 255
222 236 255
222 236 255
222 236 255
222 236 255
222 236 255
222 236 255
222 236 255
222 236 255
222 236 255
222 236 255
222 236 255
222 236 255
222 236 255
222 236 255
222 236 255
222 236 255
222 236 255
222 236 255
222 236 255
222 236 255
222 236 255
222 236 255
222 236 255
222 236 255
222 236 255
222 236 255
222 236 255
222 236 255
222 236 255
222 236 255
222 236 255
222 236 255
222 236 255
222 236 255
222 236 255
222 236 255
222 236 255
222 236 255
222 236 255
222 236 255
222 236 255
222 236 255
222 236 255
222 236 255
222 236 255
222 236 255
222 236 255
222 236 255
222 236 255
222 236 255
222 236 255
222 236 255
222 236 255
222 236 255
222 236 255
222 236 255
222 236 255
222 236 255
222 236 255
222 236 255
222 236 255
222 236 255
222 236 255
222 236 255
222 236 255
222 236 255
222 236 255
222 236 255
222 236 255
222 236 255
222 236 255
222 236 255
222 236 255
222 236 255
222 236 255
222 236 255
222 236 255
222 236 255
222 236 255
222 236 255
222 236 255
222 236 255
222 236 255
222 236 255
222 236 255
222 236 255
222 236 255
222 236 255
222 236 255
222 236 255
222 236 255
222 236 255
222 236 255
222 236 255
222 236 255
222 236 255
222 236 255
222 236 255
222 236 255
222 236 255
222 236 255
222 236 255
222 236 255
222 236 255
222 236 255
222 236 255
222 236 255
222 236 255
222 236 255
222 236 255
222 236 255
222 236 255
222 236 255
222 236 255
222 236 255
222 236 255
222 236 255
222 236 255
222 236 255
222 236 255
222 236 255
222 236 255
222 236 255
222 236 255
222 236 255
222 236 255
222 236 255
222 236 255
222 236 255
222 236 255
222 236 255
222 236 255
222 236 255
222 236 255
222 236 255
222 236 255
222 236 255
222 236 255
222 236 255
222 236 255
222 236 255
222 236 255
222 236 255
222 236 255
222 236 255
222 236 255
222 236 255
222 236 255
222 236 255
222 236 255
222 236 255
222 236 255
222 236 255
222 236 255
222 236 255
222 236 255
222 236 255
222 236 255
222 236 255
222 236 255
222 236 255
222 236 255
222 236 255
222 236 255
222 236 255
222 236 255
222 236 255
222 236 255
222 236 255
222 236 255
222 236 255
222 236 255
222 236 255
222 236 255
222 236 255
222 236 255
222 236 255
222 236 255
222 236 255
222 236 255
222 236 255
222 236 255
222 236 255
222 236 255
222 236 255
222 236 255
222 236 255
222 236 255
222 236 255
222 236 255
222 236 255
222 236 255
222 236 255
222 236 255
222 236 255
222 236 255
222 236 255
222 236 255
222 236 255
222 236 255
222 236 255
222 236 255
222 236 255
222 236 255
222 236 255
222 236 255
222 236 255
222 236 255
222 236 255
222 236 255
222 236 255
222 236 255
222 236 255
222 236 255
222 236 255
222 236 255
222 236 255
222 236 255
222 236 255
222 236 255
222 236 255
222 236 255
222 236 255
222 236 255
222 236 255
222 236 255
222 236 255
222 236 255
222 236 255
222 236 255
222 236 255
222 236 255
222 236 255
222 236 255
222 236 255
222 236 255
222 236 255
222 236 255
222 236 255
222 236 255
222 236 255
222 236 255
222 236 255
222 236 255
222 236 255
222 236 255
222 236 255
222 236 255
222 236 255
222 236 255
222 236 255
222 236 255
222 236 255
222 236 255
222 236 255
222 236 255
222 236 255
222 236 255
222 236 255
222 236 255
222 236 255
222 236 255
222 236 255
222 236 255
222 236 255
222 236 255
222 236 255
222 236 255
222 236 255
222 236 255
222 236 255
222 236 255
222 236 255
222 236 255
222 236 255
222 236 255
222 236 255
222 236 255
222 236 255
222 236 255
222 236 255
222 236 255
222 236 255
222 236 255
222 236 255
222 236 255
222 236 255
222 236 255
222 236 255
222 236 255
222 236 255
222 236 255
222 236 255
222 236 255
222 236 255
222 236 255
222 236 255
222 236 255
222 236 255
222 236 255
222 236 255
222 236 255
222 236 255
222 236 255
222 236 255
222 236 255
222 236 255
222 236 255
222 236 255
222 236 255
222 236 255
222 236 255
222 236 255
222 236 255
222 236 255
222 236 255
222 236 255
222 236 255
222 236 255
222 236 255
222 236 255
222 236 255
222 236 255
222 236 255
222 236 255
222 236 255
222 236 255
222 236 255
222 236 255
222 236 255
222 236 255
222 236 255
222 236 255
222 236 255
222 236 255
222 236 255
222 236 255
222 236 255
222 236 255
222 236 255
222 236 255
222 236 255
222 236 255
222 236 255
222 236 255
222 236 255
222 236 255
222 236 255
222 236 255
222 236 255
222 236 255
222 236 255
222 236 255
222 236 255
222 236 255
222 236 255
222 236 255
222 236 255
222 236 255
222 236 255
222 236 255
222 236 255
222 236 255
222 236 255
222 236 255
222 236 255
222 236 255
222 236 255
222 236 255
222 236 255
222 236 255
222 236 255
222 236 255
222 236 255
222 236 255
222 236 255
222 236 255
222 236 255
222 236 255
222 236 255
222 236 255
222 236 255
222 236 255
222 236 255
222 236 255
222 236 255
222 236 255
222 236 255
222 236 255
222 236 255
222 236 255
222 236 255
222 236 255
222 236 255
222 236 255
222 236 255
222 236 255
222 236 255
222 236 255
222 236 255
222 236 255
222 236 255
222 236 255
222 236 255
222 236 255
222 236 255
222 236 255
222 236 255
222 236 255
222 236 255
222 236 255
222 236 255
222 236 255
222 236 255
222 236 255
222 236 255
222 236 255
222 236 255
222 236 255
222 236 255
222 236 255
222 236 255
222 236 255
222 236 255
222 236 255
222 236 255
222 236 255
222 236 255
222 236 255
222 236 255
222 236 255
222 236 255
222 236 255
222 236 255
222 236 255
222 236 255
222 236 255
222 236 255
222 236 255
222 236 255
222 236 255
222 236 255
222 236 255
222 236 255
222 236 255
222 236 255
222 236 255
222 236 255
222 236 255
222 236 255
222 236 255
222 236 255
222 236 255
222 236 255
222 236 255
222 236 255
222 236 255
222 236 255
222 236 255
222 236 255
222 236 255
222 236 255
222 236 255
222 236 255
222 236 255
222 236 255
222 236 255
222 236 255
222 236 255
222 236 255
222 236 255
222 236 255
222 236 255
222 236 255
222 236 255
222 236 255
222 236 255
222 236 255
222 236 255
222 236 255
222 236 255
222 236 255
222 236 255
222 236 255
222 236 255
222 236 255
222 236 255
222 236 255
222 236 255
222 236 255
222 236 255
222 236 255
222 236 255
222 236 255
222 236 255
222 236 255
222 236 255
222 236 255
222 236 255
222 236 255
222 236 255
222 236 255
222 236 255
222 236 255
222 236 255
222 236 255
222 236 255
222 236 255
222 236 255
222 236 255
222 236 255
222 236 255
222 236 255
222 236 255
222 236 255
222 236 255
222 236 255
222 236 255
222 236 255
222 236 255
222 236 255
222 236 255
222 236 255
222 236 255
222 236 255
222 236 255
222 236 255
222 236 255
222 236 255
222 236 255
222 236 255
222 236 255
222 236 255
222 236 255
222 236 255
222 236 255
222 236 255
222 236 255
222 236 255
222 236 255
222 236 255
222 236 255
222 236 255
222 236 255
222 236 255
222 236 255
222 236 255
222 236 255
222 236 255
222 236 255
222 236 255
222 236 255
222 236 255
222 236 255
222 236 255
222 236 255
222 236 255
222 236 255
222 236 255
222 236 255
222 236 255
222 236 255
222 236 255
222 236 255
222 236 255
222 236 255
222 236 255
222 236 255
222 236 255
222 236 255
222 236 255
222 236 255
222 236 255
222 236 255
222 236 255
222 236 255
222 236 255
222 236 255
222 236 255
222 236 255
222 236 255
222 236 255
222 236 255
222 236 255
222 236 255
222 236 255
222 236 255
222 236 255
222 236 255
222 236 255
222 236 255
222 236 255
222 236 255
222 236 255
222 236 255
222 236 255
222 236 255
222 236 255
222 236 255
222 236 255
222 236 255
222 236 255
222 236 255
222 236 255
222 236 255
222 236 255
222 236 255
222 236 255
222 236 255
222 236 255
222 236 255
222 236 255
222 236 255
222 236 255
222 236 255
222 236 255
222 236 255
222 236 255
222 236 255
222 236 255
222 236 255
222 236 255
222 236 255
222 236 255
222 236 255
222 236 255
222 236 255
222 236 255
222 236 255
222 236 255
222 236 255
222 236 255
222 236 255
222 236 255
222 236 255
222 236 255
222 236 255
222 236 255
222 236 255
222 236 255
222 236 255
222 236 255
222 236 255
222 236 255
222 236 255
222 236 255
222 236 255
222 236 255
222 236 255
222 236 255
222 236 255
222 236 255
222 236 255
222 236 255
222 236 255
222 236 255
222 236 255
222 236 255
222 236 255
222 236 255
222 236 255
222 236 255
222 236 255
222 236 255
222 236 255
222 236 255
222 236 255
222 236 255
222 236 255
222 236 255
222 236 255
222 236 255
222 236 255
222 236 255
222 236 255
222 236 255
222 236 255
222 236 255
222 236 255
222 236 255
222 236 255
222 236 255
222 236 255
222 236 255
222 236 255
222 236 255
222 236 255
222 236 255
222 236 255
222 236 255
222 236 255
222 236 255
222 236 255
222 236 255
222 236 255
222 236 255
222 236 255
222 236 255
222 236 255
222 236 255
222 236 255
222 236 255
222 236 255
222 236 255
222 236 255
222 236 255
222 236 255
222 236 255
222 236 255
222 236 255
222 236 255
222 236 255
222 236 255
222 236 255
222 236 255
222 236 255
222 236 255
222 236 255
222 236 255
222 236 255
222 236 255
222 236 255
222 236 255
222 236 255
222 236 255
222 236 255
222 236 255
222 236 255
222 236 255
222 236 255
222 236 255
222 236 255
222 236 255
222 236 255
222 236 255
222 236 255
222 236 255
222 236 255
222 236 255
222 236 255
222 236 255
222 236 255
222 236 255
222 236 255
222 236 255
222 236 255
222 236 255
222 236 255
222 236 255
222 236 255
222 236 255
222 236 255
222 236 255
222 236 255
222 236 255
222 236 255
222 236 255
222 236 255
222 236 255
222 236 255
222 236 255
222 236 255
222 236 255
222 236 255
222 236 255
222 236 255
222 236 255
222 236 255
222 236 255
222 236 255
222 236 255
222 236 255
222 236 255
222 236 255
222 236 255
222 236 255
222 236 255
222 236 255
222 236 255
222 236 255
222 236 255
222 236 255
222 236 255
222 236 255
222 236 255
222 236 255
222 236 255
222 236 255
222 236 255
222 236 255
222 236 255
222 236 255
222 236 255
222 236 255
222 236 255
222 236 255
222 236 255
222 236 255
222 236 255
222 236 255
222 236 255
222 236 255
222 236 255
222 236 255
222 236 255
222 236 255
222 236 255
222 236 255
222 236 255
222 236 255
222 236 255
222 236 255
222 236 255
222 236 255
222 236 255
222 236 255
222 236 255
222 236 255
222 236 255
222 236 255
222 236 255
222 236 255
222 236 255
222 236 255
222 236 255
222 236 255
222 236 255
222 236 255
222 236 255
222 236 255
222 236 255
222 236 255
222 236 255
222 236 255
222 236 255
222 236 255
222 236 255
222 236 255
222 236 255
222 236 255
222 236 255
222 236 255
222 236 255
222 236 255
222 236 255
222 236 255
222 236 255
222 236 255
222 236 255
222 236 255
222 236 255
222 236 255
222 236 255
222 236 255
222 236 255
222 236 255
222 236 255
222 236 255
222 236 255
222 236 255
222 236 255
222 236 255
222 236 255
222 236 255
222 236 255
222 236 255
222 236 255
222 236 255
222 236 255
222 236 255
222 236 255
222 236 255
222 236 255
222 236 255
222 236 255
222 236 255
222 236 255
222 236 255
222 236 255
222 236 255
222 236 255
222 236 255
222 236 255
222 236 255
222 236 255
222 236 255
222 236 255
222 236 255
222 236 255
222 236 255
222 236 255
222 236 255
222 236 255
222 236 255
222 236 255
222 236 255
222 236 255
222 236 255
222 236 255
222 236 255
222 236 255
222 236 255
222 236 255
222 236 255
222 236 255
222 236 255
222 236 255
222 236 255
222 236 255
222 236 255
222 236 255
222 236 255
222 236 255
222 236 255
222 236 255
222 236 255
222 236 255
222 236 255
222 236 255
222 236 255
222 236 255
222 236 255
222 236 255
222 236 255
222 236 255
222 236 255
222 236 255
222 236 255
222 236 255
222 236 255
222 236 255
222 236 255
222 236 255
222 236 255
222 236 255
222 236 255
222 236 255
222 236 255
222 236 255
222 236 255
222 236 255
222 236 255
222 236 255
222 236 255
222 236 255
222 236 255
222 236 255
222 236 255
222 236 255
222 236 255
222 236 255
222 236 255
222 236 255
222 236 255
222 236 255
222 236 255
222 236 255
222 236 255
222 236 255
222 236 255
222 236 255
222 236 255
222 236 255
222 236 255
222 236 255
222 236 255
222 236 255
222 236 255
222 236 255
222 236 255
222 236 255
222 236 255
222 236 255
222 236 255
222 236 255
222 236 255
222 236 255
222 236 255
222 236 255
222 236 255
222 236 255
222 236 255
222 236 255
222 236 255
222 236 255
222 236 255
222 236 255
222 236 255
222 236 255
222 236 255
222 236 255
222 236 255
222 236 255
222 236 255
222 236 255
222 236 255
222 236 255
222 236 255
222 236 255
222 236 255
222 236 255
222 236 255
222 236 255
222 236 255
222 236 255
222 236 255
222 236 255
222 236 255
222 236 255
222 236 255
222 236 255
222 236 255
222 236 255
222 236 255
222 236 255
222 236 255
222 236 255
222 236 255
222 236 255
222 236 255
222 236 255
222 236 255
222 236 255
222 236 255
222 236 255
222 236 255
222 236 255
222 236 255
222 236 255
222 236 255
222 236 255
222 236 255
222 236 255
222 236 255
222 236 255
222 236 255
222 236 255
222 236 255
222 236 255
222 236 255
222 236 255
222 236 255
222 236 255
222 236 255
222 236 255
222 236 255
222 236 255
222 236 255
222 236 255
222 236 255
222 236 255
222 236 255
222 236 255
222 236 255
222 236 255
222 236 255
222 236 255
222 236 255
222 236 255
222 236 255
222 236 255
222 236 255
222 236 255
222 236 255
222 236 255
222 236 255
222 236 255
222 236 255
222 236 255
222 236 255
222 236 255
222 236 255
222 236 255
222 236 255
222 236 255
222 236 255
222 236 255
222 236 255
222 236 255
222 236 255
222 236 255
222 236 255
222 236 255
222 236 255
222 236 255
222 236 255
222 236 255
222 236 255
222 236 255
222 236 255
222 236 255
222 236 255
222 236 255
222 236 255
222 236 255
222 236 255
222 236 255
222 236 255
222 236 255
222 236 255
222 236 255
222 236 255
222 236 255
222 236 255
222 236 255
222 236 255
222 236 255
222 236 255
222 236 255
222 236 255
222 236 255
222 236 255
222 236 255
222 236 255
222 236 255
222 236 255
222 236 255
222 236 255
222 236 255
222 236 255
222 236 255
222 236 255
222 236 255
222 236 255
222 236 255
222 236 255
222 236 255
222 236 255
222 236 255
222 236 255
222 236 255
222 236 255
222 236 255
222 236 255
222 236 255
222 236 255
222 236 255
222 236 255
222 236 255
222 236 255
222 236 255
222 236 255
222 236 255
222 236 255
222 236 255
222 236 255
222 236 255
222 236 255
222 236 255
222 236 255
222 236 255
222 236 255
222 236 255
222 236 255
222 236 255
222 236 255
222 236 255
222 236 255
222 236 255
222 236 255
222 236 255
222 236 255
222 236 255
222 236 255
222 236 255
222 236 255
222 236 255
222 236 255
222 236 255
222 236 255
222 236 255
222 236 255
222 236 255
222 236 255
222 236 255
222 236 255
222 236 255
222 236 255
222 236 255
222 236 255
222 236 255
222 236 255
222 236 255
222 236 255
222 236 255
222 236 255
222 236 255
222 236 255
222 236 255
222 236 255
222 236 255
222 236 255
222 236 255
222 236 255
222 236 255
222 236 255
222 236 255
222 236 255
222 236 255
222 236 255
222 236 255
222 236 255
222 236 255
222 236 255
222 236 255
222 236 255
222 236 255
222 236 255
222 236 255
222 236 255
222 236 255
222 236 255
222 236 255
222 236 255
222 236 255
222 236 255
222 236 255
222 236 255
222 236 255
222 236 255
222 236 255
222 236 255
222 236 255
222 236 255
222 236 255
222 236 255
222 236 255
222 236 255
222 236 255
222 236 255
222 236 255
222 236 255
222 236 255
222 236 255
222 236 255
222 236 255
222 236 255
222 236 255
222 236 255
222 236 255
222 236 255
222 236 255
222 236 255
222 236 255
222 236 255
222 236 255
222 236 255
222 236 255
222 236 255
222 236 255
222 236 255
222 236 255
222 236 255
222 236 255
222 236 255
222 236 255
222 236 255
222 236 255
222 236 255
222 236 255
222 236 255
222 236 255
222 236 255
222 236 255
222 236 255
222 236 255
222 236 255
222 236 255
222 236 255
222 236 255
222 236 255
222 236 255
222 236 255
222 236 255
222 236 255
222 236 255
222 236 255
222 236 255
222 236 255
222 236 255
222 236 255
222 236 255
222 236 255
222 236 255
222 236 255
222 236 255
222 236 255
222 236 255
222 236 255
222 236 255
222 236 255
222 236 255
222 236 255
222 236 255
222 236 255
222 236 255
222 236 255
222 236 255
222 236 255
222 236 255
222 236 255
222 236 255
222 236 255
222 236 255
222 236 255
222 236 255
222 236 255
222 236 255
222 236 255
222 236 255
222 236 255
222 236 255
222 236 255
222 236 255
222 236 255
222 236 255
222 236 255
222 236 255
222 236 255
222 236 255
222 236 255
222 236 255
222 236 255
222 236 255
222 236 255
222 236 255
222 236 255
222 236 255
222 236 255
222 236 255
222 236 255
222 236 255
222 236 255
222 236 255
222 236 255
222 236 255
222 236 255
222 236 255
222 236 255
222 236 255
222 236 255
222 236 255
222 236 255
222 236 255
222 236 255
222 236 255
222 236 255
222 236 255
222 236 255
222 236 255
222 236 255
222 236 255
222 236 255
222 236 255
222 236 255
223 236 255
223 236 255
223 236 255
223 236 255
223 236 255
223 236 255
223 236 255
223 236 255
223 236 255
223 236 255
223 236 255
223 236 255
223 236 255
223 236 255
223 236 255
223 236 255
223 236 255
223 236 255
223 236 255
223 236 255
223 236 255
223 236 255
223 236 255
223 236 255
223 236 255
223 236 255
223 236 255
223 236 255
223 236 255
223 236 255
223 236 255
223 236 255
223 236 255
223 236 255
223 236 255
223 236 255
223 236 255
223 236 255
223 236 255
223 236 255
223 236 255
223 236 255
223 236 255
223 236 255
223 236 255
223 236 255
223 236 255
223 236 255
223 236 255
223 236 255
223 236 255
223 236 255
223 236 255
223 236 255
223 236 255
223 236 255
223 236 255
223 236 255
223 236 255
223 236 255
223 236 255
223 236 255
223 236 255
223 236 255
223 236 255
223 236 255
223 236 255
223 236 255
223 236 255
223 236 255
223 236 255
223 236 255
223 236 255
223 236 255
223 236 255
223 236 255
223 236 255
223 236 255
223 236 255
223 236 255
223 236 255
223 236 255
223 236 255
223 236 255
223 236 255
223 236 255
223 236 255
223 236 255
223 236 255
223 236 255
223 236 255
223 236 255
223 236 255
223 236 255
223 236 255
223 236 255
223 236 255
223 236 255
223 236 255
223 236 255
223 236 255
223 236 255
223 236 255
223 236 255
223 236 255
223 236 255
223 236 255
223 236 255
223 236 255
223 236 255
223 236 255
223 236 255
223 236 255
223 236 255
223 236 255
223 236 255
223 236 255
223 236 255
223 236 255
223 236 255
223 236 255
223 236 255
223 236 255
223 236 255
223 236 255
223 236 255
223 236 255
223 236 255
223 236 255
223 236 255
223 236 255
223 236 255
223 236 255
223 236 255
223 236 255
223 236 255
223 236 255
223 236 255
223 236 255
223 236 255
222 236 255
223 236 255
222 236 255
222 236 255
222 236 255
222 236 255
222 236 255
222 236 255
222 236 255
222 236 255
222 236 255
222 236 255
222 236 255
222 236 255
222 236 255
222 236 255
222 236 255
222 236 255
222 236 255
222 236 255
222 236 255
222 236 255
222 236 255
222 236 255
222 236 255
222 236 255
222 236 255
222 236 255
222 236 255
222 236 255
222 236 255
222 236 255
222 236 255
222 236 255
222 236 255
222 236 255
222 236 255
222 236 255
222 236 255
222 236 255
222 236 255
222 236 255
222 236 255
222 236 255
222 236 255
222 236 255
222 236 255
222 236 255
222 236 255
222 236 255
222 236 255
222 236 255
222 236 255
222 236 255
222 236 255
222 236 255
222 236 255
222 236 255
222 236 255
222 236 255
222 236 255
222 236 255
222 236 255
222 236 255
222 236 255
222 236 255
222 236 255
222 236 255
222 236 255
222 236 255
222 236 255
222 236 255
222 236 255
222 236 255
222 236 255
222 236 255
222 236 255
222 236 255
222 236 255
222 236 255
222 236 255
222 236 255
222 236 255
222 236 255
222 236 255
222 236 255
222 236 255
222 236 255
222 236 255
222 236 255
222 236 255
222 236 255
222 236 255
222 236 255
222 236 255
222 236 255
222 236 255
222 236 255
222 236 255
222 236 255
222 236 255
222 236 255
222 236 255
222 236 255
222 236 255
222 236 255
222 236 255
222 236 255
222 236 255
222 236 255
222 236 255
222 236 255
222 236 255
222 236 255
222 236 255
222 236 255
222 236 255
222 236 255
222 236 255
222 236 255
222 236 255
222 236 255
222 236 255
222 236 255
222 236 255
222 236 255
222 236 255
222 236 255
222 236 255
222 236 255
222 236 255
222 236 255
222 236 255
222 236 255
222 236 255
222 236 255
222 236 255
222 236 255
222 236 255
222 236 255
222 236 255
222 236 255
222 236 255
222 236 255
222 236 255
222 236 255
222 236 255
222 236 255
222 236 255
222 236 255
222 236 255
222 236 255
222 236 255
222 236 255
222 236 255
222 236 255
222 236 255
222 236 255
222 236 255
222 236 255
222 236 255
222 236 255
222 236 255
222 236 255
222 236 255
222 236 255
222 236 255
222 236 255
222 236 255
222 236 255
222 236 255
222 236 255
222 236 255
222 236 255
222 236 255
222 236 255
222 236 255
222 236 255
222 236 255
222 236 255
222 236 255
222 236 255
222 236 255
222 236 255
222 236 255
222 236 255
222 236 255
222 236 255
222 236 255
222 236 255
222 236 255
222 236 255
222 236 255
222 236 255
222 236 255
222 236 255
222 236 255
222 236 255
222 236 255
222 236 255
222 236 255
222 236 255
222 236 255
222 236 255
222 236 255
222 236 255
222 236 255
222 236 255
222 236 255
222 236 255
222 236 255
222 236 255
222 236 255
222 236 255
222 236 255
222 236 255
222 236 255
223 236 255
222 236 255
223 236 255
223 236 255
223 236 255
223 236 255
223 236 255
223 236 255
223 236 255
223 236 255
223 236 255
223 236 255
223 236 255
223 236 255
223 236 255
223 236 255
223 236 255
223 236 255
223 236 255
223 236 255
223 236 255
223 236 255
223 236 255
223 236 255
223 236 255
223 236 255
223 236 255
223 236 255
223 236 255
223 236 255
223 236 255
223 236 255
223 236 255
223 236 255
223 236 255
223 236 255
223 236 255
223 236 255
223 236 255
223 236 255
223 236 255
223 236 255
223 236 255
223 236 255
223 236 255
223 236 255
223 236 255
223 236 255
223 236 255
223 236 255
223 236 255
223 236 255
223 236 255
223 236 255
223 236 255
223 236 255
223 236 255
223 236 255
223 236 255
223 236 255
223 236 255
223 236 255
223 236 255
223 236 255
223 236 255
223 236 255
223 236 255
223 236 255
223 236 255
223 236 255
223 236 255
223 236 255
223 236 255
223 236 255
223 236 255
223 236 255
223 236 255
223 236 255
223 236 255
223 236 255
223 236 255
223 236 255
223 236 255
223 236 255
223 236 255
223 236 255
223 236 255
223 236 255
223 236 255
223 236 255
223 236 255
223 236 255
223 236 255
223 236 255
223 236 255
223 236 255
223 236 255
223 236 255
223 236 255
223 236 255
223 236 255
223 236 255
223 236 255
223 236 255
223 236 255
223 236 255
223 236 255
223 236 255
223 236 255
223 236 255
223 236 255
223 236 255
223 236 255
223 236 255
223 236 255
223 236 255
223 236 255
223 236 255
223 236 255
223 236 255
223 236 255
223 236 255
223 236 255
223 236 255
223 236 255
223 236 255
223 236 255
223 236 255
223 236 255
223 236 255
223 236 255
223 236 255
223 236 255
223 236 255
223 236 255
223 236 255
223 236 255
223 236 255
223 236 255
223 236 255
223 236 255
223 236 255
223 236 255
223 236 255
223 236 255
223 236 255
223 236 255
223 236 255
223 236 255
223 236 255
223 236 255
223 236 255
223 236 255
223 236 255
223 236 255
223 236 255
223 236 255
223 236 255
223 236 255
223 236 255
223 236 255
223 236 255
223 236 255
223 236 255
223 236 255
223 236 255
223 236 255
223 236 255
223 236 255
223 236 255
223 236 255
223 236 255
223 236 255
223 236 255
223 236 255
223 236 255
223 236 255
223 236 255
223 236 255
223 236 255
223 236 255
223 236 255
223 236 255
223 236 255
223 236 255
223 236 255
223 236 255
223 236 255
223 236 255
223 236 255
223 236 255
223 236 255
223 236 255
223 236 255
223 236 255
223 236 255
223 236 255
223 236 255
223 236 255
223 236 255
223 236 255
223 236 255
223 236 255
223 236 255
223 236 255
223 236 255
223 236 255
223 236 255
223 236 255
223 236 255
223 236 255
223 236 255
223 236 255
223 236 255
223 236 255
223 236 255
223 236 255
223 236 255
223 236 255
223 236 255
223 236 255
223 236 255
223 236 255
223 236 255
223 236 255
223 236 255
222 236 255
222 236 255
222 236 255
222 236 255
222 236 255
222 236 255
222 236 255
222 236 255
222 236 255
222 236 255
222 236 255
222 236 255
222 236 255
222 236 255
222 236 255
222 236 255
222 236 255
222 236 255
222 236 255
222 236 255
222 236 255
222 236 255
222 236 255
222 236 255
222 236 255
222 236 255
222 236 255
222 236 255
222 236 255
222 236 255
222 236 255
222 236 255
222 236 255
222 236 255
222 236 255
222 236 255
222 236 255
222 236 255
222 236 255
222 236 255
222 236 255
222 236 255
222 236 255
222 236 255
222 236 255
222 236 255
222 236 255
222 236 255
222 236 255
222 236 255
222 236 255
222 236 255
222 236 255
222 236 255
222 236 255
222 236 255
222 236 255
222 236 255
222 236 255
222 236 255
222 236 255
222 236 255
222 236 255
222 236 255
222 236 255
222 236 255
222 236 255
222 236 255
222 236 255
222 236 255
222 236 255
222 236 255
222 236 255
222 236 255
222 236 255
222 236 255
222 236 255
222 236 255
222 236 255
222 236 255
222 236 255
222 236 255
222 236 255
222 236 255
222 236 255
222 236 255
222 236 255
222 236 255
222 236 255
222 236 255
222 236 255
222 236 255
222 236 255
222 236 255
222 236 255
222 236 255
222 236 255
222 236 255
222 236 255
222 236 255
222 236 255
222 236 255
222 236 255
222 236 255
222 236 255
222 236 255
222 236 255
222 236 255
222 236 255
222 236 255
222 236 255
222 236 255
222 236 255
222 236 255
222 236 255
222 236 255
222 236 255
222 236 255
222 236 255
222 236 255
222 236 255
222 236 255
222 236 255
222 236 255
222 236 255
222 236 255
222 236 255
222 236 255
222 236 255
222 236 255
222 236 255
222 236 255
222 236 255
222 236 255
222 236 255
222 236 255
222 236 255
222 236 255
222 236 255
222 236 255
222 236 255
222 236 255
223 236 255
223 236 255
223 236 255
223 236 255
223 236 255
223 236 255
223 236 255
223 236 255
223 236 255
223 236 255
223 236 255
223 236 255
223 236 255
223 236 255
223 236 255
223 236 255
223 236 255
223 236 255
223 236 255
223 236 255
223 236 255
223 236 255
223 236 255
223 236 255
223 236 255
223 236 255
223 236 255
223 236 255
223 236 255
223 236 255
223 236 255
223 236 255
223 236 255
223 236 255
223 236 255
223 236 255
223 236 255
223 236 255
223 236 255
223 236 255
223 236 255
223 236 255
223 236 255
223 236 255
223 236 255
223 236 255
223 236 255
223 236 255
223 236 255
223 236 255
223 236 255
223 236 255
223 236 255
223 236 255
223 236 255
223 236 255
223 236 255
223 236 255
223 236 255
223 236 255
223 236 255
223 236 255
223 236 255
223 236 255
223 236 255
223 236 255
223 236 255
223 236 255
223 236 255
223 236 255
223 236 255
223 236 255
223 236 255
223 236 255
223 236 255
223 236 255
223 236 255
223 236 255
223 236 255
223 236 255
223 236 255
223 237 255
223 237 255
223 237 255
223 237 255
223 237 255
223 237 255
223 237 255
223 237 255
223 237 255
223 237 255
223 237 255
223 237 255
223 237 255
223 237 255
223 237 255
223 237 255
223 237 255
223 237 255
223 237 255
223 237 255
223 237 255
223 237 255
223 237 255
223 237 255
223 237 255
223 237 255
223 237 255
223 237 255
223 237 255
223 237 255
223 237 255
223 237 255
223 237 255
223 237 255
223 237 255
223 237 255
223 237 255
223 237 255
223 237 255
223 237 255
223 237 255
223 237 255
223 237 255
223 237 255
223 237 255
223 237 255
223 237 255
223 237 255
223 237 255
223 237 255
223 237 255
223 237 255
223 237 255
223 237 255
223 237 255
223 237 255
223 237 255
223 237 255
223 237 255
223 237 255
223 237 255
223 237 255
223 237 255
223 237 255
223 237 255
223 237 255
223 237 255
223 237 255
223 237 255
223 237 255
223 237 255
223 237 255
223 237 255
223 237 255
223 237 255
223 237 255
223 237 255
223 237 255
223 237 255
223 237 255
223 237 255
223 237 255
223 237 255
223 237 255
223 237 255
223 237 255
223 237 255
223 237 255
223 237 255
223 237 255
223 237 255
223 237 255
223 237 255
223 237 255
223 237 255
223 237 255
223 237 255
223 237 255
223 237 255
223 237 255
223 237 255
223 237 255
223 237 255
223 237 255
223 237 255
223 237 255
223 237 255
223 237 255
223 237 255
223 237 255
223 237 255
223 237 255
223 237 255
223 237 255
223 237 255
223 237 255
223 237 255
223 237 255
223 237 255
223 237 255
223 237 255
223 237 255
223 237 255
223 237 255
223 237 255
223 237 255
223 237 255
223 237 255
223 237 255
223 237 255
223 236 255
223 236 255
223 236 255
223 236 255
223 236 255
223 236 255
223 236 255
223 236 255
223 236 255
223 236 255
223 236 255
223 236 255
223 236 255
223 236 255
223 236 255
223 236 255
223 236 255
223 236 255
223 236 255
223 236 255
223 236 255
223 236 255
223 236 255
223 236 255
223 236 255
223 236 255
223 236 255
223 236 255
223 236 255
223 236 255
223 236 255
223 236 255
223 236 255
223 236 255
223 236 255
223 236 255
223 236 255
223 236 255
223 236 255
223 236 255
223 236 255
223 236 255
223 236 255
223 236 255
223 236 255
223 236 255
223 236 255
223 236 255
223 236 255
223 236 255
223 236 255
223 236 255
223 236 255
223 236 255
223 236 255
223 236 255
223 236 255
223 236 255
223 236 255
223 236 255
223 236 255
223 236 255
223 236 255
223 236 255
223 236 255
223 236 255
223 236 255
223 236 255
223 236 255
223 236 255
223 236 255
223 236 255
223 236 255
223 236 255
223 236 255
223 236 255
223 236 255
223 236 255
223 236 255
223 236 255
223 236 255
223 236 255
222 236 255
222 236 255
222 236 255
222 236 255
222 236 255
222 236 255
222 236 255
222 236 255
222 236 255
222 236 255
222 236 255
222 236 255
222 236 255
222 236 255
222 236 255
222 236 255
222 236 255
222 236 255
222 236 255
222 236 255
222 236 255
222 236 255
222 236 255
222 236 255
222 236 255
222 236 255
222 236 255
222 236 255
222 236 255
222 236 255
222 236 255
222 236 255
222 236 255
222 236 255
222 236 255
222 236 255
222 236 255
222 236 255
222 236 255
222 236 255
222 236 255
222 236 255
222 236 255
222 236 255
222 236 255
222 236 255
222 236 255
222 236 255
222 236 255
222 236 255
222 236 255
222 236 255
222 236 255
222 236 255
222 236 255
222 236 255
222 236 255
222 236 255
222 236 255
222 236 255
222 236 255
222 236 255
222 236 255
222 236 255
222 236 255
222 236 255
222 236 255
222 236 255
222 236 255
222 236 255
222 236 255
222 236 255
222 236 255
222 236 255
222 236 255
222 236 255
222 236 255
223 236 255
223 236 255
223 236 255
223 236 255
223 236 255
223 236 255
223 236 255
223 236 255
223 236 255
223 236 255
223 236 255
223 236 255
223 236 255
223 236 255
223 236 255
223 236 255
223 236 255
223 236 255
223 236 255
223 236 255
223 236 255
223 236 255
223 236 255
223 236 255
223 236 255
223 236 255
223 236 255
223 236 255
223 236 255
223 236 255
223 236 255
223 236 255
223 236 255
223 236 255
223 236 255
223 236 255
223 236 255
223 236 255
223 236 255
223 236 255
223 236 255
223 236 255
223 236 255
223 236 255
223 236 255
223 236 255
223 236 255
223 236 255
223 236 255
223 236 255
223 236 255
223 236 255
223 236 255
223 236 255
223 236 255
223 236 255
223 236 255
223 236 255
223 236 255
223 236 255
223 236 255
223 236 255
223 236 255
223 236 255
223 236 255
223 236 255
223 236 255
223 236 255
223 236 255
223 236 255
223 236 255
223 236 255
223 236 255
223 236 255
223 236 255
223 236 255
223 236 255
223 236 255
223 237 255
223 237 255
223 237 255
223 237 255
223 237 255
223 237 255
223 237 255
223 237 255
223 237 255
223 237 255
223 237 255
223 237 255
223 237 255
223 237 255
223 237 255
223 237 255
223 237 255
223 237 255
223 237 255
223 237 255
223 237 255
223 237 255
223 237 255
223 237 255
223 237 255
223 237 255
223 237 255
223 237 255
223 237 255
223 237 255
223 237 255
223 237 255
223 237 255
223 237 255
223 237 255
223 237 255
223 237 255
223 237 255
223 237 255
223 237 255
223 237 255
223 237 255
223 237 255
223 237 255
223 237 255
223 237 255
223 237 255
223 237 255
223 237 255
223 237 255
223 237 255
223 237 255
223 237 255
223 237 255
223 237 255
223 237 255
223 237 255
223 237 255
223 237 255
223 237 255
223 237 255
223 237 255
223 237 255
223 237 255
223 237 255
223 237 255
223 237 255
223 237 255
223 237 255
223 237 255
223 237 255
223 237 255
223 237 255
223 237 255
223 237 255
223 237 255
223 237 255
223 237 255
223 237 255
223 237 255
223 237 255
223 237 255
223 237 255
223 237 255
223 237 255
223 237 255
223 237 255
223 237 255
223 237 255
223 237 255
223 237 255
223 237 255
223 237 255
223 237 255
223 237 255
223 237 255
223 237 255
223 237 255
223 237 255
223 237 255
223 237 255
223 237 255
223 237 255
223 237 255
223 237 255
223 237 255
223 237 255
223 237 255
223 237 255
223 237 255
223 237 255
223 237 255
223 237 255
223 237 255
223 237 255
223 237 255
223 237 255
223 237 255
223 237 255
223 237 255
223 237 255
223 237 255
223 237 255
223 237 255
223 237 255
223 237 255
223 237 255
223 237 255
223 237 255
223 237 255
223 237 255
223 237 255
223 237 255
223 237 255
223 237 255
223 237 255
223 237 255
223 237 255
223 237 255
223 237 255
223 237 255
223 237 255
223 237 255
223 237 255
223 237 255
223 237 255
223 237 255
223 237 255
223 237 255
223 237 255
223 237 255
223 237 255
223 237 255
223 237 255
223 237 255
223 237 255
223 237 255
223 237 255
223 237 255
223 237 255
223 237 255
223 237 255
223 237 255
223 237 255
223 237 255
223 237 255
223 237 255
223 237 255
223 237 255
223 237 255
223 237 255
223 237 255
223 237 255
223 237 255
223 237 255
223 237 255
223 237 255
223 237 255
223 237 255
223 237 255
223 237 255
223 237 255
223 237 255
223 237 255
223 237 255
223 237 255
223 237 255
223 237 255
223 237 255
223 237 255
223 237 255
223 237 255
223 237 255
223 237 255
223 237 255
223 237 255
223 237 255
223 236 255
223 236 255
223 236 255
223 236 255
223 236 255
223 236 255
223 236 255
223 236 255
223 236 255
223 236 255
223 236 255
223 236 255
223 236 255
223 236 255
223 236 255
223 236 255
223 236 255
223 236 255
223 236 255
223 236 255
223 236 255
223 236 255
223 236 255
223 236 255
223 236 255
223 236 255
223 236 255
223 236 255
223 236 255
223 236 255
223 236 255
223 236 255
223 236 255
223 236 255
223 236 255
223 236 255
223 236 255
223 236 255
223 236 255
223 236 255
223 236 255
223 236 255
223 236 255
223 236 255
223 236 255
223 236 255
223 236 255
223 236 255
223 236 255
223 236 255
223 236 255
223 236 255
223 236 255
223 236 255
223 236 255
223 236 255
223 236 255
223 236 255
223 236 255
223 236 255
223 236 255
223 236 255
223 236 255
223 236 255
223 236 255
223 236 255
223 236 255
223 236 255
223 236 255
223 236 255
223 236 255
223 236 255
223 236 255
223 236 255
223 236 255
223 236 255
223 236 255
223 236 255
223 236 255
222 236 255
222 236 255
222 236 255
222 236 255
222 236 255
222 236 255
222 236 255
222 236 255
222 236 255
222 236 255
222 236 255
222 236 255
222 236 255
222 236 255
222 236 255
222 236 255
222 236 255
222 236 255
222 236 255
222 236 255
222 236 255
222 236 255
223 236 255
223 236 255
223 236 255
223 236 255
223 236 255
223 236 255
223 236 255
223 236 255
223 236 255
223 236 255
223 236 255
223 236 255
223 236 255
223 236 255
223 236 255
223 236 255
223 236 255
223 236 255
223 236 255
223 236 255
223 236 255
223 236 255
223 236 255
223 236 255
223 236 255
223 236 255
223 236 255
223 236 255
223 236 255
223 236 255
223 236 255
223 236 255
223 236 255
223 236 255
223 236 255
223 236 255
223 236 255
223 236 255
223 236 255
223 236 255
223 236 255
223 236 255
223 236 255
223 236 255
223 236 255
223 236 255
223 236 255
223 236 255
223 236 255
223 236 255
223 236 255
223 236 255
223 236 255
223 236 255
223 236 255
223 236 255
223 236 255
223 236 255
223 236 255
223 236 255
223 236 255
223 236 255
223 236 255
223 236 255
223 236 255
223 236 255
223 236 255
223 236 255
223 236 255
223 236 255
223 236 255
223 236 255
223 236 255
223 236 255
223 236 255
223 237 255
223 237 255
223 237 255
223 237 255
223 237 255
223 237 255
223 237 255
223 237 255
223 237 255
223 237 255
223 237 255
223 237 255
223 237 255
223 237 255
223 237 255
223 237 255
223 237 255
223 237 255
223 237 255
223 237 255
223 237 255
223 237 255
223 237 255
223 237 255
223 237 255
223 237 255
223 237 255
223 237 255
223 237 255
223 237 255
223 237 255
223 237 255
223 237 255
223 237 255
223 237 255
223 237 255
223 237 255
223 237 255
223 237 255
223 237 255
223 237 255
223 237 255
223 237 255
223 237 255
223 237 255
223 237 255
223 237 255
223 237 255
223 237 255
223 237 255
223 237 255
223 237 255
223 237 255
223 237 255
223 237 255
223 237 255
223 237 255
223 237 255
223 237 255
223 237 255
223 237 255
223 237 255
223 237 255
223 237 255
223 237 255
223 237 255
223 237 255
223 237 255
223 237 255
223 237 255
223 237 255
223 237 255
223 237 255
223 237 255
223 237 255
223 237 255
223 237 255
223 237 255
223 237 255
223 237 255
223 237 255
223 237 255
223 237 255
223 237 255
223 237 255
224 237 255
224 237 255
224 237 255
224 237 255
224 237 255
224 237 255
224 237 255
224 237 255
224 237 255
224 237 255
224 237 255
224 237 255
224 237 255
224 237 255
224 237 255
224 237 255
224 237 255
224 237 255
224 237 255
224 237 255
224 237 255
224 237 255
224 237 255
224 237 255
224 237 255
224 237 255
224 237 255
224 237 255
224 237 255
224 237 255
224 237 255
224 237 255
224 237 255
224 237 255
224 237 255
224 237 255
224 237 255
224 237 255
224 237 255
224 237 255
224 237 255
224 237 255
224 237 255
224 237 255
224 237 255
224 237 255
224 237 255
224 237 255
224 237 255
224 237 255
224 237 255
224 237 255
224 237 255
224 237 255
224 237 255
224 237 255
224 237 255
224 237 255
224 237 255
224 237 255
224 237 255
224 237 255
224 237 255
224 237 255
224 237 255
224 237 255
224 237 255
224 237 255
224 237 255
224 237 255
224 237 255
224 237 255
224 237 255
224 237 255
224 237 255
224 237 255
224 237 255
224 237 255
224 237 255
223 237 255
224 237 255
223 237 255
223 237 255
223 237 255
223 237 255
223 237 255
223 237 255
223 237 255
223 237 255
223 237 255
223 237 255
223 237 255
223 237 255
223 237 255
223 237 255
223 237 255
223 237 255
223 237 255
223 237 255
223 237 255
223 237 255
223 237 255
223 237 255
223 237 255
223 237 255
223 237 255
223 237 255
223 237 255
223 237 255
223 237 255
223 237 255
223 237 255
223 237 255
223 237 255
223 237 255
223 237 255
223 237 255
223 237 255
223 237 255
223 237 255
223 237 255
223 237 255
223 237 255
223 237 255
223 237 255
223 237 255
223 237 255
223 237 255
223 237 255
223 237 255
223 237 255
223 237 255
223 237 255
223 237 255
223 237 255
223 237 255
223 237 255
223 237 255
223 237 255
223 237 255
223 237 255
223 237 255
223 237 255
223 237 255
223 237 255
223 237 255
223 237 255
223 237 255
223 237 255
223 237 255
223 237 255
223 237 255
223 237 255
223 237 255
223 237 255
223 237 255
223 237 255
223 237 255
223 237 255
223 237 255
223 237 255
223 237 255
223 237 255
223 237 255
223 237 255
223 237 255
223 236 255
223 236 255
223 236 255
223 236 255
223 236 255
223 236 255
223 236 255
223 236 255
223 236 255
223 236 255
223 236 255
223 236 255
223 236 255
223 236 255
223 236 255
223 236 255
223 236 255
223 236 255
223 236 255
223 236 255
223 236 255
223 236 255
223 236 255
223 236 255
223 236 255
223 236 255
223 236 255
223 236 255
223 236 255
223 236 255
223 236 255
223 236 255
223 236 255
223 236 255
223 236 255
223 236 255
223 236 255
223 236 255
223 236 255
223 236 255
223 236 255
223 236 255
223 236 255
223 236 255
223 236 255
223 236 255
223 236 255
223 236 255
223 236 255
223 236 255
223 236 255
223 236 255
223 236 255
223 236 255
223 236 255
223 236 255
223 236 255
223 236 255
223 236 255
223 236 255
223 236 255
223 236 255
223 236 255
223 236 255
223 236 255
223 236 255
223 236 255
223 236 255
223 236 255
223 236 255
223 236 255
223 236 255
223 236 255
223 236 255
223 236 255
223 236 255
223 236 255
223 236 255
223 236 255
223 236 255
223 236 255
223 236 255
223 236 255
223 236 255
223 236 255
223 236 255
223 236 255
223 236 255
223 236 255
223 236 255
223 236 255
223 236 255
223 236 255
223 236 255
223 236 255
223 236 255
223 236 255
223 236 255
223 236 255
223 236 255
223 236 255
223 236 255
223 236 255
223 236 255
223 236 255
223 236 255
223 236 255
223 236 255
223 236 255
223 236 255
223 236 255
223 236 255
223 236 255
223 236 255
223 236 255
223 236 255
223 236 255
223 236 255
223 236 255
223 236 255
223 236 255
223 236 255
223 236 255
223 236 255
223 237 255
223 237 255
223 237 255
223 237 255
223 237 255
223 237 255
223 237 255
223 237 255
223 237 255
223 237 255
223 237 255
223 237 255
223 237 255
223 237 255
223 237 255
223 237 255
223 237 255
223 237 255
223 237 255
223 237 255
223 237 255
223 237 255
223 237 255
223 237 255
223 237 255
223 237 255
223 237 255
223 237 255
223 237 255
223 237 255
223 237 255
223 237 255
223 237 255
223 237 255
223 237 255
223 237 255
223 237 255
223 237 255
223 237 255
223 237 255
223 237 255
223 237 255
223 237 255
223 237 255
223 237 255
223 237 255
223 237 255
223 237 255
223 237 255
223 237 255
223 237 255
223 237 255
223 237 255
223 237 255
223 237 255
223 237 255
223 237 255
223 237 255
223 237 255
223 237 255
223 237 255
223 237 255
223 237 255
223 237 255
223 237 255
223 237 255
223 237 255
223 237 255
223 237 255
223 237 255
223 237 255
223 237 255
223 237 255
223 237 255
223 237 255
223 237 255
224 237 255
223 237 255
224 237 255
224 237 255
224 237 255
224 237 255
224 237 255
224 237 255
224 237 255
224 237 255
224 237 255
224 237 255
224 237 255
224 237 255
224 237 255
224 237 255
224 237 255
224 237 255
224 237 255
224 237 255
224 237 255
224 237 255
224 237 255
224 237 255
224 237 255
224 237 255
224 237 255
224 237 255
224 237 255
224 237 255
224 237 255
224 237 255
224 237 255
224 237 255
224 237 255
224 237 255
224 237 255
224 237 255
224 237 255
224 237 255
224 237 255
224 237 255
224 237 255
224 237 255
224 237 255
224 237 255
224 237 255
224 237 255
224 237 255
224 237 255
224 237 255
224 237 255
224 237 255
224 237 255
224 237 255
224 237 255
224 237 255
224 237 255
224 237 255
224 237 255
224 237 255
224 237 255
224 237 255
224 237 255
224 237 255
224 237 255
224 237 255
224 237 255
224 237 255
224 237 255
224 237 255
224 237 255
224 237 255
224 237 255
224 237 255
224 237 255
224 237 255
224 237 255
224 237 255
224 237 255
224 237 255
224 237 255
224 237 255
224 237 255
224 237 255
224 237 255
224 237 255
224 237 255
224 237 255
224 237 255
224 237 255
224 237 255
224 237 255
224 237 255
224 237 255
224 237 255
224 237 255
224 237 255
224 237 255
224 237 255
224 237 255
224 237 255
224 237 255
224 237 255
224 237 255
224 237 255
224 237 255
224 237 255
224 237 255
224 237 255
224 237 255
224 237 255
224 237 255
224 237 255
224 237 255
224 237 255
224 237 255
224 237 255
224 237 255
224 237 255
224 237 255
224 237 255
224 237 255
224 237 255
224 237 255
224 237 255
224 237 255
224 237 255
224 237 255
224 237 255
224 237 255
224 237 255
224 237 255
224 237 255
224 237 255
224 237 255
224 237 255
224 237 255
224 237 255
224 237 255
224 237 255
224 237 255
224 237 255
224 237 255
224 237 255
224 237 255
224 237 255
223 237 255
223 237 255
223 237 255
223 237 255
223 237 255
223 237 255
223 237 255
223 237 255
223 237 255
223 237 255
223 237 255
223 237 255
223 237 255
223 237 255
223 237 255
223 237 255
223 237 255
223 237 255
223 237 255
223 237 255
223 237 255
223 237 255
223 237 255
223 237 255
223 237 255
223 237 255
223 237 255
223 237 255
223 237 255
223 237 255
223 237 255
223 237 255
223 237 255
223 237 255
223 237 255
223 237 255
223 237 255
223 237 255
223 237 255
223 237 255
223 237 255
223 237 255
223 237 255
223 237 255
223 237 255
223 237 255
223 237 255
223 237 255
223 237 255
223 237 255
223 237 255
223 237 255
223 237 255
223 237 255
223 237 255
223 237 255
223 237 255
223 237 255
223 237 255
223 237 255
223 237 255
223 237 255
223 237 255
223 237 255
223 237 255
223 237 255
223 237 255
223 237 255
223 237 255
223 237 255
223 237 255
223 237 255
223 237 255
223 237 255
223 237 255
223 237 255
223 237 255
223 237 255
223 236 255
223 236 255
223 236 255
223 236 255
223 236 255
223 236 255
223 236 255
223 236 255
223 236 255
223 236 255
223 236 255
223 236 255
223 236 255
223 236 255
223 236 255
223 236 255
223 236 255
223 236 255
223 236 255
223 236 255
223 236 255
223 236 255
223 236 255
223 236 255
223 236 255
223 236 255
223 236 255
223 236 255
223 236 255
223 236 255
223 236 255
223 236 255
223 236 255
223 236 255
223 236 255
223 236 255
223 236 255
223 236 255
223 236 255
223 236 255
223 236 255
223 236 255
223 236 255
223 236 255
223 236 255
223 236 255
223 236 255
223 236 255
223 236 255
223 236 255
223 236 255
223 236 255
223 236 255
223 236 255
223 236 255
223 236 255
223 236 255
223 236 255
223 236 255
223 236 255
223 236 255
223 236 255
223 236 255
223 236 255
223 236 255
223 236 255
223 236 255
223 236 255
223 236 255
223 236 255
223 236 255
223 236 255
223 236 255
223 236 255
223 236 255
223 236 255
223 237 255
223 237 255
223 237 255
223 237 255
223 237 255
223 237 255
223 237 255
223 237 255
223 237 255
223 237 255
223 237 255
223 237 255
223 237 255
223 237 255
223 237 255
223 237 255
223 237 255
223 237 255
223 237 255
223 237 255
223 237 255
223 237 255
223 237 255
223 237 255
223 237 255
223 237 255
223 237 255
223 237 255
223 237 255
223 237 255
223 237 255
223 237 255
223 237 255
223 237 255
223 237 255
223 237 255
223 237 255
223 237 255
223 237 255
223 237 255
223 237 255
223 237 255
223 237 255
223 237 255
223 237 255
223 237 255
223 237 255
223 237 255
223 237 255
223 237 255
223 237 255
223 237 255
223 237 255
223 237 255
223 237 255
223 237 255
223 237 255
223 237 255
223 237 255
223 237 255
223 237 255
223 237 255
223 237 255
223 237 255
223 237 255
223 237 255
223 237 255
223 237 255
223 237 255
223 237 255
223 237 255
223 237 255
223 237 255
223 237 255
223 237 255
224 237 255
224 237 255
224 237 255
224 237 255
224 237 255
224 237 255
224 237 255
224 237 255
224 237 255
224 237 255
224 237 255
224 237 255
224 237 255
224 237 255
224 237 255
224 237 255
224 237 255
224 237 255
224 237 255
224 237 255
224 237 255
224 237 255
224 237 255
224 237 255
224 237 255
224 237 255
224 237 255
224 237 255
224 237 255
224 237 255
224 237 255
224 237 255
224 237 255
224 237 255
224 237 255
224 237 255
224 237 255
224 237 255
224 237 255
224 237 255
224 237 255
224 237 255
224 237 255
224 237 255
224 237 255
224 237 255
224 237 255
224 237 255
224 237 255
224 237 255
224 237 255
224 237 255
224 237 255
224 237 255
224 237 255
224 237 255
224 237 255
224 237 255
224 237 255
224 237 255
224 237 255
224 237 255
224 237 255
224 237 255
224 237 255
224 237 255
224 237 255
224 237 255
224 237 255
224 237 255
224 237 255
224 237 255
224 237 255
224 237 255
224 237 255
224 237 255
224 237 255
224 237 255
224 237 255
224 237 255
224 237 255
224 237 255
224 237 255
224 237 255
224 237 255
224 237 255
224 237 255
224 237 255
224 237 255
224 237 255
224 237 255
224 237 255
224 237 255
224 237 255
224 237 255
224 237 255
224 237 255
224 237 255
224 237 255
224 237 255
224 237 255
224 237 255
224 237 255
224 237 255
224 237 255
224 237 255
224 237 255
224 237 255
224 237 255
224 237 255
224 237 255
224 237 255
224 237 255
224 237 255
224 237 255
224 237 255
224 237 255
224 237 255
224 237 255
224 237 255
224 237 255
224 237 255
224 237 255
224 237 255
224 237 255
224 237 255
224 237 255
224 237 255
224 237 255
224 237 255
224 237 255
224 237 255
224 237 255
224 237 255
224 237 255
224 237 255
224 237 255
224 237 255
224 237 255
224 237 255
224 237 255
224 237 255
224 237 255
224 237 255
224 237 255
224 237 255
224 237 255
224 237 255
224 237 255
224 237 255
224 237 255
224 237 255
224 237 255
224 237 255
224 237 255
224 237 255
224 237 255
224 237 255
224 237 255
224 237 255
224 237 255
224 237 255
224 237 255
224 237 255
224 237 255
224 237 255
224 237 255
224 237 255
224 237 255
224 237 255
224 237 255
224 237 255
224 237 255
224 237 255
224 237 255
224 237 255
224 237 255
224 237 255
224 237 255
224 237 255
224 237 255
224 237 255
224 237 255
224 237 255
224 237 255
224 237 255
224 237 255
224 237 255
224 237 255
224 237 255
224 237 255
224 237 255
224 237 255
224 237 255
224 237 255
224 237 255
224 237 255
223 237 255
223 237 255
223 237 255
223 237 255
223 237 255
223 237 255
223 237 255
223 237 255
223 237 255
223 237 255
223 237 255
223 237 255
223 237 255
223 237 255
223 237 255
223 237 255
223 237 255
223 237 255
223 237 255
223 237 255
223 237 255
223 237 255
223 237 255
223 237 255
223 237 255
223 237 255
223 237 255
223 237 255
223 237 255
223 237 255
223 237 255
223 237 255
223 237 255
223 237 255
223 237 255
223 237 255
223 237 255
223 237 255
223 237 255
223 237 255
223 237 255
223 237 255
223 237 255
223 237 255
223 237 255
223 237 255
223 237 255
223 237 255
223 237 255
223 237 255
223 237 255
223 237 255
223 237 255
223 237 255
223 237 255
223 237 255
223 237 255
223 237 255
223 237 255
223 237 255
223 237 255
223 237 255
223 237 255
223 237 255
223 237 255
223 237 255
223 237 255
223 237 255
223 237 255
223 237 255
223 237 255
223 237 255
223 237 255
223 237 255
223 236 255
223 236 255
223 236 255
223 236 255
223 236 255
223 236 255
223 236 255
223 236 255
223 236 255
223 236 255
223 236 255
223 236 255
223 236 255
223 236 255
223 236 255
223 236 255
223 236 255
223 236 255
223 236 255
223 236 255
223 236 255
223 236 255
223 236 255
223 236 255
223 236 255
223 236 255
223 236 255
223 236 255
223 236 255
223 236 255
223 236 255
223 236 255
223 237 255
223 237 255
223 237 255
223 237 255
223 237 255
223 237 255
223 237 255
223 237 255
223 237 255
223 237 255
223 237 255
223 237 255
223 237 255
223 237 255
223 237 255
223 237 255
223 237 255
223 237 255
223 237 255
223 237 255
223 237 255
223 237 255
223 237 255
223 237 255
223 237 255
223 237 255
223 237 255
223 237 255
223 237 255
223 237 255
223 237 255
223 237 255
223 237 255
223 237 255
223 237 255
223 237 255
223 237 255
223 237 255
223 237 255
223 237 255
223 237 255
223 237 255
223 237 255
223 237 255
223 237 255
223 237 255
223 237 255
223 237 255
223 237 255
223 237 255
223 237 255
223 237 255
223 237 255
223 237 255
223 237 255
223 237 255
223 237 255
223 237 255
223 237 255
223 237 255
223 237 255
223 237 255
223 237 255
223 237 255
223 237 255
223 237 255
223 237 255
223 237 255
223 237 255
223 237 255
223 237 255
223 237 255
223 237 255
223 237 255
223 237 255
224 237 255
224 237 255
224 237 255
224 237 255
224 237 255
224 237 255
224 237 255
224 237 255
224 237 255
224 237 255
224 237 255
224 237 255
224 237 255
224 237 255
224 237 255
224 237 255
224 237 255
224 237 255
224 237 255
224 237 255
224 237 255
224 237 255
224 237 255
224 237 255
224 237 255
224 237 255
224 237 255
224 237 255
224 237 255
224 237 255
224 237 255
224 237 255
224 237 255
224 237 255
224 237 255
224 237 255
224 237 255
224 237 255
224 237 255
224 237 255
224 237 255
224 237 255
224 237 255
224 237 255
224 237 255
224 237 255
224 237 255
224 237 255
224 237 255
224 237 255
224 237 255
224 237 255
224 237 255
224 237 255
224 237 255
224 237 255
224 237 255
224 237 255
224 237 255
224 237 255
224 237 255
224 237 255
224 237 255
224 237 255
224 237 255
224 237 255
224 237 255
224 237 255
224 237 255
224 237 255
224 237 255
224 237 255
224 237 255
224 237 255
224 237 255
224 237 255
224 237 255
224 237 255
224 237 255
224 237 255
224 237 255
224 237 255
224 237 255
224 237 255
224 237 255
224 237 255
224 237 255
224 237 255
224 237 255
224 237 255
224 237 255
224 237 255
224 237 255
224 237 255
224 237 255
224 237 255
224 237 255
224 237 255
224 237 255
224 237 255
224 237 255
224 237 255
224 237 255
224 237 255
224 237 255
224 237 255
224 237 255
224 237 255
224 237 255
224 237 255
224 237 255
224 237 255
224 237 255
224 237 255
224 237 255
224 237 255
224 237 255
224 237 255
224 237 255
224 237 255
224 237 255
224 237 255
224 237 255
224 237 255
224 237 255
224 237 255
224 237 255
224 237 255
224 237 255
224 237 255
224 237 255
224 237 255
224 237 255
224 237 255
224 237 255
224 237 255
224 237 255
224 237 255
224 237 255
224 237 255
224 237 255
224 237 255
224 237 255
224 237 255
224 237 255
224 237 255
224 237 255
224 237 255
224 237 255
224 237 255
224 237 255
224 237 255
224 237 255
224 237 255
224 237 255
224 237 255
224 237 255
224 237 255
224 237 255
224 237 255
224 237 255
224 237 255
224 237 255
224 237 255
224 237 255
224 237 255
224 237 255
224 237 255
224 237 255
224 237 255
224 237 255
224 237 255
224 237 255
224 237 255
224 237 255
224 237 255
224 237 255
224 237 255
224 237 255
224 237 255
224 237 255
224 237 255
224 237 255
224 237 255
224 237 255
224 237 255
224 237 255
224 237 255
224 237 255
224 237 255
224 237 255
224 237 255
224 237 255
224 237 255
224 237 255
224 237 255
224 237 255
224 237 255
224 237 255
224 237 255
224 237 255
224 237 255
224 237 255
224 237 255
224 237 255
224 237 255
224 237 255
224 237 255
224 237 255
224 237 255
224 237 255
224 237 255
224 237 255
224 237 255
224 237 255
224 237 255
224 237 255
224 237 255
224 237 255
224 237 255
224 237 255
224 237 255
224 237 255
224 237 255
224 237 255
224 237 255
224 237 255
224 237 255
224 237 255
224 237 255
224 237 255
224 237 255
224 237 255
224 237 255
224 237 255
224 237 255
224 237 255
224 237 255
224 237 255
224 237 255
223 237 255
223 237 255
223 237 255
223 237 255
223 237 255
223 237 255
223 237 255
223 237 255
223 237 255
223 237 255
223 237 255
223 237 255
223 237 255
223 237 255
223 237 255
223 237 255
223 237 255
223 237 255
223 237 255
223 237 255
223 237 255
223 237 255
223 237 255
223 237 255
223 237 255
223 237 255
223 237 255
223 237 255
223 237 255
223 237 255
223 237 255
223 237 255
223 237 255
223 237 255
223 237 255
223 237 255
223 237 255
223 237 255
223 237 255
223 237 255
223 237 255
223 237 255
223 237 255
223 237 255
223 237 255
223 237 255
223 237 255
223 237 255
223 237 255
223 237 255
223 237 255
223 237 255
223 237 255
223 237 255
223 237 255
223 237 255
223 237 255
223 237 255
223 237 255
223 237 255
223 237 255
223 237 255
223 237 255
223 237 255
223 237 255
223 237 255
223 237 255
223 237 255
223 237 255
223 237 255
223 237 255
223 237 255
223 237 255
223 237 255
223 237 255
223 236 255
223 236 255
223 236 255
223 236 255
223 236 255
223 237 255
223 237 255
223 237 255
223 237 255
223 237 255
223 237 255
223 237 255
223 237 255
223 237 255
223 237 255
223 237 255
223 237 255
223 237 255
223 237 255
223 237 255
223 237 255
223 237 255
223 237 255
223 237 255
223 237 255
223 237 255
223 237 255
223 237 255
223 237 255
223 237 255
223 237 255
223 237 255
223 237 255
223 237 255
223 237 255
223 237 255
223 237 255
223 237 255
223 237 255
223 237 255
223 237 255
223 237 255
223 237 255
223 237 255
223 237 255
223 237 255
223 237 255
223 237 255
223 237 255
223 237 255
223 237 255
223 237 255
223 237 255
223 237 255
223 237 255
223 237 255
223 237 255
223 237 255
223 237 255
223 237 255
223 237 255
223 237 255
223 237 255
223 237 255
223 237 255
223 237 255
224 237 255
224 237 255
224 237 255
224 237 255
224 237 255
224 237 255
224 237 255
224 237 255
224 237 255
224 237 255
224 237 255
224 237 255
224 237 255
224 237 255
224 237 255
224 237 255
224 237 255
224 237 255
224 237 255
224 237 255
224 237 255
224 237 255
224 237 255
224 237 255
224 237 255
224 237 255
224 237 255
224 237 255
224 237 255
224 237 255
224 237 255
224 237 255
224 237 255
224 237 255
224 237 255
224 237 255
224 237 255
224 237 255
224 237 255
224 237 255
224 237 255
224 237 255
224 237 255
224 237 255
224 237 255
224 237 255
224 237 255
224 237 255
224 237 255
224 237 255
224 237 255
224 237 255
224 237 255
224 237 255
224 237 255
224 237 255
224 237 255
224 237 255
224 237 255
224 237 255
224 237 255
224 237 255
224 237 255
224 237 255
224 237 255
224 237 255
224 237 255
224 237 255
224 237 255
224 237 255
224 237 255
224 237 255
224 237 255
224 237 255
224 237 255
224 237 255
224 237 255
224 237 255
224 237 255
224 237 255
224 237 255
224 237 255
224 237 255
224 237 255
224 237 255
224 237 255
224 237 255
224 237 255
224 237 255
224 237 255
224 237 255
224 237 255
224 237 255
224 237 255
224 237 255
224 237 255
224 237 255
224 237 255
224 237 255
224 237 255
224 237 255
224 237 255
224 237 255
224 237 255
224 237 255
224 237 255
224 237 255
224 237 255
224 237 255
224 237 255
224 237 255
224 237 255
225 237 255
224 237 255
224 237 255
225 237 255
225 237 255
225 237 255
225 237 255
224 237 255
225 237 255
225 237 255
225 237 255
225 237 255
225 237 255
225 237 255
225 237 255
225 237 255
225 237 255
225 237 255
225 237 255
225 237 255
225 237 255
225 237 255
225 237 255
225 237 255
225 237 255
225 237 255
225 237 255
225 237 255
225 237 255
225 237 255
225 237 255
225 237 255
225 237 255
225 237 255
225 237 255
225 237 255
225 237 255
225 237 255
225 237 255
225 237 255
225 237 255
225 237 255
225 237 255
225 237 255
225 237 255
225 237 255
225 237 255
225 237 255
225 237 255
225 237 255
224 237 255
225 237 255
224 237 255
224 237 255
224 237 255
224 237 255
224 237 255
224 237 255
224 237 255
224 237 255
224 237 255
224 237 255
224 237 255
224 237 255
224 237 255
224 237 255
224 237 255
224 237 255
224 237 255
224 237 255
224 237 255
224 237 255
224 237 255
224 237 255
224 237 255
224 237 255
224 237 255
224 237 255
224 237 255
224 237 255
224 237 255
224 237 255
224 237 255
224 237 255
224 237 255
224 237 255
224 237 255
224 237 255
224 237 255
224 237 255
224 237 255
224 237 255
224 237 255
224 237 255
224 237 255
224 237 255
224 237 255
224 237 255
224 237 255
224 237 255
224 237 255
224 237 255
224 237 255
224 237 255
224 237 255
224 237 255
224 237 255
224 237 255
224 237 255
224 237 255
224 237 255
224 237 255
224 237 255
224 237 255
224 237 255
224 237 255
224 237 255
224 237 255
224 237 255
224 237 255
224 237 255
224 237 255
224 237 255
224 237 255
224 237 255
224 237 255
224 237 255
224 237 255
224 237 255
224 237 255
224 237 255
224 237 255
224 237 255
224 237 255
224 237 255
224 237 255
224 237 255
224 237 255
224 237 255
224 237 255
224 237 255
224 237 255
224 237 255
224 237 255
224 237 255
224 237 255
224 237 255
224 237 255
224 237 255
224 237 255
224 237 255
224 237 255
224 237 255
224 237 255
224 237 255
224 237 255
224 237 255
224 237 255
224 237 255
224 237 255
224 237 255
224 237 255
224 237 255
224 237 255
224 237 255
223 237 255
223 237 255
223 237 255
223 237 255
223 237 255
223 237 255
223 237 255
223 237 255
223 237 255
223 237 255
223 237 255
223 237 255
223 237 255
223 237 255
223 237 255
223 237 255
223 237 255
223 237 255
223 237 255
223 237 255
223 237 255
223 237 255
223 237 255
223 237 255
223 237 255
223 237 255
223 237 255
223 237 255
223 237 255
223 237 255
223 237 255
223 237 255
223 237 255
223 237 255
223 237 255
223 237 255
223 237 255
223 237 255
223 237 255
223 237 255
223 237 255
223 237 255
223 237 255
223 237 255
223 237 255
223 237 255
223 237 255
223 237 255
223 237 255
223 237 255
223 237 255
223 237 255
223 237 255
223 237 255
223 237 255
223 237 255
223 237 255
223 237 255
223 237 255
223 237 255
223 237 255
223 237 255
223 237 255
223 237 255
223 237 255
223 237 255
223 237 255
223 237 255
223 237 255
223 237 255
223 237 255
223 237 255
223 237 255
223 237 255
223 237 255
223 237 255
223 237 255
223 237 255
223 237 255
223 237 255
223 237 255
223 237 255
223 237 255
223 237 255
223 237 255
223 237 255
223 237 255
223 237 255
223 237 255
223 237 255
223 237 255
223 237 255
223 237 255
223 237 255
223 237 255
223 237 255
223 237 255
223 237 255
223 237 255
223 237 255
223 237 255
223 237 255
223 237 255
223 237 255
223 237 255
223 237 255
224 237 255
224 237 255
224 237 255
224 237 255
224 237 255
224 237 255
224 237 255
224 237 255
224 237 255
224 237 255
224 237 255
224 237 255
224 237 255
224 237 255
224 237 255
224 237 255
224 237 255
224 237 255
224 237 255
224 237 255
224 237 255
224 237 255
224 237 255
224 237 255
224 237 255
224 237 255
224 237 255
224 237 255
224 237 255
224 237 255
224 237 255
224 237 255
224 237 255
224 237 255
224 237 255
224 237 255
224 237 255
224 237 255
224 237 255
224 237 255
224 237 255
224 237 255
224 237 255
224 237 255
224 237 255
224 237 255
224 237 255
224 237 255
224 237 255
224 237 255
224 237 255
224 237 255
224 237 255
224 237 255
224 237 255
224 237 255
224 237 255
224 237 255
224 237 255
224 237 255
224 237 255
224 237 255
224 237 255
224 237 255
224 237 255
224 237 255
224 237 255
224 237 255
224 237 255
224 237 255
224 237 255
224 237 255
224 237 255
224 237 255
224 237 255
224 237 255
224 237 255
224 237 255
224 237 255
224 237 255
224 237 255
224 237 255
224 237 255
224 237 255
224 237 255
224 237 255
224 237 255
224 237 255
224 237 255
224 237 255
224 237 255
224 237 255
224 237 255
224 237 255
224 237 255
224 237 255
224 237 255
224 237 255
224 237 255
224 237 255
225 237 255
225 237 255
225 237 255
225 237 255
225 237 255
225 237 255
225 237 255
225 237 255
225 237 255
225 237 255
225 237 255
225 237 255
225 237 255
225 237 255
225 237 255
225 237 255
225 237 255
225 237 255
225 237 255
225 237 255
225 237 255
225 237 255
225 237 255
225 238 255
225 237 255
225 238 255
225 238 255
225 238 255
225 238 255
225 238 255
225 238 255
225 238 255
225 238 255
225 238 255
225 238 255
225 238 255
225 238 255
225 238 255
225 238 255
225 238 255
225 238 255
225 238 255
225 238 255
225 238 255
225 238 255
225 238 255
225 238 255
225 238 255
225 238 255
225 238 255
225 238 255
225 238 255
225 238 255
225 238 255
225 238 255
225 238 255
225 238 255
225 238 255
225 238 255
225 238 255
225 238 255
225 238 255
225 238 255
225 238 255
225 238 255
225 238 255
225 238 255
225 238 255
225 238 255
225 238 255
225 238 255
225 238 255
225 238 255
225 238 255
225 238 255
225 238 255
225 238 255
225 238 255
225 238 255
225 238 255
225 238 255
225 238 255
225 238 255
225 238 255
225 238 255
225 238 255
225 238 255
225 237 255
225 237 255
225 237 255
225 237 255
225 237 255
225 237 255
225 237 255
225 237 255
225 237 255
225 237 255
225 237 255
225 237 255
225 237 255
225 237 255
225 237 255
225 237 255
225 237 255
225 237 255
225 237 255
225 237 255
225 237 255
225 237 255
225 237 255
225 237 255
225 237 255
225 237 255
225 237 255
224 237 255
224 237 255
224 237 255
224 237 255
224 237 255
224 237 255
224 237 255
224 237 255
224 237 255
224 237 255
224 237 255
224 237 255
224 237 255
224 237 255
224 237 255
224 237 255
224 237 255
224 237 255
224 237 255
224 237 255
224 237 255
224 237 255
224 237 255
224 237 255
224 237 255
224 237 255
224 237 255
224 237 255
224 237 255
224 237 255
224 237 255
224 237 255
224 237 255
224 237 255
224 237 255
224 237 255
224 237 255
224 237 255
224 237 255
224 237 255
224 237 255
224 237 255
224 237 255
224 237 255
224 237 255
224 237 255
224 237 255
224 237 255
224 237 255
224 237 255
224 237 255
224 237 255
224 237 255
224 237 255
224 237 255
224 237 255
224 237 255
224 237 255
224 237 255
224 237 255
224 237 255
224 237 255
224 237 255
224 237 255
224 237 255
224 237 255
224 237 255
224 237 255
224 237 255
224 237 255
224 237 255
224 237 255
224 237 255
224 237 255
224 237 255
224 237 255
224 237 255
224 237 255
224 237 255
224 237 255
224 237 255
224 237 255
224 237 255
224 237 255
224 237 255
224 237 255
224 237 255
224 237 255
224 237 255
224 237 255
224 237 255
224 237 255
224 237 255
224 237 255
224 237 255
224 237 255
224 237 255
224 237 255
223 237 255
223 237 255
223 237 255
223 237 255
223 237 255
223 237 255
223 237 255
223 237 255
223 237 255
223 237 255
223 237 255
223 237 255
223 237 255
223 237 255
223 237 255
223 237 255
223 237 255
223 237 255
223 237 255
223 237 255
223 237 255
223 237 255
223 237 255
223 237 255
223 237 255
223 237 255
223 237 255
223 237 255
223 237 255
223 237 255
223 237 255
223 237 255
223 237 255
223 237 255
223 237 255
223 237 255
223 237 255
223 237 255
223 237 255
223 237 255
223 237 255
223 237 255
223 237 255
223 237 255
223 237 255
223 237 255
223 237 255
223 237 255
223 237 255
223 237 255
223 237 255
223 237 255
223 237 255
223 237 255
223 237 255
223 237 255
223 237 255
223 237 255
223 237 255
223 237 255
223 237 255
223 237 255
223 237 255
223 237 255
223 237 255
223 237 255
223 237 255
223 237 255
223 237 255
223 237 255
223 237 255
224 237 255
224 237 255
224 237 255
224 237 255
224 237 255
224 237 255
224 237 255
224 237 255
224 237 255
224 237 255
224 237 255
224 237 255
224 237 255
224 237 255
224 237 255
224 237 255
224 237 255
224 237 255
224 237 255
224 237 255
224 237 255
224 237 255
224 237 255
224 237 255
224 237 255
224 237 255
224 237 255
224 237 255
224 237 255
224 237 255
224 237 255
224 237 255
224 237 255
224 237 255
224 237 255
224 237 255
224 237 255
224 237 255
224 237 255
224 237 255
224 237 255
224 237 255
224 237 255
224 237 255
224 237 255
224 237 255
224 237 255
224 237 255
224 237 255
224 237 255
224 237 255
224 237 255
224 237 255
224 237 255
224 237 255
224 237 255
224 237 255
224 237 255
224 237 255
224 237 255
224 237 255
224 237 255
224 237 255
224 237 255
224 237 255
224 237 255
224 237 255
224 237 255
224 237 255
224 237 255
224 237 255
224 237 255
224 237 255
224 237 255
224 237 255
224 237 255
224 237 255
224 237 255
224 237 255
224 237 255
224 237 255
224 237 255
224 237 255
224 237 255
224 237 255
224 237 255
224 237 255
224 237 255
224 237 255
224 237 255
224 237 255
224 237 255
224 237 255
224 237 255
224 237 255
224 237 255
225 237 255
225 237 255
225 237 255
225 237 255
225 237 255
225 237 255
225 237 255
225 237 255
225 237 255
225 237 255
225 237 255
225 237 255
225 237 255
225 237 255
225 237 255
225 237 255
225 237 255
225 237 255
225 238 255
225 238 255
225 238 255
225 238 255
225 238 255
225 238 255
225 238 255
225 238 255
225 238 255
225 238 255
225 238 255
225 238 255
225 238 255
225 238 255
225 238 255
225 238 255
225 238 255
225 238 255
225 238 255
225 238 255
225 238 255
225 238 255
225 238 255
225 238 255
225 238 255
225 238 255
225 238 255
225 238 255
225 238 255
225 238 255
225 238 255
225 238 255
225 238 255
225 238 255
225 238 255
225 238 255
225 238 255
225 238 255
225 238 255
225 238 255
225 238 255
225 238 255
225 238 255
225 238 255
225 238 255
225 238 255
225 238 255
225 238 255
225 238 255
225 238 255
225 238 255
225 238 255
225 238 255
225 238 255
225 238 255
225 238 255
225 238 255
225 238 255
225 238 255
225 238 255
225 238 255
225 238 255
225 238 255
225 238 255
225 238 255
225 238 255
225 238 255
225 238 255
225 238 255
225 238 255
225 238 255
225 238 255
225 238 255
225 238 255
225 238 255
225 238 255
225 238 255
225 238 255
225 238 255
225 238 255
225 238 255
225 238 255
225 238 255
225 238 255
225 238 255
225 238 255
225 238 255
225 238 255
225 238 255
225 238 255
225 238 255
225 238 255
225 238 255
225 238 255
225 238 255
225 238 255
225 238 255
225 238 255
225 238 255
225 238 255
225 238 255
225 238 255
225 238 255
225 238 255
225 238 255
225 238 255
225 238 255
225 238 255
225 238 255
225 238 255
225 238 255
225 238 255
225 238 255
225 238 255
225 238 255
225 238 255
225 238 255
225 237 255
225 237 255
225 237 255
225 237 255
225 237 255
225 237 255
225 237 255
225 237 255
225 237 255
225 237 255
225 237 255
225 237 255
225 237 255
225 237 255
225 237 255
225 237 255
225 237 255
225 237 255
225 237 255
224 237 255
224 237 255
224 237 255
224 237 255
224 237 255
224 237 255
224 237 255
224 237 255
224 237 255
224 237 255
224 237 255
224 237 255
224 237 255
224 237 255
224 237 255
224 237 255
224 237 255
224 237 255
224 237 255
224 237 255
224 237 255
224 237 255
224 237 255
224 237 255
224 237 255
224 237 255
224 237 255
224 237 255
224 237 255
224 237 255
224 237 255
224 237 255
224 237 255
224 237 255
224 237 255
224 237 255
224 237 255
224 237 255
224 237 255
224 237 255
224 237 255
224 237 255
224 237 255
224 237 255
224 237 255
224 237 255
224 237 255
224 237 255
224 237 255
224 237 255
224 237 255
224 237 255
224 237 255
224 237 255
224 237 255
224 237 255
224 237 255
224 237 255
224 237 255
224 237 255
224 237 255
224 237 255
224 237 255
224 237 255
224 237 255
224 237 255
224 237 255
224 237 255
224 237 255
224 237 255
224 237 255
224 237 255
224 237 255
224 237 255
224 237 255
224 237 255
224 237 255
224 237 255
224 237 255
224 237 255
224 237 255
224 237 255
224 237 255
224 237 255
224 237 255
224 237 255
224 237 255
224 237 255
224 237 255
224 237 255
224 237 255
224 237 255
224 237 255
224 237 255
224 237 255
224 237 255
223 237 255
223 237 255
223 237 255
223 237 255
223 237 255
223 237 255
223 237 255
223 237 255
223 237 255
223 237 255
223 237 255
223 237 255
223 237 255
223 237 255
223 237 255
223 237 255
223 237 255
223 237 255
223 237 255
223 237 255
223 237 255
223 237 255
223 237 255
223 237 255
223 237 255
223 237 255
223 237 255
223 237 255
223 237 255
223 237 255
223 237 255
223 237 255
223 237 255
223 237 255
223 237 255
223 237 255
223 237 255
224 237 255
224 237 255
224 237 255
224 237 255
224 237 255
224 237 255
224 237 255
224 237 255
224 237 255
224 237 255
224 237 255
224 237 255
224 237 255
224 237 255
224 237 255
224 237 255
224 237 255
224 237 255
224 237 255
224 237 255
224 237 255
224 237 255
224 237 255
224 237 255
224 237 255
224 237 255
224 237 255
224 237 255
224 237 255
224 237 255
224 237 255
224 237 255
224 237 255
224 237 255
224 237 255
224 237 255
224 237 255
224 237 255
224 237 255
224 237 255
224 237 255
224 237 255
224 237 255
224 237 255
224 237 255
224 237 255
224 237 255
224 237 255
224 237 255
224 237 255
224 237 255
224 237 255
224 237 255
224 237 255
224 237 255
224 237 255
224 237 255
224 237 255
224 237 255
224 237 255
224 237 255
224 237 255
224 237 255
224 237 255
224 237 255
224 237 255
224 237 255
224 237 255
224 237 255
224 237 255
224 237 255
224 237 255
224 237 255
224 237 255
224 237 255
224 237 255
224 237 255
224 237 255
224 237 255
224 237 255
224 237 255
224 237 255
224 237 255
224 237 255
224 237 255
224 237 255
224 237 255
224 237 255
224 237 255
224 237 255
224 237 255
224 237 255
224 237 255
224 237 255
224 237 255
224 237 255
225 237 255
225 237 255
225 237 255
225 237 255
225 237 255
225 237 255
225 237 255
225 237 255
225 237 255
225 237 255
225 237 255
225 237 255
225 237 255
225 237 255
225 237 255
225 237 255
225 238 255
225 238 255
225 238 255
225 238 255
225 238 255
225 238 255
225 238 255
225 238 255
225 238 255
225 238 255
225 238 255
225 238 255
225 238 255
225 238 255
225 238 255
225 238 255
225 238 255
225 238 255
225 238 255
225 238 255
225 238 255
225 238 255
225 238 255
225 238 255
225 238 255
225 238 255
225 238 255
225 238 255
225 238 255
225 238 255
225 238 255
225 238 255
225 238 255
225 238 255
225 238 255
225 238 255
225 238 255
225 238 255
225 238 255
225 238 255
225 238 255
225 238 255
225 238 255
225 238 255
225 238 255
225 238 255
225 238 255
225 238 255
225 238 255
225 238 255
225 238 255
225 238 255
225 238 255
225 238 255
225 238 255
225 238 255
225 238 255
225 238 255
225 238 255
225 238 255
225 238 255
225 238 255
225 238 255
225 238 255
225 238 255
225 238 255
225 238 255
225 238 255
225 238 255
225 238 255
225 238 255
225 238 255
225 238 255
225 238 255
225 238 255
225 238 255
225 238 255
225 238 255
225 238 255
225 238 255
225 238 255
225 238 255
225 238 255
225 238 255
225 238 255
225 238 255
225 238 255
225 238 255
225 238 255
225 238 255
225 238 255
225 238 255
225 238 255
225 238 255
225 238 255
225 238 255
225 238 255
225 238 255
225 238 255
225 238 255
225 238 255
225 238 255
225 238 255
225 238 255
225 238 255
225 238 255
225 238 255
225 238 255
225 238 255
225 238 255
225 238 255
225 238 255
225 238 255
225 238 255
225 238 255
225 238 255
225 238 255
225 238 255
225 238 255
225 238 255
225 238 255
225 238 255
225 238 255
225 238 255
225 238 255
225 238 255
225 238 255
225 238 255
225 238 255
225 238 255
225 238 255
225 238 255
225 238 255
225 238 255
225 238 255
225 238 255
225 238 255
225 238 255
225 238 255
225 238 255
225 238 255
225 238 255
225 238 255
225 238 255
225 238 255
225 238 255
225 238 255
225 238 255
225 238 255
225 238 255
225 238 255
225 238 255
225 238 255
225 238 255
225 238 255
225 237 255
225 237 255
225 237 255
225 237 255
225 237 255
225 237 255
225 237 255
225 237 255
225 237 255
225 237 255
225 237 255
225 237 255
225 237 255
225 237 255
225 237 255
225 237 255
225 237 255
225 237 255
224 237 255
224 237 255
224 237 255
224 237 255
224 237 255
224 237 255
224 237 255
224 237 255
224 237 255
224 237 255
224 237 255
224 237 255
224 237 255
224 237 255
224 237 255
224 237 255
224 237 255
224 237 255
224 237 255
224 237 255
224 237 255
224 237 255
224 237 255
224 237 255
224 237 255
224 237 255
224 237 255
224 237 255
224 237 255
224 237 255
224 237 255
224 237 255
224 237 255
224 237 255
224 237 255
224 237 255
224 237 255
224 237 255
224 237 255
224 237 255
224 237 255
224 237 255
224 237 255
224 237 255
224 237 255
224 237 255
224 237 255
224 237 255
224 237 255
224 237 255
224 237 255
224 237 255
224 237 255
224 237 255
224 237 255
224 237 255
224 237 255
224 237 255
224 237 255
224 237 255
224 237 255
224 237 255
224 237 255
224 237 255
224 237 255
224 237 255
224 237 255
224 237 255
224 237 255
224 237 255
224 237 255
224 237 255
224 237 255
224 237 255
224 237 255
224 237 255
224 237 255
224 237 255
224 237 255
224 237 255
224 237 255
224 237 255
224 237 255
224 237 255
224 237 255
224 237 255
224 237 255
224 237 255
224 237 255
224 237 255
224 237 255
224 237 255
224 237 255
224 237 255
224 237 255
223 237 255
223 237 255
223 237 255
223 237 255
223 237 255
223 237 255
223 237 255
223 237 255
223 237 255
223 237 255
224 237 255
224 237 255
224 237 255
224 237 255
224 237 255
224 237 255
224 237 255
224 237 255
224 237 255
224 237 255
224 237 255
224 237 255
224 237 255
224 237 255
224 237 255
224 237 255
224 237 255
224 237 255
224 237 255
224 237 255
224 237 255
224 237 255
224 237 255
224 237 255
224 237 255
224 237 255
224 237 255
224 237 255
224 237 255
224 237 255
224 237 255
224 237 255
224 237 255
224 237 255
224 237 255
224 237 255
224 237 255
224 237 255
224 237 255
224 237 255
224 237 255
224 237 255
224 237 255
224 237 255
224 237 255
224 237 255
224 237 255
224 237 255
224 237 255
224 237 255
224 237 255
224 237 255
224 237 255
224 237 255
224 237 255
224 237 255
224 237 255
224 237 255
224 237 255
224 237 255
224 237 255
224 237 255
224 237 255
224 237 255
224 237 255
224 237 255
224 237 255
224 237 255
224 237 255
224 237 255
224 237 255
224 237 255
224 237 255
224 237 255
224 237 255
224 237 255
224 237 255
224 237 255
224 237 255
224 237 255
224 237 255
224 237 255
224 237 255
224 237 255
224 237 255
224 237 255
224 237 255
224 237 255
224 237 255
224 237 255
224 237 255
225 237 255
225 237 255
225 237 255
225 237 255
225 237 255
225 237 255
225 237 255
225 237 255
225 237 255
225 237 255
225 237 255
225 237 255
225 237 255
225 237 255
225 237 255
225 238 255
225 238 255
225 238 255
225 238 255
225 238 255
225 238 255
225 238 255
225 238 255
225 238 255
225 238 255
225 238 255
225 238 255
225 238 255
225 238 255
225 238 255
225 238 255
225 238 255
225 238 255
225 238 255
225 238 255
225 238 255
225 238 255
225 238 255
225 238 255
225 238 255
225 238 255
225 238 255
225 238 255
225 238 255
225 238 255
225 238 255
225 238 255
225 238 255
225 238 255
225 238 255
225 238 255
225 238 255
225 238 255
225 238 255
225 238 255
225 238 255
225 238 255
225 238 255
225 238 255
225 238 255
225 238 255
225 238 255
225 238 255
225 238 255
225 238 255
225 238 255
225 238 255
225 238 255
225 238 255
225 238 255
225 238 255
225 238 255
225 238 255
225 238 255
225 238 255
225 238 255
225 238 255
225 238 255
225 238 255
225 238 255
225 238 255
225 238 255
225 238 255
225 238 255
225 238 255
225 238 255
225 238 255
225 238 255
225 238 255
225 238 255
225 238 255
226 238 255
225 238 255
225 238 255
226 238 255
226 238 255
226 238 255
226 238 255
226 238 255
226 238 255
226 238 255
226 238 255
226 238 255
226 238 255
226 238 255
226 238 255
226 238 255
226 238 255
226 238 255
226 238 255
226 238 255
226 238 255
226 238 255
226 238 255
226 238 255
226 238 255
226 238 255
226 238 255
226 238 255
226 238 255
226 238 255
226 238 255
226 238 255
226 238 255
226 238 255
225 238 255
225 238 255
225 238 255
225 238 255
225 238 255
225 238 255
225 238 255
225 238 255
225 238 255
225 238 255
225 238 255
225 238 255
225 238 255
225 238 255
225 238 255
225 238 255
225 238 255
225 238 255
225 238 255
225 238 255
225 238 255
225 238 255
225 238 255
225 238 255
225 238 255
225 238 255
225 238 255
225 238 255
225 238 255
225 238 255
225 238 255
225 238 255
225 238 255
225 238 255
225 238 255
225 238 255
225 238 255
225 238 255
225 238 255
225 238 255
225 238 255
225 238 255
225 238 255
225 238 255
225 238 255
225 238 255
225 238 255
225 238 255
225 238 255
225 238 255
225 238 255
225 238 255
225 238 255
225 238 255
225 238 255
225 238 255
225 238 255
225 238 255
225 238 255
225 238 255
225 238 255
225 238 255
225 238 255
225 238 255
225 238 255
225 238 255
225 238 255
225 238 255
225 238 255
225 238 255
225 238 255
225 238 255
225 238 255
225 238 255
225 238 255
225 238 255
225 238 255
225 238 255
225 237 255
225 237 255
225 237 255
225 237 255
225 237 255
225 237 255
225 237 255
225 237 255
225 237 255
225 237 255
225 237 255
225 237 255
225 237 255
225 237 255
225 237 255
225 237 255
224 237 255
224 237 255
224 237 255
224 237 255
224 237 255
224 237 255
224 237 255
224 237 255
224 237 255
224 237 255
224 237 255
224 237 255
224 237 255
224 237 255
224 237 255
224 237 255
224 237 255
224 237 255
224 237 255
224 237 255
224 237 255
224 237 255
224 237 255
224 237 255
224 237 255
224 237 255
224 237 255
224 237 255
224 237 255
224 237 255
224 237 255
224 237 255
224 237 255
224 237 255
224 237 255
224 237 255
224 237 255
224 237 255
224 237 255
224 237 255
224 237 255
224 237 255
224 237 255
224 237 255
224 237 255
224 237 255
224 237 255
224 237 255
224 237 255
224 237 255
224 237 255
224 237 255
224 237 255
224 237 255
224 237 255
224 237 255
224 237 255
224 237 255
224 237 255
224 237 255
224 237 255
224 237 255
224 237 255
224 237 255
224 237 255
224 237 255
224 237 255
224 237 255
224 237 255
224 237 255
224 237 255
224 237 255
224 237 255
224 237 255
224 237 255
224 237 255
224 237 255
224 237 255
224 237 255
224 237 255
224 237 255
224 237 255
224 237 255
224 237 255
224 237 255
224 237 255
224 237 255
224 237 255
224 237 255
224 237 255
224 237 255
224 237 255
224 237 255
224 237 255
224 237 255
224 237 255
224 237 255
224 237 255
224 237 255
224 237 255
224 237 255
224 237 255
224 237 255
224 237 255
224 237 255
224 237 255
224 237 255
224 237 255
224 237 255
224 237 255
224 237 255
224 237 255
224 237 255
224 237 255
224 237 255
224 237 255
224 237 255
224 237 255
224 237 255
224 237 255
224 237 255
224 237 255
224 237 255
224 237 255
224 237 255
224 237 255
224 237 255
224 237 255
224 237 255
224 237 255
224 237 255
224 237 255
224 237 255
224 237 255
224 237 255
224 237 255
224 237 255
224 237 255
224 237 255
224 237 255
224 237 255
224 237 255
224 237 255
224 237 255
224 237 255
224 237 255
224 237 255
224 237 255
224 237 255
224 237 255
224 237 255
224 237 255
224 237 255
224 237 255
224 237 255
224 237 255
224 237 255
224 237 255
224 237 255
224 237 255
224 237 255
224 237 255
224 237 255
224 237 255
224 237 255
224 237 255
224 237 255
225 237 255
225 237 255
225 237 255
225 237 255
225 237 255
225 237 255
225 237 255
225 237 255
225 237 255
225 237 255
225 237 255
225 237 255
225 237 255
225 237 255
225 237 255
225 238 255
225 238 255
225 238 255
225 238 255
225 238 255
225 238 255
225 238 255
225 238 255
225 238 255
225 238 255
225 238 255
225 238 255
225 238 255
225 238 255
225 238 255
225 238 255
225 238 255
225 238 255
225 238 255
225 238 255
225 238 255
225 238 255
225 238 255
225 238 255
225 238 255
225 238 255
225 238 255
225 238 255
225 238 255
225 238 255
225 238 255
225 238 255
225 238 255
225 238 255
225 238 255
225 238 255
225 238 255
225 238 255
225 238 255
225 238 255
225 238 255
225 238 255
225 238 255
225 238 255
225 238 255
225 238 255
225 238 255
225 238 255
225 238 255
225 238 255
225 238 255
225 238 255
225 238 255
225 238 255
225 238 255
225 238 255
225 238 255
225 238 255
225 238 255
225 238 255
226 238 255
226 238 255
226 238 255
226 238 255
226 238 255
226 238 255
226 238 255
226 238 255
226 238 255
226 238 255
226 238 255
226 238 255
226 238 255
226 238 255
226 238 255
226 238 255
226 238 255
226 238 255
226 238 255
226 238 255
226 238 255
226 238 255
226 238 255
226 238 255
226 238 255
226 238 255
226 238 255
226 238 255
226 238 255
226 238 255
226 238 255
226 238 255
226 238 255
226 238 255
226 238 255
226 238 255
226 238 255
226 238 255
226 238 255
226 238 255
226 238 255
226 238 255
226 238 255
226 238 255
226 238 255
226 238 255
226 238 255
226 238 255
226 238 255
226 238 255
226 238 255
226 238 255
226 238 255
226 238 255
226 238 255
226 238 255
226 238 255
226 238 255
226 238 255
226 238 255
226 238 255
226 238 255
226 238 255
226 238 255
226 238 255
226 238 255
226 238 255
226 238 255
226 238 255
226 238 255
226 238 255
226 238 255
226 238 255
226 238 255
226 238 255
226 238 255
226 238 255
226 238 255
226 238 255
226 238 255
226 238 255
226 238 255
226 238 255
226 238 255
226 238 255
226 238 255
226 238 255
226 238 255
226 238 255
226 238 255
226 238 255
226 238 255
226 238 255
226 238 255
226 238 255
225 238 255
225 238 255
225 238 255
225 238 255
225 238 255
225 238 255
225 238 255
225 238 255
225 238 255
225 238 255
225 238 255
225 238 255
225 238 255
225 238 255
225 238 255
225 238 255
225 238 255
225 238 255
225 238 255
225 238 255
225 238 255
225 238 255
225 238 255
225 238 255
225 238 255
225 238 255
225 238 255
225 238 255
225 238 255
225 238 255
225 238 255
225 238 255
225 238 255
225 238 255
225 238 255
225 238 255
225 238 255
225 238 255
225 238 255
225 238 255
225 238 255
225 238 255
225 238 255
225 238 255
225 238 255
225 238 255
225 238 255
225 238 255
225 238 255
225 238 255
225 238 255
225 238 255
225 238 255
225 238 255
225 238 255
225 238 255
225 238 255
225 238 255
225 238 255
225 238 255
225 238 255
225 237 255
225 237 255
225 237 255
225 237 255
225 237 255
225 237 255
225 237 255
225 237 255
225 237 255
225 237 255
225 237 255
225 237 255
225 237 255
225 237 255
225 237 255
224 237 255
224 237 255
224 237 255
224 237 255
224 237 255
224 237 255
224 237 255
224 237 255
224 237 255
224 237 255
224 237 255
224 237 255
224 237 255
224 237 255
224 237 255
224 237 255
224 237 255
224 237 255
224 237 255
224 237 255
224 237 255
224 237 255
224 237 255
224 237 255
224 237 255
224 237 255
224 237 255
224 237 255
224 237 255
224 237 255
224 237 255
224 237 255
224 237 255
224 237 255
224 237 255
224 237 255
224 237 255
224 237 255
224 237 255
224 237 255
224 237 255
224 237 255
224 237 255
224 237 255
224 237 255
224 237 255
224 237 255
224 237 255
224 237 255
224 237 255
224 237 255
224 237 255
224 237 255
224 237 255
224 237 255
224 237 255
224 237 255
224 237 255
224 237 255
224 237 255
224 237 255
224 237 255
224 237 255
224 237 255
224 237 255
224 237 255
224 237 255
224 237 255
224 237 255
224 237 255
224 237 255
224 237 255
224 237 255
224 237 255
224 237 255
224 237 255
224 237 255
224 237 255
224 237 255
224 237 255
224 237 255
224 237 255
224 237 255
224 237 255
224 237 255
224 237 255
224 237 255
224 237 255
224 237 255
224 237 255
224 237 255
224 237 255
224 237 255
224 237 255
224 237 255
224 237 255
224 237 255
224 237 255
224 237 255
224 237 255
224 237 255
224 237 255
224 237 255
224 237 255
224 237 255
224 237 255
224 237 255
224 237 255
224 237 255
224 237 255
224 237 255
224 237 255
224 237 255
224 237 255
224 237 255
224 237 255
224 237 255
224 237 255
224 237 255
224 237 255
224 237 255
224 237 255
224 237 255
224 237 255
224 237 255
224 237 255
224 237 255
224 237 255
224 237 255
224 237 255
224 237 255
224 237 255
224 237 255
224 237 255
224 237 255
224 237 255
224 237 255
224 237 255
224 237 255
224 237 255
225 237 255
225 237 255
225 237 255
225 237 255
225 237 255
225 237 255
225 237 255
225 237 255
225 237 255
225 237 255
225 237 255
225 237 255
225 237 255
225 237 255
225 237 255
225 238 255
225 238 255
225 238 255
225 238 255
225 238 255
225 238 255
225 238 255
225 238 255
225 238 255
225 238 255
225 238 255
225 238 255
225 238 255
225 238 255
225 238 255
225 238 255
225 238 255
225 238 255
225 238 255
225 238 255
225 238 255
225 238 255
225 238 255
225 238 255
225 238 255
225 238 255
225 238 255
225 238 255
225 238 255
225 238 255
225 238 255
225 238 255
225 238 255
225 238 255
225 238 255
225 238 255
225 238 255
225 238 255
225 238 255
225 238 255
225 238 255
225 238 255
225 238 255
225 238 255
225 238 255
225 238 255
225 238 255
225 238 255
225 238 255
225 238 255
225 238 255
225 238 255
225 238 255
225 238 255
225 238 255
225 238 255
225 238 255
226 238 255
226 238 255
226 238 255
226 238 255
226 238 255
226 238 255
226 238 255
226 238 255
226 238 255
226 238 255
226 238 255
226 238 255
226 238 255
226 238 255
226 238 255
226 238 255
226 238 255
226 238 255
226 238 255
226 238 255
226 238 255
226 238 255
226 238 255
226 238 255
226 238 255
226 238 255
226 238 255
226 238 255
226 238 255
226 238 255
226 238 255
226 238 255
226 238 255
226 238 255
226 238 255
226 238 255
226 238 255
226 238 255
226 238 255
226 238 255
226 238 255
226 238 255
226 238 255
226 238 255
226 238 255
226 238 255
226 238 255
226 238 255
226 238 255
226 238 255
226 238 255
226 238 255
226 238 255
226 238 255
226 238 255
226 238 255
226 238 255
226 238 255
226 238 255
226 238 255
226 238 255
226 238 255
226 238 255
226 238 255
226 238 255
226 238 255
226 238 255
226 238 255
226 238 255
226 238 255
226 238 255
226 238 255
226 238 255
226 238 255
226 238 255
226 238 255
226 238 255
226 238 255
226 238 255
226 238 255
226 238 255
226 238 255
226 238 255
226 238 255
226 238 255
226 238 255
226 238 255
226 238 255
226 238 255
226 238 255
226 238 255
226 238 255
226 238 255
226 238 255
226 238 255
226 238 255
226 238 255
226 238 255
226 238 255
226 238 255
226 238 255
226 238 255
226 238 255
226 238 255
226 238 255
226 238 255
226 238 255
226 238 255
226 238 255
226 238 255
226 238 255
226 238 255
226 238 255
226 238 255
226 238 255
226 238 255
226 238 255
226 238 255
226 238 255
226 238 255
226 238 255
226 238 255
226 238 255
226 238 255
226 238 255
226 238 255
226 238 255
226 238 255
226 238 255
226 238 255
226 238 255
225 238 255
225 238 255
225 238 255
225 238 255
225 238 255
225 238 255
225 238 255
225 238 255
225 238 255
225 238 255
225 238 255
225 238 255
225 238 255
225 238 255
225 238 255
225 238 255
225 238 255
225 238 255
225 238 255
225 238 255
225 238 255
225 238 255
225 238 255
225 238 255
225 238 255
225 238 255
225 238 255
225 238 255
225 238 255
225 238 255
225 238 255
225 238 255
225 238 255
225 238 255
225 238 255
225 238 255
225 238 255
225 238 255
225 238 255
225 238 255
225 238 255
225 238 255
225 238 255
225 238 255
225 238 255
225 238 255
225 238 255
225 238 255
225 238 255
225 238 255
225 238 255
225 238 255
225 238 255
225 238 255
225 238 255
225 237 255
225 237 255
225 237 255
225 237 255
225 237 255
225 237 255
225 237 255
225 237 255
225 237 255
225 237 255
225 237 255
225 237 255
225 237 255
225 237 255
225 237 255
225 237 255
224 237 255
224 237 255
224 237 255
224 237 255
224 237 255
224 237 255
224 237 255
224 237 255
224 237 255
224 237 255
224 237 255
224 237 255
224 237 255
224 237 255
224 237 255
224 237 255
224 237 255
224 237 255
224 237 255
224 237 255
224 237 255
224 237 255
224 237 255
224 237 255
224 237 255
224 237 255
224 237 255
224 237 255
224 237 255
224 237 255
224 237 255
224 237 255
224 237 255
224 237 255
224 237 255
224 237 255
224 237 255
224 237 255
224 237 255
224 237 255
224 237 255
224 237 255
224 237 255
224 237 255
224 237 255
224 237 255
224 237 255
224 237 255
224 237 255
224 237 255
224 237 255
224 237 255
224 237 255
224 237 255
224 237 255
224 237 255
224 237 255
224 237 255
224 237 255
224 237 255
224 237 255
224 237 255
224 237 255
224 237 255
224 237 255
224 237 255
224 237 255
224 237 255
224 237 255
224 237 255
224 237 255
224 237 255
224 237 255
224 237 255
224 237 255
224 237 255
224 237 255
224 237 255
224 237 255
224 237 255
224 237 255
224 237 255
224 237 255
224 237 255
224 237 255
224 237 255
224 237 255
224 237 255
224 237 255
224 237 255
224 237 255
224 237 255
224 237 255
224 237 255
224 237 255
224 237 255
224 237 255
224 237 255
224 237 255
224 237 255
224 237 255
224 237 255
224 237 255
224 237 255
224 237 255
224 237 255
224 237 255
224 237 255
224 237 255
224 237 255
224 237 255
224 237 255
224 237 255
224 237 255
225 237 255
225 237 255
225 237 255
225 237 255
225 237 255
225 237 255
225 237 255
225 237 255
225 237 255
225 237 255
225 237 255
225 237 255
225 237 255
225 237 255
225 237 255
225 238 255
225 238 255
225 238 255
225 238 255
225 238 255
225 238 255
225 238 255
225 238 255
225 238 255
225 238 255
225 238 255
225 238 255
225 238 255
225 238 255
225 238 255
225 238 255
225 238 255
225 238 255
225 238 255
225 238 255
225 238 255
225 238 255
225 238 255
225 238 255
225 238 255
225 238 255
225 238 255
225 238 255
225 238 255
225 238 255
225 238 255
225 238 255
225 238 255
225 238 255
225 238 255
225 238 255
225 238 255
225 238 255
225 238 255
225 238 255
225 238 255
225 238 255
225 238 255
225 238 255
225 238 255
225 238 255
225 238 255
225 238 255
225 238 255
225 238 255
225 238 255
225 238 255
225 238 255
226 238 255
225 238 255
226 238 255
226 238 255
226 238 255
226 238 255
226 238 255
226 238 255
226 238 255
226 238 255
226 238 255
226 238 255
226 238 255
226 238 255
226 238 255
226 238 255
226 238 255
226 238 255
226 238 255
226 238 255
226 238 255
226 238 255
226 238 255
226 238 255
226 238 255
226 238 255
226 238 255
226 238 255
226 238 255
226 238 255
226 238 255
226 238 255
226 238 255
226 238 255
226 238 255
226 238 255
226 238 255
226 238 255
226 238 255
226 238 255
226 238 255
226 238 255
226 238 255
226 238 255
226 238 255
226 238 255
226 238 255
226 238 255
226 238 255
226 238 255
226 238 255
226 238 255
226 238 255
226 238 255
226 238 255
226 238 255
226 238 255
226 238 255
226 238 255
226 238 255
226 238 255
226 238 255
226 238 255
226 238 255
226 238 255
226 238 255
226 238 255
226 238 255
226 238 255
226 238 255
226 238 255
226 238 255
226 238 255
226 238 255
226 238 255
226 238 255
226 238 255
226 238 255
226 238 255
226 238 255
226 238 255
226 238 255
226 238 255
226 238 255
226 238 255
226 238 255
226 238 255
226 238 255
226 238 255
226 238 255
226 238 255
226 238 255
226 238 255
226 238 255
226 238 255
226 238 255
226 238 255
226 238 255
226 238 255
226 238 255
226 238 255
226 238 255
226 238 255
226 238 255
226 238 255
226 238 255
226 238 255
226 238 255
226 238 255
226 238 255
226 238 255
226 238 255
226 238 255
226 238 255
226 238 255
226 238 255
226 238 255
226 238 255
226 238 255
226 238 255
226 238 255
226 238 255
226 238 255
226 238 255
226 238 255
226 238 255
226 238 255
226 238 255
226 238 255
226 238 255
226 238 255
226 238 255
226 238 255
226 238 255
226 238 255
226 238 255
226 238 255
226 238 255
226 238 255
226 238 255
226 238 255
226 238 255
226 238 255
226 238 255
226 238 255
226 238 255
226 238 255
226 238 255
226 238 255
226 238 255
226 238 255
226 238 255
226 238 255
226 238 255
226 238 255
226 238 255
226 238 255
226 238 255
226 238 255
226 238 255
226 238 255
225 238 255
225 238 255
225 238 255
225 238 255
225 238 255
225 238 255
225 238 255
225 238 255
225 238 255
225 238 255
225 238 255
225 238 255
225 238 255
225 238 255
225 238 255
225 238 255
225 238 255
225 238 255
225 238 255
225 238 255
225 238 255
225 238 255
225 238 255
225 238 255
225 238 255
225 238 255
225 238 255
225 238 255
225 238 255
225 238 255
225 238 255
225 238 255
225 238 255
225 238 255
225 238 255
225 238 255
225 238 255
225 238 255
225 238 255
225 238 255
225 238 255
225 238 255
225 238 255
225 238 255
225 238 255
225 238 255
225 238 255
225 238 255
225 238 255
225 238 255
225 238 255
225 238 255
225 238 255
225 238 255
225 237 255
225 237 255
225 237 255
225 237 255
225 237 255
225 237 255
225 237 255
225 237 255
225 237 255
225 237 255
225 237 255
225 237 255
225 237 255
225 237 255
225 237 255
225 237 255
224 237 255
224 237 255
224 237 255
224 237 255
224 237 255
224 237 255
224 237 255
224 237 255
224 237 255
224 237 255
224 237 255
224 237 255
224 237 255
224 237 255
224 237 255
224 237 255
224 237 255
224 237 255
224 237 255
224 237 255
224 237 255
224 237 255
224 237 255
224 237 255
224 237 255
224 237 255
224 237 255
224 237 255
224 237 255
224 237 255
224 237 255
224 237 255
224 237 255
224 237 255
224 237 255
224 237 255
224 237 255
224 237 255
224 237 255
224 237 255
224 237 255
224 237 255
224 237 255
224 237 255
224 237 255
224 237 255
224 237 255
224 237 255
224 237 255
224 237 255
224 237 255
224 237 255
224 237 255
224 237 255
224 237 255
224 237 255
224 237 255
224 237 255
224 237 255
224 237 255
224 237 255
224 237 255
224 237 255
224 237 255
224 237 255
224 237 255
224 237 255
224 237 255
224 237 255
224 237 255
224 237 255
224 237 255
224 237 255
224 237 255
224 237 255
224 237 255
224 237 255
224 237 255
224 237 255
224 237 255
224 237 255
224 237 255
224 237 255
224 237 255
224 237 255
224 237 255
224 237 255
224 237 255
224 237 255
225 237 255
225 237 255
225 237 255
225 237 255
225 237 255
225 237 255
225 237 255
225 237 255
225 237 255
225 237 255
225 237 255
225 237 255
225 237 255
225 237 255
225 237 255
225 238 255
225 238 255
225 238 255
225 238 255
225 238 255
225 238 255
225 238 255
225 238 255
225 238 255
225 238 255
225 238 255
225 238 255
225 238 255
225 238 255
225 238 255
225 238 255
225 238 255
225 238 255
225 238 255
225 238 255
225 238 255
225 238 255
225 238 255
225 238 255
225 238 255
225 238 255
225 238 255
225 238 255
225 238 255
225 238 255
225 238 255
225 238 255
225 238 255
225 238 255
225 238 255
225 238 255
225 238 255
225 238 255
225 238 255
225 238 255
225 238 255
225 238 255
225 238 255
225 238 255
225 238 255
225 238 255
225 238 255
225 238 255
225 238 255
225 238 255
225 238 255
225 238 255
225 238 255
226 238 255
226 238 255
226 238 255
226 238 255
226 238 255
226 238 255
226 238 255
226 238 255
226 238 255
226 238 255
226 238 255
226 238 255
226 238 255
226 238 255
226 238 255
226 238 255
226 238 255
226 238 255
226 238 255
226 238 255
226 238 255
226 238 255
226 238 255
226 238 255
226 238 255
226 238 255
226 238 255
226 238 255
226 238 255
226 238 255
226 238 255
226 238 255
226 238 255
226 238 255
226 238 255
226 238 255
226 238 255
226 238 255
226 238 255
226 238 255
226 238 255
226 238 255
226 238 255
226 238 255
226 238 255
226 238 255
226 238 255
226 238 255
226 238 255
226 238 255
226 238 255
226 238 255
226 238 255
226 238 255
226 238 255
226 238 255
226 238 255
226 238 255
226 238 255
226 238 255
226 238 255
226 238 255
226 238 255
226 238 255
226 238 255
226 238 255
226 238 255
226 238 255
226 238 255
226 238 255
226 238 255
226 238 255
226 238 255
226 239 255
226 239 255
226 239 255
226 239 255
226 239 255
226 239 255
227 239 255
227 239 255
227 239 255
227 239 255
227 239 255
227 239 255
227 239 255
227 239 255
227 239 255
227 239 255
227 239 255
227 239 255
227 239 255
227 239 255
227 239 255
227 239 255
227 239 255
227 239 255
227 239 255
227 239 255
227 239 255
227 239 255
227 239 255
227 239 255
227 239 255
227 239 255
227 239 255
227 239 255
226 239 255
226 239 255
226 239 255
226 239 255
226 239 255
226 238 255
226 238 255
226 238 255
226 238 255
226 238 255
226 238 255
226 238 255
226 238 255
226 238 255
226 238 255
226 238 255
226 238 255
226 238 255
226 238 255
226 238 255
226 238 255
226 238 255
226 238 255
226 238 255
226 238 255
226 238 255
226 238 255
226 238 255
226 238 255
226 238 255
226 238 255
226 238 255
226 238 255
226 238 255
226 238 255
226 238 255
226 238 255
226 238 255
226 238 255
226 238 255
226 238 255
226 238 255
226 238 255
226 238 255
226 238 255
226 238 255
226 238 255
226 238 255
226 238 255
226 238 255
226 238 255
226 238 255
226 238 255
226 238 255
226 238 255
226 238 255
226 238 255
226 238 255
226 238 255
226 238 255
226 238 255
226 238 255
226 238 255
226 238 255
226 238 255
226 238 255
226 238 255
226 238 255
226 238 255
226 238 255
226 238 255
226 238 255
226 238 255
226 238 255
226 238 255
226 238 255
226 238 255
226 238 255
226 238 255
225 238 255
225 238 255
225 238 255
225 238 255
225 238 255
225 238 255
225 238 255
225 238 255
225 238 255
225 238 255
225 238 255
225 238 255
225 238 255
225 238 255
225 238 255
225 238 255
225 238 255
225 238 255
225 238 255
225 238 255
225 238 255
225 238 255
225 238 255
225 238 255
225 238 255
225 238 255
225 238 255
225 238 255
225 238 255
225 238 255
225 238 255
225 238 255
225 238 255
225 238 255
225 238 255
225 238 255
225 238 255
225 238 255
225 238 255
225 238 255
225 238 255
225 238 255
225 238 255
225 238 255
225 238 255
225 238 255
225 238 255
225 238 255
225 238 255
225 238 255
225 238 255
225 238 255
225 238 255
225 237 255
225 237 255
225 237 255
225 237 255
225 237 255
225 237 255
225 237 255
225 237 255
225 237 255
225 237 255
225 237 255
225 237 255
225 237 255
225 237 255
225 237 255
224 237 255
224 237 255
224 237 255
224 237 255
224 237 255
224 237 255
224 237 255
224 237 255
224 237 255
224 237 255
224 237 255
224 237 255
224 237 255
224 237 255
224 237 255
224 237 255
224 237 255
224 237 255
224 237 255
224 237 255
224 237 255
224 237 255
224 237 255
224 237 255
224 237 255
224 237 255
224 237 255
224 237 255
224 237 255
224 237 255
224 237 255
224 237 255
224 237 255
224 237 255
224 237 255
224 237 255
224 237 255
224 237 255
224 237 255
224 237 255
224 237 255
224 237 255
224 237 255
224 237 255
224 237 255
224 237 255
224 237 255
224 237 255
224 237 255
224 237 255
224 237 255
224 237 255
224 237 255
224 237 255
224 237 255
224 237 255
224 237 255
224 237 255
224 237 255
224 237 255
224 237 255
224 237 255
224 237 255
224 237 255
224 237 255
224 237 255
225 237 255
225 237 255
225 237 255
225 237 255
225 237 255
225 237 255
225 237 255
225 237 255
225 237 255
225 237 255
225 237 255
225 237 255
225 237 255
225 237 255
225 237 255
225 237 255
225 238 255
225 238 255
225 238 255
225 238 255
225 238 255
225 238 255
225 238 255
225 238 255
225 238 255
225 238 255
225 238 255
225 238 255
225 238 255
225 238 255
225 238 255
225 238 255
225 238 255
225 238 255
225 238 255
225 238 255
225 238 255
225 238 255
225 238 255
225 238 255
225 238 255
225 238 255
225 238 255
225 238 255
225 238 255
225 238 255
225 238 255
225 238 255
225 238 255
225 238 255
225 238 255
225 238 255
225 238 255
225 238 255
225 238 255
225 238 255
225 238 255
225 238 255
225 238 255
225 238 255
225 238 255
225 238 255
225 238 255
225 238 255
225 238 255
225 238 255
225 238 255
225 238 255
226 238 255
226 238 255
226 238 255
226 238 255
226 238 255
226 238 255
226 238 255
226 238 255
226 238 255
226 238 255
226 238 255
226 238 255
226 238 255
226 238 255
226 238 255
226 238 255
226 238 255
226 238 255
226 238 255
226 238 255
226 238 255
226 238 255
226 238 255
226 238 255
226 238 255
226 238 255
226 238 255
226 238 255
226 238 255
226 238 255
226 238 255
226 238 255
226 238 255
226 238 255
226 238 255
226 238 255
226 238 255
226 238 255
226 238 255
226 238 255
226 238 255
226 238 255
226 238 255
226 238 255
226 238 255
226 238 255
226 238 255
226 238 255
226 238 255
226 238 255
226 238 255
226 238 255
226 238 255
226 238 255
226 238 255
226 238 255
226 238 255
226 238 255
226 238 255
226 238 255
226 239 255
226 239 255
226 239 255
226 239 255
227 239 255
227 239 255
227 239 255
227 239 255
227 239 255
227 239 255
227 239 255
227 239 255
227 239 255
227 239 255
227 239 255
227 239 255
227 239 255
227 239 255
227 239 255
227 239 255
227 239 255
227 239 255
227 239 255
227 239 255
227 239 255
227 239 255
227 239 255
227 239 255
227 239 255
227 239 255
227 239 255
227 239 255
227 239 255
227 239 255
227 239 255
227 239 255
227 239 255
227 239 255
227 239 255
227 239 255
227 239 255
227 239 255
227 239 255
227 239 255
227 239 255
227 239 255
227 239 255
227 239 255
227 239 255
227 239 255
227 239 255
227 239 255
227 239 255
227 239 255
227 239 255
227 239 255
227 239 255
227 239 255
227 239 255
227 239 255
227 239 255
227 239 255
227 239 255
227 239 255
227 239 255
227 239 255
227 239 255
227 239 255
227 239 255
227 239 255
227 239 255
227 239 255
227 239 255
227 239 255
227 239 255
227 239 255
227 239 255
227 239 255
227 239 255
227 239 255
227 239 255
227 239 255
227 239 255
227 239 255
227 239 255
227 239 255
227 239 255
226 239 255
226 239 255
226 239 255
226 238 255
226 238 255
226 238 255
226 238 255
226 238 255
226 238 255
226 238 255
226 238 255
226 238 255
226 238 255
226 238 255
226 238 255
226 238 255
226 238 255
226 238 255
226 238 255
226 238 255
226 238 255
226 238 255
226 238 255
226 238 255
226 238 255
226 238 255
226 238 255
226 238 255
226 238 255
226 238 255
226 238 255
226 238 255
226 238 255
226 238 255
226 238 255
226 238 255
226 238 255
226 238 255
226 238 255
226 238 255
226 238 255
226 238 255
226 238 255
226 238 255
226 238 255
226 238 255
226 238 255
226 238 255
226 238 255
226 238 255
226 238 255
226 238 255
226 238 255
226 238 255
226 238 255
226 238 255
226 238 255
226 238 255
226 238 255
226 238 255
226 238 255
226 238 255
226 238 255
225 238 255
225 238 255
225 238 255
225 238 255
225 238 255
225 238 255
225 238 255
225 238 255
225 238 255
225 238 255
225 238 255
225 238 255
225 238 255
225 238 255
225 238 255
225 238 255
225 238 255
225 238 255
225 238 255
225 238 255
225 238 255
225 238 255
225 238 255
225 238 255
225 238 255
225 238 255
225 238 255
225 238 255
225 238 255
225 238 255
225 238 255
225 238 255
225 238 255
225 238 255
225 238 255
225 238 255
225 238 255
225 238 255
225 238 255
225 238 255
225 238 255
225 238 255
225 238 255
225 238 255
225 238 255
225 238 255
225 238 255
225 238 255
225 238 255
225 238 255
225 238 255
225 238 255
225 237 255
225 237 255
225 237 255
225 237 255
225 237 255
225 237 255
225 237 255
225 237 255
225 237 255
225 237 255
225 237 255
225 237 255
225 237 255
225 237 255
225 237 255
225 237 255
224 237 255
224 237 255
224 237 255
224 237 255
224 237 255
224 237 255
224 237 255
224 237 255
224 237 255
224 237 255
224 237 255
224 237 255
224 237 255
224 237 255
224 237 255
224 237 255
224 237 255
224 237 255
224 237 255
224 237 255
224 237 255
224 237 255
224 237 255
224 237 255
224 237 255
224 237 255
224 237 255
224 237 255
224 237 255
224 237 255
224 237 255
224 237 255
224 237 255
224 237 255
224 237 255
224 237 255
224 237 255
224 237 255
224 237 255
224 237 255
224 237 255
224 237 255
224 237 255
225 237 255
225 237 255
225 237 255
225 237 255
225 237 255
225 237 255
225 237 255
225 237 255
225 237 255
225 237 255
225 237 255
225 237 255
225 237 255
225 237 255
225 237 255
225 237 255
225 238 255
225 238 255
225 238 255
225 238 255
225 238 255
225 238 255
225 238 255
225 238 255
225 238 255
225 238 255
225 238 255
225 238 255
225 238 255
225 238 255
225 238 255
225 238 255
225 238 255
225 238 255
225 238 255
225 238 255
225 238 255
225 238 255
225 238 255
225 238 255
225 238 255
225 238 255
225 238 255
225 238 255
225 238 255
225 238 255
225 238 255
225 238 255
225 238 255
225 238 255
225 238 255
225 238 255
225 238 255
225 238 255
225 238 255
225 238 255
225 238 255
225 238 255
225 238 255
225 238 255
225 238 255
225 238 255
225 238 255
225 238 255
225 238 255
225 238 255
225 238 255
225 238 255
225 238 255
226 238 255
226 238 255
226 238 255
226 238 255
226 238 255
226 238 255
226 238 255
226 238 255
226 238 255
226 238 255
226 238 255
226 238 255
226 238 255
226 238 255
226 238 255
226 238 255
226 238 255
226 238 255
226 238 255
226 238 255
226 238 255
226 238 255
226 238 255
226 238 255
226 238 255
226 238 255
226 238 255
226 238 255
226 238 255
226 238 255
226 238 255
226 238 255
226 238 255
226 238 255
226 238 255
226 238 255
226 238 255
226 238 255
226 238 255
226 238 255
226 238 255
226 238 255
226 238 255
226 238 255
226 238 255
226 238 255
226 238 255
226 238 255
226 238 255
226 238 255
226 238 255
226 238 255
226 238 255
226 238 255
226 239 255
226 239 255
226 239 255
227 239 255
227 239 255
227 239 255
227 239 255
227 239 255
227 239 255
227 239 255
227 239 255
227 239 255
227 239 255
227 239 255
227 239 255
227 239 255
227 239 255
227 239 255
227 239 255
227 239 255
227 239 255
227 239 255
227 239 255
227 239 255
227 239 255
227 239 255
227 239 255
227 239 255
227 239 255
227 239 255
227 239 255
227 239 255
227 239 255
227 239 255
227 239 255
227 239 255
227 239 255
227 239 255
227 239 255
227 239 255
227 239 255
227 239 255
227 239 255
227 239 255
227 239 255
227 239 255
227 239 255
227 239 255
227 239 255
227 239 255
227 239 255
227 239 255
227 239 255
227 239 255
227 239 255
227 239 255
227 239 255
227 239 255
227 239 255
227 239 255
227 239 255
227 239 255
227 239 255
227 239 255
227 239 255
227 239 255
227 239 255
227 239 255
227 239 255
227 239 255
227 239 255
227 239 255
227 239 255
227 239 255
227 239 255
227 239 255
227 239 255
227 239 255
227 239 255
227 239 255
227 239 255
227 239 255
227 239 255
227 239 255
227 239 255
227 239 255
227 239 255
227 239 255
227 239 255
227 239 255
227 239 255
227 239 255
227 239 255
227 239 255
227 239 255
227 239 255
227 239 255
227 239 255
227 239 255
227 239 255
227 239 255
227 239 255
227 239 255
227 239 255
227 239 255
227 239 255
227 239 255
227 239 255
227 239 255
227 239 255
227 239 255
227 239 255
227 239 255
227 239 255
227 239 255
227 239 255
227 239 255
227 239 255
227 239 255
226 239 255
226 239 255
226 239 255
226 238 255
226 238 255
226 238 255
226 238 255
226 238 255
226 238 255
226 238 255
226 238 255
226 238 255
226 238 255
226 238 255
226 238 255
226 238 255
226 238 255
226 238 255
226 238 255
226 238 255
226 238 255
226 238 255
226 238 255
226 238 255
226 238 255
226 238 255
226 238 255
226 238 255
226 238 255
226 238 255
226 238 255
226 238 255
226 238 255
226 238 255
226 238 255
226 238 255
226 238 255
226 238 255
226 238 255
226 238 255
226 238 255
226 238 255
226 238 255
226 238 255
226 238 255
226 238 255
226 238 255
226 238 255
226 238 255
226 238 255
226 238 255
226 238 255
226 238 255
226 238 255
226 238 255
226 238 255
226 238 255
226 238 255
225 238 255
225 238 255
225 238 255
225 238 255
225 238 255
225 238 255
225 238 255
225 238 255
225 238 255
225 238 255
225 238 255
225 238 255
225 238 255
225 238 255
225 238 255
225 238 255
225 238 255
225 238 255
225 238 255
225 238 255
225 238 255
225 238 255
225 238 255
225 238 255
225 238 255
225 238 255
225 238 255
225 238 255
225 238 255
225 238 255
225 238 255
225 238 255
225 238 255
225 238 255
225 238 255
225 238 255
225 238 255
225 238 255
225 238 255
225 238 255
225 238 255
225 238 255
225 238 255
225 238 255
225 238 255
225 238 255
225 238 255
225 238 255
225 238 255
225 238 255
225 238 255
225 238 255
225 237 255
225 237 255
225 237 255
225 237 255
225 237 255
225 237 255
225 237 255
225 237 255
225 237 255
225 237 255
225 237 255
225 237 255
225 237 255
225 237 255
225 237 255
225 237 255
225 237 255
224 237 255
224 237 255
224 237 255
224 237 255
224 237 255
224 237 255
224 237 255
224 237 255
224 237 255
224 237 255
224 237 255
224 237 255
224 237 255
224 237 255
224 237 255
224 237 255
224 237 255
224 237 255
224 237 255
225 237 255
225 237 255
225 237 255
225 237 255
225 237 255
225 237 255
225 237 255
225 237 255
225 237 255
225 237 255
225 237 255
225 237 255
225 237 255
225 237 255
225 237 255
225 237 255
225 237 255
225 238 255
225 238 255
225 238 255
225 238 255
225 238 255
225 238 255
225 238 255
225 238 255
225 238 255
225 238 255
225 238 255
225 238 255
225 238 255
225 238 255
225 238 255
225 238 255
225 238 255
225 238 255
225 238 255
225 238 255
225 238 255
225 238 255
225 238 255
225 238 255
225 238 255
225 238 255
225 238 255
225 238 255
225 238 255
225 238 255
225 238 255
225 238 255
225 238 255
225 238 255
225 238 255
225 238 255
225 238 255
225 238 255
225 238 255
225 238 255
225 238 255
225 238 255
225 238 255
225 238 255
225 238 255
225 238 255
225 238 255
225 238 255
225 238 255
225 238 255
225 238 255
225 238 255
226 238 255
226 238 255
226 238 255
226 238 255
226 238 255
226 238 255
226 238 255
226 238 255
226 238 255
226 238 255
226 238 255
226 238 255
226 238 255
226 238 255
226 238 255
226 238 255
226 238 255
226 238 255
226 238 255
226 238 255
226 238 255
226 238 255
226 238 255
226 238 255
226 238 255
226 238 255
226 238 255
226 238 255
226 238 255
226 238 255
226 238 255
226 238 255
226 238 255
226 238 255
226 238 255
226 238 255
226 238 255
226 238 255
226 238 255
226 238 255
226 238 255
226 238 255
226 238 255
226 238 255
226 238 255
226 238 255
226 238 255
226 238 255
226 238 255
226 238 255
226 238 255
226 238 255
226 238 255
226 238 255
226 239 255
226 239 255
227 239 255
227 239 255
227 239 255
227 239 255
227 239 255
227 239 255
227 239 255
227 239 255
227 239 255
227 239 255
227 239 255
227 239 255
227 239 255
227 239 255
227 239 255
227 239 255
227 239 255
227 239 255
227 239 255
227 239 255
227 239 255
227 239 255
227 239 255
227 239 255
227 239 255
227 239 255
227 239 255
227 239 255
227 239 255
227 239 255
227 239 255
227 239 255
227 239 255
227 239 255
227 239 255
227 239 255
227 239 255
227 239 255
227 239 255
227 239 255
227 239 255
227 239 255
227 239 255
227 239 255
227 239 255
227 239 255
227 239 255
227 239 255
227 239 255
227 239 255
227 239 255
227 239 255
227 239 255
227 239 255
227 239 255
227 239 255
227 239 255
227 239 255
227 239 255
227 239 255
227 239 255
227 239 255
227 239 255
227 239 255
227 239 255
227 239 255
227 239 255
227 239 255
227 239 255
227 239 255
227 239 255
227 239 255
227 239 255
227 239 255
227 239 255
227 239 255
227 239 255
227 239 255
227 239 255
227 239 255
227 239 255
227 239 255
227 239 255
227 239 255
227 239 255
227 239 255
227 239 255
227 239 255
227 239 255
227 239 255
227 239 255
227 239 255
227 239 255
227 239 255
227 239 255
227 239 255
227 239 255
227 239 255
227 239 255
227 239 255
227 239 255
227 239 255
227 239 255
227 239 255
227 239 255
227 239 255
227 239 255
227 239 255
227 239 255
227 239 255
227 239 255
227 239 255
227 239 255
227 239 255
227 239 255
227 239 255
227 239 255
227 239 255
227 239 255
227 239 255
227 239 255
227 239 255
227 239 255
227 239 255
227 239 255
227 239 255
227 239 255
227 239 255
227 239 255
227 239 255
227 239 255
227 239 255
227 239 255
227 239 255
227 239 255
227 239 255
227 239 255
227 239 255
227 239 255
227 239 255
227 239 255
227 239 255
226 239 255
226 239 255
226 238 255
226 238 255
226 238 255
226 238 255
226 238 255
226 238 255
226 238 255
226 238 255
226 238 255
226 238 255
226 238 255
226 238 255
226 238 255
226 238 255
226 238 255
226 238 255
226 238 255
226 238 255
226 238 255
226 238 255
226 238 255
226 238 255
226 238 255
226 238 255
226 238 255
226 238 255
226 238 255
226 238 255
226 238 255
226 238 255
226 238 255
226 238 255
226 238 255
226 238 255
226 238 255
226 238 255
226 238 255
226 238 255
226 238 255
226 238 255
226 238 255
226 238 255
226 238 255
226 238 255
226 238 255
226 238 255
226 238 255
226 238 255
226 238 255
226 238 255
226 238 255
226 238 255
226 238 255
226 238 255
225 238 255
225 238 255
225 238 255
225 238 255
225 238 255
225 238 255
225 238 255
225 238 255
225 238 255
225 238 255
225 238 255
225 238 255
225 238 255
225 238 255
225 238 255
225 238 255
225 238 255
225 238 255
225 238 255
225 238 255
225 238 255
225 238 255
225 238 255
225 238 255
225 238 255
225 238 255
225 238 255
225 238 255
225 238 255
225 238 255
225 238 255
225 238 255
225 238 255
225 238 255
225 238 255
225 238 255
225 238 255
225 238 255
225 238 255
225 238 255
225 238 255
225 238 255
225 238 255
225 238 255
225 238 255
225 238 255
225 238 255
225 238 255
225 238 255
225 238 255
225 238 255
225 238 255
225 238 255
225 237 255
225 237 255
225 237 255
225 237 255
225 237 255
225 237 255
225 237 255
225 237 255
225 237 255
225 237 255
225 237 255
225 237 255
225 237 255
225 237 255
225 237 255
225 237 255
224 237 255
224 237 255
224 237 255
224 237 255
225 237 255
225 237 255
225 237 255
225 237 255
225 237 255
225 237 255
225 237 255
225 237 255
225 237 255
225 237 255
225 238 255
225 238 255
225 238 255
225 238 255
225 238 255
225 238 255
225 238 255
225 238 255
225 238 255
225 238 255
225 238 255
225 238 255
225 238 255
225 238 255
225 238 255
225 238 255
225 238 255
225 238 255
225 238 255
225 238 255
225 238 255
225 238 255
225 238 255
225 238 255
225 238 255
225 238 255
225 238 255
225 238 255
225 238 255
225 238 255
225 238 255
225 238 255
225 238 255
225 238 255
225 238 255
225 238 255
225 238 255
225 238 255
225 238 255
225 238 255
225 238 255
225 238 255
225 238 255
225 238 255
225 238 255
225 238 255
225 238 255
225 238 255
225 238 255
225 238 255
225 238 255
225 238 255
225 238 255
226 238 255
226 238 255
226 238 255
226 238 255
226 238 255
226 238 255
226 238 255
226 238 255
226 238 255
226 238 255
226 238 255
226 238 255
226 238 255
226 238 255
226 238 255
226 238 255
226 238 255
226 238 255
226 238 255
226 238 255
226 238 255
226 238 255
226 238 255
226 238 255
226 238 255
226 238 255
226 238 255
226 238 255
226 238 255
226 238 255
226 238 255
226 238 255
226 238 255
226 238 255
226 238 255
226 238 255
226 238 255
226 238 255
226 238 255
226 238 255
226 238 255
226 238 255
226 238 255
226 238 255
226 238 255
226 238 255
226 238 255
226 238 255
226 238 255
226 238 255
226 238 255
226 238 255
226 239 255
226 239 255
226 239 255
227 239 255
227 239 255
227 239 255
227 239 255
227 239 255
227 239 255
227 239 255
227 239 255
227 239 255
227 239 255
227 239 255
227 239 255
227 239 255
227 239 255
227 239 255
227 239 255
227 239 255
227 239 255
227 239 255
227 239 255
227 239 255
227 239 255
227 239 255
227 239 255
227 239 255
227 239 255
227 239 255
227 239 255
227 239 255
227 239 255
227 239 255
227 239 255
227 239 255
227 239 255
227 239 255
227 239 255
227 239 255
227 239 255
227 239 255
227 239 255
227 239 255
227 239 255
227 239 255
227 239 255
227 239 255
227 239 255
227 239 255
227 239 255
227 239 255
227 239 255
227 239 255
227 239 255
227 239 255
227 239 255
227 239 255
227 239 255
227 239 255
227 239 255
227 239 255
227 239 255
227 239 255
227 239 255
227 239 255
227 239 255
227 239 255
227 239 255
227 239 255
228 239 255
228 239 255
228 239 255
228 239 255
228 239 255
228 239 255
228 239 255
228 239 255
228 239 255
228 239 255
228 239 255
228 239 255
228 239 255
228 239 255
228 239 255
228 239 255
228 239 255
228 239 255
228 239 255
228 239 255
228 239 255
228 239 255
228 239 255
228 239 255
228 239 255
228 239 255
228 239 255
228 239 255
228 239 255
228 239 255
228 239 255
227 239 255
227 239 255
227 239 255
227 239 255
227 239 255
227 239 255
227 239 255
227 239 255
227 239 255
227 239 255
227 239 255
227 239 255
227 239 255
227 239 255
227 239 255
227 239 255
227 239 255
227 239 255
227 239 255
227 239 255
227 239 255
227 239 255
227 239 255
227 239 255
227 239 255
227 239 255
227 239 255
227 239 255
227 239 255
227 239 255
227 239 255
227 239 255
227 239 255
227 239 255
227 239 255
227 239 255
227 239 255
227 239 255
227 239 255
227 239 255
227 239 255
227 239 255
227 239 255
227 239 255
227 239 255
227 239 255
227 239 255
227 239 255
227 239 255
227 239 255
227 239 255
227 239 255
227 239 255
227 239 255
227 239 255
227 239 255
227 239 255
227 239 255
227 239 255
227 239 255
227 239 255
227 239 255
227 239 255
227 239 255
227 239 255
227 239 255
227 239 255
226 239 255
226 239 255
226 238 255
226 238 255
226 238 255
226 238 255
226 238 255
226 238 255
226 238 255
226 238 255
226 238 255
226 238 255
226 238 255
226 238 255
226 238 255
226 238 255
226 238 255
226 238 255
226 238 255
226 238 255
226 238 255
226 238 255
226 238 255
226 238 255
226 238 255
226 238 255
226 238 255
226 238 255
226 238 255
226 238 255
226 238 255
226 238 255
226 238 255
226 238 255
226 238 255
226 238 255
226 238 255
226 238 255
226 238 255
226 238 255
226 238 255
226 238 255
226 238 255
226 238 255
226 238 255
226 238 255
226 238 255
226 238 255
226 238 255
226 238 255
226 238 255
226 238 255
226 238 255
225 238 255
225 238 255
225 238 255
225 238 255
225 238 255
225 238 255
225 238 255
225 238 255
225 238 255
225 238 255
225 238 255
225 238 255
225 238 255
225 238 255
225 238 255
225 238 255
225 238 255
225 238 255
225 238 255
225 238 255
225 238 255
225 238 255
225 238 255
225 238 255
225 238 255
225 238 255
225 238 255
225 238 255
225 238 255
225 238 255
225 238 255
225 238 255
225 238 255
225 238 255
225 238 255
225 238 255
225 238 255
225 238 255
225 238 255
225 238 255
225 238 255
225 238 255
225 238 255
225 238 255
225 238 255
225 238 255
225 238 255
225 238 255
225 238 255
225 238 255
225 238 255
225 238 255
225 238 255
225 238 255
225 237 255
225 237 255
225 237 255
225 237 255
225 237 255
225 237 255
225 237 255
225 237 255
225 237 255
225 237 255
225 238 255
225 238 255
225 238 255
225 238 255
225 238 255
225 238 255
225 238 255
225 238 255
225 238 255
225 238 255
225 238 255
225 238 255
225 238 255
225 238 255
225 238 255
225 238 255
225 238 255
225 238 255
225 238 255
225 238 255
225 238 255
225 238 255
225 238 255
225 238 255
225 238 255
225 238 255
225 238 255
225 238 255
225 238 255
225 238 255
225 238 255
225 238 255
225 238 255
225 238 255
225 238 255
225 238 255
225 238 255
225 238 255
225 238 255
225 238 255
225 238 255
225 238 255
225 238 255
225 238 255
225 238 255
225 238 255
225 238 255
225 238 255
225 238 255
225 238 255
225 238 255
225 238 255
225 238 255
225 238 255
226 238 255
226 238 255
226 238 255
226 238 255
226 238 255
226 238 255
226 238 255
226 238 255
226 238 255
226 238 255
226 238 255
226 238 255
226 238 255
226 238 255
226 238 255
226 238 255
226 238 255
226 238 255
226 238 255
226 238 255
226 238 255
226 238 255
226 238 255
226 238 255
226 238 255
226 238 255
226 238 255
226 238 255
226 238 255
226 238 255
226 238 255
226 238 255
226 238 255
226 238 255
226 238 255
226 238 255
226 238 255
226 238 255
226 238 255
226 238 255
226 238 255
226 238 255
226 238 255
226 238 255
226 238 255
226 238 255
226 238 255
226 238 255
226 238 255
226 238 255
226 238 255
226 239 255
226 239 255
227 239 255
227 239 255
227 239 255
227 239 255
227 239 255
227 239 255
227 239 255
227 239 255
227 239 255
227 239 255
227 239 255
227 239 255
227 239 255
227 239 255
227 239 255
227 239 255
227 239 255
227 239 255
227 239 255
227 239 255
227 239 255
227 239 255
227 239 255
227 239 255
227 239 255
227 239 255
227 239 255
227 239 255
227 239 255
227 239 255
227 239 255
227 239 255
227 239 255
227 239 255
227 239 255
227 239 255
227 239 255
227 239 255
227 239 255
227 239 255
227 239 255
227 239 255
227 239 255
227 239 255
227 239 255
227 239 255
227 239 255
227 239 255
227 239 255
227 239 255
227 239 255
227 239 255
227 239 255
228 239 255
228 239 255
228 239 255
228 239 255
228 239 255
228 239 255
228 239 255
228 239 255
228 239 255
228 239 255
228 239 255
228 239 255
228 239 255
228 239 255
228 239 255
228 239 255
228 239 255
228 239 255
228 239 255
228 239 255
228 239 255
228 239 255
228 239 255
228 239 255
228 239 255
228 239 255
228 239 255
228 239 255
228 239 255
228 239 255
228 239 255
228 239 255
228 239 255
228 239 255
228 239 255
228 239 255
228 239 255
228 239 255
228 239 255
228 239 255
228 239 255
228 239 255
228 239 255
228 239 255
228 239 255
228 239 255
228 239 255
228 239 255
228 239 255
228 239 255
228 239 255
228 239 255
228 239 255
228 239 255
228 239 255
228 239 255
228 239 255
228 239 255
228 239 255
228 239 255
228 239 255
228 239 255
228 239 255
228 239 255
228 239 255
228 239 255
228 239 255
228 239 255
228 239 255
228 239 255
228 239 255
228 239 255
228 239 255
228 239 255
228 239 255
228 239 255
228 239 255
228 239 255
228 239 255
227 239 255
227 239 255
227 239 255
227 239 255
227 239 255
227 239 255
227 239 255
227 239 255
227 239 255
227 239 255
227 239 255
227 239 255
227 239 255
227 239 255
227 239 255
227 239 255
227 239 255
227 239 255
227 239 255
227 239 255
227 239 255
227 239 255
227 239 255
227 239 255
227 239 255
227 239 255
227 239 255
227 239 255
227 239 255
227 239 255
227 239 255
227 239 255
227 239 255
227 239 255
227 239 255
227 239 255
227 239 255
227 239 255
227 239 255
227 239 255
227 239 255
227 239 255
227 239 255
227 239 255
227 239 255
227 239 255
227 239 255
227 239 255
227 239 255
227 239 255
227 239 255
227 239 255
227 239 255
227 239 255
226 239 255
226 239 255
226 238 255
226 238 255
226 238 255
226 238 255
226 238 255
226 238 255
226 238 255
226 238 255
226 238 255
226 238 255
226 238 255
226 238 255
226 238 255
226 238 255
226 238 255
226 238 255
226 238 255
226 238 255
226 238 255
226 238 255
226 238 255
226 238 255
226 238 255
226 238 255
226 238 255
226 238 255
226 238 255
226 238 255
226 238 255
226 238 255
226 238 255
226 238 255
226 238 255
226 238 255
226 238 255
226 238 255
226 238 255
226 238 255
226 238 255
226 238 255
226 238 255
226 238 255
226 238 255
226 238 255
226 238 255
226 238 255
226 238 255
226 238 255
226 238 255
226 238 255
226 238 255
225 238 255
225 238 255
225 238 255
225 238 255
225 238 255
225 238 255
225 238 255
225 238 255
225 238 255
225 238 255
225 238 255
225 238 255
225 238 255
225 238 255
225 238 255
225 238 255
225 238 255
225 238 255
225 238 255
225 238 255
225 238 255
225 238 255
225 238 255
225 238 255
225 238 255
225 238 255
225 238 255
225 238 255
225 238 255
225 238 255
225 238 255
225 238 255
225 238 255
225 238 255
225 238 255
225 238 255
225 238 255
225 238 255
225 238 255
225 238 255
225 238 255
225 238 255
225 238 255
225 238 255
225 238 255
225 238 255
225 238 255
225 238 255
225 238 255
225 238 255
225 238 255
225 238 255
225 238 255
225 238 255
225 238 255
225 238 255
225 238 255
225 238 255
225 238 255
225 238 255
225 238 255
225 238 255
225 238 255
225 238 255
225 238 255
225 238 255
225 238 255
225 238 255
225 238 255
225 238 255
225 238 255
225 238 255
225 238 255
225 238 255
225 238 255
225 238 255
225 238 255
225 238 255
225 238 255
225 238 255
225 238 255
225 238 255
225 238 255
225 238 255
225 238 255
225 238 255
225 238 255
225 238 255
225 238 255
225 238 255
225 238 255
225 238 255
225 238 255
225 238 255
225 238 255
225 238 255
225 238 255
225 238 255
226 238 255
226 238 255
226 238 255
226 238 255
226 238 255
226 238 255
226 238 255
226 238 255
226 238 255
226 238 255
226 238 255
226 238 255
226 238 255
226 238 255
226 238 255
226 238 255
226 238 255
226 238 255
226 238 255
226 238 255
226 238 255
226 238 255
226 238 255
226 238 255
226 238 255
226 238 255
226 238 255
226 238 255
226 238 255
226 238 255
226 238 255
226 238 255
226 238 255
226 238 255
226 238 255
226 238 255
226 238 255
226 238 255
226 238 255
226 238 255
226 238 255
226 238 255
226 238 255
226 238 255
226 238 255
226 238 255
226 238 255
226 238 255
226 238 255
226 238 255
226 238 255
226 239 255
226 239 255
227 239 255
227 239 255
227 239 255
227 239 255
227 239 255
227 239 255
227 239 255
227 239 255
227 239 255
227 239 255
227 239 255
227 239 255
227 239 255
227 239 255
227 239 255
227 239 255
227 239 255
227 239 255
227 239 255
227 239 255
227 239 255
227 239 255
227 239 255
227 239 255
227 239 255
227 239 255
227 239 255
227 239 255
227 239 255
227 239 255
227 239 255
227 239 255
227 239 255
227 239 255
227 239 255
227 239 255
227 239 255
227 239 255
227 239 255
227 239 255
227 239 255
227 239 255
227 239 255
227 239 255
227 239 255
227 239 255
227 239 255
227 239 255
228 239 255
228 239 255
228 239 255
228 239 255
228 239 255
228 239 255
228 239 255
228 239 255
228 239 255
228 239 255
228 239 255
228 239 255
228 239 255
228 239 255
228 239 255
228 239 255
228 239 255
228 239 255
228 239 255
228 239 255
228 239 255
228 239 255
228 239 255
228 239 255
228 239 255
228 239 255
228 239 255
228 239 255
228 239 255
228 239 255
228 239 255
228 239 255
228 239 255
228 239 255
228 239 255
228 239 255
228 239 255
228 239 255
228 239 255
228 239 255
228 239 255
228 239 255
228 239 255
228 239 255
228 239 255
228 239 255
228 239 255
228 239 255
228 239 255
228 239 255
228 239 255
228 239 255
228 239 255
228 239 255
228 239 255
228 239 255
228 239 255
228 239 255
228 239 255
228 239 255
228 239 255
228 239 255
228 239 255
228 239 255
228 239 255
228 239 255
228 239 255
228 239 255
228 239 255
228 239 255
228 239 255
228 239 255
228 239 255
228 239 255
228 239 255
228 239 255
228 239 255
228 239 255
228 239 255
228 239 255
228 239 255
228 239 255
228 239 255
228 239 255
228 239 255
228 239 255
228 239 255
228 239 255
228 239 255
228 239 255
228 239 255
228 239 255
228 239 255
228 239 255
228 239 255
228 239 255
228 239 255
228 239 255
228 239 255
228 239 255
228 239 255
228 239 255
228 239 255
228 239 255
228 239 255
228 239 255
228 239 255
228 239 255
227 239 255
227 239 255
227 239 255
227 239 255
227 239 255
227 239 255
227 239 255
227 239 255
227 239 255
227 239 255
227 239 255
227 239 255
227 239 255
227 239 255
227 239 255
227 239 255
227 239 255
227 239 255
227 239 255
227 239 255
227 239 255
227 239 255
227 239 255
227 239 255
227 239 255
227 239 255
227 239 255
227 239 255
227 239 255
227 239 255
227 239 255
227 239 255
227 239 255
227 239 255
227 239 255
227 239 255
227 239 255
227 239 255
227 239 255
227 239 255
227 239 255
227 239 255
227 239 255
227 239 255
227 239 255
227 239 255
227 239 255
227 239 255
227 239 255
227 239 255
226 239 255
226 239 255
226 238 255
226 238 255
226 238 255
226 238 255
226 238 255
226 238 255
226 238 255
226 238 255
226 238 255
226 238 255
226 238 255
226 238 255
226 238 255
226 238 255
226 238 255
226 238 255
226 238 255
226 238 255
226 238 255
226 238 255
226 238 255
226 238 255
226 238 255
226 238 255
226 238 255
226 238 255
226 238 255
226 238 255
226 238 255
226 238 255
226 238 255
226 238 255
226 238 255
226 238 255
226 238 255
226 238 255
226 238 255
226 238 255
226 238 255
226 238 255
226 238 255
226 238 255
226 238 255
226 238 255
226 238 255
226 238 255
226 238 255
226 238 255
226 238 255
226 238 255
225 238 255
225 238 255
225 238 255
225 238 255
225 238 255
225 238 255
225 238 255
225 238 255
225 238 255
225 238 255
225 238 255
225 238 255
225 238 255
225 238 255
225 238 255
225 238 255
225 238 255
225 238 255
225 238 255
225 238 255
225 238 255
225 238 255
225 238 255
225 238 255
225 238 255
225 238 255
225 238 255
225 238 255
225 238 255
225 238 255
225 238 255
225 238 255
225 238 255
225 238 255
225 238 255
225 238 255
225 238 255
225 238 255
225 238 255
225 238 255
225 238 255
225 238 255
225 238 255
225 238 255
225 238 255
225 238 255
225 238 255
225 238 255
225 238 255
225 238 255
225 238 255
225 238 255
225 238 255
225 238 255
225 238 255
225 238 255
225 238 255
225 238 255
225 238 255
225 238 255
225 238 255
225 238 255
225 238 255
225 238 255
225 238 255
225 238 255
225 238 255
225 238 255
225 238 255
225 238 255
225 238 255
225 238 255
225 238 255
225 238 255
225 238 255
225 238 255
225 238 255
225 238 255
225 238 255
225 238 255
225 238 255
226 238 255
226 238 255
226 238 255
226 238 255
226 238 255
226 238 255
226 238 255
226 238 255
226 238 255
226 238 255
226 238 255
226 238 255
226 238 255
226 238 255
226 238 255
226 238 255
226 238 255
226 238 255
226 238 255
226 238 255
226 238 255
226 238 255
226 238 255
226 238 255
226 238 255
226 238 255
226 238 255
226 238 255
226 238 255
226 238 255
226 238 255
226 238 255
226 238 255
226 238 255
226 238 255
226 238 255
226 238 255
226 238 255
226 238 255
226 238 255
226 238 255
226 238 255
226 238 255
226 238 255
226 238 255
226 238 255
226 238 255
226 238 255
226 238 255
226 238 255
226 239 255
226 239 255
226 239 255
227 239 255
227 239 255
227 239 255
227 239 255
227 239 255
227 239 255
227 239 255
227 239 255
227 239 255
227 239 255
227 239 255
227 239 255
227 239 255
227 239 255
227 239 255
227 239 255
227 239 255
227 239 255
227 239 255
227 239 255
227 239 255
227 239 255
227 239 255
227 239 255
227 239 255
227 239 255
227 239 255
227 239 255
227 239 255
227 239 255
227 239 255
227 239 255
227 239 255
227 239 255
227 239 255
227 239 255
227 239 255
227 239 255
227 239 255
227 239 255
227 239 255
227 239 255
227 239 255
227 239 255
227 239 255
228 239 255
228 239 255
228 239 255
228 239 255
228 239 255
228 239 255
228 239 255
228 239 255
228 239 255
228 239 255
228 239 255
228 239 255
228 239 255
228 239 255
228 239 255
228 239 255
228 239 255
228 239 255
228 239 255
228 239 255
228 239 255
228 239 255
228 239 255
228 239 255
228 239 255
228 239 255
228 239 255
228 239 255
228 239 255
228 239 255
228 239 255
228 239 255
228 239 255
228 239 255
228 239 255
228 239 255
228 239 255
228 239 255
228 239 255
226 238 249
222 235 240
223 235 241
217 231 224
214 228 214
213 228 212
210 225 204
211 226 207
207 223 193
206 221 188
206 222 193
205 221 188
197 215 157
197 215 161
197 215 159
200 217 169
198 216 163
195 213 149
194 212 144
194 213 144
189 209 125
191 210 135
194 213 147
192 211 140
190 210 135
188 208 122
190 209 127
188 208 122
191 211 135
187 208 120
188 208 125
187 207 117
189 208 120
194 213 142
191 210 137
191 211 137
195 213 151
197 215 153
202 218 171
198 216 165
199 217 163
197 215 157
204 220 182
204 221 186
210 225 204
205 221 188
213 227 211
209 225 201
214 229 217
214 228 215
217 231 226
223 235 240
224 236 244
225 237 246
228 239 254
228 239 255
228 239 255
228 239 255
228 239 255
228 239 255
228 239 255
228 239 255
228 239 255
228 239 255
228 239 255
228 239 255
228 239 255
228 239 255
228 239 255
228 239 255
228 239 255
228 239 255
228 239 255
228 239 255
228 239 255
228 239 255
228 239 255
228 239 255
228 239 255
228 239 255
228 239 255
228 239 255
228 239 255
228 239 255
228 239 255
228 239 255
228 239 255
228 239 255
228 239 255
228 239 255
228 239 255
228 239 255
228 239 255
227 239 255
227 239 255
227 239 255
227 239 255
227 239 255
227 239 255
227 239 255
227 239 255
227 239 255
227 239 255
227 239 255
227 239 255
227 239 255
227 239 255
227 239 255
227 239 255
227 239 255
227 239 255
227 239 255
227 239 255
227 239 255
227 239 255
227 239 255
227 239 255
227 239 255
227 239 255
227 239 255
227 239 255
227 239 255
227 239 255
227 239 255
227 239 255
227 239 255
227 239 255
227 239 255
227 239 255
227 239 255
227 239 255
227 239 255
227 239 255
227 239 255
227 239 255
227 239 255
227 239 255
227 239 255
226 239 255
226 239 255
226 239 255
226 238 255
226 238 255
226 238 255
226 238 255
226 238 255
226 238 255
226 238 255
226 238 255
226 238 255
226 238 255
226 238 255
226 238 255
226 238 255
226 238 255
226 238 255
226 238 255
226 238 255
226 238 255
226 238 255
226 238 255
226 238 255
226 238 255
226 238 255
226 238 255
226 238 255
226 238 255
226 238 255
226 238 255
226 238 255
226 238 255
226 238 255
226 238 255
226 238 255
226 238 255
226 238 255
226 238 255
226 238 255
226 238 255
226 238 255
226 238 255
226 238 255
226 238 255
226 238 255
226 238 255
226 238 255
226 238 255
226 238 255
226 238 255
226 238 255
226 238 255
225 238 255
225 238 255
225 238 255
225 238 255
225 238 255
225 238 255
225 238 255
225 238 255
225 238 255
225 238 255
225 238 255
225 238 255
225 238 255
225 238 255
225 238 255
225 238 255
225 238 255
225 238 255
225 238 255
225 238 255
225 238 255
225 238 255
225 238 255
225 238 255
225 238 255
225 238 255
225 238 255
225 238 255
225 238 255
225 238 255
225 238 255
225 238 255
225 238 255
225 238 255
225 238 255
225 238 255
225 238 255
225 238 255
225 238 255
225 238 255
225 238 255
225 238 255
225 238 255
225 238 255
225 238 255
225 238 255
225 238 255
225 238 255
225 238 255
225 238 255
225 238 255
225 238 255
225 238 255
225 238 255
225 238 255
225 238 255
225 238 255
225 238 255
225 238 255
225 238 255
225 238 255
225 238 255
225 238 255
226 238 255
226 238 255
226 238 255
226 238 255
226 238 255
226 238 255
226 238 255
226 238 255
226 238 255
226 238 255
226 238 255
226 238 255
226 238 255
226 238 255
226 238 255
226 238 255
226 238 255
226 238 255
226 238 255
226 238 255
226 238 255
226 238 255
226 238 255
226 238 255
226 238 255
226 238 255
226 238 255
226 238 255
226 238 255
226 238 255
226 238 255
226 238 255
226 238 255
226 238 255
226 238 255
226 238 255
226 238 255
226 238 255
226 238 255
226 238 255
226 238 255
226 238 255
226 238 255
226 238 255
226 238 255
226 238 255
226 238 255
226 238 255
226 238 255
226 238 255
226 238 255
226 239 255
226 239 255
227 239 255
227 239 255
227 239 255
227 239 255
227 239 255
227 239 255
227 239 255
227 239 255
227 239 255
227 239 255
227 239 255
227 239 255
227 239 255
227 239 255
227 239 255
227 239 255
227 239 255
227 239 255
227 239 255
227 239 255
227 239 255
227 239 255
227 239 255
227 239 255
227 239 255
227 239 255
227 239 255
227 239 255
227 239 255
227 239 255
227 239 255
227 239 255
227 239 255
227 239 255
227 239 255
227 239 255
227 239 255
227 239 255
227 239 255
227 239 255
227 239 255
227 239 255
227 239 255
227 239 255
228 239 255
228 239 255
228 239 255
228 239 255
228 239 255
228 239 255
228 239 255
228 239 255
228 239 255
228 239 255
228 239 255
228 239 255
228 239 255
228 239 255
228 239 255
228 239 255
228 239 255
228 239 255
228 239 255
228 239 255
228 239 255
228 239 255
228 239 255
228 239 255
228 239 255
228 239 255
228 239 255
228 239 255
228 239 255
228 239 255
228 239 255
228 239 255
228 239 255
228 239 255
225 237 248
221 234 234
220 233 233
213 227 209
212 226 204
203 220 184
200 218 171
202 219 175
197 215 159
192 211 135
188 208 127
187 207 120
179 201 72
177 199 44
176 199 36
175 198 0
174 198 0
174 198 0
175 198 0
173 197 0
173 197 0
173 197 0
175 198 0
174 198 0
175 198 0
174 197 0
174 197 0
174 198 0
174 198 0
176 199 0
175 198 0
175 198 0
175 198 0
174 197 0
173 197 0
174 198 0
177 199 0
174 198 0
175 198 0
176 198 0
176 198 0
174 198 0
173 197 0
174 197 0
174 197 0
175 198 0
172 197 0
174 198 0
175 198 0
174 198 0
174 197 0
175 198 0
175 198 0
175 198 0
173 197 0
176 198 0
174 198 0
174 198 0
174 198 0
175 198 0
173 197 0
174 198 0
173 197 0
173 197 0
176 199 0
174 198 0
175 198 0
175 198 0
175 198 0
174 197 0
180 203 88
178 201 72
184 206 108
192 211 140
197 215 159
198 216 169
194 213 151
205 221 188
198 216 165
212 227 209
217 230 223
216 230 221
223 236 242
225 237 245
228 239 255
228 239 255
228 239 255
228 239 255
228 239 255
228 239 255
228 239 255
228 239 255
228 239 255
228 239 255
228 239 255
228 239 255
228 239 255
228 239 255
228 239 255
228 239 255
228 239 255
228 239 255
228 239 255
228 239 255
228 239 255
228 239 255
228 239 255
228 239 255
228 239 255
228 239 255
228 239 255
228 239 255
228 239 255
228 239 255
228 239 255
228 239 255
228 239 255
228 239 255
227 239 255
227 239 255
227 239 255
227 239 255
227 239 255
227 239 255
227 239 255
227 239 255
227 239 255
227 239 255
227 239 255
227 239 255
227 239 255
227 239 255
227 239 255
227 239 255
227 239 255
227 239 255
227 239 255
227 239 255
227 239 255
227 239 255
227 239 255
227 239 255
227 239 255
227 239 255
227 239 255
227 239 255
227 239 255
227 239 255
227 239 255
227 239 255
227 239 255
227 239 255
227 239 255
227 239 255
227 239 255
227 239 255
227 239 255
227 239 255
227 239 255
227 239 255
227 239 255
227 239 255
226 239 255
226 239 255
226 238 255
226 238 255
226 238 255
226 238 255
226 238 255
226 238 255
226 238 255
226 238 255
226 238 255
226 238 255
226 238 255
226 238 255
226 238 255
226 238 255
226 238 255
226 238 255
226 238 255
226 238 255
226 238 255
226 238 255
226 238 255
226 238 255
226 238 255
226 238 255
226 238 255
226 238 255
226 238 255
226 238 255
226 238 255
226 238 255
226 238 255
226 238 255
226 238 255
226 238 255
226 238 255
226 238 255
226 238 255
226 238 255
226 238 255
226 238 255
226 238 255
226 238 255
226 238 255
226 238 255
226 238 255
226 238 255
226 238 255
226 238 255
226 238 255
226 238 255
226 238 255
225 238 255
225 238 255
225 238 255
225 238 255
225 238 255
225 238 255
225 238 255
225 238 255
225 238 255
225 238 255
225 238 255
225 238 255
225 238 255
225 238 255
225 238 255
225 238 255
225 238 255
225 238 255
225 238 255
225 238 255
225 238 255
225 238 255
225 238 255
225 238 255
225 238 255
225 238 255
225 238 255
225 238 255
225 238 255
225 238 255
225 238 255
225 238 255
225 238 255
225 238 255
225 238 255
225 238 255
225 238 255
225 238 255
225 238 255
225 238 255
225 238 255
225 238 255
225 238 255
225 238 255
225 238 255
226 238 255
226 238 255
226 238 255
226 238 255
226 238 255
226 238 255
226 238 255
226 238 255
226 238 255
226 238 255
226 238 255
226 238 255
226 238 255
226 238 255
226 238 255
226 238 255
226 238 255
226 238 255
226 238 255
226 238 255
226 238 255
226 238 255
226 238 255
226 238 255
226 238 255
226 238 255
226 238 255
226 238 255
226 238 255
226 238 255
226 238 255
226 238 255
226 238 255
226 238 255
226 238 255
226 238 255
226 238 255
226 238 255
226 238 255
226 238 255
226 238 255
226 238 255
226 238 255
226 238 255
226 238 255
226 238 255
226 238 255
226 238 255
226 238 255
226 238 255
226 238 255
226 238 255
226 239 255
227 239 255
227 239 255
227 239 255
227 239 255
227 239 255
227 239 255
227 239 255
227 239 255
227 239 255
227 239 255
227 239 255
227 239 255
227 239 255
227 239 255
227 239 255
227 239 255
227 239 255
227 239 255
227 239 255
227 239 255
227 239 255
227 239 255
227 239 255
227 239 255
227 239 255
227 239 255
227 239 255
227 239 255
227 239 255
227 239 255
227 239 255
227 239 255
227 239 255
227 239 255
227 239 255
227 239 255
227 239 255
227 239 255
227 239 255
227 239 255
227 239 255
227 239 255
227 239 255
227 239 255
228 239 255
228 239 255
228 239 255
228 239 255
228 239 255
228 239 255
228 239 255
228 239 255
228 239 255
228 239 255
228 239 255
228 239 255
228 239 255
228 239 255
228 239 255
228 239 255
228 239 255
228 239 255
228 239 255
228 239 255
228 239 255
228 239 255
228 239 255
228 239 255
228 239 255
228 239 255
228 239 255
228 239 255
228 239 255
228 239 255
228 239 255
228 240 255
226 238 249
221 234 236
220 233 234
210 225 204
203 219 175
205 221 184
200 217 169
191 210 133
182 204 95
184 205 95
175 198 25
176 199 0
175 198 0
177 199 0
174 198 0
174 198 0
174 197 0
176 198 0
174 198 0
174 197 0
175 198 0
176 198 0
174 198 0
176 199 0
174 197 0
176 199 0
173 197 0
174 198 0
174 198 0
175 198 0
173 197 0
174 197 0
173 197 0
175 198 0
174 198 0
175 198 0
175 198 0
175 198 0
175 198 0
176 198 0
174 198 0
175 198 0
174 198 0
175 198 0
175 198 0
174 197 0
176 198 0
175 198 0
175 198 0
173 197 0
175 198 0
177 199 0
177 199 0
174 198 0
174 198 0
174 197 0
174 198 0
176 199 0
174 198 0
174 198 0
174 197 0
176 199 0
175 198 0
174 198 0
175 198 0
176 198 0
174 197 0
175 198 0
174 197 0
175 198 0
175 198 0
175 198 0
175 198 0
175 198 0
173 197 0
173 197 0
173 197 0
175 198 0
175 198 0
174 197 0
174 197 0
175 198 0
176 198 0
174 197 0
174 197 0
174 198 0
172 197 0
174 198 0
174 198 0
174 197 0
174 197 0
175 198 0
174 198 0
175 198 0
175 198 0
176 199 51
183 204 95
183 204 92
191 210 137
193 212 147
205 221 186
204 221 188
207 223 193
213 227 209
222 234 237
224 236 244
228 240 255
228 239 255
228 239 255
228 239 255
228 239 255
228 239 255
228 239 255
228 239 255
228 239 255
228 239 255
228 239 255
228 239 255
228 239 255
228 239 255
228 239 255
228 239 255
228 239 255
228 239 255
228 239 255
228 239 255
228 239 255
228 239 255
228 239 255
228 239 255
228 239 255
228 239 255
228 239 255
228 239 255
228 239 255
228 239 255
228 239 255
228 239 255
227 239 255
227 239 255
227 239 255
227 239 255
227 239 255
227 239 255
227 239 255
227 239 255
227 239 255
227 239 255
227 239 255
227 239 255
227 239 255
227 239 255
227 239 255
227 239 255
227 239 255
227 239 255
227 239 255
227 239 255
227 239 255
227 239 255
227 239 255
227 239 255
227 239 255
227 239 255
227 239 255
227 239 255
227 239 255
227 239 255
227 239 255
227 239 255
227 239 255
227 239 255
227 239 255
227 239 255
227 239 255
227 239 255
227 239 255
227 239 255
227 239 255
227 239 255
227 239 255
227 239 255
226 239 255
226 239 255
226 238 255
226 238 255
226 238 255
226 238 255
226 238 255
226 238 255
226 238 255
226 238 255
226 238 255
226 238 255
226 238 255
226 238 255
226 238 255
226 238 255
226 238 255
226 238 255
226 238 255
226 238 255
226 238 255
226 238 255
226 238 255
226 238 255
226 238 255
226 238 255
226 238 255
226 238 255
226 238 255
226 238 255
226 238 255
226 238 255
226 238 255
226 238 255
226 238 255
226 238 255
226 238 255
226 238 255
226 238 255
226 238 255
226 238 255
226 238 255
226 238 255
226 238 255
226 238 255
226 238 255
226 238 255
226 238 255
226 238 255
226 238 255
226 238 255
226 238 255
226 238 255
225 238 255
225 238 255
225 238 255
225 238 255
225 238 255
225 238 255
225 238 255
225 238 255
225 238 255
225 238 255
225 238 255
225 238 255
225 238 255
225 238 255
225 238 255
225 238 255
225 238 255
225 238 255
225 238 255
225 238 255
225 238 255
225 238 255
225 238 255
225 238 255
225 238 255
225 238 255
225 238 255
226 238 255
226 238 255
226 238 255
226 238 255
226 238 255
226 238 255
226 238 255
226 238 255
226 238 255
226 238 255
226 238 255
226 238 255
226 238 255
226 238 255
226 238 255
226 238 255
226 238 255
226 238 255
226 238 255
226 238 255
226 238 255
226 238 255
226 238 255
226 238 255
226 238 255
226 238 255
226 238 255
226 238 255
226 238 255
226 238 255
226 238 255
226 238 255
226 238 255
226 238 255
226 238 255
226 238 255
226 238 255
226 238 255
226 238 255
226 238 255
226 238 255
226 238 255
226 238 255
226 238 255
226 238 255
226 238 255
226 238 255
226 238 255
226 238 255
226 238 255
226 238 255
226 238 255
226 238 255
226 239 255
227 239 255
227 239 255
227 239 255
227 239 255
227 239 255
227 239 255
227 239 255
227 239 255
227 239 255
227 239 255
227 239 255
227 239 255
227 239 255
227 239 255
227 239 255
227 239 255
227 239 255
227 239 255
227 239 255
227 239 255
227 239 255
227 239 255
227 239 255
227 239 255
227 239 255
227 239 255
227 239 255
227 239 255
227 239 255
227 239 255
227 239 255
227 239 255
227 239 255
227 239 255
227 239 255
227 239 255
227 239 255
227 239 255
227 239 255
227 239 255
227 239 255
227 239 255
227 239 255
228 239 255
228 239 255
228 239 255
228 239 255
228 239 255
228 239 255
228 239 255
228 239 255
228 239 255
228 239 255
228 239 255
228 239 255
228 239 255
228 239 255
228 239 255
228 239 255
228 239 255
228 239 255
228 239 255
228 239 255
228 239 255
228 239 255
228 239 255
228 239 255
228 239 255
228 239 255
228 239 255
228 239 255
228 239 255
228 239 255
228 240 255
227 239 253
224 236 244
217 230 224
213 227 212
211 226 206
206 222 188
199 216 165
190 209 122
180 202 88
177 200 44
174 197 0
174 198 0
173 197 0
176 199 0
174 198 0
174 198 0
176 199 0
173 197 0
175 198 0
174 198 0
175 198 0
176 199 0
175 198 0
176 199 0
175 198 0
175 198 0
174 198 0
173 197 0
173 197 0
176 199 0
175 198 0
175 198 0
175 198 0
173 197 0
174 198 0
173 197 0
173 197 0
176 198 0
174 197 0
175 198 0
175 198 0
173 197 0
173 197 0
175 198 0
175 198 0
177 199 0
174 198 0
175 198 0
176 199 0
176 198 0
174 197 0
175 198 0
174 198 0
175 198 0
174 198 0
173 197 0
174 197 0
174 197 0
175 198 0
175 198 0
175 198 0
175 198 0
175 198 0
176 199 0
175 198 0
174 198 0
175 198 0
175 198 0
175 198 0
177 199 0
173 197 0
174 198 0
175 198 0
175 198 0
175 198 0
175 198 0
173 197 0
175 198 0
174 198 0
174 198 0
176 198 0
175 198 0
174 197 0
176 199 0
174 198 0
175 198 0
176 199 0
176 199 0
176 198 0
175 198 0
174 198 0
175 198 0
175 198 0
175 198 0
174 197 0
174 198 0
175 198 0
175 198 0
174 197 0
174 198 0
175 198 0
174 198 0
175 198 0
175 198 0
175 198 0
175 198 0
174 198 0
176 199 0
175 198 0
174 198 0
174 197 0
175 198 0
175 198 0
175 198 0
175 198 0
174 198 0
176 199 51
182 203 84
187 207 117
198 216 161
203 220 181
206 222 189
215 229 218
217 231 226
224 236 244
228 240 255
228 240 255
228 240 255
228 239 255
228 239 255
228 239 255
228 239 255
228 239 255
228 239 255
228 239 255
228 239 255
228 239 255
228 239 255
228 239 255
228 239 255
228 239 255
228 239 255
228 239 255
228 239 255
228 239 255
228 239 255
228 239 255
228 239 255
228 239 255
228 239 255
228 239 255
228 239 255
228 239 255
228 239 255
228 239 255
228 239 255
228 239 255
227 239 255
227 239 255
227 239 255
227 239 255
227 239 255
227 239 255
227 239 255
227 239 255
227 239 255
227 239 255
227 239 255
227 239 255
227 239 255
227 239 255
227 239 255
227 239 255
227 239 255
227 239 255
227 239 255
227 239 255
227 239 255
227 239 255
227 239 255
227 239 255
227 239 255
227 239 255
227 239 255
227 239 255
227 239 255
227 239 255
227 239 255
227 239 255
227 239 255
227 239 255
227 239 255
227 239 255
227 239 255
227 239 255
227 239 255
227 239 255
227 239 255
227 239 255
227 239 255
226 239 255
226 238 255
226 238 255
226 238 255
226 238 255
226 238 255
226 238 255
226 238 255
226 238 255
226 238 255
226 238 255
226 238 255
226 238 255
226 238 255
226 238 255
226 238 255
226 238 255
226 238 255
226 238 255
226 238 255
226 238 255
226 238 255
226 238 255
226 238 255
226 238 255
226 238 255
226 238 255
226 238 255
226 238 255
226 238 255
226 238 255
226 238 255
226 238 255
226 238 255
226 238 255
226 238 255
226 238 255
226 238 255
226 238 255
226 238 255
226 238 255
226 238 255
226 238 255
226 238 255
226 238 255
226 238 255
226 238 255
226 238 255
226 238 255
226 238 255
226 238 255
226 238 255
226 238 255
226 238 255
225 238 255
225 238 255
225 238 255
225 238 255
225 238 255
225 238 255
225 238 255
225 238 255
225 238 255
225 238 255
226 238 255
226 238 255
226 238 255
226 238 255
226 238 255
226 238 255
226 238 255
226 238 255
226 238 255
226 238 255
226 238 255
226 238 255
226 238 255
226 238 255
226 238 255
226 238 255
226 238 255
226 238 255
226 238 255
226 238 255
226 238 255
226 238 255
226 238 255
226 238 255
226 238 255
226 238 255
226 238 255
226 238 255
226 238 255
226 238 255
226 238 255
226 238 255
226 238 255
226 238 255
226 238 255
226 238 255
226 238 255
226 238 255
226 238 255
226 238 255
226 238 255
226 238 255
226 238 255
226 238 255
226 238 255
226 238 255
226 238 255
226 238 255
226 238 255
226 238 255
226 238 255
226 238 255
226 239 255
226 239 255
227 239 255
227 239 255
227 239 255
227 239 255
227 239 255
227 239 255
227 239 255
227 239 255
227 239 255
227 239 255
227 239 255
227 239 255
227 239 255
227 239 255
227 239 255
227 239 255
227 239 255
227 239 255
227 239 255
227 239 255
227 239 255
227 239 255
227 239 255
227 239 255
227 239 255
227 239 255
227 239 255
227 239 255
227 239 255
227 239 255
227 239 255
227 239 255
227 239 255
227 239 255
227 239 255
227 239 255
227 239 255
227 239 255
227 239 255
227 239 255
227 239 255
227 239 255
227 239 255
228 239 255
228 239 255
228 239 255
228 239 255
228 239 255
228 239 255
228 239 255
228 239 255
228 239 255
228 239 255
228 239 255
228 239 255
228 239 255
228 239 255
228 239 255
228 239 255
228 239 255
228 239 255
228 239 255
228 239 255
228 239 255
228 239 255
228 239 255
228 239 255
228 239 255
228 239 255
228 239 255
228 239 255
228 240 255
228 240 255
228 240 255
226 238 250
223 236 242
218 232 227
205 221 184
202 219 179
195 213 153
193 212 140
180 202 72
177 199 25
176 198 0
175 198 0
174 198 0
174 198 0
173 197 0
175 198 0
174 198 0
174 198 0
175 198 0
174 198 0
175 198 0
175 198 0
176 199 0
175 198 0
175 198 0
175 198 0
175 198 0
176 198 0
175 198 0
173 197 0
175 198 0
175 198 0
173 197 0
175 198 0
175 198 0
176 199 0
173 197 0
175 198 0
177 199 0
173 197 0
176 199 0
173 197 0
174 198 0
174 197 0
174 198 0
175 198 0
174 198 0
174 198 0
173 197 0
172 197 0
176 199 0
174 197 0
176 199 0
174 198 0
174 198 0
175 198 0
174 198 0
174 197 0
174 198 0
175 198 0
174 197 0
174 198 0
175 198 0
173 197 0
174 198 0
174 197 0
174 198 0
174 197 0
173 197 0
176 198 0
173 197 0
175 198 0
175 198 0
175 198 0
173 197 0
174 198 0
175 198 0
175 198 0
173 197 0
173 197 0
175 198 0
173 197 0
174 198 0
175 198 0
175 198 0
174 197 0
176 199 0
173 197 0
175 198 0
174 198 0
175 198 0
176 199 0
175 198 0
174 198 0
175 198 0
175 198 0
175 198 0
175 198 0
174 198 0
175 198 0
174 198 0
174 197 0
175 198 0
175 198 0
175 198 0
174 198 0
175 198 0
175 198 0
174 198 0
174 198 0
174 198 0
174 198 0
176 199 0
174 197 0
176 199 0
173 197 0
174 198 0
176 198 0
175 198 0
174 198 0
174 197 0
175 198 0
174 198 0
174 198 0
176 199 0
175 198 0
174 198 0
174 198 0
175 198 0
174 197 0
175 198 0
175 198 0
175 198 0
176 198 0
175 198 25
184 205 102
195 213 144
199 217 165
203 219 177
213 228 212
214 228 215
221 234 237
227 239 253
228 240 255
228 240 255
228 239 255
228 239 255
228 239 255
228 239 255
228 239 255
228 239 255
228 239 255
228 239 255
228 239 255
228 239 255
228 239 255
228 239 255
228 239 255
228 239 255
228 239 255
228 239 255
228 239 255
228 239 255
228 239 255
228 239 255
228 239 255
228 239 255
228 239 255
228 239 255
228 239 255
228 239 255
228 239 255
228 239 255
228 239 255
227 239 255
227 239 255
227 239 255
227 239 255
227 239 255
227 239 255
227 239 255
227 239 255
227 239 255
227 239 255
227 239 255
227 239 255
227 239 255
227 239 255
227 239 255
227 239 255
227 239 255
227 239 255
227 239 255
227 239 255
227 239 255
227 239 255
227 239 255
227 239 255
227 239 255
227 239 255
227 239 255
227 239 255
227 239 255
227 239 255
227 239 255
227 239 255
227 239 255
227 239 255
227 239 255
227 239 255
227 239 255
227 239 255
227 239 255
227 239 255
227 239 255
227 239 255
227 239 255
226 239 255
226 238 255
226 238 255
226 238 255
226 238 255
226 238 255
226 238 255
226 238 255
226 238 255
226 238 255
226 238 255
226 238 255
226 238 255
226 238 255
226 238 255
226 238 255
226 238 255
226 238 255
226 238 255
226 238 255
226 238 255
226 238 255
226 238 255
226 238 255
226 238 255
226 238 255
226 238 255
226 238 255
226 238 255
226 238 255
226 238 255
226 238 255
226 238 255
226 238 255
226 238 255
226 238 255
226 238 255
226 238 255
226 238 255
226 238 255
226 238 255
226 238 255
226 238 255
226 238 255
226 238 255
226 238 255
226 238 255
226 238 255
226 238 255
226 238 255
226 238 255
226 238 255
226 238 255
226 238 255
225 238 255
226 238 255
226 238 255
226 238 255
226 238 255
226 238 255
226 238 255
226 238 255
226 238 255
226 238 255
226 238 255
226 238 255
226 238 255
226 238 255
226 238 255
226 238 255
226 238 255
226 238 255
226 238 255
226 238 255
226 238 255
226 238 255
226 238 255
226 238 255
226 238 255
226 238 255
226 238 255
226 238 255
226 238 255
226 238 255
226 238 255
226 238 255
226 238 255
226 238 255
226 238 255
226 238 255
226 238 255
226 238 255
226 238 255
226 238 255
226 238 255
226 238 255
226 238 255
226 238 255
226 238 255
226 238 255
226 238 255
226 239 255
226 239 255
227 239 255
227 239 255
227 239 255
227 239 255
227 239 255
227 239 255
227 239 255
227 239 255
227 239 255
227 239 255
227 239 255
227 239 255
227 239 255
227 239 255
227 239 255
227 239 255
227 239 255
227 239 255
227 239 255
227 239 255
227 239 255
227 239 255
227 239 255
227 239 255
227 239 255
227 239 255
227 239 255
227 239 255
227 239 255
227 239 255
227 239 255
227 239 255
227 239 255
227 239 255
227 239 255
227 239 255
227 239 255
227 239 255
227 239 255
227 239 255
227 239 255
227 239 255
227 239 255
228 239 255
228 239 255
228 239 255
228 239 255
228 239 255
228 239 255
228 239 255
228 239 255
228 239 255
228 239 255
228 239 255
228 239 255
228 239 255
228 239 255
228 239 255
228 239 255
228 239 255
228 239 255
228 239 255
228 239 255
228 239 255
228 239 255
228 239 255
228 239 255
228 239 255
228 239 255
228 239 255
228 240 255
228 240 255
228 240 255
228 240 255
224 236 242
215 229 218
214 228 214
206 222 189
193 212 144
190 209 127
180 202 76
174 198 25
175 198 0
175 198 0
174 197 0
174 198 0
175 198 0
173 197 0
174 198 0
175 198 0
174 198 0
175 198 0
175 198 0
174 198 0
173 197 0
173 197 0
176 199 0
174 198 0
175 198 0
176 199 0
174 198 0
175 198 0
175 198 0
176 199 0
174 198 0
174 198 0
176 198 0
175 198 0
175 198 0
176 199 0
173 197 0
174 197 0
174 198 0
173 197 0
174 198 0
174 198 0
176 199 0
175 198 0
175 198 0
175 198 0
174 198 0
175 198 0
176 199 0
175 198 0
175 198 0
173 197 0
173 197 0
175 198 0
174 198 0
175 198 0
175 198 0
174 198 0
174 198 0
175 198 0
174 198 0
174 198 0
174 198 0
175 198 0
173 197 0
174 198 0
174 198 0
174 197 0
176 198 0
175 198 0
173 197 0
174 197 0
175 198 0
174 198 0
174 198 0
173 197 0
174 198 0
174 197 0
174 198 0
175 198 0
175 198 0
173 197 0
175 198 0
173 197 0
175 198 0
175 198 0
173 197 0
174 197 0
174 198 0
175 198 0
176 198 0
177 199 0
175 198 0
174 198 0
175 198 0
174 197 0
176 199 0
176 199 0
175 198 0
175 198 0
174 197 0
175 198 0
174 197 0
174 198 0
176 199 0
174 197 0
175 198 0
174 198 0
175 198 0
175 198 0
174 198 0
175 198 0
175 198 0
174 198 0
176 199 0
173 197 0
174 198 0
175 198 0
176 198 0
175 198 0
175 198 0
175 198 0
176 198 0
174 197 0
175 198 0
174 198 0
174 198 0
176 199 0
175 198 0
176 199 0
175 198 0
175 198 0
174 198 0
177 199 0
174 198 0
176 199 0
174 197 0
174 197 0
173 197 0
176 198 0
175 198 0
174 198 0
173 197 0
176 198 0
174 198 0
173 197 0
175 198 0
175 198 0
177 199 36
184 205 99
190 209 122
200 217 171
204 220 184
212 227 209
221 233 234
222 234 237
228 240 255
228 240 255
228 240 255
228 240 255
228 239 255
228 239 255
228 239 255
228 239 255
228 239 255
228 239 255
228 239 255
228 239 255
228 239 255
228 239 255
228 239 255
228 239 255
228 239 255
228 239 255
228 239 255
228 239 255
228 239 255
228 239 255
228 239 255
228 239 255
228 239 255
228 239 255
228 239 255
228 239 255
228 239 255
228 239 255
228 239 255
227 239 255
227 239 255
227 239 255
227 239 255
227 239 255
227 239 255
227 239 255
227 239 255
227 239 255
227 239 255
227 239 255
227 239 255
227 239 255
227 239 255
227 239 255
227 239 255
227 239 255
227 239 255
227 239 255
227 239 255
227 239 255
227 239 255
227 239 255
227 239 255
227 239 255
227 239 255
227 239 255
227 239 255
227 239 255
227 239 255
227 239 255
227 239 255
227 239 255
227 239 255
227 239 255
227 239 255
227 239 255
227 239 255
227 239 255
227 239 255
227 239 255
227 239 255
227 239 255
226 239 255
226 239 255
226 238 255
226 238 255
226 238 255
226 238 255
226 238 255
226 238 255
226 238 255
226 238 255
226 238 255
226 238 255
226 238 255
226 238 255
226 238 255
226 238 255
226 238 255
226 238 255
226 238 255
226 238 255
226 238 255
226 238 255
226 238 255
226 238 255
226 238 255
226 238 255
226 238 255
226 238 255
226 238 255
226 238 255
226 238 255
226 238 255
226 238 255
226 238 255
226 238 255
226 238 255
226 238 255
226 238 255
226 238 255
226 238 255
226 238 255
226 238 255
226 238 255
226 238 255
226 238 255
226 238 255
226 238 255
226 238 255
226 238 255
226 238 255
226 238 255
226 238 255
226 238 255
226 238 255
226 238 255
226 238 255
226 238 255
226 238 255
226 238 255
226 238 255
226 238 255
226 238 255
226 238 255
226 238 255
226 238 255
226 238 255
226 238 255
226 238 255
226 238 255
226 238 255
226 238 255
226 238 255
226 238 255
226 238 255
226 238 255
226 238 255
226 238 255
226 238 255
226 238 255
226 238 255
226 238 255
226 238 255
226 238 255
226 238 255
226 238 255
226 238 255
226 238 255
226 239 255
226 239 255
227 239 255
227 239 255
227 239 255
227 239 255
227 239 255
227 239 255
227 239 255
227 239 255
227 239 255
227 239 255
227 239 255
227 239 255
227 239 255
227 239 255
227 239 255
227 239 255
227 239 255
227 239 255
227 239 255
227 239 255
227 239 255
227 239 255
227 239 255
227 239 255
227 239 255
227 239 255
227 239 255
227 239 255
227 239 255
227 239 255
227 239 255
227 239 255
227 239 255
227 239 255
227 239 255
227 239 255
227 239 255
227 239 255
227 239 255
227 239 255
227 239 255
227 239 255
228 239 255
228 239 255
228 239 255
228 239 255
228 239 255
228 239 255
228 239 255
228 239 255
228 239 255
228 239 255
228 239 255
228 239 255
228 239 255
228 239 255
228 239 255
228 239 255
228 239 255
228 239 255
228 239 255
228 239 255
228 239 255
228 239 255
228 239 255
228 239 255
228 239 255
228 239 255
228 239 255
228 240 255
228 240 255
228 240 255
228 240 255
228 240 255
226 238 250
218 231 226
211 225 204
203 220 184
198 215 159
181 203 80
178 200 51
175 198 0
174 198 0
176 199 0
176 199 0
173 197 0
173 197 0
174 198 0
175 198 0
175 198 0
174 198 0
175 198 0
175 198 0
174 198 0
175 198 0
176 199 0
175 198 0
175 198 0
173 197 0
174 197 0
175 198 0
175 198 0
175 198 0
174 198 0
174 197 0
173 197 0
174 198 0
174 197 0
176 198 0
175 198 0
176 199 0
174 198 0
175 198 0
175 198 0
174 198 0
175 198 0
174 197 0
173 197 0
175 198 0
175 198 0
175 198 0
174 198 0
175 198 0
174 198 0
173 197 0
174 198 0
174 198 0
175 198 0
175 198 0
176 199 0
174 197 0
174 198 0
174 198 0
175 198 0
175 198 0
174 198 0
174 198 0
174 198 0
175 198 0
173 197 0
176 199 0
174 198 0
176 198 0
175 198 0
174 198 0
174 198 0
175 198 0
174 198 0
175 198 0
174 198 0
174 198 0
175 198 0
174 198 0
175 198 0
175 198 0
175 198 0
174 198 0
172 197 0
176 199 0
176 198 0
174 197 0
175 198 0
173 197 0
174 198 0
176 198 0
175 198 0
174 198 0
175 198 0
177 199 0
175 198 0
175 198 0
175 198 0
176 198 0
175 198 0
173 197 0
175 198 0
175 198 0
174 198 0
174 197 0
175 198 0
175 198 0
174 198 0
176 199 0
174 198 0
174 197 0
174 198 0
174 198 0
176 199 0
175 198 0
174 198 0
175 198 0
175 198 0
174 198 0
174 198 0
174 198 0
175 198 0
174 198 0
173 197 0
174 198 0
173 197 0
175 198 0
175 198 0
174 198 0
175 198 0
175 198 0
173 197 0
173 197 0
173 197 0
176 199 0
173 197 0
175 198 0
175 198 0
173 197 0
175 198 0
174 198 0
174 198 0
173 197 0
175 198 0
175 198 0
175 198 0
175 198 0
175 198 0
175 198 0
174 197 0
176 198 0
176 199 0
173 197 0
175 198 0
173 197 0
174 198 0
176 199 0
175 198 0
174 198 0
174 198 0
175 198 0
176 198 0
175 198 0
180 202 80
185 206 108
196 214 151
202 219 177
208 224 198
218 231 226
224 236 244
228 240 255
228 240 255
228 240 255
228 240 255
228 240 255
228 239 255
228 239 255
228 239 255
228 239 255
228 239 255
228 239 255
228 239 255
228 239 255
228 239 255
228 239 255
228 239 255
228 239 255
228 239 255
228 239 255
228 239 255
228 239 255
228 239 255
228 239 255
228 239 255
228 239 255
228 239 255
228 239 255
228 239 255
228 239 255
228 239 255
228 239 255
227 239 255
227 239 255
227 239 255
227 239 255
227 239 255
227 239 255
227 239 255
227 239 255
227 239 255
227 239 255
227 239 255
227 239 255
227 239 255
227 239 255
227 239 255
227 239 255
227 239 255
227 239 255
227 239 255
227 239 255
227 239 255
227 239 255
227 239 255
227 239 255
227 239 255
227 239 255
227 239 255
227 239 255
227 239 255
227 239 255
227 239 255
227 239 255
227 239 255
227 239 255
227 239 255
227 239 255
227 239 255
227 239 255
227 239 255
227 239 255
227 239 255
227 239 255
227 239 255
227 239 255
226 239 255
226 239 255
226 238 255
226 238 255
226 238 255
226 238 255
226 238 255
226 238 255
226 238 255
226 238 255
226 238 255
226 238 255
226 238 255
226 238 255
226 238 255
226 238 255
226 238 255
226 238 255
226 238 255
226 238 255
226 238 255
226 238 255
226 238 255
226 238 255
226 238 255
226 238 255
226 238 255
226 238 255
226 238 255
226 238 255
226 238 255
226 238 255
226 238 255
226 238 255
226 238 255
226 238 255
226 238 255
226 238 255
226 238 255
226 238 255
226 238 255
226 238 255
226 238 255
226 238 255
226 238 255
226 238 255
226 238 255
226 238 255
226 238 255
226 238 255
226 238 255
226 238 255
226 238 255
226 238 255
226 238 255
226 238 255
226 238 255
226 238 255
226 238 255
226 238 255
226 238 255
226 238 255
226 238 255
226 238 255
226 238 255
226 238 255
226 238 255
226 238 255
226 238 255
226 238 255
226 238 255
226 239 255
226 239 255
227 239 255
227 239 255
227 239 255
227 239 255
227 239 255
227 239 255
227 239 255
227 239 255
227 239 255
227 239 255
227 239 255
227 239 255
227 239 255
227 239 255
227 239 255
227 239 255
227 239 255
227 239 255
227 239 255
227 239 255
227 239 255
227 239 255
227 239 255
227 239 255
227 239 255
227 239 255
227 239 255
227 239 255
227 239 255
227 239 255
227 239 255
227 239 255
227 239 255
227 239 255
227 239 255
227 239 255
227 239 255
227 239 255
227 239 255
227 239 255
227 239 255
227 239 255
227 239 255
228 239 255
228 239 255
228 239 255
228 239 255
228 239 255
228 239 255
228 239 255
228 239 255
228 239 255
228 239 255
228 239 255
228 239 255
228 239 255
228 239 255
228 239 255
228 239 255
228 239 255
228 239 255
228 239 255
228 239 255
228 239 255
228 239 255
228 239 255
228 239 255
228 239 255
228 239 255
228 239 255
228 240 255
228 240 255
228 240 255
228 240 255
228 240 255
225 237 248
217 230 223
215 229 217
204 220 186
192 211 140
188 208 125
178 200 62
173 197 0
176 198 0
175 198 0
176 199 0
174 198 0
174 198 0
175 198 0
174 198 0
177 199 0
174 198 0
175 198 0
175 198 0
174 198 0
174 198 0
174 197 0
174 198 0
175 198 0
174 198 0
174 197 0
174 197 0
175 198 0
173 197 0
175 198 0
175 198 0
174 198 0
174 197 0
174 198 0
175 198 0
174 198 0
173 197 0
174 198 0
175 198 0
175 198 0
175 198 0
174 198 0
175 198 0
173 197 0
174 197 0
176 199 0
174 198 0
174 198 0
174 198 0
173 197 0
174 197 0
174 198 0
174 198 0
175 198 0
176 198 0
175 198 0
175 198 0
174 198 0
175 198 0
175 198 0
175 198 0
175 198 0
173 197 0
175 198 0
174 198 0
176 199 0
175 198 0
174 198 0
174 198 0
175 198 0
175 198 0
176 198 0
175 198 0
174 198 0
174 197 0
174 198 0
173 197 0
175 198 0
174 198 0
173 197 0
175 198 0
176 199 0
174 198 0
174 197 0
175 198 0
174 197 0
174 197 0
175 198 0
176 199 0
175 198 0
174 197 0
175 198 0
173 197 0
175 198 0
174 198 0
175 198 0
176 198 0
175 198 0
173 197 0
175 198 0
174 197 0
176 198 0
174 198 0
175 198 0
174 197 0
174 198 0
176 199 0
175 198 0
174 198 0
175 198 0
176 198 0
173 197 0
176 198 0
174 198 0
173 197 0
175 198 0
175 198 0
174 198 0
174 198 0
174 197 0
175 198 0
173 197 0
176 199 0
174 198 0
175 198 0
175 198 0
175 198 0
174 198 0
175 198 0
174 198 0
175 198 0
175 198 0
175 198 0
175 198 0
175 198 0
174 198 0
173 197 0
175 198 0
174 197 0
175 198 0
175 198 0
174 198 0
174 198 0
174 198 0
176 199 0
174 197 0
175 198 0
175 198 0
175 198 0
174 197 0
174 197 0
174 198 0
175 198 0
173 197 0
174 198 0
173 197 0
176 199 0
176 199 0
175 198 0
174 198 0
173 197 0
174 198 0
175 198 0
173 197 0
175 198 0
173 197 0
174 198 0
174 198 0
176 199 0
174 198 0
177 199 0
175 198 0
173 197 0
173 197 0
175 198 0
175 198 0
175 198 0
178 200 57
184 205 102
191 210 133
202 219 175
210 225 199
224 236 242
227 238 252
228 240 255
228 240 255
228 240 255
228 240 255
228 240 255
228 239 255
228 239 255
228 239 255
228 239 255
228 239 255
228 239 255
228 239 255
228 239 255
228 239 255
228 239 255
228 239 255
228 239 255
228 239 255
228 239 255
228 239 255
228 239 255
228 239 255
228 239 255
228 239 255
228 239 255
228 239 255
228 239 255
228 239 255
228 239 255
228 239 255
228 239 255
228 239 255
227 239 255
227 239 255
227 239 255
227 239 255
227 239 255
227 239 255
227 239 255
227 239 255
227 239 255
227 239 255
227 239 255
227 239 255
227 239 255
227 239 255
227 239 255
227 239 255
227 239 255
227 239 255
227 239 255
227 239 255
227 239 255
227 239 255
227 239 255
227 239 255
227 239 255
227 239 255
227 239 255
227 239 255
227 239 255
227 239 255
227 239 255
227 239 255
227 239 255
227 239 255
227 239 255
227 239 255
227 239 255
227 239 255
227 239 255
227 239 255
227 239 255
227 239 255
227 239 255
226 239 255
226 238 255
226 238 255
226 238 255
226 238 255
226 238 255
226 238 255
226 238 255
226 238 255
226 238 255
226 238 255
226 238 255
226 238 255
226 238 255
226 238 255
226 238 255
226 238 255
226 238 255
226 238 255
226 238 255
226 238 255
226 238 255
226 238 255
226 238 255
226 238 255
226 238 255
226 238 255
226 238 255
226 238 255
226 238 255
226 238 255
226 238 255
226 238 255
226 238 255
226 238 255
226 238 255
226 238 255
226 238 255
226 238 255
226 238 255
226 238 255
226 238 255
226 238 255
226 238 255
226 238 255
226 238 255
226 238 255
226 238 255
226 238 255
226 238 255
226 238 255
226 238 255
226 238 255
226 238 255
226 238 255
226 238 255
226 238 255
226 238 255
226 239 255
226 239 255
227 239 255
227 239 255
227 239 255
227 239 255
227 239 255
227 239 255
227 239 255
227 239 255
227 239 255
227 239 255
227 239 255
227 239 255
227 239 255
227 239 255
227 239 255
227 239 255
227 239 255
227 239 255
227 239 255
227 239 255
227 239 255
227 239 255
227 239 255
227 239 255
227 239 255
227 239 255
227 239 255
227 239 255
227 239 255
227 239 255
227 239 255
227 239 255
227 239 255
227 239 255
227 239 255
227 239 255
227 239 255
227 239 255
227 239 255
227 239 255
227 239 255
227 239 255
228 239 255
228 239 255
228 239 255
228 239 255
228 239 255
228 239 255
228 239 255
228 239 255
228 239 255
228 239 255
228 239 255
228 239 255
228 239 255
228 239 255
228 239 255
228 239 255
228 239 255
228 239 255
228 239 255
228 239 255
228 239 255
228 239 255
228 239 255
228 239 255
228 239 255
228 239 255
228 239 255
228 240 255
228 240 255
228 240 255
228 240 255
228 240 255
228 240 255
226 238 250
215 229 215
211 226 206
201 218 173
190 209 127
187 207 108
175 198 25
174 198 0
174 198 0
175 198 0
177 199 0
174 198 0
174 198 0
175 198 0
173 197 0
175 198 0
174 198 0
174 197 0
175 198 0
175 198 0
172 197 0
174 198 0
174 197 0
175 198 0
173 197 0
173 197 0
174 198 0
174 198 0
174 198 0
175 198 0
174 197 0
175 198 0
173 197 0
174 198 0
175 198 0
174 198 0
175 198 0
172 197 0
174 198 0
174 198 0
175 198 0
175 198 0
174 198 0
174 197 0
174 197 0
176 199 0
174 198 0
174 198 0
173 197 0
175 198 0
175 198 0
173 197 0
175 198 0
174 197 0
175 198 0
176 198 0
175 198 0
175 198 0
174 197 0
174 197 0
174 197 0
175 198 0
176 198 0
176 198 0
174 198 0
175 198 0
174 197 0
174 198 0
173 197 0
174 197 0
174 198 0
173 197 0
175 198 0
175 198 0
175 198 0
172 197 0
176 199 0
173 197 0
174 198 0
175 198 0
174 198 0
175 198 0
174 198 0
173 197 0
175 198 0
172 196 0
174 197 0
173 197 0
174 198 0
177 199 0
175 198 0
173 197 0
174 197 0
175 198 0
173 197 0
175 198 0
174 198 0
173 197 0
174 198 0
175 198 0
174 198 0
175 198 0
175 198 0
175 198 0
175 198 0
175 198 0
174 198 0
175 198 0
174 198 0
174 197 0
175 198 0
174 197 0
174 197 0
174 197 0
173 197 0
174 197 0
174 198 0
173 197 0
173 197 0
173 197 0
174 198 0
175 198 0
175 198 0
177 199 0
174 198 0
174 198 0
175 198 0
173 197 0
175 198 0
175 198 0
176 199 0
174 198 0
172 197 0
175 198 0
175 198 0
176 199 0
176 198 0
174 198 0
174 197 0
174 197 0
174 198 0
174 198 0
175 198 0
176 199 0
175 198 0
174 198 0
173 197 0
175 198 0
176 199 0
175 198 0
175 198 0
174 198 0
175 198 0
174 197 0
174 197 0
174 198 0
173 197 0
173 197 0
176 199 0
174 197 0
175 198 0
174 197 0
175 198 0
175 198 0
176 199 0
175 198 0
176 199 0
177 199 0
174 198 0
173 197 0
174 198 0
175 198 0
175 198 0
174 197 0
175 198 0
176 199 0
175 198 0
176 198 0
175 198 0
176 198 0
175 198 0
174 198 0
175 198 0
174 197 0
174 197 0
174 198 0
172 197 0
175 198 0
175 198 0
176 199 36
183 204 88
188 208 122
199 216 163
208 224 199
215 229 218
222 235 240
228 240 255
228 240 255
228 240 255
228 240 255
228 240 255
228 240 255
228 239 255
228 239 255
228 239 255
228 239 255
228 239 255
228 239 255
228 239 255
228 239 255
228 239 255
228 239 255
228 239 255
228 239 255
228 239 255
228 239 255
228 239 255
228 239 255
228 239 255
228 239 255
228 239 255
228 239 255
228 239 255
228 239 255
228 239 255
228 239 255
228 239 255
228 239 255
227 239 255
227 239 255
227 239 255
227 239 255
227 239 255
227 239 255
227 239 255
227 239 255
227 239 255
227 239 255
227 239 255
227 239 255
227 239 255
227 239 255
227 239 255
227 239 255
227 239 255
227 239 255
227 239 255
227 239 255
227 239 255
227 239 255
227 239 255
227 239 255
227 239 255
227 239 255
227 239 255
227 239 255
227 239 255
227 239 255
227 239 255
227 239 255
227 239 255
227 239 255
227 239 255
227 239 255
227 239 255
227 239 255
227 239 255
227 239 255
227 239 255
227 239 255
227 239 255
227 239 255
226 239 255
226 239 255
226 238 255
226 238 255
226 238 255
226 238 255
226 238 255
226 238 255
226 238 255
226 238 255
226 238 255
226 238 255
226 238 255
226 238 255
226 238 255
226 238 255
226 238 255
226 238 255
226 238 255
226 238 255
226 238 255
226 238 255
226 238 255
226 238 255
226 238 255
226 238 255
226 238 255
226 238 255
226 238 255
226 238 255
226 238 255
226 238 255
226 238 255
226 238 255
226 238 255
226 238 255
226 238 255
226 238 255
226 238 255
226 238 255
226 238 255
226 238 255
226 238 255
226 239 255
226 239 255
227 239 255
227 239 255
227 239 255
227 239 255
227 239 255
227 239 255
227 239 255
227 239 255
227 239 255
227 239 255
227 239 255
227 239 255
227 239 255
227 239 255
227 239 255
227 239 255
227 239 255
227 239 255
227 239 255
227 239 255
227 239 255
227 239 255
227 239 255
227 239 255
227 239 255
227 239 255
227 239 255
227 239 255
227 239 255
227 239 255
227 239 255
227 239 255
227 239 255
227 239 255
227 239 255
227 239 255
227 239 255
227 239 255
227 239 255
227 239 255
227 239 255
227 239 255
227 239 255
227 239 255
228 239 255
228 239 255
228 239 255
228 239 255
228 239 255
228 239 255
228 239 255
228 239 255
228 239 255
228 239 255
228 239 255
228 239 255
228 239 255
228 239 255
228 239 255
228 239 255
228 239 255
228 239 255
228 239 255
228 239 255
228 239 255
228 239 255
228 239 255
228 239 255
228 239 255
228 239 255
228 240 255
228 240 255
228 240 255
228 240 255
228 240 255
228 240 255
228 240 255
223 236 242
216 230 221
206 222 189
198 216 163
187 208 120
181 203 84
175 198 0
174 198 0
175 198 0
177 199 0
175 198 0
176 198 0
174 197 0
175 198 0
174 198 0
175 198 0
174 197 0
175 198 0
174 198 0
175 198 0
174 198 0
174 198 0
173 197 0
175 198 0
173 197 0
173 197 0
176 199 0
175 198 0
172 196 0
173 197 0
176 199 0
174 198 0
175 198 0
175 198 0
174 197 0
173 197 0
173 197 0
174 197 0
176 199 0
175 198 0
173 197 0
175 198 0
175 198 0
175 198 0
174 197 0
175 198 0
176 199 0
173 197 0
175 198 0
174 198 0
176 198 0
174 198 0
175 198 0
173 197 0
175 198 0
174 197 0
175 198 0
174 198 0
176 198 0
175 198 0
173 197 0
174 198 0
174 198 0
174 198 0
176 199 0
173 197 0
176 199 0
175 198 0
174 198 0
174 198 0
176 198 0
174 197 0
174 197 0
174 198 0
174 197 0
175 198 0
173 197 0
174 198 0
175 198 0
174 198 0
174 198 0
177 199 0
173 197 0
174 197 0
177 199 0
173 197 0
174 198 0
174 197 0
173 197 0
175 198 0
173 196 0
174 198 0
174 198 0
174 198 0
173 197 0
176 198 0
174 197 0
174 198 0
174 197 0
174 198 0
174 197 0
174 197 0
175 198 0
175 198 0
174 198 0
173 197 0
175 198 0
174 198 0
174 198 0
174 198 0
174 197 0
176 199 0
175 198 0
175 198 0
174 197 0
175 198 0
175 198 0
174 197 0
174 198 0
175 198 0
173 197 0
175 198 0
177 199 0
175 198 0
174 198 0
173 197 0
173 197 0
174 198 0
176 199 0
173 197 0
173 197 0
173 197 0
175 198 0
174 198 0
175 198 0
174 197 0
173 197 0
173 197 0
173 197 0
174 197 0
174 197 0
174 198 0
175 198 0
175 198 0
174 198 0
174 198 0
174 198 0
175 198 0
174 198 0
175 198 0
174 197 0
175 198 0
175 198 0
176 198 0
175 198 0
174 197 0
174 198 0
174 198 0
174 198 0
174 198 0
174 198 0
175 198 0
175 198 0
174 198 0
175 198 0
175 198 0
174 198 0
174 198 0
175 198 0
174 197 0
174 198 0
176 199 0
176 199 0
174 198 0
176 198 0
175 198 0
175 198 0
174 198 0
174 198 0
175 198 0
175 198 0
175 198 0
175 198 0
175 198 0
174 198 0
175 198 0
174 198 0
174 197 0
174 197 0
174 198 0
176 198 0
174 197 0
176 199 0
175 198 0
173 197 0
175 198 0
175 198 0
174 198 0
174 198 0
174 197 0
175 198 0
173 197 0
182 203 76
192 211 137
198 215 161
205 221 184
214 228 212
226 237 248
228 240 255
228 240 255
228 240 255
228 240 255
228 240 255
228 240 255
228 240 255
228 239 255
228 239 255
228 239 255
228 239 255
228 239 255
228 239 255
228 239 255
228 239 255
228 239 255
228 239 255
228 239 255
228 239 255
228 239 255
228 239 255
228 239 255
228 239 255
228 239 255
228 239 255
228 239 255
228 239 255
228 239 255
228 239 255
228 239 255
228 239 255
228 239 255
228 239 255
227 239 255
227 239 255
227 239 255
227 239 255
227 239 255
227 239 255
227 239 255
227 239 255
227 239 255
227 239 255
227 239 255
227 239 255
227 239 255
227 239 255
227 239 255
227 239 255
227 239 255
227 239 255
227 239 255
227 239 255
227 239 255
227 239 255
227 239 255
227 239 255
227 239 255
227 239 255
227 239 255
227 239 255
227 239 255
227 239 255
227 239 255
227 239 255
227 239 255
227 239 255
227 239 255
227 239 255
227 239 255
227 239 255
227 239 255
227 239 255
227 239 255
227 239 255
227 239 255
227 239 255
226 239 255
226 239 255
226 238 255
226 238 255
226 238 255
226 238 255
226 238 255
226 238 255
226 238 255
226 238 255
226 238 255
226 238 255
226 238 255
226 238 255
226 238 255
226 238 255
226 238 255
226 238 255
226 238 255
226 238 255
226 238 255
226 238 255
226 238 255
226 238 255
226 238 255
226 238 255
226 238 255
226 238 255
226 238 255
226 239 255
226 239 255
227 239 255
227 239 255
227 239 255
227 239 255
227 239 255
227 239 255
227 239 255
227 239 255
227 239 255
227 239 255
227 239 255
227 239 255
227 239 255
227 239 255
227 239 255
227 239 255
227 239 255
227 239 255
227 239 255
227 239 255
227 239 255
227 239 255
227 239 255
227 239 255
227 239 255
227 239 255
227 239 255
227 239 255
227 239 255
227 239 255
227 239 255
227 239 255
227 239 255
227 239 255
227 239 255
227 239 255
227 239 255
227 239 255
227 239 255
227 239 255
227 239 255
227 239 255
227 239 255
227 239 255
228 239 255
228 239 255
228 239 255
228 239 255
228 239 255
228 239 255
228 239 255
228 239 255
228 239 255
228 239 255
228 239 255
228 239 255
228 239 255
228 239 255
228 239 255
228 239 255
228 239 255
228 239 255
228 239 255
228 239 255
228 239 255
228 239 255
228 239 255
228 239 255
228 239 255
228 239 255
228 240 255
228 240 255
228 240 255
228 240 255
228 240 255
228 240 255
228 240 255
228 240 255
222 235 238
218 231 226
206 222 189
198 216 163
187 208 120
179 201 62
176 199 0
176 198 0
177 199 0
174 197 0
174 198 0
174 198 0
174 198 0
175 198 0
174 198 0
175 198 0
175 198 0
175 198 0
175 198 0
175 198 0
174 198 0
176 198 0
174 198 0
174 198 0
173 197 0
175 198 0
172 197 0
175 198 0
175 198 0
174 198 0
174 197 0
175 198 0
175 198 0
175 198 0
175 198 0
174 198 0
174 198 0
174 197 0
176 199 0
173 197 0
174 198 0
174 198 0
173 197 0
174 198 0
173 197 0
175 198 0
173 197 0
173 197 0
175 198 0
172 197 0
176 198 0
175 198 0
175 198 0
174 198 0
173 197 0
174 197 0
175 198 0
174 198 0
176 198 0
174 197 0
175 198 0
174 197 0
175 198 0
175 198 0
174 198 0
175 198 0
174 198 0
174 197 0
174 197 0
174 197 0
175 198 0
173 197 0
175 198 0
174 197 0
173 197 0
175 198 0
173 197 0
173 197 0
174 197 0
174 198 0
173 197 0
174 198 0
174 197 0
174 198 0
175 198 0
173 197 0
174 198 0
174 198 0
176 199 0
173 197 0
175 198 0
173 197 0
174 197 0
175 198 0
175 198 0
174 198 0
175 198 0
175 198 0
174 198 0
174 198 0
175 198 0
175 198 0
175 198 0
175 198 0
174 198 0
175 198 0
175 198 0
172 197 0
175 198 0
174 198 0
175 198 0
175 198 0
177 199 0
174 198 0
174 198 0
174 198 0
174 197 0
173 197 0
175 198 0
173 197 0
175 198 0
174 198 0
174 198 0
173 197 0
174 198 0
175 198 0
174 198 0
175 198 0
173 197 0
175 198 0
173 197 0
176 198 0
175 198 0
172 197 0
175 198 0
173 197 0
174 198 0
174 198 0
175 198 0
174 198 0
174 197 0
173 197 0
175 198 0
174 197 0
175 198 0
174 198 0
175 198 0
174 198 0
175 198 0
175 198 0
173 197 0
175 198 0
175 198 0
173 197 0
173 197 0
173 197 0
176 199 0
173 197 0
174 198 0
176 199 0
174 198 0
174 197 0
176 199 0
174 198 0
174 197 0
174 197 0
175 198 0
175 198 0
174 197 0
174 197 0
175 198 0
174 198 0
177 199 0
176 199 0
175 198 0
175 198 0
175 198 0
174 197 0
175 198 0
175 198 0
174 198 0
175 198 0
174 197 0
175 198 0
175 198 0
173 197 0
174 198 0
175 198 0
175 198 0
176 199 0
177 199 0
175 198 0
173 197 0
175 198 0
175 198 0
174 198 0
175 198 0
174 198 0
174 197 0
175 198 0
173 197 0
176 199 0
175 198 0
173 197 0
175 198 0
175 198 0
176 198 0
175 198 0
176 199 0
175 198 0
175 198 0
174 198 0
175 198 0
174 198 0
183 204 95
190 210 130
196 214 155
207 223 194
220 233 231
225 237 248
228 240 255
228 240 255
228 240 255
228 240 255
228 240 255
228 240 255
228 240 255
228 239 255
228 239 255
228 239 255
228 239 255
228 239 255
228 239 255
228 239 255
228 239 255
228 239 255
228 239 255
228 239 255
228 239 255
228 239 255
228 239 255
228 239 255
228 239 255
228 239 255
228 239 255
228 239 255
228 239 255
228 239 255
228 239 255
228 239 255
228 239 255
228 239 255
228 239 255
228 239 255
227 239 255
227 239 255
227 239 255
227 239 255
227 239 255
227 239 255
227 239 255
227 239 255
227 239 255
227 239 255
227 239 255
227 239 255
227 239 255
227 239 255
227 239 255
227 239 255
227 239 255
227 239 255
227 239 255
227 239 255
227 239 255
227 239 255
227 239 255
227 239 255
227 239 255
227 239 255
227 239 255
227 239 255
227 239 255
227 239 255
227 239 255
227 239 255
227 239 255
227 239 255
227 239 255
227 239 255
227 239 255
227 239 255
227 239 255
227 239 255
227 239 255
227 239 255
227 239 255
227 239 255
226 239 255
226 239 255
226 238 255
226 238 255
226 238 255
226 238 255
226 238 255
226 238 255
226 238 255
226 238 255
226 238 255
226 238 255
226 238 255
226 238 255
226 238 255
226 239 255
226 239 255
227 239 255
227 239 255
227 239 255
227 239 255
227 239 255
227 239 255
227 239 255
227 239 255
227 239 255
227 239 255
227 239 255
227 239 255
227 239 255
227 239 255
227 239 255
227 239 255
227 239 255
227 239 255
227 239 255
227 239 255
227 239 255
227 239 255
227 239 255
227 239 255
227 239 255
227 239 255
227 239 255
227 239 255
227 239 255
227 239 255
227 239 255
227 239 255
227 239 255
227 239 255
227 239 255
227 239 255
227 239 255
227 239 255
227 239 255
227 239 255
227 239 255
227 239 255
227 239 255
227 239 255
227 239 255
228 239 255
228 239 255
228 239 255
228 239 255
228 239 255
228 239 255
228 239 255
228 239 255
228 239 255
228 239 255
228 239 255
228 239 255
228 239 255
228 239 255
228 239 255
228 239 255
228 239 255
228 239 255
228 239 255
228 239 255
228 239 255
228 239 255
228 239 255
228 239 255
228 239 255
228 239 255
228 240 255
228 240 255
228 240 255
228 240 255
228 240 255
228 240 255
228 240 255
228 240 255
228 240 255
219 232 230
208 224 198
205 221 186
194 213 151
183 204 95
175 198 0
175 198 0
174 198 0
175 198 0
175 198 0
174 198 0
174 198 0
175 198 0
176 199 0
174 198 0
176 198 0
175 198 0
175 198 0
174 198 0
175 198 0
176 199 0
175 198 0
174 198 0
176 199 0
175 198 0
174 198 0
174 198 0
174 198 0
174 198 0
173 197 0
176 198 0
175 198 0
174 198 0
175 198 0
174 198 0
173 197 0
174 198 0
175 198 0
174 198 0
176 199 0
175 198 0
175 198 0
174 198 0
174 197 0
174 198 0
173 197 0
174 198 0
174 197 0
174 198 0
174 198 0
175 198 0
175 198 0
175 198 0
174 198 0
175 198 0
174 198 0
174 198 0
173 197 0
173 197 0
175 198 0
175 198 0
175 198 0
173 197 0
175 198 0
175 198 0
175 198 0
174 197 0
173 197 0
175 198 0
175 198 0
174 198 0
174 198 0
174 197 0
174 198 0
174 197 0
175 198 0
173 197 0
175 198 0
174 198 0
175 198 0
175 198 0
175 198 0
173 197 0
174 198 0
173 197 0
174 198 0
175 198 0
175 198 0
172 197 0
174 198 0
173 197 0
175 198 0
174 197 0
175 198 0
173 197 0
175 198 0
174 198 0
175 198 0
175 198 0
175 198 0
176 199 0
176 199 0
173 197 0
175 198 0
176 199 0
175 198 0
175 198 0
175 198 0
174 197 0
176 198 0
174 198 0
174 198 0
175 198 0
174 198 0
174 198 0
173 197 0
175 198 0
175 198 0
175 198 0
175 198 0
173 197 0
175 198 0
175 198 0
174 198 0
176 198 0
173 197 0
173 197 0
174 198 0
174 197 0
175 198 0
175 198 0
174 198 0
173 197 0
177 199 0
174 198 0
175 198 0
174 198 0
174 197 0
174 198 0
174 198 0
175 198 0
175 198 0
174 198 0
174 198 0
175 198 0
174 198 0
173 197 0
173 197 0
175 198 0
174 198 0
174 198 0
175 198 0
176 199 0
173 197 0
174 198 0
175 198 0
173 197 0
174 198 0
175 198 0
173 197 0
174 198 0
174 197 0
174 198 0
174 198 0
177 199 0
174 198 0
174 198 0
174 198 0
176 198 0
177 199 0
174 197 0
174 197 0
176 199 0
174 198 0
176 199 0
175 198 0
175 198 0
175 198 0
173 197 0
175 198 0
175 198 0
174 197 0
173 197 0
173 197 0
173 197 0
175 198 0
174 197 0
174 198 0
175 198 0
175 198 0
174 197 0
174 198 0
174 197 0
174 197 0
175 198 0
175 198 0
176 198 0
176 199 0
174 197 0
175 198 0
175 198 0
174 198 0
174 198 0
174 198 0
175 198 0
175 198 0
176 199 0
175 198 0
173 197 0
174 197 0
173 197 0
175 198 0
175 198 0
174 198 0
175 198 0
174 198 0
174 198 0
175 198 0
174 198 0
175 198 0
176 199 0
175 198 0
175 198 0
174 197 0
175 198 25
181 203 95
190 210 135
201 218 173
209 224 199
220 233 234
227 238 250
228 240 255
228 240 255
228 240 255
228 240 255
228 240 255
228 240 255
228 240 255
228 240 255
228 239 255
228 239 255
228 239 255
228 239 255
228 239 255
228 239 255
228 239 255
228 239 255
228 239 255
228 239 255
228 239 255
228 239 255
228 239 255
228 239 255
228 239 255
228 239 255
228 239 255
228 239 255
228 239 255
228 239 255
228 239 255
228 239 255
228 239 255
228 239 255
228 239 255
228 239 255
227 239 255
227 239 255
227 239 255
227 239 255
227 239 255
227 239 255
227 239 255
227 239 255
227 239 255
227 239 255
227 239 255
227 239 255
227 239 255
227 239 255
227 239 255
227 239 255
227 239 255
227 239 255
227 239 255
227 239 255
227 239 255
227 239 255
227 239 255
227 239 255
227 239 255
227 239 255
227 239 255
227 239 255
227 239 255
227 239 255
227 239 255
227 239 255
227 239 255
227 239 255
227 239 255
227 239 255
227 239 255
227 239 255
227 239 255
227 239 255
227 239 255
227 239 255
227 239 255
227 239 255
227 239 255
226 239 255
226 239 255
226 238 255
226 238 255
226 238 255
227 239 255
227 239 255
227 239 255
227 239 255
227 239 255
227 239 255
227 239 255
227 239 255
227 239 255
227 239 255
227 239 255
227 239 255
227 239 255
227 239 255
227 239 255
227 239 255
227 239 255
227 239 255
227 239 255
227 239 255
227 239 255
227 239 255
227 239 255
227 239 255
227 239 255
227 239 255
227 239 255
227 239 255
227 239 255
227 239 255
227 239 255
227 239 255
227 239 255
227 239 255
227 239 255
227 239 255
227 239 255
227 239 255
227 239 255
227 239 255
227 239 255
227 239 255
227 239 255
227 239 255
228 239 255
228 239 255
228 239 255
228 239 255
228 239 255
228 239 255
228 239 255
228 239 255
228 239 255
228 239 255
228 239 255
228 239 255
228 239 255
228 239 255
228 239 255
228 239 255
228 239 255
228 239 255
228 239 255
228 239 255
228 239 255
228 239 255
228 239 255
228 239 255
228 239 255
228 239 255
228 240 255
228 240 255
228 240 255
228 240 255
228 240 255
228 240 255
228 240 255
228 240 255
228 240 255
225 237 245
219 232 228
206 222 189
199 216 163
183 204 95
177 200 51
173 197 0
174 198 0
174 198 0
176 198 0
175 198 0
174 198 0
175 198 0
175 198 0
174 197 0
176 198 0
175 198 0
174 198 0
175 198 0
173 197 0
174 198 0
175 198 0
173 197 0
173 197 0
176 198 0
174 198 0
174 197 0
174 198 0
174 198 0
175 198 0
175 198 0
176 199 0
175 198 0
175 198 0
174 198 0
174 198 0
174 198 0
173 197 0
174 198 0
175 198 0
175 198 0
174 197 0
174 198 0
175 198 0
174 198 0
174 198 0
174 198 0
175 198 0
174 197 0
174 198 0
174 198 0
174 198 0
175 198 0
175 198 0
175 198 0
174 198 0
174 198 0
175 198 0
175 198 0
174 198 0
174 198 0
175 198 0
174 198 0
175 198 0
174 198 0
174 198 0
174 198 0
175 198 0
174 198 0
173 197 0
175 198 0
174 198 0
174 198 0
175 198 0
174 198 0
174 198 0
175 198 0
175 198 0
173 197 0
175 198 0
175 198 0
174 198 0
174 197 0
174 197 0
175 198 0
176 198 0
175 198 0
174 198 0
174 198 0
175 198 0
174 198 0
174 197 0
175 198 0
174 197 0
174 198 0
174 197 0
173 197 0
174 198 0
173 197 0
176 199 0
176 199 0
174 197 0
174 198 0
173 197 0
174 198 0
176 198 0
173 197 0
175 198 0
175 198 0
173 197 0
173 197 0
176 198 0
175 198 0
175 198 0
174 198 0
175 198 0
175 198 0
176 198 0
175 198 0
175 198 0
175 198 0
175 198 0
174 197 0
174 198 0
174 198 0
176 199 0
173 197 0
175 198 0
175 198 0
174 197 0
173 197 0
174 198 0
176 199 0
176 199 0
174 197 0
174 198 0
174 198 0
174 198 0
173 197 0
176 199 0
175 198 0
175 198 0
175 198 0
174 197 0
175 198 0
175 198 0
173 197 0
175 198 0
175 198 0
175 198 0
174 198 0
173 197 0
175 198 0
174 198 0
174 197 0
174 198 0
176 198 0
176 199 0
174 197 0
175 198 0
175 198 0
174 198 0
176 198 0
175 198 0
176 199 0
175 198 0
175 198 0
174 197 0
174 198 0
176 199 0
174 198 0
174 198 0
174 197 0
175 198 0
174 198 0
174 198 0
174 198 0
175 198 0
176 199 0
175 198 0
175 198 0
175 198 0
175 198 0
175 198 0
176 198 0
175 198 0
175 198 0
176 198 0
175 198 0
175 198 0
175 198 0
173 197 0
174 198 0
176 199 0
173 197 0
176 199 0
175 198 0
174 198 0
175 198 0
175 198 0
174 198 0
175 198 0
176 199 0
175 198 0
174 198 0
175 198 0
175 198 0
174 198 0
175 198 0
175 198 0
173 197 0
173 197 0
174 198 0
175 198 0
174 197 0
174 197 0
175 198 0
173 197 0
175 198 0
175 198 0
175 198 0
175 198 0
175 198 0
176 199 0
175 198 0
176 199 0
175 198 0
174 198 0
174 198 0
176 199 0
175 198 0
174 198 0
174 198 0
176 199 0
176 198 0
174 198 0
177 199 36
188 208 122
196 214 153
203 220 182
213 228 214
224 236 242
228 240 255
228 240 255
228 240 255
228 240 255
228 240 255
228 240 255
228 240 255
228 240 255
228 240 255
228 239 255
228 239 255
228 239 255
228 239 255
228 239 255
228 239 255
228 239 255
228 239 255
228 239 255
228 239 255
228 239 255
228 239 255
228 239 255
228 239 255
228 239 255
228 239 255
228 239 255
228 239 255
228 239 255
228 239 255
228 239 255
228 239 255
228 239 255
228 239 255
228 239 255
228 239 255
227 239 255
227 239 255
227 239 255
227 239 255
227 239 255
227 239 255
227 239 255
227 239 255
227 239 255
227 239 255
227 239 255
227 239 255
227 239 255
227 239 255
227 239 255
227 239 255
227 239 255
227 239 255
227 239 255
227 239 255
227 239 255
227 239 255
227 239 255
227 239 255
227 239 255
227 239 255
227 239 255
227 239 255
227 239 255
227 239 255
227 239 255
227 239 255
227 239 255
227 239 255
227 239 255
227 239 255
227 239 255
227 239 255
227 239 255
227 239 255
227 239 255
227 239 255
227 239 255
227 239 255
227 239 255
227 239 255
227 239 255
227 239 255
227 239 255
227 239 255
227 239 255
227 239 255
227 239 255
227 239 255
227 239 255
227 239 255
227 239 255
227 239 255
227 239 255
227 239 255
227 239 255
227 239 255
227 239 255
227 239 255
227 239 255
227 239 255
227 239 255
227 239 255
227 239 255
227 239 255
227 239 255
227 239 255
227 239 255
227 239 255
227 239 255
227 239 255
227 239 255
227 239 255
227 239 255
227 239 255
227 239 255
228 239 255
228 239 255
228 239 255
228 239 255
228 239 255
228 239 255
228 239 255
228 239 255
228 239 255
228 239 255
228 239 255
228 239 255
228 239 255
228 239 255
228 239 255
228 239 255
228 239 255
228 239 255
228 239 255
228 239 255
228 239 255
228 239 255
228 239 255
228 239 255
228 239 255
228 239 255
228 239 255
228 240 255
228 240 255
228 240 255
228 240 255
228 240 255
228 240 255
228 240 255
228 240 255
228 240 255
228 240 255
223 235 240
211 226 207
205 221 188
193 212 147
180 202 76
175 198 0
175 198 0
176 199 0
176 198 0
175 198 0
174 198 0
175 198 0
174 198 0
175 198 0
174 198 0
174 198 0
175 198 0
176 198 0
174 198 0
174 198 0
174 198 0
176 198 0
174 198 0
174 198 0
174 197 0
174 198 0
175 198 0
174 198 0
174 198 0
176 198 0
174 198 0
172 197 0
174 198 0
172 197 0
174 197 0
174 198 0
173 197 0
176 198 0
176 198 0
173 197 0
175 198 0
175 198 0
175 198 0
175 198 0
175 198 0
174 197 0
174 198 0
175 198 0
176 199 0
175 198 0
173 197 0
174 198 0
175 198 0
174 198 0
176 199 0
172 197 0
173 197 0
175 198 0
176 198 0
175 198 0
173 197 0
174 198 0
175 198 0
176 198 0
174 198 0
174 198 0
176 198 0
175 198 0
176 198 0
175 198 0
175 198 0
177 199 0
174 197 0
173 197 0
173 197 0
173 197 0
176 199 0
175 198 0
175 198 0
175 198 0
174 198 0
174 198 0
175 198 0
174 197 0
174 197 0
174 198 0
176 199 0
175 198 0
174 197 0
174 198 0
174 198 0
174 197 0
174 198 0
174 198 0
174 198 0
175 198 0
174 198 0
174 198 0
173 197 0
174 197 0
174 198 0
174 198 0
173 197 0
174 197 0
173 197 0
174 197 0
175 198 0
174 198 0
174 198 0
176 199 0
175 198 0
174 198 0
175 198 0
174 198 0
176 199 0
174 197 0
174 198 0
175 198 0
174 198 0
175 198 0
174 198 0
173 197 0
174 198 0
174 198 0
174 197 0
173 197 0
173 197 0
175 198 0
176 199 0
174 198 0
173 197 0
177 199 0
175 198 0
176 198 0
176 199 0
174 198 0
175 198 0
174 198 0
173 197 0
174 197 0
174 198 0
174 198 0
175 198 0
175 198 0
173 197 0
174 198 0
176 199 0
175 198 0
176 199 0
176 198 0
175 198 0
173 197 0
173 197 0
175 198 0
174 198 0
174 197 0
174 198 0
175 198 0
175 198 0
176 198 0
175 198 0
175 198 0
174 198 0
175 198 0
174 198 0
175 198 0
175 198 0
175 198 0
175 198 0
174 198 0
175 198 0
175 198 0
173 197 0
175 198 0
174 198 0
174 198 0
174 198 0
174 198 0
175 198 0
174 198 0
174 198 0
176 199 0
174 198 0
175 198 0
173 197 0
173 197 0
174 198 0
175 198 0
174 198 0
174 197 0
174 198 0
175 198 0
174 198 0
174 198 0
174 197 0
176 199 0
175 198 0
175 198 0
174 198 0
173 197 0
174 198 0
175 198 0
175 198 0
174 198 0
175 198 0
175 198 0
175 198 0
175 198 0
175 198 0
176 199 0
172 197 0
175 198 0
174 197 0
176 199 0
175 198 0
175 198 0
174 198 0
174 198 0
175 198 0
175 198 0
176 199 0
174 198 0
175 198 0
174 198 0
175 198 0
174 198 0
174 198 0
176 199 0
176 199 0
176 199 0
173 197 0
176 198 0
175 198 0
175 198 0
176 199 0
174 198 0
174 197 0
174 198 0
175 198 0
175 198 0
176 198 0
175 198 0
175 198 0
174 198 0
174 198 0
175 198 0
175 198 0
185 205 99
189 208 120
209 224 199
211 226 207
224 236 245
228 239 254
228 240 255
228 240 255
228 240 255
228 240 255
228 240 255
228 240 255
228 240 255
228 240 255
228 240 255
228 239 255
228 239 255
228 239 255
228 239 255
228 239 255
228 239 255
228 239 255
228 239 255
228 239 255
228 239 255
228 239 255
228 239 255
228 239 255
228 239 255
228 239 255
228 239 255
228 239 255
228 239 255
228 239 255
228 239 255
228 239 255
228 239 255
228 239 255
228 239 255
228 239 255
228 239 255
228 239 255
227 239 255
227 239 255
227 239 255
227 239 255
227 239 255
227 239 255
227 239 255
227 239 255
227 239 255
227 239 255
227 239 255
227 239 255
227 239 255
227 239 255
227 239 255
227 239 255
227 239 255
227 239 255
227 239 255
227 239 255
227 239 255
227 239 255
227 239 255
227 239 255
227 239 255
227 239 255
227 239 255
227 239 255
227 239 255
227 239 255
227 239 255
227 239 255
227 239 255
227 239 255
227 239 255
227 239 255
227 239 255
227 239 255
227 239 255
227 239 255
227 239 255
227 239 255
227 239 255
227 239 255
227 239 255
227 239 255
227 239 255
227 239 255
227 239 255
227 239 255
227 239 255
227 239 255
227 239 255
227 239 255
227 239 255
227 239 255
227 239 255
227 239 255
227 239 255
227 239 255
227 239 255
227 239 255
227 239 255
227 239 255
227 239 255
227 239 255
227 239 255
227 239 255
227 239 255
228 239 255
228 239 255
228 239 255
228 239 255
228 239 255
228 239 255
228 239 255
228 239 255
228 239 255
228 239 255
228 239 255
228 239 255
228 239 255
228 239 255
228 239 255
228 239 255
228 239 255
228 239 255
228 239 255
228 239 255
228 239 255
228 239 255
228 239 255
228 239 255
228 239 255
228 239 255
228 240 255
228 240 255
228 240 255
228 240 255
228 240 255
228 240 255
228 240 255
228 240 255
228 240 255
228 240 255
227 239 253
219 232 231
208 223 194
202 218 175
187 207 117
176 199 51
174 197 0
174 198 0
175 198 0
175 198 0
175 198 0
175 198 0
173 197 0
175 198 0
176 199 0
174 198 0
175 198 0
176 199 0
174 198 0
175 198 0
171 196 0
175 198 0
175 198 0
174 198 0
174 198 0
174 198 0
174 198 0
175 198 0
174 198 0
174 197 0
175 198 0
175 198 0
174 198 0
174 198 0
176 199 0
174 198 0
174 198 0
174 198 0
173 197 0
175 198 0
176 198 0
174 198 0
175 198 0
173 197 0
175 198 0
175 198 0
174 197 0
174 197 0
175 198 0
173 197 0
175 198 0
174 197 0
176 198 0
176 199 0
175 198 0
175 198 0
174 197 0
174 198 0
175 198 0
175 198 0
173 197 0
173 197 0
173 197 0
173 197 0
175 198 0
175 198 0
174 197 0
173 197 0
175 198 0
175 198 0
173 197 0
174 197 0
174 198 0
176 199 0
175 198 0
175 198 0
175 198 0
177 199 0
175 198 0
175 198 0
174 197 0
174 198 0
175 198 0
174 198 0
176 199 0
176 198 0
175 198 0
175 198 0
174 198 0
173 197 0
175 198 0
175 198 0
173 197 0
174 198 0
175 198 0
174 198 0
175 198 0
174 198 0
175 198 0
173 197 0
173 197 0
174 198 0
176 198 0
174 198 0
175 198 0
174 198 0
174 198 0
174 198 0
173 197 0
176 199 0
173 197 0
174 198 0
175 198 0
173 197 0
174 198 0
175 198 0
176 198 0
175 198 0
175 198 0
174 197 0
175 198 0
176 199 0
172 197 0
176 199 0
174 197 0
173 197 0
174 198 0
174 198 0
173 197 0
175 198 0
175 198 0
175 198 0
174 197 0
174 198 0
176 199 0
174 197 0
175 198 0
174 197 0
175 198 0
176 199 0
175 198 0
173 197 0
174 198 0
175 198 0
174 198 0
175 198 0
173 197 0
175 198 0
173 197 0
173 197 0
175 198 0
175 198 0
174 197 0
177 199 0
174 197 0
173 197 0
176 199 0
174 197 0
176 198 0
174 198 0
174 197 0
176 199 0
174 198 0
173 197 0
173 197 0
173 197 0
174 198 0
175 198 0
174 198 0
175 198 0
174 198 0
173 197 0
174 197 0
175 198 0
174 198 0
174 198 0
176 199 0
175 198 0
174 198 0
175 198 0
174 198 0
173 197 0
175 198 0
174 197 0
174 198 0
174 198 0
174 198 0
176 199 0
175 198 0
174 197 0
174 198 0
175 198 0
175 198 0
173 197 0
176 199 0
174 197 0
176 199 0
175 198 0
175 198 0
176 199 0
175 198 0
175 198 0
174 198 0
175 198 0
175 198 0
175 198 0
174 198 0
173 197 0
175 198 0
176 199 0
175 198 0
174 197 0
175 198 0
174 198 0
176 199 0
175 198 0
175 198 0
176 199 0
175 198 0
173 197 0
173 197 0
175 198 0
175 198 0
175 198 0
173 196 0
176 198 0
175 198 0
176 199 0
174 198 0
175 198 0
175 198 0
174 198 0
174 198 0
174 198 0
173 197 0
174 198 0
175 198 0
175 198 0
174 197 0
176 198 0
174 198 0
175 198 0
173 197 0
175 198 0
175 198 0
174 197 0
175 198 0
175 198 0
176 199 0
172 197 0
173 197 0
175 198 0
175 198 0
175 198 0
175 198 0
174 197 0
174 198 0
175 198 0
174 198 25
193 212 140
199 216 165
210 225 204
223 236 241
228 239 254
228 240 255
228 240 255
228 240 255
228 240 255
228 240 255
228 240 255
228 240 255
228 240 255
228 240 255
228 239 255
228 239 255
228 239 255
228 239 255
228 239 255
228 239 255
228 239 255
228 239 255
228 239 255
228 239 255
228 239 255
228 239 255
228 239 255
228 239 255
228 239 255
228 239 255
228 239 255
228 239 255
228 239 255
228 239 255
228 239 255
228 239 255
228 239 255
228 239 255
228 239 255
228 239 255
228 239 255
227 239 255
227 239 255
227 239 255
227 239 255
227 239 255
227 239 255
227 239 255
227 239 255
227 239 255
227 239 255
227 239 255
227 239 255
227 239 255
227 239 255
227 239 255
227 239 255
227 239 255
227 239 255
227 239 255
227 239 255
227 239 255
227 239 255
227 239 255
227 239 255
227 239 255
227 239 255
227 239 255
227 239 255
227 239 255
227 239 255
227 239 255
227 239 255
227 239 255
227 239 255
227 239 255
227 239 255
227 239 255
227 239 255
227 239 255
227 239 255
227 239 255
227 239 255
227 239 255
227 239 255
227 239 255
227 239 255
227 239 255
227 239 255
227 239 255
227 239 255
227 239 255
227 239 255
227 239 255
227 239 255
227 239 255
227 239 255
227 239 255
228 239 255
228 239 255
228 239 255
228 239 255
228 239 255
228 239 255
228 239 255
228 239 255
228 239 255
228 239 255
228 239 255
228 239 255
228 239 255
228 239 255
228 239 255
228 239 255
228 239 255
228 239 255
228 239 255
228 239 255
228 239 255
228 239 255
228 239 255
228 239 255
228 239 255
228 239 255
228 239 255
228 239 255
228 240 255
228 240 255
228 240 255
228 240 255
228 240 255
228 240 255
228 240 255
228 240 255
228 240 255
229 240 255
228 239 254
221 234 236
210 225 203
203 220 181
188 207 114
180 201 51
175 198 0
175 198 0
176 199 0
175 198 0
176 198 0
174 198 0
173 197 0
173 197 0
174 197 0
175 198 0
175 198 0
175 198 0
174 198 0
174 198 0
174 198 0
174 198 0
174 198 0
175 198 0
175 198 0
174 197 0
175 198 0
176 198 0
172 197 0
174 198 0
174 198 0
174 198 0
174 198 0
175 198 0
174 198 0
174 198 0
174 198 0
175 198 0
173 197 0
173 197 0
177 199 0
176 198 0
174 197 0
174 198 0
177 199 0
175 198 0
172 197 0
176 199 0
175 198 0
175 198 0
175 198 0
174 197 0
174 198 0
176 198 0
175 198 0
174 197 0
174 198 0
174 198 0
175 198 0
174 198 0
175 198 0
173 197 0
174 198 0
173 197 0
174 197 0
175 198 0
173 197 0
174 197 0
174 198 0
174 198 0
176 198 0
174 198 0
174 198 0
174 198 0
173 197 0
175 198 0
174 197 0
174 198 0
173 197 0
174 198 0
175 198 0
174 197 0
174 198 0
172 195 0
175 198 0
177 199 0
174 198 0
175 198 0
173 197 0
175 198 0
174 198 0
173 197 0
175 198 0
174 198 0
175 198 0
175 198 0
173 197 0
175 198 0
174 198 0
174 198 0
174 197 0
176 199 0
175 198 0
173 197 0
175 198 0
174 197 0
175 198 0
175 198 0
174 198 0
175 198 0
175 198 0
173 197 0
175 198 0
175 198 0
176 199 0
176 199 0
174 198 0
173 197 0
174 197 0
174 198 0
175 198 0
174 198 0
175 198 0
174 198 0
176 199 0
175 198 0
175 198 0
175 198 0
174 198 0
173 197 0
172 196 0
175 198 0
175 198 0
175 198 0
175 198 0
175 198 0
174 197 0
175 198 0
174 198 0
173 197 0
174 198 0
174 198 0
174 198 0
174 198 0
173 197 0
173 197 0
174 198 0
175 198 0
175 198 0
173 197 0
174 198 0
174 197 0
175 198 0
174 198 0
172 197 0
176 199 0
177 199 0
175 198 0
175 198 0
175 198 0
176 199 0
173 197 0
175 198 0
175 198 0
176 199 0
174 198 0
176 199 0
174 197 0
175 198 0
173 197 0
175 198 0
174 198 0
173 197 0
173 197 0
173 197 0
175 198 0
175 198 0
176 199 0
175 198 0
174 198 0
175 198 0
175 198 0
175 198 0
174 198 0
176 199 0
174 198 0
173 197 0
174 198 0
174 198 0
174 198 0
172 197 0
175 198 0
176 199 0
174 197 0
175 198 0
173 197 0
176 199 0
175 198 0
174 198 0
174 198 0
174 198 0
174 198 0
176 198 0
174 198 0
173 197 0
174 198 0
173 197 0
176 199 0
174 198 0
175 198 0
174 198 0
174 198 0
176 199 0
174 197 0
174 198 0
174 198 0
173 197 0
174 198 0
174 198 0
175 198 0
175 198 0
175 198 0
174 197 0
176 199 0
176 198 0
175 198 0
175 198 0
174 198 0
175 198 0
174 197 0
175 198 0
175 198 0
174 198 0
175 198 0
174 198 0
173 197 0
175 198 0
174 198 0
175 198 0
173 197 0
175 198 0
174 197 0
175 198 0
175 198 0
174 198 0
174 198 0
175 198 0
174 197 0
175 198 0
174 198 0
175 198 0
175 198 0
174 198 0
173 197 0
173 197 0
174 198 0
176 199 0
176 199 0
174 198 0
176 199 0
175 198 0
173 197 0
174 198 0
175 198 0
175 198 0
173 197 0
175 198 0
176 199 0
175 198 36
184 205 105
203 219 179
211 225 201
219 232 228
227 238 252
229 240 255
228 240 255
228 240 255
228 240 255
228 240 255
228 240 255
228 240 255
228 240 255
228 240 255
228 240 255
228 239 255
228 239 255
228 239 255
228 239 255
228 239 255
228 239 255
228 239 255
228 239 255
228 239 255
228 239 255
228 239 255
228 239 255
228 239 255
228 239 255
228 239 255
228 239 255
228 239 255
228 239 255
228 239 255
228 239 255
228 239 255
228 239 255
228 239 255
228 239 255
228 239 255
228 239 255
228 239 255
228 239 255
227 239 255
227 239 255
227 239 255
227 239 255
227 239 255
227 239 255
227 239 255
227 239 255
227 239 255
227 239 255
227 239 255
227 239 255
227 239 255
227 239 255
227 239 255
227 239 255
227 239 255
227 239 255
227 239 255
227 239 255
227 239 255
227 239 255
227 239 255
227 239 255
227 239 255
227 239 255
227 239 255
227 239 255
227 239 255
227 239 255
227 239 255
227 239 255
227 239 255
227 239 255
227 239 255
227 239 255
227 239 255
227 239 255
227 239 255
227 239 255
227 239 255
227 239 255
227 239 255
227 239 255
227 239 255
228 239 255
228 239 255
228 239 255
228 239 255
228 239 255
228 239 255
228 239 255
228 239 255
228 239 255
228 239 255
228 239 255
228 239 255
228 239 255
228 239 255
228 239 255
228 239 255
228 239 255
228 239 255
228 239 255
228 239 255
228 239 255
228 239 255
228 239 255
228 239 255
228 239 255
228 239 255
228 239 255
228 240 255
228 240 255
228 240 255
228 240 255
228 240 255
228 240 255
228 240 255
228 240 255
228 240 255
228 240 255
229 240 255
228 239 254
218 231 226
214 228 214
196 214 153
187 207 114
177 200 36
175 198 0
176 199 0
175 198 0
175 198 0
175 198 0
175 198 0
175 198 0
176 198 0
174 198 0
174 198 0
175 198 0
176 199 0
174 197 0
175 198 0
175 198 0
175 198 0
173 197 0
175 198 0
174 198 0
173 197 0
175 198 0
175 198 0
173 197 0
175 198 0
176 199 0
176 198 0
175 198 0
175 198 0
176 199 0
176 199 0
175 198 0
176 198 0
175 198 0
176 199 0
175 198 0
176 199 0
175 198 0
176 198 0
176 199 0
174 197 0
174 198 0
176 199 0
173 197 0
174 198 0
175 198 0
175 198 0
173 197 0
174 197 0
174 198 0
175 198 0
175 198 0
173 197 0
175 198 0
174 198 0
172 197 0
174 198 0
174 198 0
176 199 0
174 198 0
176 198 0
175 198 0
174 197 0
174 197 0
175 198 0
174 198 0
174 197 0
175 198 0
175 198 0
173 197 0
173 197 0
174 197 0
172 197 0
174 197 0
175 198 0
173 197 0
175 198 0
175 198 0
176 198 0
174 198 0
174 198 0
175 198 0
177 199 0
176 199 0
174 198 0
174 197 0
174 197 0
174 197 0
173 197 0
174 198 0
173 197 0
174 198 0
175 198 0
174 197 0
175 198 0
174 198 0
174 198 0
176 198 0
176 198 0
174 198 0
173 197 0
175 198 0
175 198 0
175 198 0
174 198 0
172 196 0
175 198 0
173 197 0
174 198 0
172 196 0
177 199 0
173 197 0
174 198 0
175 198 0
174 197 0
175 198 0
174 198 0
175 198 0
174 197 0
174 197 0
175 198 0
174 198 0
174 197 0
174 197 0
175 198 0
173 197 0
175 198 0
176 199 0
174 198 0
174 197 0
175 198 0
175 198 0
176 198 0
175 198 0
176 199 0
176 199 0
174 197 0
175 198 0
176 199 0
175 198 0
174 197 0
175 198 0
174 198 0
173 197 0
174 198 0
173 197 0
174 198 0
174 198 0
174 198 0
176 199 0
173 197 0
174 198 0
175 198 0
177 199 0
175 198 0
174 198 0
176 198 0
174 198 0
174 198 0
173 197 0
172 197 0
173 197 0
174 198 0
175 198 0
174 198 0
174 198 0
173 197 0
175 198 0
174 198 0
174 197 0
173 197 0
174 198 0
175 198 0
174 197 0
174 197 0
174 198 0
176 198 0
174 198 0
175 198 0
175 198 0
175 198 0
174 198 0
175 198 0
173 197 0
174 197 0
174 198 0
173 196 0
176 199 0
175 198 0
175 198 0
175 198 0
175 198 0
175 198 0
174 197 0
176 198 0
174 198 0
174 198 0
175 198 0
173 197 0
176 198 0
174 198 0
174 198 0
175 198 0
174 197 0
175 198 0
174 198 0
175 198 0
174 197 0
174 197 0
173 197 0
174 198 0
174 197 0
175 198 0
173 197 0
175 198 0
174 198 0
176 199 0
173 197 0
173 197 0
175 198 0
176 199 0
175 198 0
174 198 0
174 197 0
177 199 0
174 197 0
173 197 0
175 198 0
175 198 0
176 198 0
174 198 0
175 198 0
174 198 0
173 197 0
174 197 0
175 198 0
175 198 0
176 199 0
174 198 0
175 198 0
176 198 0
174 198 0
176 198 0
174 198 0
174 197 0
175 198 0
175 198 0
173 197 0
174 198 0
175 198 0
175 198 0
174 197 0
174 198 0
175 198 0
173 197 0
175 198 0
173 197 0
174 197 0
175 198 0
176 198 0
176 198 0
175 198 0
174 198 0
176 198 0
176 198 0
176 198 0
175 198 0
175 198 0
175 198 0
175 198 0
176 199 0
174 198 0
174 197 0
176 199 25
188 208 125
195 213 151
207 223 194
217 230 220
227 238 252
229 240 255
228 240 255
228 240 255
228 240 255
228 240 255
228 240 255
228 240 255
228 240 255
228 240 255
228 240 255
228 240 255
228 239 255
228 239 255
228 239 255
228 239 255
228 239 255
228 239 255
228 239 255
228 239 255
228 239 255
228 239 255
228 239 255
228 239 255
228 239 255
228 239 255
228 239 255
228 239 255
228 239 255
228 239 255
228 239 255
228 239 255
228 239 255
228 239 255
228 239 255
228 239 255
228 239 255
228 239 255
228 239 255
228 239 255
227 239 255
227 239 255
227 239 255
227 239 255
227 239 255
227 239 255
227 239 255
227 239 255
227 239 255
227 239 255
227 239 255
227 239 255
227 239 255
227 239 255
227 239 255
227 239 255
227 239 255
227 239 255
227 239 255
227 239 255
227 239 255
227 239 255
227 239 255
227 239 255
227 239 255
227 239 255
227 239 255
227 239 255
227 239 255
227 239 255
227 239 255
227 239 255
227 239 255
228 239 255
228 239 255
228 239 255
228 239 255
228 239 255
228 239 255
228 239 255
228 239 255
228 239 255
228 239 255
228 239 255
228 239 255
228 239 255
228 239 255
228 239 255
228 239 255
228 239 255
228 239 255
228 239 255
228 239 255
228 239 255
228 239 255
228 239 255
228 239 255
228 239 255
228 239 255
228 239 255
228 240 255
228 240 255
228 240 255
228 240 255
228 240 255
228 240 255
228 240 255
228 240 255
228 240 255
228 240 255
228 240 255
229 240 255
228 239 254
220 233 231
212 226 206
196 215 157
190 209 125
178 200 57
174 198 0
175 198 0
174 198 0
174 198 0
173 197 0
173 197 0
175 198 0
174 198 0
174 198 0
174 197 0
175 198 0
176 198 0
176 198 0
174 198 0
176 198 0
174 198 0
174 197 0
173 197 0
174 197 0
174 197 0
174 198 0
174 198 0
175 198 0
174 198 0
175 198 0
174 198 0
175 198 0
175 198 0
175 198 0
173 197 0
174 197 0
174 197 0
174 197 0
174 197 0
174 198 0
174 198 0
175 198 0
173 197 0
174 198 0
176 199 0
173 197 0
175 198 0
174 197 0
174 198 0
175 198 0
176 198 0
174 197 0
174 198 0
174 198 0
173 197 0
174 197 0
175 198 0
175 198 0
172 197 0
174 197 0
175 198 0
174 198 0
174 198 0
175 198 0
174 198 0
173 197 0
173 197 0
175 198 0
174 197 0
175 198 0
174 198 0
174 197 0
176 199 0
175 198 0
173 197 0
175 198 0
175 198 0
173 197 0
173 197 0
173 197 0
175 198 0
174 198 0
174 198 0
176 199 0
174 197 0
174 198 0
175 198 0
173 197 0
174 198 0
175 198 0
174 197 0
176 199 0
175 198 0
173 197 0
173 197 0
176 199 0
174 197 0
174 198 0
176 199 0
174 198 0
174 198 0
174 198 0
174 198 0
174 198 0
174 197 0
175 198 0
175 198 0
174 197 0
175 198 0
174 197 0
175 198 0
175 198 0
175 198 0
173 197 0
174 197 0
174 197 0
175 198 0
173 197 0
174 198 0
174 197 0
174 198 0
173 197 0
175 198 0
175 198 0
176 199 0
174 197 0
175 198 0
175 198 0
173 197 0
174 197 0
174 198 0
174 197 0
173 197 0
176 199 0
172 196 0
175 198 0
174 198 0
177 199 0
175 198 0
174 197 0
175 198 0
173 197 0
175 198 0
175 198 0
173 197 0
175 198 0
175 198 0
174 197 0
175 198 0
175 198 0
176 199 0
176 199 0
172 196 0
174 197 0
174 198 0
175 198 0
174 198 0
174 198 0
174 198 0
174 198 0
175 198 0
177 199 0
173 196 0
174 198 0
174 198 0
175 198 0
175 198 0
175 198 0
173 197 0
173 197 0
175 198 0
173 197 0
173 197 0
173 197 0
175 198 0
175 198 0
175 198 0
175 198 0
174 197 0
175 198 0
176 199 0
175 198 0
175 198 0
174 198 0
175 198 0
174 198 0
174 197 0
175 198 0
175 198 0
174 198 0
174 198 0
175 198 0
175 198 0
175 198 0
175 198 0
174 198 0
174 198 0
174 197 0
175 198 0
176 199 0
174 198 0
175 198 0
176 199 0
174 198 0
174 198 0
175 198 0
173 197 0
176 199 0
173 197 0
174 198 0
176 198 0
174 198 0
174 198 0
175 198 0
174 197 0
175 198 0
175 198 0
174 198 0
174 198 0
174 198 0
174 198 0
178 199 0
175 198 0
174 198 0
174 197 0
176 199 0
174 198 0
174 198 0
176 199 0
177 199 0
175 198 0
176 199 0
175 198 0
175 198 0
174 197 0
175 198 0
175 198 0
175 198 0
177 199 0
174 198 0
174 197 0
173 197 0
173 197 0
175 198 0
174 198 0
174 198 0
175 198 0
174 198 0
174 197 0
175 198 0
175 198 0
175 198 0
174 197 0
175 198 0
174 198 0
175 198 0
175 198 0
175 198 0
174 198 0
174 197 0
173 197 0
177 199 0
173 197 0
174 198 0
175 198 0
174 198 0
175 198 0
176 199 0
174 198 0
175 198 0
176 198 0
175 198 0
176 199 0
173 197 0
174 198 0
172 197 0
176 199 0
174 198 0
176 199 0
174 198 0
175 198 0
174 198 0
176 199 0
175 198 0
175 198 0
176 199 0
174 198 0
177 200 44
187 207 114
202 218 173
210 225 203
220 232 230
229 240 255
229 240 255
229 240 255
228 240 255
228 240 255
228 240 255
228 240 255
228 240 255
228 240 255
228 240 255
228 240 255
228 240 255
228 239 255
228 239 255
228 239 255
228 239 255
228 239 255
228 239 255
228 239 255
228 239 255
228 239 255
228 239 255
228 239 255
228 239 255
228 239 255
228 239 255
228 239 255
228 239 255
228 239 255
228 239 255
228 239 255
228 239 255
228 239 255
228 239 255
228 239 255
228 239 255
228 239 255
228 239 255
228 239 255
228 239 255
227 239 255
227 239 255
227 239 255
227 239 255
227 239 255
227 239 255
227 239 255
227 239 255
227 239 255
227 239 255
227 239 255
227 239 255
227 239 255
227 239 255
227 239 255
227 239 255
227 239 255
227 239 255
227 239 255
227 239 255
227 239 255
227 239 255
228 239 255
228 239 255
228 239 255
228 239 255
228 239 255
228 239 255
228 239 255
228 239 255
228 239 255
228 239 255
228 239 255
228 239 255
228 239 255
228 239 255
228 239 255
228 239 255
228 239 255
228 239 255
228 239 255
228 239 255
228 239 255
228 239 255
228 239 255
228 239 255
228 239 255
228 239 255
228 239 255
228 239 255
228 240 255
228 240 255
228 240 255
228 240 255
228 240 255
228 240 255
228 240 255
228 240 255
228 240 255
228 240 255
229 240 255
229 240 255
228 239 254
220 233 230
212 227 209
197 215 161
191 210 135
177 199 51
174 197 0
174 198 0
176 198 0
176 199 0
175 198 0
175 198 0
174 198 0
176 199 0
173 197 0
174 197 0
174 198 0
173 197 0
174 198 0
176 199 0
174 197 0
175 198 0
175 198 0
175 198 0
173 197 0
175 198 0
176 199 0
174 197 0
174 198 0
174 198 0
177 199 0
175 198 0
174 198 0
175 198 0
174 198 0
174 198 0
174 198 0
174 197 0
174 197 0
174 197 0
175 198 0
174 198 0
173 197 0
173 197 0
175 198 0
176 199 0
175 198 0
175 198 0
174 198 0
175 198 0
174 198 0
175 198 0
175 198 0
172 196 0
175 198 0
174 198 0
175 198 0
174 197 0
174 198 0
175 198 0
175 198 0
175 198 0
173 197 0
174 198 0
174 198 0
174 198 0
175 198 0
174 198 0
175 198 0
173 197 0
174 198 0
176 198 0
174 197 0
175 198 0
174 198 0
175 198 0
174 198 0
176 198 0
175 198 0
176 199 0
174 198 0
174 197 0
174 198 0
174 198 0
175 198 0
175 198 0
175 198 0
177 199 0
174 198 0
174 198 0
175 198 0
174 198 0
176 198 0
174 198 0
173 197 0
173 197 0
172 197 0
174 198 0
175 198 0
174 197 0
174 197 0
175 198 0
174 197 0
174 198 0
175 198 0
174 198 0
175 198 0
173 197 0
177 199 0
173 197 0
175 198 0
175 198 0
174 198 0
172 196 0
175 198 0
176 199 0
174 198 0
175 198 0
175 198 0
175 198 0
173 197 0
176 199 0
174 197 0
173 197 0
176 198 0
173 196 0
174 197 0
175 198 0
175 198 0
175 198 0
174 198 0
173 197 0
173 197 0
175 198 0
175 198 0
175 198 0
176 198 0
175 198 0
175 198 0
174 197 0
175 198 0
174 197 0
172 196 0
174 198 0
174 197 0
174 198 0
177 199 0
173 196 0
174 197 0
175 198 0
174 198 0
175 197 0
172 197 0
175 198 0
174 198 0
175 198 0
175 198 0
174 198 0
174 198 0
174 198 0
174 198 0
174 197 0
175 198 0
176 198 0
174 198 0
175 198 0
173 197 0
175 198 0
172 196 0
175 198 0
174 198 0
175 198 0
175 198 0
175 198 0
175 198 0
174 198 0
174 198 0
174 198 0
175 198 0
174 198 0
173 197 0
176 198 0
174 197 0
175 198 0
176 199 0
173 197 0
175 198 0
175 198 0
175 198 0
174 198 0
174 198 0
174 198 0
174 198 0
175 198 0
173 197 0
174 197 0
175 198 0
174 198 0
173 197 0
174 198 0
174 198 0
174 197 0
175 198 0
175 198 0
174 198 0
174 198 0
175 198 0
174 198 0
175 198 0
174 198 0
175 198 0
175 198 0
174 197 0
174 198 0
175 198 0
175 198 0
173 197 0
175 198 0
175 198 0
175 198 0
175 198 0
174 197 0
174 198 0
174 198 0
174 197 0
175 198 0
175 198 0
174 197 0
175 198 0
175 198 0
174 198 0
174 197 0
174 198 0
174 198 0
176 198 0
175 198 0
175 198 0
174 197 0
176 198 0
174 197 0
174 198 0
174 197 0
175 198 0
175 198 0
174 198 0
174 198 0
175 198 0
174 198 0
175 198 0
175 198 0
173 197 0
176 199 0
174 198 0
175 198 0
174 198 0
174 198 0
174 197 0
176 199 0
176 199 0
173 197 0
174 198 0
176 199 0
174 198 0
174 197 0
173 197 0
175 198 0
173 197 0
176 199 0
175 198 0
174 197 0
174 197 0
176 199 0
175 198 0
175 198 0
174 198 0
174 198 0
174 198 0
176 199 0
173 197 0
175 198 0
175 198 0
174 198 0
173 197 0
175 198 0
174 198 0
175 198 0
175 198 0
175 198 0
175 198 0
174 198 0
174 198 0
176 199 0
173 197 0
176 198 0
174 197 0
175 198 0
174 198 0
174 198 0
178 200 44
186 206 108
201 218 169
212 226 203
219 232 230
229 240 255
229 240 255
229 240 255
228 240 255
228 240 255
228 240 255
228 240 255
228 240 255
228 240 255
228 240 255
228 240 255
228 240 255
228 240 255
228 239 255
228 239 255
228 239 255
228 239 255
228 239 255
228 239 255
228 239 255
228 239 255
228 239 255
228 239 255
228 239 255
228 239 255
228 239 255
228 239 255
228 239 255
228 239 255
228 239 255
228 239 255
228 239 255
228 239 255
228 239 255
228 239 255
228 239 255
228 239 255
228 239 255
228 239 255
228 239 255
228 239 255
227 239 255
227 239 255
227 239 255
227 239 255
227 239 255
227 239 255
227 239 255
227 239 255
227 239 255
227 239 255
228 239 255
228 239 255
228 239 255
228 239 255
228 239 255
228 239 255
228 239 255
228 239 255
228 239 255
228 239 255
228 239 255
228 239 255
228 239 255
228 239 255
228 239 255
228 239 255
228 239 255
228 239 255
228 239 255
228 239 255
228 239 255
228 239 255
228 239 255
228 239 255
228 239 255
228 239 255
228 239 255
228 239 255
228 239 255
228 240 255
228 240 255
228 240 255
228 240 255
228 240 255
228 240 255
228 240 255
228 240 255
228 240 255
228 240 255
229 240 255
229 240 255
229 240 255
226 238 249
216 230 221
204 220 182
190 210 130
179 201 67
174 198 0
175 198 0
176 198 0
175 198 0
174 198 0
174 198 0
174 198 0
176 198 0
174 198 0
176 198 0
174 198 0
174 198 0
175 198 0
175 198 0
173 197 0
174 198 0
173 197 0
174 197 0
176 199 0
176 199 0
175 198 0
176 198 0
176 199 0
175 198 0
176 199 0
175 198 0
175 198 0
176 198 0
174 197 0
174 198 0
174 198 0
174 198 0
173 197 0
175 198 0
175 198 0
172 197 0
176 198 0
175 198 0
174 198 0
173 197 0
175 198 0
173 197 0
175 198 0
173 197 0
174 198 0
174 198 0
175 198 0
174 197 0
175 198 0
176 198 0
174 198 0
174 198 0
175 198 0
174 198 0
174 197 0
175 198 0
176 199 0
174 198 0
174 198 0
175 198 0
175 198 0
173 197 0
173 197 0
174 198 0
174 198 0
174 198 0
173 197 0
175 198 0
175 198 0
174 198 0
175 198 0
174 197 0
173 197 0
175 198 0
175 198 0
174 198 0
176 199 0
174 197 0
174 198 0
174 198 0
174 198 0
174 198 0
175 198 0
173 197 0
176 198 0
173 197 0
175 198 0
176 199 0
174 197 0
175 198 0
175 198 0
173 196 0
174 198 0
175 198 0
174 198 0
176 199 0
175 198 0
175 198 0
176 199 0
176 199 0
175 198 0
176 199 0
172 196 0
174 198 0
173 197 0
176 198 0
174 198 0
175 198 0
174 198 0
174 198 0
175 198 0
174 198 0
174 197 0
173 197 0
176 198 0
174 197 0
173 197 0
176 199 0
174 197 0
175 198 0
174 197 0
174 197 0
175 198 0
174 197 0
174 198 0
175 198 0
174 198 0
175 198 0
175 198 0
175 198 0
173 197 0
174 198 0
172 196 0
176 198 0
174 197 0
174 197 0
174 197 0
174 198 0
174 197 0
174 198 0
174 198 0
173 197 0
176 198 0
174 197 0
173 197 0
174 198 0
174 198 0
176 199 0
175 198 0
176 198 0
174 198 0
173 197 0
173 197 0
173 196 0
173 197 0
173 197 0
174 198 0
177 199 0
175 198 0
174 198 0
173 197 0
174 197 0
173 197 0
173 197 0
174 198 0
173 197 0
175 198 0
174 198 0
174 198 0
174 197 0
174 197 0
175 198 0
176 199 0
175 198 0
174 198 0
174 197 0
174 197 0
174 198 0
174 197 0
175 198 0
175 198 0
174 198 0
173 197 0
175 198 0
174 197 0
176 199 0
174 198 0
173 197 0
175 198 0
173 197 0
176 199 0
173 197 0
174 198 0
175 198 0
173 197 0
174 198 0
175 198 0
174 198 0
174 197 0
176 198 0
174 197 0
174 198 0
174 198 0
174 198 0
175 198 0
174 198 0
175 198 0
174 198 0
173 197 0
176 199 0
174 197 0
174 198 0
176 198 0
174 197 0
174 197 0
176 199 0
173 197 0
175 198 0
172 196 0
174 198 0
174 197 0
176 199 0
175 198 0
175 198 0
174 198 0
175 198 0
174 198 0
175 198 0
174 198 0
175 198 0
174 198 0
173 197 0
174 198 0
175 198 0
174 198 0
175 198 0
175 198 0
175 198 0
175 198 0
175 198 0
174 198 0
174 198 0
174 198 0
174 197 0
173 197 0
176 198 0
174 198 0
174 197 0
176 199 0
174 198 0
173 197 0
175 198 0
175 198 0
173 197 0
174 198 0
176 198 0
174 197 0
174 198 0
173 197 0
172 196 0
176 198 0
174 198 0
172 196 0
174 198 0
174 198 0
175 198 0
174 198 0
176 199 0
174 197 0
176 198 0
175 198 0
175 198 0
176 198 0
174 198 0
174 198 0
175 198 0
175 198 0
174 197 0
174 197 0
174 198 0
173 197 0
175 198 0
174 198 0
175 198 0
173 197 0
177 199 0
174 198 0
177 199 0
176 198 0
175 198 0
174 197 0
173 197 0
175 198 0
176 199 0
175 198 0
175 198 0
174 198 0
173 197 0
174 198 0
176 198 0
176 199 0
173 197 0
182 203 88
196 214 149
200 217 171
214 228 214
224 236 242
229 240 255
229 240 255
229 240 255
228 240 255
228 240 255
228 240 255
228 240 255
228 240 255
228 240 255
228 240 255
228 240 255
228 240 255
228 240 255
228 239 255
228 239 255
228 239 255
228 239 255
228 239 255
228 239 255
228 239 255
228 239 255
228 239 255
228 239 255
228 239 255
228 239 255
228 239 255
228 239 255
228 239 255
228 239 255
228 239 255
228 239 255
228 239 255
228 239 255
228 239 255
228 239 255
228 239 255
228 239 255
228 239 255
228 239 255
228 239 255
228 239 255
228 239 255
227 239 255
227 239 255
228 239 255
228 239 255
228 239 255
228 239 255
228 239 255
228 239 255
228 239 255
228 239 255
228 239 255
228 239 255
228 239 255
228 239 255
228 239 255
228 239 255
228 239 255
228 239 255
228 239 255
228 239 255
228 239 255
228 239 255
228 239 255
228 239 255
228 239 255
228 239 255
228 239 255
228 239 255
228 240 255
228 240 255
228 240 255
228 240 255
228 240 255
228 240 255
228 240 255
228 240 255
228 240 255
229 240 255
229 240 255
229 240 255
229 240 255
228 239 253
215 229 215
207 223 193
189 208 120
179 201 72
175 198 25
173 197 0
174 198 0
176 199 0
175 198 0
174 198 0
175 198 0
174 198 0
176 199 0
175 198 0
176 199 0
174 197 0
174 198 0
174 198 0
174 198 0
176 198 0
175 198 0
174 198 0
175 198 0
175 198 0
175 198 0
175 198 0
174 198 0
175 198 0
175 198 0
175 198 0
174 198 0
174 197 0
175 198 0
173 197 0
174 198 0
175 198 0
175 198 0
174 198 0
175 198 0
174 198 0
172 197 0
175 198 0
175 198 0
174 198 0
176 199 0
174 198 0
176 198 0
173 197 0
173 197 0
174 198 0
176 199 0
174 198 0
176 199 0
174 198 0
175 198 0
174 198 0
176 199 0
175 198 0
175 198 0
173 197 0
173 197 0
175 198 0
173 197 0
175 198 0
175 198 0
173 197 0
176 199 0
173 197 0
175 198 0
175 198 0
174 198 0
173 197 0
174 198 0
173 197 0
177 199 0
175 198 0
174 197 0
175 198 0
173 197 0
174 198 0
174 198 0
174 197 0
176 198 0
175 198 0
175 198 0
174 198 0
174 198 0
174 198 0
174 197 0
174 197 0
176 198 0
174 198 0
174 198 0
175 198 0
175 198 0
175 198 0
172 197 0
174 198 0
174 198 0
174 198 0
174 198 0
175 198 0
175 198 0
174 198 0
175 198 0
175 198 0
175 198 0
174 197 0
177 199 0
175 198 0
174 198 0
174 198 0
174 198 0
174 198 0
174 197 0
173 197 0
174 198 0
174 197 0
174 197 0
175 198 0
174 198 0
173 197 0
172 197 0
174 197 0
174 198 0
174 198 0
175 198 0
172 197 0
174 198 0
174 198 0
174 198 0
173 197 0
175 198 0
174 197 0
175 198 0
175 198 0
174 198 0
174 198 0
173 196 0
173 197 0
175 197 0
173 197 0
174 197 0
172 196 0
174 198 0
174 198 0
175 198 0
174 197 0
174 197 0
174 197 0
174 198 0
174 197 0
172 196 0
176 198 0
172 197 0
173 197 0
174 198 0
175 198 0
173 197 0
176 199 0
175 198 0
176 199 0
175 198 0
176 198 0
173 196 0
175 197 0
174 197 0
174 197 0
175 198 0
175 198 0
174 197 0
174 197 0
174 197 0
174 198 0
175 198 0
175 198 0
174 198 0
175 198 0
174 198 0
173 197 0
175 198 0
173 196 0
174 197 0
175 198 0
174 198 0
174 197 0
174 198 0
174 197 0
175 198 0
174 197 0
175 198 0
175 198 0
174 198 0
174 198 0
175 198 0
173 197 0
174 197 0
174 198 0
174 198 0
174 198 0
174 198 0
174 197 0
173 197 0
175 198 0
173 197 0
174 198 0
174 197 0
175 198 0
174 198 0
177 199 0
176 199 0
174 198 0
174 198 0
173 197 0
174 197 0
175 198 0
173 197 0
174 197 0
174 198 0
175 198 0
174 197 0
176 199 0
176 199 0
172 197 0
174 198 0
173 197 0
174 197 0
174 197 0
174 198 0
175 198 0
175 198 0
174 198 0
174 198 0
175 198 0
175 198 0
176 199 0
174 198 0
172 197 0
173 197 0
173 197 0
176 198 0
174 198 0
176 198 0
175 198 0
175 198 0
175 198 0
174 197 0
174 198 0
175 198 0
175 198 0
175 198 0
174 198 0
174 198 0
175 198 0
175 198 0
174 198 0
174 198 0
174 197 0
174 198 0
176 199 0
174 197 0
173 197 0
174 197 0
175 198 0
175 198 0
173 197 0
174 198 0
174 198 0
174 198 0
174 197 0
174 198 0
174 197 0
176 199 0
174 198 0
174 198 0
175 198 0
174 198 0
174 198 0
174 197 0
173 197 0
174 197 0
174 198 0
174 198 0
174 197 0
174 198 0
176 198 0
174 198 0
175 198 0
174 198 0
175 198 0
175 198 0
174 198 0
175 198 0
175 198 0
174 198 0
174 198 0
176 199 0
174 198 0
175 198 0
175 198 0
176 199 0
175 198 0
176 198 0
176 199 0
174 198 0
176 198 0
175 198 0
175 198 0
175 198 0
174 198 0
175 198 0
176 199 0
173 197 0
176 199 0
174 198 0
175 198 0
181 203 88
196 214 149
206 222 189
221 234 234
225 237 245
229 240 255
229 240 255
229 240 255
228 240 255
228 240 255
228 240 255
228 240 255
228 240 255
228 240 255
228 240 255
228 240 255
228 240 255
228 240 255
228 240 255
228 239 255
228 239 255
228 239 255
228 239 255
228 239 255
228 239 255
228 239 255
228 239 255
228 239 255
228 239 255
228 239 255
228 239 255
228 239 255
228 239 255
228 239 255
228 239 255
228 239 255
228 239 255
228 239 255
228 239 255
228 239 255
228 239 255
228 239 255
228 239 255
228 239 255
228 239 255
228 239 255
228 239 255
228 239 255
228 239 255
228 239 255
228 239 255
228 239 255
228 239 255
228 239 255
228 239 255
228 239 255
228 239 255
228 239 255
228 239 255
228 239 255
228 239 255
228 239 255
228 239 255
228 239 255
228 240 255
228 240 255
228 240 255
228 240 255
228 240 255
228 240 255
228 240 255
228 240 255
228 240 255
228 240 255
228 240 255
229 240 255
229 240 255
229 240 255
228 239 253
222 235 238
214 228 215
200 218 173
184 205 108
178 200 51
176 199 0
174 198 0
174 198 0
175 198 0
175 198 0
175 198 0
175 198 0
175 198 0
174 198 0
175 198 0
175 198 0
174 198 0
174 197 0
177 199 0
175 198 0
174 198 0
173 197 0
176 198 0
175 198 0
176 199 0
174 198 0
174 198 0
175 198 0
175 198 0
176 198 0
174 198 0
174 198 0
173 197 0
174 197 0
175 198 0
174 198 0
175 198 0
174 198 0
174 198 0
175 198 0
176 199 0
174 198 0
176 198 0
175 198 0
175 198 0
174 198 0
175 198 0
175 198 0
176 199 0
176 199 0
174 198 0
175 198 0
174 198 0
174 198 0
174 198 0
173 197 0
174 198 0
175 198 0
175 198 0
174 198 0
174 198 0
174 197 0
174 198 0
175 198 0
175 198 0
173 197 0
175 198 0
177 199 0
174 198 0
174 197 0
177 199 0
176 198 0
175 198 0
175 198 0
173 197 0
174 198 0
175 198 0
175 198 0
174 198 0
175 198 0
175 198 0
173 197 0
176 198 0
174 198 0
175 198 0
176 199 0
176 198 0
173 197 0
174 198 0
174 198 0
174 198 0
175 198 0
177 199 0
174 198 0
174 198 0
174 198 0
175 198 0
174 198 0
174 198 0
176 199 0
173 197 0
174 198 0
175 198 0
173 197 0
173 197 0
174 197 0
175 198 0
174 198 0
173 197 0
175 198 0
175 198 0
175 198 0
174 198 0
175 198 0
174 197 0
175 198 0
173 197 0
175 198 0
176 199 0
175 198 0
174 198 0
174 197 0
175 198 0
174 198 0
175 198 0
173 197 0
174 198 0
175 198 0
174 198 0
175 198 0
175 198 0
174 197 0
174 198 0
174 197 0
174 197 0
175 198 0
174 198 0
175 198 0
174 197 0
175 198 0
174 197 0
174 198 0
175 198 0
173 197 0
172 197 0
174 197 0
176 198 0
174 197 0
175 198 0
174 198 0
173 197 0
174 197 0
175 198 0
175 198 0
175 198 0
172 196 0
175 198 0
175 198 0
173 196 0
173 197 0
173 197 0
174 198 0
175 198 0
175 198 0
175 198 0
173 197 0
176 198 0
175 198 0
174 198 0
176 199 0
175 198 0
174 197 0
176 199 0
174 197 0
173 196 0
172 196 0
174 197 0
172 197 0
173 197 0
174 198 0
174 198 0
173 197 0
173 197 0
175 198 0
172 197 0
172 196 0
174 198 0
173 196 0
175 198 0
173 197 0
174 197 0
174 197 0
173 197 0
174 198 0
175 198 0
175 198 0
177 199 0
176 199 0
174 198 0
176 199 0
174 198 0
175 198 0
175 198 0
174 197 0
175 198 0
173 196 0
173 196 0
174 198 0
174 198 0
175 198 0
175 198 0
174 198 0
175 198 0
174 198 0
175 198 0
174 197 0
175 198 0
174 198 0
175 198 0
173 197 0
173 197 0
174 198 0
175 198 0
176 199 0
174 198 0
174 197 0
174 197 0
175 198 0
175 198 0
173 197 0
174 197 0
175 198 0
173 197 0
175 198 0
174 197 0
175 198 0
173 197 0
175 198 0
174 198 0
174 197 0
174 198 0
173 197 0
174 197 0
174 198 0
174 198 0
175 198 0
175 198 0
175 198 0
173 197 0
175 198 0
174 198 0
172 196 0
174 198 0
175 198 0
175 198 0
175 198 0
175 198 0
174 197 0
174 197 0
175 198 0
174 197 0
175 198 0
175 198 0
173 197 0
174 198 0
175 198 0
174 198 0
173 197 0
175 198 0
174 198 0
174 198 0
174 198 0
176 198 0
173 197 0
174 198 0
174 198 0
176 199 0
176 198 0
174 198 0
174 198 0
172 196 0
174 197 0
174 198 0
173 197 0
175 198 0
174 198 0
175 198 0
175 198 0
176 198 0
174 197 0
175 198 0
177 199 0
174 198 0
174 197 0
175 198 0
172 197 0
174 198 0
174 198 0
174 198 0
176 198 0
175 198 0
174 198 0
175 198 0
174 198 0
175 198 0
174 197 0
173 197 0
175 198 0
177 199 0
175 198 0
174 198 0
176 198 0
175 198 0
176 198 0
173 197 0
175 198 0
174 197 0
175 198 0
174 198 0
174 198 0
174 198 0
174 198 0
173 197 0
176 199 0
173 197 0
175 198 25
180 202 84
195 213 149
215 229 214
219 232 230
229 240 255
229 240 255
229 240 255
229 240 255
228 240 255
228 240 255
228 240 255
228 240 255
228 240 255
228 240 255
228 240 255
228 240 255
228 240 255
228 240 255
228 240 255
228 239 255
228 239 255
228 239 255
228 239 255
228 239 255
228 239 255
228 239 255
228 239 255
228 239 255
228 239 255
228 239 255
228 239 255
228 239 255
228 239 255
228 239 255
228 239 255
228 239 255
228 239 255
228 239 255
228 239 255
228 239 255
228 239 255
228 239 255
228 239 255
228 239 255
228 239 255
228 239 255
228 239 255
228 239 255
228 239 255
228 239 255
228 239 255
228 239 255
228 239 255
228 239 255
228 240 255
228 240 255
228 240 255
228 240 255
228 240 255
228 240 255
228 240 255
228 240 255
228 240 255
228 240 255
229 240 255
229 240 255
229 240 255
229 240 255
229 240 255
224 236 244
217 231 221
204 220 182
187 208 120
181 203 80
174 198 0
174 197 0
174 197 0
174 198 0
174 198 0
174 198 0
174 198 0
175 198 0
176 199 0
174 198 0
174 197 0
174 198 0
175 198 0
175 198 0
173 197 0
174 198 0
175 198 0
174 198 0
174 197 0
175 198 0
175 198 0
176 198 0
174 197 0
176 199 0
174 198 0
174 198 0
174 198 0
175 198 0
174 197 0
175 198 0
174 198 0
174 198 0
174 198 0
175 198 0
175 198 0
176 199 0
176 198 0
174 198 0
174 198 0
174 198 0
175 198 0
174 198 0
172 197 0
174 197 0
174 198 0
175 198 0
175 198 0
173 197 0
176 198 0
175 198 0
175 198 0
173 197 0
176 199 0
175 198 0
174 197 0
174 198 0
173 197 0
176 198 0
177 199 0
175 198 0
174 198 0
175 198 0
174 198 0
174 197 0
175 198 0
174 198 0
174 198 0
174 198 0
174 198 0
174 198 0
175 198 0
174 198 0
175 198 0
174 197 0
175 198 0
175 198 0
174 198 0
174 197 0
174 197 0
172 196 0
175 198 0
173 197 0
174 198 0
174 198 0
175 198 0
174 197 0
175 198 0
174 197 0
175 198 0
173 197 0
175 198 0
176 199 0
175 198 0
174 198 0
175 198 0
176 198 0
176 199 0
174 198 0
173 197 0
174 197 0
174 198 0
176 199 0
174 198 0
174 198 0
173 197 0
175 198 0
172 197 0
174 197 0
173 197 0
176 199 0
175 198 0
173 197 0
175 198 0
175 198 0
174 197 0
175 198 0
174 198 0
174 198 0
173 197 0
176 199 0
176 199 0
174 198 0
174 197 0
175 198 0
175 198 0
173 197 0
173 197 0
174 197 0
175 198 0
176 199 0
173 197 0
175 198 0
174 197 0
172 196 0
175 198 0
173 197 0
173 197 0
176 199 0
172 197 0
173 197 0
175 198 0
175 198 0
174 198 0
175 197 0
175 198 0
175 198 0
174 197 0
174 198 0
176 199 0
175 198 0
174 198 0
173 196 0
175 198 0
174 197 0
173 197 0
173 197 0
172 196 0
174 197 0
175 198 0
173 197 0
175 198 0
173 197 0
174 197 0
175 198 0
173 196 0
175 198 0
173 197 0
174 198 0
174 197 0
175 198 0
173 197 0
174 198 0
175 198 0
172 196 0
174 198 0
174 198 0
174 197 0
176 198 0
174 197 0
173 197 0
173 196 0
173 197 0
173 197 0
174 198 0
173 197 0
175 198 0
174 197 0
174 197 0
174 198 0
174 197 0
176 198 0
174 197 0
174 198 0
174 198 0
175 198 0
174 198 0
173 197 0
174 198 0
173 197 0
173 196 0
173 197 0
173 197 0
175 198 0
175 198 0
175 198 0
174 198 0
174 197 0
175 198 0
175 198 0
176 199 0
176 198 0
174 197 0
175 198 0
174 198 0
174 198 0
174 198 0
173 197 0
174 197 0
174 198 0
174 198 0
174 197 0
175 198 0
176 199 0
174 198 0
174 197 0
175 198 0
176 199 0
173 197 0
172 197 0
175 198 0
175 198 0
174 198 0
175 198 0
176 199 0
175 198 0
175 198 0
174 198 0
175 198 0
175 198 0
175 198 0
174 198 0
175 198 0
174 197 0
174 198 0
174 198 0
174 197 0
174 198 0
173 197 0
175 198 0
173 197 0
175 198 0
175 198 0
176 199 0
174 198 0
176 198 0
173 197 0
172 197 0
173 197 0
174 198 0
174 198 0
174 198 0
174 198 0
171 195 0
174 198 0
174 198 0
176 198 0
173 197 0
175 198 0
175 198 0
175 198 0
173 197 0
175 198 0
175 198 0
173 197 0
175 198 0
175 198 0
175 198 0
174 198 0
176 199 0
174 198 0
175 198 0
176 198 0
174 198 0
174 198 0
175 198 0
176 199 0
174 198 0
174 197 0
173 197 0
174 198 0
174 198 0
175 198 0
174 198 0
175 198 0
175 198 0
174 198 0
173 197 0
174 198 0
175 198 0
175 198 0
175 198 0
177 199 0
175 198 0
175 198 0
174 198 0
175 198 0
174 198 0
175 198 0
175 198 0
175 198 0
175 198 0
175 198 0
174 198 0
173 197 0
175 198 0
175 198 0
174 198 0
174 198 0
175 198 0
175 198 0
173 197 0
176 199 0
173 197 0
174 198 0
174 197 0
173 197 0
176 198 0
175 198 0
174 198 0
176 198 0
177 200 57
192 211 140
203 219 173
218 231 226
226 238 248
229 240 255
229 240 255
229 240 255
229 240 255
228 240 255
228 240 255
228 240 255
228 240 255
228 240 255
228 240 255
228 240 255
228 240 255
228 240 255
228 240 255
228 240 255
228 239 255
228 239 255
228 239 255
228 239 255
228 239 255
228 239 255
228 239 255
228 239 255
228 239 255
228 239 255
228 239 255
228 239 255
228 239 255
228 239 255
228 239 255
228 239 255
228 239 255
228 239 255
228 239 255
228 239 255
228 239 255
228 239 255
228 239 255
228 239 255
228 239 255
228 240 255
228 240 255
228 240 255
228 240 255
228 240 255
228 240 255
228 240 255
228 240 255
228 240 255
228 240 255
229 240 255
229 240 255
229 240 255
229 240 255
229 240 255
228 239 253
222 234 237
206 221 188
199 216 163
186 207 111
176 199 25
174 198 0
176 198 0
173 197 0
174 197 0
176 198 0
175 198 0
175 198 0
176 199 0
175 198 0
175 198 0
175 198 0
173 197 0
174 198 0
175 198 0
175 198 0
175 198 0
174 197 0
174 198 0
175 198 0
176 198 0
174 197 0
174 198 0
176 198 0
176 198 0
174 198 0
176 199 0
175 198 0
175 198 0
175 198 0
172 197 0
175 198 0
174 198 0
173 197 0
174 198 0
175 198 0
176 199 0
173 197 0
173 197 0
174 198 0
173 197 0
176 199 0
174 198 0
173 197 0
174 198 0
174 198 0
176 198 0
174 198 0
173 197 0
175 198 0
175 198 0
176 199 0
173 197 0
176 199 0
173 197 0
174 198 0
175 198 0
174 198 0
173 197 0
174 197 0
176 199 0
173 197 0
175 198 0
174 197 0
175 198 0
173 197 0
174 198 0
175 198 0
174 198 0
176 199 0
174 198 0
172 197 0
175 198 0
175 198 0
175 198 0
173 197 0
175 198 0
176 199 0
175 198 0
175 198 0
174 198 0
174 197 0
176 198 0
175 198 0
176 199 0
175 198 0
174 197 0
174 197 0
174 198 0
174 197 0
175 198 0
174 198 0
175 198 0
174 197 0
175 198 0
175 198 0
174 197 0
175 198 0
174 198 0
175 198 0
175 198 0
174 198 0
175 198 0
174 197 0
176 198 0
174 197 0
175 198 0
175 198 0
173 197 0
175 198 0
175 198 0
174 197 0
174 198 0
175 198 0
174 197 0
174 198 0
174 198 0
173 197 0
173 197 0
172 196 0
174 197 0
174 198 0
174 198 0
175 198 0
173 196 0
174 197 0
174 198 0
173 197 0
172 196 0
174 198 0
176 198 0
175 198 0
175 198 0
176 198 0
174 198 0
174 198 0
175 198 0
173 197 0
174 197 0
174 198 0
173 197 0
174 198 0
175 198 0
175 198 0
175 197 0
174 198 0
172 196 0
174 198 0
174 197 0
173 196 0
173 197 0
174 198 0
174 197 0
175 198 0
176 198 0
174 197 0
174 198 0
173 197 0
172 196 0
173 197 0
175 198 0
174 197 0
174 197 0
174 198 0
172 196 0
175 198 0
175 198 0
174 197 0
173 196 0
174 197 0
174 198 0
174 197 0
172 197 0
175 198 0
174 197 0
173 197 0
176 199 0
174 198 0
173 196 0
173 197 0
172 195 0
175 198 0
174 198 0
173 197 0
174 197 0
174 198 0
174 198 0
174 197 0
174 197 0
175 198 0
174 197 0
175 198 0
175 198 0
173 197 0
173 197 0
175 198 0
174 198 0
174 198 0
173 197 0
176 198 0
174 198 0
175 198 0
174 198 0
173 197 0
174 198 0
175 198 0
174 197 0
174 198 0
172 197 0
175 198 0
175 198 0
174 198 0
174 198 0
175 198 0
174 198 0
174 197 0
176 198 0
173 197 0
175 198 0
174 198 0
174 198 0
174 197 0
173 197 0
175 198 0
174 198 0
174 198 0
173 197 0
174 197 0
174 198 0
174 197 0
174 198 0
175 198 0
175 198 0
174 197 0
175 198 0
174 197 0
174 198 0
175 198 0
174 198 0
174 197 0
175 198 0
174 198 0
175 198 0
174 198 0
175 198 0
175 198 0
174 198 0
173 197 0
173 197 0
174 198 0
176 198 0
174 197 0
176 198 0
175 198 0
176 199 0
174 198 0
175 198 0
174 197 0
174 198 0
177 199 0
174 197 0
173 197 0
173 197 0
175 198 0
173 197 0
173 197 0
174 198 0
176 199 0
174 198 0
174 197 0
175 198 0
175 198 0
173 197 0
175 198 0
175 198 0
174 198 0
173 197 0
176 198 0
174 198 0
175 198 0
174 198 0
174 198 0
176 199 0
174 198 0
175 198 0
175 198 0
175 198 0
176 199 0
173 197 0
174 198 0
174 198 0
176 198 0
174 198 0
175 198 0
174 197 0
174 197 0
174 198 0
175 198 0
175 198 0
175 198 0
174 198 0
175 198 0
176 199 0
175 198 0
174 198 0
174 197 0
177 199 0
175 198 0
173 197 0
173 197 0
176 199 0
176 199 0
173 197 0
174 198 0
174 198 0
175 198 0
174 198 0
175 198 0
176 199 0
173 197 0
174 198 0
174 198 0
177 199 0
175 198 0
175 198 0
174 198 0
173 197 0
174 198 0
175 198 0
175 198 0
173 197 0
175 198 0
172 197 0
173 197 0
174 198 0
176 199 0
174 197 0
175 198 0
175 198 0
176 199 25
184 205 99
198 216 161
212 227 207
221 234 234
228 239 254
229 240 255
229 240 255
229 240 255
229 240 255
229 240 255
228 240 255
228 240 255
228 240 255
228 240 255
228 240 255
228 240 255
228 240 255
228 240 255
228 240 255
228 240 255
228 239 255
228 239 255
228 239 255
228 239 255
228 239 255
228 239 255
228 239 255
228 239 255
228 239 255
228 239 255
228 239 255
228 239 255
228 239 255
228 239 255
228 239 255
228 240 255
228 240 255
228 240 255
228 240 255
228 240 255
228 240 255
228 240 255
228 240 255
228 240 255
228 240 255
229 240 255
229 240 255
229 240 255
229 240 255
229 240 255
229 240 255
226 238 248
216 230 221
201 218 173
186 206 111
179 202 76
175 198 0
175 198 0
175 198 0
177 199 0
174 197 0
174 198 0
175 198 0
175 198 0
175 198 0
176 198 0
175 198 0
174 197 0
174 198 0
174 198 0
174 198 0
173 197 0
176 199 0
173 197 0
175 198 0
175 198 0
174 198 0
175 198 0
174 198 0
174 198 0
173 197 0
175 198 0
174 198 0
175 198 0
173 197 0
173 197 0
175 198 0
175 198 0
174 197 0
174 198 0
174 197 0
174 197 0
175 198 0
175 198 0
173 197 0
174 198 0
174 198 0
174 198 0
174 198 0
174 198 0
174 197 0
174 198 0
174 197 0
175 198 0
173 197 0
173 197 0
172 197 0
176 199 0
173 197 0
175 198 0
173 197 0
174 197 0
175 198 0
174 198 0
174 197 0
175 198 0
174 198 0
174 198 0
176 199 0
174 198 0
175 198 0
176 198 0
173 197 0
176 198 0
174 197 0
175 198 0
173 197 0
176 199 0
176 198 0
174 198 0
176 198 0
175 198 0
174 197 0
173 197 0
174 197 0
176 199 0
173 197 0
174 197 0
175 198 0
174 198 0
174 198 0
173 197 0
175 198 0
172 196 0
175 198 0
176 199 0
174 198 0
174 198 0
174 197 0
174 197 0
175 198 0
176 199 0
175 198 0
175 198 0
174 197 0
174 197 0
174 197 0
175 198 0
175 198 0
174 198 0
176 199 0
174 198 0
175 198 0
176 198 0
174 198 0
174 197 0
175 198 0
175 198 0
174 197 0
177 199 0
175 198 0
174 197 0
175 198 0
176 198 0
175 198 0
175 198 0
174 197 0
173 197 0
175 198 0
174 197 0
174 198 0
174 197 0
175 198 0
173 197 0
174 198 0
176 198 0
174 198 0
174 198 0
175 198 0
174 197 0
174 198 0
175 198 0
173 197 0
174 198 0
173 197 0
176 198 0
174 198 0
174 198 0
173 197 0
172 196 0
175 198 0
174 197 0
174 198 0
175 198 0
175 198 0
175 198 0
173 197 0
173 197 0
173 197 0
175 198 0
175 198 0
173 197 0
174 198 0
174 197 0
173 197 0
173 197 0
175 198 0
173 197 0
173 197 0
175 198 0
174 197 0
173 197 0
172 196 0
176 198 0
173 196 0
175 197 0
173 196 0
174 197 0
176 198 0
174 198 0
172 195 0
176 199 0
174 198 0
174 197 0
175 198 0
174 197 0
174 197 0
174 198 0
175 198 0
173 197 0
172 196 0
175 198 0
173 197 0
176 198 0
173 197 0
174 197 0
172 197 0
173 197 0
169 192 16
171 191 30
174 193 32
174 196 16
175 198 0
176 198 0
174 197 0
172 196 0
173 197 0
174 198 0
174 198 0
175 198 0
172 196 0
174 198 0
172 196 0
175 198 0
174 198 0
174 198 0
176 199 0
173 197 0
175 198 0
174 197 0
174 198 0
174 198 0
174 198 0
174 197 0
174 197 0
175 198 0
173 197 0
174 197 0
173 197 0
174 198 0
175 198 0
175 198 0
175 198 0
176 198 0
174 198 0
176 199 0
173 197 0
173 197 0
173 197 0
175 198 0
174 198 0
174 197 0
173 197 0
174 197 0
174 197 0
174 198 0
176 199 0
174 198 0
175 198 0
174 198 0
174 197 0
175 198 0
175 198 0
174 197 0
175 198 0
173 197 0
172 197 0
174 197 0
175 198 0
176 198 0
176 199 0
176 199 0
173 197 0
174 197 0
173 197 0
173 197 0
176 199 0
175 198 0
174 198 0
175 198 0
174 198 0
175 198 0
174 197 0
175 198 0
174 198 0
177 199 0
174 198 0
173 197 0
174 197 0
175 198 0
175 198 0
173 197 0
175 198 0
176 198 0
174 197 0
175 198 0
175 198 0
174 198 0
174 198 0
176 199 0
175 198 0
176 198 0
175 198 0
174 198 0
175 198 0
175 198 0
174 198 0
172 196 0
174 198 0
174 198 0
175 198 0
174 198 0
175 198 0
174 198 0
174 198 0
174 198 0
174 197 0
173 197 0
175 198 0
174 197 0
174 197 0
174 198 0
172 196 0
174 197 0
175 198 0
176 199 0
174 198 0
174 197 0
174 198 0
175 198 0
174 198 0
175 198 0
176 199 0
174 197 0
174 198 0
176 198 0
175 198 0
175 198 0
174 198 0
173 197 0
173 197 0
174 198 0
177 199 0
174 198 0
174 197 0
174 198 0
174 198 0
176 198 0
173 197 0
175 198 0
175 198 0
176 199 0
174 198 0
175 198 0
173 197 0
174 198 0
174 197 0
174 198 0
175 198 0
175 198 0
175 198 0
174 197 0
174 198 0
175 198 0
179 201 62
192 211 137
205 221 188
215 229 217
224 236 244
229 240 255
229 240 255
229 240 255
229 240 255
229 240 255
229 240 255
228 240 255
228 240 255
228 240 255
228 240 255
228 240 255
228 240 255
228 240 255
228 240 255
228 240 255
228 240 255
228 239 255
228 239 255
228 239 255
228 239 255
228 239 255
228 240 255
228 240 255
228 240 255
228 240 255
228 240 255
228 240 255
228 240 255
228 240 255
228 240 255
228 240 255
229 240 255
229 240 255
229 240 255
229 240 255
229 240 255
229 240 255
228 239 254
219 232 227
209 224 196
195 213 151
187 207 111
174 198 0
176 199 0
176 198 0
175 198 0
175 198 0
173 197 0
175 198 0
176 199 0
173 197 0
175 198 0
173 197 0
176 198 0
175 198 0
173 197 0
174 197 0
174 197 0
173 197 0
174 197 0
174 198 0
175 198 0
173 197 0
177 199 0
174 198 0
175 198 0
174 198 0
175 198 0
175 198 0
175 198 0
174 198 0
175 198 0
174 198 0
175 198 0
176 198 0
174 198 0
174 198 0
175 198 0
174 198 0
175 198 0
174 198 0
175 198 0
176 198 0
175 198 0
174 198 0
175 198 0
175 198 0
174 198 0
175 198 0
174 198 0
174 198 0
174 197 0
174 198 0
174 198 0
175 198 0
175 198 0
173 197 0
175 198 0
175 198 0
176 199 0
174 198 0
175 198 0
175 198 0
174 198 0
173 197 0
172 197 0
175 198 0
174 198 0
174 198 0
174 198 0
175 198 0
174 198 0
175 198 0
174 197 0
175 198 0
174 197 0
175 198 0
174 197 0
176 198 0
175 198 0
176 198 0
175 198 0
174 198 0
175 198 0
175 198 0
175 198 0
174 198 0
174 198 0
174 198 0
174 198 0
174 198 0
173 196 0
174 198 0
175 198 0
173 197 0
175 198 0
172 197 0
174 198 0
174 197 0
174 197 0
173 197 0
173 197 0
175 198 0
174 198 0
173 197 0
174 198 0
176 198 0
174 198 0
174 197 0
173 197 0
172 196 0
174 197 0
172 196 0
174 197 0
175 198 0
175 198 0
174 198 0
173 197 0
175 198 0
175 198 0
175 198 0
176 198 0
175 198 0
174 198 0
174 198 0
174 198 0
173 197 0
174 198 0
174 198 0
174 198 0
174 198 0
175 198 0
173 197 0
175 197 0
175 198 0
174 198 0
174 198 0
174 197 0
173 197 0
174 197 0
174 198 0
174 197 0
174 198 0
175 198 0
174 198 0
177 199 0
173 197 0
175 198 0
173 197 0
174 198 0
176 198 0
173 197 0
175 198 0
172 196 0
173 196 0
175 198 0
173 197 0
173 197 0
174 197 0
174 197 0
174 197 0
173 196 0
175 198 0
171 196 0
173 197 0
174 197 0
170 194 0
175 198 0
173 197 0
175 198 0
171 196 0
175 198 0
174 196 0
174 197 0
174 197 0
172 195 0
175 198 0
174 197 0
174 197 0
175 198 0
174 198 0
173 197 0
173 197 0
174 197 0
174 198 0
175 198 0
173 196 0
174 198 0
174 197 0
173 197 0
173 197 0
173 197 0
174 198 0
175 198 0
174 197 0
173 195 0
162 175 57
145 149 66
142 142 75
151 144 90
143 138 90
141 135 87
153 146 95
149 143 87
150 152 75
156 166 61
173 192 34
173 197 0
175 198 0
175 198 0
174 197 0
174 197 0
175 198 0
175 198 0
174 197 0
175 198 0
174 198 0
172 197 0
173 196 0
175 198 0
174 198 0
174 198 0
175 198 0
175 198 0
173 197 0
174 198 0
173 197 0
173 197 0
175 198 0
173 197 0
174 198 0
175 198 0
174 198 0
173 197 0
174 198 0
174 197 0
174 197 0
176 199 0
175 198 0
175 198 0
174 198 0
175 198 0
176 199 0
175 198 0
172 196 0
175 198 0
174 198 0
175 198 0
174 198 0
175 198 0
174 197 0
175 198 0
173 197 0
173 197 0
174 197 0
175 198 0
174 198 0
174 198 0
174 198 0
173 197 0
174 198 0
175 198 0
175 198 0
175 198 0
174 197 0
175 198 0
174 198 0
173 197 0
174 198 0
174 198 0
174 198 0
175 198 0
175 198 0
176 199 0
175 198 0
175 198 0
177 199 0
175 198 0
174 198 0
174 197 0
174 198 0
174 198 0
176 198 0
175 198 0
174 198 0
175 198 0
175 198 0
173 197 0
175 198 0
175 198 0
174 198 0
175 198 0
174 198 0
173 197 0
175 198 0
175 198 0
174 197 0
173 197 0
175 198 0
174 198 0
174 197 0
173 197 0
174 197 0
175 198 0
174 198 0
175 198 0
176 199 0
176 198 0
174 198 0
175 198 0
174 198 0
175 198 0
175 198 0
175 198 0
174 198 0
175 198 0
173 197 0
175 198 0
173 197 0
173 197 0
176 198 0
174 198 0
175 198 0
174 198 0
176 199 0
174 197 0
175 198 0
174 198 0
175 198 0
174 198 0
173 197 0
175 198 0
174 198 0
175 198 0
174 198 0
174 198 0
174 198 0
176 198 0
173 197 0
174 198 0
175 198 0
175 198 0
174 198 0
176 199 0
174 198 0
175 198 0
175 198 0
175 198 0
173 197 0
174 198 0
176 199 0
176 199 0
176 199 0
174 198 0
174 198 0
175 198 0
174 198 0
175 198 0
174 197 0
174 198 0
183 205 99
192 211 133
207 222 191
220 233 233
228 239 254
229 240 255
229 240 255
229 240 255
229 240 255
229 240 255
229 240 255
228 240 255
228 240 255
228 240 255
228 240 255
228 240 255
228 240 255
228 240 255
228 240 255
228 240 255
228 240 255
228 240 255
228 240 255
228 240 255
228 240 255
228 240 255
228 240 255
229 240 255
229 240 255
229 240 255
229 240 255
229 240 255
229 240 255
228 239 253
219 232 230
203 220 179
193 212 144
180 202 76
175 198 0
173 197 0
175 198 0
175 198 0
175 198 0
175 198 0
175 198 0
175 198 0
174 198 0
173 197 0
174 198 0
176 198 0
174 198 0
172 197 0
175 198 0
174 198 0
174 198 0
174 198 0
175 198 0
174 198 0
175 198 0
174 198 0
175 198 0
174 198 0
173 197 0
175 198 0
174 198 0
173 197 0
174 198 0
174 198 0
174 197 0
173 197 0
174 197 0
173 197 0
174 197 0
175 198 0
174 198 0
174 198 0
176 199 0
174 198 0
174 197 0
175 198 0
175 198 0
175 198 0
174 198 0
175 198 0
174 198 0
172 197 0
174 198 0
174 198 0
176 198 0
175 198 0
173 197 0
175 198 0
173 197 0
174 198 0
175 198 0
175 198 0
175 198 0
174 198 0
174 198 0
175 198 0
174 198 0
175 198 0
175 198 0
174 198 0
175 198 0
176 198 0
174 198 0
174 197 0
174 198 0
174 198 0
175 198 0
175 198 0
172 197 0
174 198 0
174 198 0
174 198 0
176 198 0
175 198 0
174 198 0
174 198 0
175 198 0
174 198 0
174 198 0
174 197 0
175 198 0
175 198 0
174 198 0
173 197 0
177 199 0
174 198 0
174 198 0
176 198 0
174 197 0
174 198 0
174 198 0
175 198 0
175 198 0
175 198 0
174 198 0
173 197 0
174 197 0
175 198 0
174 198 0
174 198 0
173 197 0
173 197 0
174 197 0
174 198 0
175 198 0
175 198 0
174 198 0
174 197 0
175 198 0
173 197 0
174 197 0
176 199 0
174 197 0
174 198 0
174 197 0
174 198 0
176 199 0
173 197 0
174 198 0
175 198 0
174 197 0
173 197 0
174 197 0
173 197 0
173 197 0
175 198 0
173 197 0
175 198 0
175 198 0
175 198 0
173 197 0
174 197 0
174 197 0
174 198 0
174 197 0
174 197 0
173 197 0
175 198 0
173 197 0
174 197 0
173 196 0
174 197 0
174 197 0
174 197 0
172 196 0
174 197 0
174 197 0
174 197 0
175 198 0
174 198 0
174 197 0
174 198 0
173 197 0
175 198 0
172 196 0
174 197 0
175 198 0
174 198 0
174 198 0
172 196 0
177 199 0
173 196 0
174 197 0
176 199 0
174 196 0
174 197 0
175 198 0
174 198 0
174 197 0
171 195 0
175 198 0
172 195 0
173 197 0
170 193 0
175 198 0
175 198 0
172 196 0
174 197 0
174 197 0
174 197 0
175 198 0
173 196 0
176 199 0
171 195 0
174 197 0
172 196 0
174 197 0
173 196 0
173 196 0
170 192 16
155 165 57
146 144 80
141 136 84
151 146 95
151 147 97
154 148 97
150 145 95
159 154 101
150 146 96
148 143 94
153 149 97
151 146 95
149 143 90
148 153 63
162 180 36
174 198 0
176 199 0
174 197 0
173 197 0
174 197 0
174 198 0
174 198 0
173 196 0
174 198 0
174 198 0
172 196 0
175 198 0
173 197 0
175 198 0
174 198 0
173 197 0
174 197 0
176 199 0
174 198 0
173 196 0
174 198 0
173 197 0
173 197 0
174 197 0
175 198 0
174 198 0
175 198 0
175 198 0
174 198 0
173 197 0
174 197 0
174 198 0
175 198 0
176 199 0
174 198 0
175 198 0
173 197 0
174 198 0
175 198 0
172 196 0
174 198 0
174 197 0
174 197 0
176 198 0
174 198 0
175 198 0
176 198 0
175 198 0
174 198 0
176 199 0
175 198 0
174 197 0
176 198 0
175 198 0
174 198 0
173 197 0
175 198 0
175 198 0
174 197 0
174 198 0
174 197 0
176 199 0
175 198 0
175 198 0
174 198 0
174 198 0
174 197 0
175 198 0
174 198 0
174 198 0
173 197 0
176 199 0
174 198 0
174 198 0
176 199 0
175 198 0
175 198 0
175 198 0
176 198 0
175 198 0
175 198 0
175 198 0
174 197 0
175 198 0
175 198 0
174 198 0
173 197 0
173 197 0
175 198 0
173 197 0
174 198 0
175 198 0
174 198 0
172 197 0
173 197 0
175 198 0
174 198 0
174 198 0
174 198 0
174 198 0
174 197 0
173 197 0
173 197 0
175 198 0
173 197 0
174 198 0
176 199 0
174 197 0
174 197 0
177 199 0
174 197 0
174 198 0
173 197 0
174 198 0
175 198 0
176 199 0
176 199 0
174 198 0
175 198 0
175 198 0
174 198 0
175 198 0
175 198 0
174 197 0
173 197 0
175 198 0
174 198 0
175 198 0
174 197 0
175 198 0
175 198 0
175 198 0
174 198 0
174 198 0
174 197 0
175 198 0
174 198 0
175 198 0
174 198 0
174 198 0
175 198 0
175 198 0
176 199 0
175 198 0
173 197 0
175 198 0
175 198 0
175 198 0
177 199 0
175 198 0
174 198 0
175 198 0
175 198 0
174 198 0
175 198 0
178 200 51
187 207 117
205 221 181
216 229 220
228 239 253
229 240 255
229 240 255
229 240 255
229 240 255
229 240 255
229 240 255
228 240 255
228 240 255
228 240 255
228 240 255
228 240 255
228 240 255
229 240 255
229 240 255
229 240 255
229 240 255
229 240 255
229 240 255
229 240 255
229 240 255
223 236 241
213 227 209
200 217 169
188 208 122
176 199 51
175 198 0
174 198 0
173 197 0
175 198 0
174 197 0
175 198 0
174 198 0
174 198 0
174 198 0
176 199 0
174 197 0
175 198 0
175 198 0
173 197 0
175 198 0
173 197 0
177 199 0
173 197 0
175 198 0
175 198 0
173 197 0
174 197 0
175 198 0
173 197 0
173 197 0
176 199 0
174 198 0
173 197 0
173 197 0
173 197 0
174 198 0
174 198 0
175 198 0
175 198 0
175 198 0
175 198 0
174 197 0
175 198 0
175 198 0
174 198 0
175 198 0
174 198 0
175 198 0
174 198 0
177 199 0
175 198 0
176 199 0
176 199 0
176 198 0
175 198 0
174 197 0
175 198 0
173 197 0
173 197 0
174 198 0
175 198 0
174 198 0
174 198 0
175 198 0
174 198 0
175 198 0
174 198 0
174 197 0
174 198 0
174 197 0
176 198 0
175 198 0
174 197 0
174 197 0
175 198 0
174 198 0
174 198 0
172 197 0
176 198 0
174 198 0
175 198 0
174 198 0
174 198 0
175 198 0
175 198 0
174 198 0
174 198 0
175 198 0
174 198 0
173 197 0
173 197 0
176 199 0
174 197 0
176 199 0
175 198 0
173 197 0
174 198 0
173 197 0
174 198 0
173 197 0
175 198 0
174 197 0
173 197 0
173 197 0
175 198 0
174 198 0
174 197 0
174 198 0
174 198 0
175 198 0
173 197 0
176 198 0
174 198 0
174 198 0
174 197 0
175 198 0
173 197 0
173 197 0
175 198 0
176 198 0
176 199 0
174 198 0
172 197 0
174 197 0
175 198 0
174 198 0
174 198 0
174 198 0
176 198 0
175 198 0
173 197 0
176 199 0
172 196 0
175 198 0
174 198 0
174 197 0
174 198 0
175 198 0
174 197 0
176 198 0
175 198 0
175 198 0
175 198 0
174 197 0
175 198 0
174 197 0
174 198 0
174 198 0
174 198 0
174 198 0
172 196 0
174 197 0
175 198 0
174 197 0
175 198 0
174 197 0
176 198 0
173 196 0
172 196 0
175 198 0
174 197 0
175 198 0
173 197 0
174 197 0
173 197 0
176 199 0
173 196 0
173 197 0
173 197 0
174 197 0
173 197 0
175 198 0
172 196 0
173 196 0
174 198 0
172 196 0
175 198 0
170 194 0
173 196 0
174 197 0
173 197 0
175 198 0
172 195 0
173 196 0
174 197 0
173 197 0
173 197 0
175 198 0
171 194 0
175 198 0
174 197 0
172 195 0
174 197 0
173 197 0
176 198 0
175 198 0
174 197 0
175 198 0
173 196 0
173 196 0
175 198 0
175 198 0
174 197 0
162 181 30
142 142 71
149 142 89
150 145 93
160 154 99
155 150 99
154 151 100
161 156 103
158 154 103
148 146 97
154 151 101
157 152 101
150 147 97
165 160 105
156 151 99
154 147 93
143 138 81
151 161 54
175 197 11
174 197 0
174 197 0
173 197 0
175 198 0
173 197 0
174 198 0
175 198 0
173 197 0
172 196 0
173 197 0
175 198 0
175 198 0
174 197 0
174 197 0
173 197 0
174 197 0
172 196 0
175 197 0
174 198 0
174 197 0
175 198 0
174 198 0
174 198 0
175 198 0
174 197 0
173 197 0
174 197 0
174 197 0
174 198 0
175 198 0
176 198 0
174 198 0
173 197 0
175 198 0
175 198 0
173 197 0
174 198 0
174 198 0
173 197 0
174 197 0
174 198 0
175 198 0
175 198 0
174 198 0
174 197 0
177 199 0
175 198 0
175 198 0
174 198 0
175 198 0
175 198 0
174 197 0
174 197 0
174 197 0
174 198 0
174 197 0
174 197 0
173 197 0
174 197 0
176 199 0
175 198 0
175 198 0
174 197 0
173 197 0
174 197 0
175 198 0
176 199 0
174 198 0
175 198 0
175 198 0
174 198 0
174 197 0
175 198 0
173 197 0
174 197 0
173 197 0
175 198 0
174 198 0
175 198 0
174 198 0
173 197 0
174 198 0
174 198 0
175 198 0
174 198 0
176 199 0
173 197 0
175 198 0
175 198 0
175 198 0
175 198 0
174 198 0
176 199 0
174 198 0
175 198 0
175 198 0
176 199 0
175 198 0
174 197 0
174 197 0
175 198 0
174 197 0
175 198 0
175 198 0
175 198 0
175 198 0
174 198 0
176 199 0
174 198 0
175 198 0
174 198 0
175 198 0
173 197 0
173 197 0
173 197 0
173 197 0
175 198 0
174 198 0
174 198 0
175 198 0
174 197 0
174 198 0
176 198 0
174 198 0
174 197 0
175 198 0
174 198 0
175 198 0
174 198 0
175 198 0
173 197 0
176 198 0
174 197 0
176 199 0
174 198 0
175 198 0
176 199 0
175 198 0
174 198 0
174 197 0
174 198 0
175 198 0
176 198 0
175 198 0
174 197 0
173 197 0
175 198 0
177 199 0
174 197 0
173 197 0
174 198 0
174 197 0
173 197 0
176 199 0
175 198 0
174 198 0
175 198 0
177 200 44
188 208 122
200 217 171
210 225 203
222 235 238
229 240 255
229 240 255
229 240 255
229 240 255
229 240 255
229 240 255
229 240 255
228 240 255
229 240 255
229 240 255
229 240 255
228 239 253
220 233 231
208 224 196
201 218 171
186 207 117
173 197 0
176 199 0
174 198 0
175 198 0
174 197 0
175 198 0
175 198 0
175 198 0
175 198 0
175 198 0
175 198 0
175 198 0
175 198 0
175 198 0
175 198 0
175 198 0
174 198 0
175 198 0
174 198 0
174 198 0
173 197 0
174 198 0
174 197 0
173 197 0
173 197 0
174 198 0
173 197 0
175 198 0
173 197 0
176 198 0
176 198 0
175 198 0
174 198 0
175 198 0
174 198 0
174 198 0
175 198 0
175 198 0
174 198 0
175 198 0
173 197 0
173 197 0
174 197 0
173 197 0
174 198 0
174 198 0
174 198 0
176 198 0
174 197 0
175 198 0
174 198 0
175 198 0
173 197 0
175 198 0
174 198 0
174 198 0
174 197 0
174 197 0
176 198 0
176 199 0
175 198 0
175 198 0
176 199 0
175 198 0
175 198 0
176 198 0
175 198 0
174 197 0
174 198 0
175 198 0
175 198 0
175 198 0
175 198 0
175 198 0
174 198 0
175 198 0
175 198 0
175 198 0
175 198 0
174 198 0
176 199 0
173 197 0
176 199 0
175 198 0
174 197 0
175 198 0
173 197 0
175 198 0
174 198 0
175 198 0
175 198 0
176 198 0
174 197 0
174 198 0
175 198 0
175 198 0
175 198 0
175 198 0
173 197 0
175 198 0
175 198 0
175 198 0
173 197 0
174 198 0
174 198 0
172 197 0
174 197 0
175 198 0
174 197 0
175 198 0
175 198 0
174 198 0
175 198 0
174 198 0
175 198 0
175 198 0
173 197 0
174 197 0
175 198 0
173 197 0
175 198 0
174 197 0
175 198 0
173 197 0
173 197 0
174 198 0
174 198 0
174 198 0
176 199 0
173 197 0
174 198 0
174 197 0
175 198 0
174 197 0
172 197 0
175 198 0
176 199 0
171 195 0
174 197 0
175 198 0
175 198 0
174 198 0
173 197 0
174 197 0
175 198 0
175 198 0
174 197 0
174 197 0
175 198 0
173 197 0
174 198 0
172 197 0
174 197 0
175 198 0
174 198 0
175 198 0
175 198 0
173 197 0
173 197 0
174 197 0
174 198 0
174 197 0
173 197 0
175 198 0
172 196 0
173 197 0
174 197 0
175 198 0
175 198 0
174 197 0
174 198 0
172 195 0
174 197 0
174 198 0
175 198 0
173 197 0
174 197 0
175 198 0
174 197 0
175 198 0
175 198 0
170 194 0
174 198 0
174 197 0
173 196 0
174 197 0
173 196 0
172 196 0
172 195 0
173 196 0
175 198 0
175 198 0
174 197 0
173 196 0
176 198 0
173 196 0
172 196 0
171 195 0
173 197 0
171 195 0
173 197 0
173 197 0
160 176 39
134 128 76
136 131 82
162 155 98
161 157 103
158 153 100
165 162 108
159 156 104
153 150 100
160 158 105
164 161 108
152 151 101
158 155 103
163 159 106
158 154 102
162 159 105
150 146 95
150 145 95
150 142 87
150 155 64
173 196 11
174 197 0
175 198 0
173 196 0
174 197 0
175 198 0
175 198 0
174 197 0
173 197 0
174 197 0
173 197 0
175 198 0
175 198 0
172 196 0
173 197 0
174 197 0
174 198 0
175 198 0
174 197 0
174 197 0
174 197 0
175 198 0
175 198 0
175 198 0
174 198 0
174 198 0
177 199 0
172 197 0
175 198 0
173 197 0
174 198 0
175 198 0
175 198 0
174 198 0
174 197 0
174 197 0
174 198 0
174 198 0
175 198 0
176 199 0
173 197 0
176 198 0
173 197 0
173 197 0
174 198 0
175 198 0
174 198 0
174 198 0
176 199 0
175 198 0
175 198 0
174 198 0
176 199 0
173 197 0
175 198 0
174 197 0
173 197 0
174 198 0
176 198 0
175 198 0
175 198 0
177 199 0
175 198 0
174 198 0
174 198 0
174 198 0
175 198 0
175 198 0
173 197 0
176 199 0
175 198 0
175 198 0
175 198 0
174 198 0
174 198 0
175 198 0
175 198 0
174 198 0
172 197 0
174 198 0
176 198 0
175 198 0
174 197 0
174 198 0
175 198 0
175 198 0
175 198 0
175 198 0
174 198 0
175 198 0
173 197 0
175 198 0
174 198 0
173 197 0
172 197 0
175 198 0
174 197 0
174 198 0
175 198 0
174 198 0
175 198 0
176 199 0
176 198 0
175 198 0
175 198 0
176 199 0
174 198 0
175 198 0
173 197 0
175 198 0
176 198 0
175 198 0
177 199 0
174 197 0
175 198 0
174 197 0
174 198 0
175 198 0
174 197 0
176 199 0
174 198 0
173 197 0
175 198 0
174 198 0
175 198 0
174 197 0
175 198 0
176 199 0
175 198 0
174 197 0
174 198 0
176 199 0
175 198 0
174 198 0
176 199 0
175 198 0
175 198 0
175 198 0
176 199 0
175 198 0
175 198 0
175 198 0
173 197 0
174 198 0
175 198 0
174 198 0
173 197 0
176 198 0
174 198 0
176 199 0
177 199 0
172 197 0
175 198 0
176 198 0
175 198 0
175 198 0
174 198 0
175 198 0
176 198 0
173 197 0
175 198 0
175 198 0
185 206 102
194 213 147
212 227 207
218 231 224
228 239 254
229 240 255
229 240 255
229 240 255
216 230 223
207 222 191
193 212 144
178 201 67
175 198 0
175 198 0
175 198 0
174 198 0
175 198 0
173 197 0
175 198 0
173 197 0
174 198 0
175 198 0
174 198 0
174 198 0
174 197 0
174 198 0
174 198 0
173 197 0
175 198 0
176 199 0
174 198 0
174 198 0
176 199 0
175 198 0
174 198 0
174 198 0
175 198 0
174 197 0
173 197 0
174 198 0
172 197 0
175 198 0
174 197 0
175 198 0
175 198 0
174 198 0
175 198 0
175 198 0
175 198 0
173 197 0
175 198 0
175 198 0
174 198 0
175 198 0
173 197 0
174 198 0
174 198 0
174 198 0
173 197 0
175 198 0
175 198 0
176 198 0
175 198 0
174 198 0
173 197 0
175 198 0
177 199 0
175 198 0
173 197 0
174 198 0
175 198 0
174 198 0
174 198 0
173 197 0
174 198 0
174 198 0
175 198 0
174 198 0
173 197 0
175 198 0
174 198 0
176 199 0
173 197 0
176 199 0
174 197 0
174 197 0
176 199 0
175 198 0
173 197 0
173 197 0
175 198 0
173 197 0
175 198 0
173 197 0
174 198 0
176 198 0
174 198 0
174 197 0
175 198 0
175 198 0
175 198 0
175 198 0
173 197 0
174 198 0
175 198 0
173 197 0
174 198 0
174 197 0
174 197 0
174 198 0
175 198 0
174 198 0
174 198 0
174 198 0
174 198 0
173 197 0
175 198 0
177 199 0
173 197 0
174 198 0
174 198 0
174 198 0
174 197 0
174 197 0
175 198 0
176 199 0
174 198 0
173 197 0
173 197 0
175 198 0
176 198 0
174 198 0
174 198 0
174 198 0
175 198 0
175 198 0
174 197 0
174 198 0
175 198 0
176 199 0
175 198 0
177 199 0
174 198 0
175 198 0
175 198 0
175 198 0
176 198 0
175 198 0
173 197 0
172 196 0
175 198 0
174 197 0
175 198 0
173 197 0
173 197 0
175 198 0
175 198 0
175 198 0
173 197 0
173 197 0
173 197 0
174 198 0
173 197 0
174 198 0
174 197 0
175 198 0
175 197 0
173 197 0
174 198 0
172 196 0
174 197 0
173 197 0
175 198 0
173 197 0
174 197 0
175 198 0
175 198 0
174 198 0
175 198 0
174 197 0
176 199 0
173 197 0
174 197 0
175 197 0
174 197 0
172 196 0
171 195 0
174 197 0
175 198 0
174 198 0
175 198 0
174 198 0
173 197 0
174 197 0
173 196 0
172 196 0
172 196 0
173 196 0
171 195 0
173 197 0
173 196 0
175 198 0
173 197 0
175 198 0
173 197 0
172 196 0
174 197 0
173 196 0
173 197 0
173 197 0
171 195 0
173 196 0
172 196 0
172 196 0
174 198 0
175 197 0
173 196 0
152 167 37
136 130 76
151 146 90
157 152 97
160 154 98
163 158 103
157 153 101
157 155 103
159 157 103
161 159 106
159 157 105
158 156 104
155 152 101
161 158 106
161 158 105
159 157 104
158 153 101
149 146 97
149 145 93
148 142 90
141 136 80
150 153 70
172 196 0
176 199 0
173 197 0
173 197 0
174 197 0
173 196 0
175 198 0
175 198 0
174 196 0
174 197 0
176 199 0
174 197 0
175 198 0
174 198 0
175 197 0
174 198 0
173 197 0
173 197 0
177 199 0
175 198 0
174 197 0
173 197 0
172 196 0
172 196 0
173 196 0
174 197 0
173 196 0
174 197 0
175 198 0
173 197 0
173 196 0
174 197 0
176 198 0
176 199 0
174 197 0
174 197 0
174 197 0
175 198 0
174 197 0
176 199 0
175 198 0
173 197 0
175 198 0
175 198 0
174 198 0
176 199 0
176 198 0
174 197 0
174 198 0
174 197 0
175 198 0
174 197 0
174 198 0
173 196 0
174 198 0
174 197 0
172 197 0
175 198 0
173 197 0
175 198 0
174 198 0
173 197 0
176 199 0
174 197 0
174 198 0
174 198 0
175 198 0
174 198 0
173 197 0
174 198 0
175 198 0
174 197 0
174 198 0
175 198 0
175 198 0
176 198 0
176 199 0
175 198 0
174 198 0
175 198 0
174 197 0
172 197 0
175 198 0
175 198 0
175 198 0
175 198 0
174 198 0
175 198 0
175 198 0
175 198 0
174 198 0
175 198 0
176 199 0
175 198 0
175 198 0
175 198 0
174 197 0
175 198 0
175 198 0
175 198 0
174 197 0
174 197 0
176 199 0
174 198 0
174 198 0
174 197 0
174 197 0
174 198 0
174 198 0
175 198 0
174 197 0
177 199 0
175 198 0
174 198 0
173 197 0
174 198 0
175 198 0
175 198 0
173 197 0
175 198 0
174 197 0
175 198 0
175 198 0
176 199 0
174 198 0
174 198 0
175 198 0
175 198 0
175 198 0
174 197 0
174 198 0
174 198 0
176 199 0
173 197 0
175 198 0
174 198 0
174 198 0
175 198 0
175 198 0
174 198 0
174 198 0
177 199 0
174 198 0
175 198 0
174 198 0
176 199 0
175 198 0
175 198 0
176 199 0
173 197 0
173 197 0
175 198 0
175 198 0
174 198 0
176 199 0
175 198 0
175 198 0
174 197 0
175 198 0
175 198 0
175 198 0
175 198 0
175 198 0
175 198 0
175 198 0
177 199 44
193 212 142
199 217 169
214 228 214
175 198 0
174 197 0
175 198 0
174 198 0
173 197 0
173 197 0
175 198 0
174 198 0
174 198 0
174 197 0
175 198 0
174 198 0
173 197 0
176 199 0
174 198 0
174 198 0
173 197 0
174 198 0
175 198 0
174 198 0
175 198 0
173 197 0
174 198 0
175 198 0
174 197 0
175 198 0
175 198 0
174 197 0
175 198 0
174 198 0
174 197 0
175 198 0
174 198 0
176 199 0
173 197 0
176 198 0
175 198 0
175 198 0
174 198 0
176 199 0
177 199 0
174 198 0
177 199 0
174 197 0
176 199 0
176 199 0
174 198 0
175 198 0
174 198 0
175 198 0
175 198 0
173 197 0
174 198 0
173 197 0
174 198 0
173 197 0
174 198 0
175 198 0
174 197 0
173 197 0
175 198 0
174 198 0
176 199 0
175 198 0
174 198 0
175 198 0
175 198 0
176 198 0
172 197 0
175 198 0
176 198 0
174 197 0
174 198 0
174 197 0
175 198 0
175 198 0
174 198 0
174 198 0
175 198 0
174 197 0
174 198 0
175 198 0
175 198 0
175 198 0
175 198 0
174 198 0
175 198 0
174 197 0
175 198 0
173 197 0
175 198 0
174 198 0
174 198 0
175 198 0
174 198 0
176 199 0
173 197 0
175 198 0
174 197 0
176 198 0
175 198 0
175 198 0
175 198 0
174 197 0
175 198 0
175 198 0
173 197 0
174 198 0
174 197 0
176 199 0
174 198 0
173 197 0
175 198 0
175 198 0
174 198 0
176 199 0
174 198 0
176 198 0
174 198 0
174 197 0
174 198 0
175 198 0
174 198 0
175 198 0
174 197 0
174 198 0
172 197 0
174 197 0
175 198 0
174 197 0
174 198 0
174 198 0
174 197 0
175 198 0
173 197 0
174 197 0
175 198 0
173 197 0
175 198 0
171 195 0
173 197 0
174 197 0
175 198 0
174 197 0
174 197 0
174 198 0
175 198 0
175 198 0
173 197 0
174 198 0
174 197 0
176 198 0
174 198 0
173 197 0
174 197 0
176 199 0
174 197 0
176 198 0
174 197 0
174 197 0
174 198 0
173 197 0
173 197 0
174 198 0
174 197 0
173 197 0
175 197 0
173 197 0
173 197 0
174 198 0
173 196 0
174 197 0
175 198 0
172 196 0
174 197 0
174 197 0
174 198 0
174 198 0
170 194 0
173 197 0
175 198 0
172 196 0
172 196 0
173 197 0
175 198 0
173 197 0
174 198 0
175 198 0
174 197 0
174 197 0
174 197 0
174 197 0
172 196 0
175 198 0
174 197 0
174 197 0
173 196 0
173 196 0
171 194 0
172 196 0
173 196 0
173 197 0
173 196 0
174 196 0
174 196 0
170 193 0
174 197 0
171 195 0
168 186 32
146 140 74
153 148 88
149 144 88
150 146 95
159 155 101
164 159 105
163 160 106
161 158 104
162 160 107
161 159 106
166 163 109
160 158 106
166 164 109
161 159 106
158 156 104
161 158 105
164 161 107
159 155 102
166 160 103
159 153 98
152 148 91
158 150 93
151 162 54
173 197 0
173 196 0
173 197 0
173 197 0
174 198 0
173 197 0
175 198 0
174 196 0
174 197 0
174 197 0
174 197 0
174 197 0
175 197 0
175 198 0
175 198 0
174 197 0
172 196 0
173 197 0
176 198 0
175 198 0
176 198 0
174 198 0
174 197 0
173 197 0
173 196 0
173 197 0
175 198 0
174 198 0
174 198 0
176 198 0
173 197 0
173 197 0
173 197 0
174 197 0
174 198 0
174 198 0
175 198 0
175 198 0
175 198 0
175 198 0
175 198 0
174 197 0
173 197 0
175 198 0
174 197 0
175 198 0
173 196 0
175 198 0
172 197 0
174 198 0
176 198 0
174 197 0
174 198 0
174 198 0
175 198 0
175 198 0
172 197 0
174 198 0
174 197 0
175 198 0
175 198 0
174 197 0
174 198 0
175 198 0
174 197 0
175 198 0
174 198 0
173 197 0
174 197 0
175 198 0
174 197 0
174 198 0
175 198 0
174 197 0
175 198 0
174 198 0
175 198 0
176 199 0
175 198 0
174 198 0
175 198 0
174 198 0
175 198 0
174 197 0
176 199 0
176 198 0
175 198 0
175 198 0
175 198 0
175 198 0
174 198 0
173 197 0
174 198 0
174 198 0
176 198 0
174 197 0
175 198 0
175 198 0
174 198 0
175 198 0
174 198 0
174 198 0
174 197 0
176 199 0
174 198 0
175 198 0
174 197 0
174 197 0
175 198 0
176 199 0
176 199 0
175 198 0
172 197 0
176 199 0
174 197 0
173 197 0
176 198 0
175 198 0
175 198 0
175 198 0
173 197 0
175 198 0
173 197 0
175 198 0
174 198 0
173 197 0
175 198 0
173 197 0
174 198 0
175 198 0
175 198 0
174 197 0
177 199 0
174 198 0
175 198 0
174 198 0
174 198 0
175 198 0
174 197 0
175 198 0
174 197 0
174 197 0
174 198 0
175 198 0
173 197 0
175 198 0
175 198 0
174 198 0
175 198 0
176 199 0
174 198 0
173 197 0
175 198 0
176 199 0
173 197 0
176 199 0
173 197 0
173 197 0
175 198 0
172 196 0
175 198 0
174 198 0
174 198 0
174 198 0
174 198 0
175 198 0
174 198 0
175 198 0
173 197 0
174 198 0
173 197 0
175 198 0
174 198 0
175 198 0
174 198 0
175 198 0
174 197 0
175 198 0
175 198 0
176 198 0
175 198 0
174 197 0
174 197 0
176 198 0
176 199 0
175 198 0
175 198 0
173 197 0
176 199 0
174 198 0
174 197 0
174 198 0
173 197 0
174 198 0
175 198 0
173 197 0
173 197 0
173 196 0
175 198 0
175 198 0
174 197 0
175 198 0
173 197 0
175 198 0
175 198 0
174 197 0
174 197 0
176 199 0
175 198 0
174 198 0
175 198 0
175 198 0
174 198 0
174 198 0
175 198 0
175 198 0
173 197 0
173 197 0
175 198 0
174 198 0
175 198 0
173 197 0
174 198 0
174 197 0
173 197 0
175 198 0
174 197 0
173 197 0
174 198 0
174 197 0
174 198 0
175 198 0
174 198 0
174 198 0
175 198 0
174 197 0
174 198 0
178 200 0
177 199 0
175 198 0
174 198 0
175 198 0
175 198 0
176 199 0
174 198 0
176 199 0
173 197 0
174 198 0
174 198 0
174 197 0
176 198 0
174 198 0
174 198 0
176 199 0
174 197 0
175 198 0
173 197 0
175 198 0
176 199 0
174 197 0
174 197 0
174 197 0
177 199 0
174 197 0
175 198 0
173 197 0
176 199 0
176 198 0
174 197 0
174 198 0
175 198 0
174 197 0
175 198 0
173 197 0
173 197 0
174 198 0
174 198 0
175 198 0
175 198 0
174 198 0
174 198 0
175 198 0
176 199 0
173 197 0
173 197 0
173 197 0
173 197 0
174 198 0
174 198 0
175 198 0
176 198 0
174 198 0
174 197 0
174 197 0
176 198 0
175 198 0
175 198 0
174 198 0
176 199 0
175 198 0
175 198 0
174 198 0
174 197 0
174 197 0
175 198 0
174 198 0
176 199 0
175 198 0
175 198 0
175 198 0
174 198 0
175 198 0
175 198 0
174 197 0
175 198 0
175 198 0
174 197 0
175 198 0
173 197 0
175 198 0
173 197 0
176 198 0
173 197 0
174 198 0
175 198 0
173 197 0
175 197 0
173 197 0
174 197 0
175 198 0
174 197 0
173 197 0
175 198 0
172 196 0
175 198 0
172 196 0
174 197 0
173 197 0
174 197 0
174 198 0
172 197 0
175 198 0
174 198 0
173 196 0
168 192 0
174 197 0
173 196 0
174 197 0
173 197 0
173 197 0
174 197 0
170 193 0
173 197 0
172 196 0
174 198 0
175 198 0
171 196 0
174 197 0
174 197 0
173 197 0
175 198 0
174 197 0
176 198 0
172 195 0
173 197 0
174 196 0
174 198 0
171 195 0
172 195 0
173 197 0
171 194 0
175 198 0
170 193 0
173 196 0
172 195 0
169 190 22
134 133 64
145 139 84
148 144 90
155 149 95
151 147 95
158 155 100
156 153 100
164 161 108
171 167 111
162 160 107
168 164 109
166 164 109
164 162 108
166 164 109
163 160 107
164 161 108
165 162 108
165 162 108
162 158 105
163 159 103
163 158 102
153 149 93
139 135 78
143 137 82
168 187 30
175 198 0
173 197 0
174 197 0
175 198 0
175 198 0
174 197 0
173 197 0
173 196 0
174 197 0
175 198 0
174 197 0
173 197 0
174 197 0
174 198 0
175 198 0
174 197 0
174 198 0
174 197 0
174 198 0
173 196 0
174 197 0
174 197 0
173 197 0
173 197 0
174 197 0
175 198 0
173 197 0
175 198 0
174 197 0
175 198 0
174 197 0
174 198 0
174 198 0
174 197 0
175 198 0
174 198 0
174 198 0
173 197 0
174 197 0
175 198 0
174 198 0
173 197 0
174 198 0
174 198 0
174 197 0
175 198 0
173 197 0
174 197 0
175 198 0
174 198 0
173 197 0
175 198 0
174 197 0
174 197 0
174 197 0
174 197 0
173 197 0
173 197 0
174 198 0
172 197 0
174 198 0
175 198 0
174 198 0
175 198 0
175 198 0
174 197 0
174 198 0
175 198 0
174 198 0
175 198 0
175 198 0
176 198 0
174 197 0
175 198 0
173 197 0
173 197 0
175 198 0
174 198 0
174 198 0
175 198 0
175 198 0
174 198 0
175 198 0
175 198 0
172 197 0
174 198 0
175 198 0
174 198 0
174 198 0
174 197 0
175 198 0
173 197 0
175 198 0
175 198 0
174 197 0
172 197 0
174 197 0
176 198 0
175 198 0
173 197 0
176 199 0
174 198 0
173 197 0
174 198 0
174 197 0
174 197 0
176 199 0
175 198 0
176 198 0
174 198 0
174 198 0
174 198 0
175 198 0
175 198 0
176 198 0
174 198 0
173 197 0
177 199 0
174 198 0
175 198 0
175 198 0
175 198 0
175 198 0
175 198 0
173 197 0
175 198 0
174 197 0
174 198 0
174 198 0
174 198 0
175 198 0
176 198 0
175 198 0
175 198 0
174 198 0
175 198 0
176 199 0
175 198 0
173 197 0
175 198 0
175 198 0
175 198 0
173 197 0
173 197 0
175 198 0
175 198 0
174 198 0
175 198 0
175 198 0
173 197 0
173 197 0
176 198 0
175 198 0
174 198 0
175 198 0
174 198 0
176 198 0
175 198 0
174 198 0
177 199 0
175 198 0
173 197 0
175 198 0
175 198 0
175 198 0
175 198 0
175 198 0
174 198 0
173 197 0
175 198 0
175 198 0
174 197 0
173 197 0
174 197 0
174 197 0
174 197 0
173 197 0
175 198 0
174 198 0
174 198 0
174 198 0
172 197 0
175 198 0
175 198 0
172 197 0
174 198 0
175 198 0
175 198 0
173 197 0
175 198 0
176 198 0
174 198 0
173 197 0
174 198 0
174 197 0
175 198 0
175 198 0
174 197 0
176 199 0
174 197 0
173 197 0
174 198 0
174 197 0
173 197 0
176 199 0
174 198 0
174 198 0
174 197 0
175 198 0
174 197 0
173 197 0
175 198 0
174 197 0
175 198 0
175 198 0
175 198 0
175 198 0
176 199 0
177 199 0
175 198 0
174 197 0
176 199 0
175 198 0
173 197 0
175 198 0
175 198 0
176 199 0
174 197 0
175 198 0
174 198 0
175 198 0
174 198 0
174 198 0
176 199 0
175 198 0
174 198 0
175 198 0
173 197 0
175 198 0
174 197 0
175 198 0
174 198 0
174 198 0
175 198 0
175 198 0
174 198 0
174 198 0
176 199 0
174 198 0
175 198 0
175 198 0
175 198 0
175 198 0
175 198 0
175 198 0
174 197 0
174 198 0
174 197 0
174 198 0
176 198 0
175 198 0
174 198 0
176 198 0
174 198 0
175 198 0
175 198 0
172 197 0
175 198 0
173 197 0
176 199 0
173 197 0
174 198 0
173 197 0
174 197 0
174 198 0
174 198 0
177 199 0
175 198 0
174 198 0
174 197 0
174 198 0
174 198 0
175 198 0
175 198 0
173 197 0
174 198 0
176 198 0
174 198 0
175 198 0
174 198 0
173 197 0
173 197 0
174 198 0
174 198 0
174 197 0
174 198 0
175 198 0
175 198 0
175 198 0
174 198 0
175 198 0
175 198 0
173 196 0
173 197 0
172 196 0
173 197 0
174 198 0
176 198 0
175 198 0
174 197 0
175 198 0
174 197 0
173 197 0
175 198 0
173 197 0
171 195 0
172 196 0
175 198 0
173 197 0
174 197 0
174 197 0
174 197 0
173 197 0
174 197 0
174 197 0
173 197 0
174 197 0
174 197 0
175 198 0
173 197 0
175 198 0
173 197 0
175 198 0
173 196 0
172 196 0
175 198 0
174 197 0
173 196 0
173 197 0
174 197 0
174 197 0
172 196 0
176 198 0
176 199 0
174 198 0
174 197 0
173 197 0
173 197 0
172 195 0
172 195 0
173 196 0
172 195 0
173 197 0
173 196 0
174 196 0
172 196 0
172 196 0
159 183 67
130 156 125
110 138 148
81 113 170
75 109 174
66 102 179
68 103 177
80 113 170
117 144 142
140 164 114
162 185 63
174 197 0
172 196 0
173 196 0
173 195 0
173 195 0
172 195 0
147 158 49
144 139 82
160 154 92
152 147 91
156 151 98
152 149 98
161 157 104
157 154 103
161 159 107
160 159 107
167 164 109
169 167 111
165 163 109
169 166 111
162 159 106
170 166 110
171 167 110
164 161 107
164 161 106
164 160 105
162 157 103
164 159 103
152 148 93
153 147 89
144 138 85
148 151 63
175 198 0
173 197 0
173 197 0
173 196 0
173 197 0
173 197 0
175 198 0
174 197 0
176 198 0
175 197 0
173 196 0
175 198 0
173 197 0
175 198 0
172 196 0
174 197 0
173 197 0
174 197 0
175 198 0
173 196 0
175 198 0
174 198 0
175 198 0
174 197 0
174 198 0
174 198 0
172 196 0
173 197 0
176 198 0
174 197 0
174 198 0
174 198 0
175 198 0
175 198 0
174 198 0
175 198 0
175 198 0
174 198 0
174 198 0
174 198 0
173 197 0
175 198 0
175 197 0
175 197 0
173 197 0
174 198 0
176 199 0
175 198 0
174 198 0
174 198 0
174 198 0
173 197 0
174 198 0
174 198 0
173 197 0
175 198 0
175 198 0
174 198 0
174 197 0
173 197 0
175 198 0
174 198 0
174 198 0
174 197 0
174 198 0
175 198 0
174 198 0
174 198 0
175 198 0
174 198 0
172 197 0
174 198 0
173 197 0
174 198 0
174 198 0
175 198 0
174 198 0
177 199 0
176 199 0
175 198 0
174 197 0
175 198 0
175 198 0
176 199 0
174 197 0
174 198 0
174 198 0
175 198 0
174 197 0
174 198 0
175 198 0
174 198 0
175 198 0
176 199 0
176 199 0
175 198 0
173 197 0
175 198 0
175 198 0
174 198 0
175 198 0
174 197 0
175 198 0
176 199 0
175 198 0
173 197 0
173 197 0
175 198 0
174 197 0
175 198 0
174 198 0
174 197 0
174 198 0
175 198 0
174 198 0
174 198 0
174 198 0
174 198 0
174 198 0
173 197 0
176 198 0
175 198 0
174 198 0
175 198 0
174 198 0
174 198 0
175 198 0
176 198 0
173 197 0
173 197 0
174 198 0
174 198 0
175 198 0
172 197 0
173 197 0
176 199 0
173 197 0
175 198 0
175 198 0
174 198 0
175 198 0
173 197 0
174 198 0
174 198 0
175 198 0
175 198 0
176 199 0
174 198 0
174 197 0
175 198 0
176 199 0
175 198 0
175 198 0
175 198 0
176 198 0
176 199 0
175 198 0
174 198 0
176 198 0
175 198 0
174 197 0
175 198 0
175 198 0
174 198 0
173 197 0
176 198 0
175 198 0
175 198 0
174 198 0
176 199 0
176 198 0
174 198 0
176 198 0
174 198 0
174 198 0
175 198 0
175 198 0
175 198 0
174 198 0
175 198 0
173 197 0
174 197 0
175 198 0
174 198 0
174 197 0
174 197 0
174 198 0
174 198 0
175 198 0
174 197 0
175 198 0
174 198 0
174 198 0
176 199 0
176 199 0
175 198 0
175 198 0
175 198 0
173 197 0
174 198 0
176 199 0
173 197 0
174 198 0
174 198 0
174 198 0
174 197 0
176 199 0
175 198 0
175 198 0
174 197 0
175 198 0
175 198 0
174 197 0
174 198 0
173 197 0
174 197 0
173 197 0
174 198 0
175 198 0
175 198 0
173 197 0
176 199 0
175 198 0
177 199 0
173 197 0
175 198 0
174 197 0
174 198 0
174 198 0
174 198 0
174 198 0
175 198 0
175 198 0
175 198 0
176 199 0
174 198 0
174 197 0
175 198 0
173 197 0
175 198 0
176 198 0
174 198 0
175 198 0
174 198 0
175 198 0
175 198 0
173 197 0
173 197 0
174 198 0
175 198 0
175 198 0
175 198 0
172 196 0
174 198 0
174 197 0
174 197 0
175 198 0
175 198 0
174 198 0
175 198 0
176 198 0
175 198 0
173 197 0
173 197 0
175 198 0
175 198 0
175 198 0
175 198 0
173 197 0
175 198 0
173 197 0
176 199 0
174 198 0
174 198 0
173 197 0
175 198 0
174 198 0
173 197 0
176 198 0
174 197 0
173 197 0
176 199 0
174 198 0
175 198 0
175 198 0
172 196 0
174 197 0
174 197 0
175 198 0
175 198 0
174 198 0
175 198 0
176 198 0
175 198 0
174 198 0
173 197 0
175 198 0
173 197 0
175 198 0
174 198 0
174 198 0
173 197 0
173 197 0
175 198 0
175 198 0
176 198 0
174 197 0
175 198 0
175 198 0
175 198 0
172 196 0
175 198 0
176 198 0
174 197 0
175 198 0
174 197 0
173 197 0
173 197 0
174 197 0
175 198 0
173 197 0
174 197 0
174 197 0
176 198 0
173 197 0
172 196 0
174 197 0
174 197 0
175 198 0
174 197 0
176 199 0
173 197 0
175 198 0
173 197 0
172 195 0
174 198 0
175 198 0
175 198 0
172 196 0
172 196 0
171 195 0
173 196 0
173 196 0
173 196 0
175 198 0
175 198 0
170 194 0
170 194 0
173 197 0
174 197 0
171 195 0
171 195 0
174 197 0
170 193 0
168 191 25
140 165 114
86 118 166
62 99 180
61 99 181
62 99 181
61 99 181
61 99 181
62 99 181
61 99 181
62 99 181
61 99 181
62 99 180
62 99 181
97 126 158
146 170 99
170 194 18
173 196 0
173 197 0
167 189 19
137 133 68
154 147 85
148 143 91
145 141 92
152 149 97
153 150 100
152 150 99
164 160 106
165 163 109
160 159 107
166 163 109
172 169 112
173 169 112
172 169 112
170 166 109
171 167 110
171 167 110
170 167 110
169 164 105
166 162 106
170 164 106
167 162 103
167 161 99
163 157 95
146 140 85
138 133 71
163 182 25
172 195 0
174 197 0
174 197 0
172 195 0
175 198 0
174 196 0
172 195 0
174 197 0
174 198 0
175 198 0
172 196 0
174 197 0
174 197 0
175 198 0
174 197 0
174 198 0
175 198 0
174 198 0
175 198 0
175 198 0
175 198 0
174 197 0
175 198 0
174 198 0
174 198 0
175 198 0
175 198 0
174 198 0
175 198 0
175 198 0
174 198 0
175 198 0
176 199 0
173 197 0
174 197 0
173 196 0
174 198 0
176 198 0
175 198 0
173 197 0
173 197 0
175 198 0
176 199 0
174 198 0
175 198 0
176 198 0
173 197 0
175 198 0
174 197 0
175 198 0
176 199 0
172 196 0
173 197 0
177 199 0
173 197 0
174 197 0
173 197 0
175 198 0
175 198 0
174 197 0
174 198 0
174 198 0
174 198 0
173 197 0
176 198 0
174 198 0
175 198 0
175 198 0
174 198 0
175 198 0
174 198 0
174 198 0
176 199 0
174 198 0
173 197 0
175 198 0
174 197 0
174 197 0
174 198 0
176 198 0
173 197 0
175 198 0
174 198 0
175 198 0
174 198 0
174 197 0
174 198 0
175 198 0
173 197 0
175 198 0
175 198 0
173 197 0
174 198 0
175 198 0
176 199 0
173 197 0
175 198 0
174 198 0
176 199 0
174 198 0
175 198 0
174 198 0
175 198 0
176 198 0
175 198 0
175 198 0
174 197 0
175 198 0
175 198 0
173 197 0
176 199 0
174 197 0
177 199 0
174 197 0
174 198 0
174 197 0
175 198 0
175 198 0
173 197 0
175 198 0
173 197 0
173 197 0
174 198 0
174 197 0
175 198 0
175 198 0
174 197 0
176 199 0
175 198 0
175 198 0
174 198 0
174 198 0
175 198 0
173 197 0
174 198 0
174 197 0
174 198 0
176 198 0
174 198 0
174 198 0
174 197 0
175 198 0
176 199 0
173 197 0
173 197 0
174 198 0
175 198 0
174 198 0
174 198 0
175 198 0
174 198 0
173 197 0
175 198 0
176 199 0
176 199 0
174 198 0
177 199 0
174 198 0
175 198 0
173 197 0
174 197 0
175 198 0
175 198 0
175 198 0
176 199 0
175 198 0
176 199 0
174 197 0
176 198 0
173 197 0
174 198 0
174 198 0
175 198 0
174 198 0
175 198 0
176 198 0
173 197 0
174 198 0
172 197 0
174 197 0
175 198 0
174 197 0
174 198 0
176 199 0
175 198 0
174 197 0
176 198 0
176 198 0
174 197 0
175 198 0
175 198 0
174 198 0
174 197 0
175 198 0
174 198 0
175 198 0
174 197 0
174 198 0
175 198 0
173 197 0
175 198 0
175 198 0
174 197 0
173 197 0
173 197 0
173 197 0
174 198 0
175 198 0
174 198 0
174 198 0
174 198 0
174 198 0
174 197 0
175 198 0
176 199 0
175 198 0
174 198 0
176 199 0
175 198 0
173 197 0
173 197 0
174 198 0
177 199 0
177 199 0
175 198 0
175 198 0
173 197 0
175 198 0
175 198 0
174 198 0
175 198 0
177 199 0
174 197 0
174 198 0
174 197 0
175 198 0
176 199 0
173 197 0
174 198 0
174 198 0
175 198 0
174 198 0
174 198 0
174 197 0
174 198 0
175 198 0
174 198 0
173 197 0
174 197 0
172 197 0
175 198 0
173 197 0
174 198 0
176 199 0
174 198 0
174 198 0
172 197 0
173 197 0
173 197 0
173 197 0
175 198 0
172 197 0
172 197 0
174 198 0
175 198 0
175 198 0
173 196 0
173 196 0
175 198 0
173 197 0
174 198 0
175 198 0
173 197 0
175 198 0
175 198 0
174 197 0
173 197 0
175 198 0
174 197 0
175 198 0
175 198 0
173 197 0
175 198 0
175 198 0
174 197 0
174 198 0
175 198 0
173 197 0
174 197 0
175 198 0
173 197 0
174 198 0
175 198 0
173 197 0
175 198 0
175 198 0
173 197 0
174 197 0
174 197 0
173 197 0
173 196 0
174 197 0
174 197 0
175 198 0
173 197 0
173 197 0
175 198 0
173 197 0
173 197 0
174 198 0
175 198 0
175 198 0
173 197 0
172 197 0
173 197 0
174 198 0
175 198 0
175 198 0
172 196 0
174 198 0
174 197 0
175 198 0
173 197 0
175 198 0
174 197 0
174 197 0
175 198 0
173 197 0
173 196 0
175 198 0
172 196 0
171 195 0
174 198 0
173 197 0
174 198 0
175 198 0
172 196 0
173 197 0
175 198 0
173 197 0
172 196 0
174 196 0
173 196 0
173 196 0
173 197 0
173 197 0
171 194 0
173 197 0
172 195 0
171 194 0
173 197 0
171 196 0
153 177 88
81 112 168
62 99 181
61 99 181
61 98 181
61 99 181
62 99 181
62 99 181
62 99 181
61 99 181
61 99 181
61 98 181
62 99 181
61 98 180
61 98 181
62 99 179
61 97 177
98 126 156
156 179 78
175 197 0
158 171 39
140 134 76
132 128 66
144 141 89
142 139 88
145 141 92
148 147 99
155 153 101
153 151 101
157 155 104
163 160 106
167 165 110
167 165 111
169 165 109
172 168 110
171 167 110
173 169 111
175 170 111
169 165 104
171 165 108
172 166 106
171 165 104
167 162 103
161 156 94
157 150 90
142 137 82
141 135 73
156 163 57
174 197 0
174 198 0
174 197 0
175 198 0
173 196 0
175 198 0
173 197 0
174 197 0
173 197 0
171 195 0
174 197 0
173 196 0
174 197 0
173 196 0
175 198 0
174 196 0
174 197 0
174 198 0
175 197 0
171 194 0
174 197 0
174 197 0
176 198 0
173 197 0
172 196 0
173 196 0
172 195 0
173 196 0
175 198 0
174 197 0
173 197 0
175 198 0
174 197 0
173 197 0
175 198 0
173 197 0
172 197 0
175 198 0
176 199 0
176 199 0
176 198 0
175 198 0
175 198 0
176 199 0
173 197 0
174 197 0
176 199 0
175 198 0
175 198 0
173 197 0
176 198 0
174 197 0
173 197 0
174 197 0
174 198 0
175 198 0
175 198 0
176 199 0
176 198 0
175 198 0
175 198 0
176 199 0
173 197 0
174 198 0
174 198 0
175 198 0
174 198 0
173 197 0
175 198 0
176 199 0
174 198 0
175 198 0
175 198 0
174 197 0
174 198 0
176 199 0
175 198 0
175 198 0
174 197 0
175 198 0
174 198 0
173 197 0
175 198 0
174 198 0
175 198 0
175 198 0
173 197 0
175 198 0
173 197 0
175 198 0
175 198 0
175 198 0
173 197 0
175 198 0
174 198 0
176 199 0
174 198 0
175 198 0
175 198 0
174 198 0
174 198 0
175 198 0
176 198 0
176 199 0
174 198 0
175 198 0
174 198 0
175 198 0
174 198 0
176 199 0
176 198 0
174 198 0
175 198 0
174 197 0
173 197 0
174 197 0
175 198 0
173 197 0
175 198 0
176 199 0
176 199 0
174 197 0
176 199 0
174 197 0
175 198 0
174 198 0
174 197 0
175 198 0
174 198 0
174 198 0
175 198 0
175 198 0
175 198 0
173 197 0
174 198 0
173 197 0
173 197 0
174 198 0
174 198 0
174 197 0
174 198 0
175 198 0
174 198 0
176 198 0
175 198 0
175 198 0
176 199 0
174 198 0
175 198 0
174 198 0
174 198 0
175 198 0
173 197 0
175 198 0
175 198 0
175 198 0
176 199 0
175 198 0
174 198 0
173 197 0
174 198 0
176 199 0
172 197 0
175 198 0
175 198 0
175 198 0
176 199 0
174 198 0
174 198 0
174 197 0
174 197 0
174 197 0
174 198 0
175 198 0
176 199 0
175 198 0
175 198 0
174 197 0
174 198 0
173 197 0
175 198 0
175 198 0
173 197 0
173 197 0
176 199 0
176 198 0
174 198 0
174 198 0
175 198 0
174 198 0
174 198 0
174 198 0
174 198 0
174 198 0
173 197 0
174 198 0
174 198 0
174 198 0
174 198 0
175 198 0
174 198 0
174 197 0
176 199 0
173 197 0
174 197 0
175 198 0
174 198 0
176 199 0
174 198 0
175 198 0
176 199 0
175 198 0
175 198 0
174 198 0
174 197 0
173 197 0
174 198 0
175 198 0
176 199 0
176 198 0
175 198 0
174 198 0
175 198 0
174 198 0
175 198 0
174 198 0
174 198 0
175 198 0
173 197 0
174 198 0
175 198 0
173 197 0
174 198 0
174 198 0
174 198 0
176 198 0
175 198 0
173 197 0
175 198 0
175 198 0
177 199 0
175 198 0
174 198 0
175 198 0
175 198 0
174 198 0
175 198 0
174 198 0
173 197 0
176 199 0
174 198 0
175 198 0
175 198 0
174 198 0
175 198 0
175 198 0
175 198 0
175 198 0
175 198 0
175 198 0
173 197 0
174 197 0
173 197 0
175 198 0
175 198 0
174 198 0
174 197 0
175 198 0
173 197 0
175 198 0
174 197 0
174 197 0
176 198 0
175 198 0
174 198 0
173 197 0
176 198 0
175 198 0
175 198 0
174 198 0
174 198 0
174 198 0
172 196 0
175 198 0
175 198 0
176 198 0
175 198 0
173 197 0
175 198 0
175 198 0
174 198 0
175 198 0
175 198 0
174 197 0
174 197 0
173 197 0
175 198 0
174 197 0
174 197 0
176 198 0
175 198 0
175 198 0
173 197 0
173 197 0
174 198 0
175 198 0
172 196 0
174 198 0
174 197 0
174 197 0
173 197 0
174 198 0
172 196 0
173 197 0
175 198 0
172 196 0
174 198 0
175 198 0
174 198 0
174 197 0
175 198 0
173 196 0
173 197 0
171 195 0
173 196 0
172 196 0
174 198 0
174 197 0
173 197 0
175 198 0
174 197 0
173 197 0
173 196 0
174 197 0
175 198 0
171 196 0
174 198 0
172 195 0
174 198 0
170 195 0
174 197 0
175 198 0
173 197 0
174 196 0
174 197 0
173 197 0
173 196 0
172 195 0
174 197 0
173 196 0
171 194 0
132 158 125
66 102 178
62 99 181
61 98 181
61 99 181
62 99 181
61 99 181
61 98 181
62 99 181
62 99 181
61 98 181
62 99 181
62 99 180
61 98 179
62 99 180
62 99 181
62 99 179
62 99 179
61 97 174
71 106 173
138 162 106
146 150 53
138 134 75
139 135 80
136 134 84
137 136 90
145 142 95
141 140 95
151 149 100
155 152 102
161 157 105
161 158 105
162 159 107
168 164 109
170 166 108
172 168 110
174 170 110
173 168 109
172 167 108
170 165 105
166 162 102
169 164 105
172 166 103
164 158 97
163 158 97
160 153 92
155 149 87
142 137 75
145 142 72
174 197 0
174 197 0
173 196 0
173 197 0
172 196 0
174 196 0
175 198 0
175 197 0
174 197 0
174 197 0
172 195 0
174 197 0
174 198 0
173 197 0
174 197 0
173 197 0
174 198 0
173 197 0
174 197 0
175 198 0
175 198 0
175 198 0
174 198 0
174 198 0
176 199 0
173 197 0
173 197 0
174 197 0
174 198 0
174 197 0
174 198 0
173 197 0
175 198 0
174 197 0
174 198 0
173 197 0
174 198 0
173 197 0
174 197 0
176 199 0
174 197 0
175 198 0
174 197 0
175 198 0
174 198 0
174 198 0
174 197 0
173 197 0
173 196 0
172 196 0
175 198 0
175 198 0
175 198 0
175 198 0
174 198 0
175 198 0
173 197 0
175 198 0
175 198 0
173 197 0
175 198 0
175 198 0
174 198 0
175 198 0
175 198 0
175 198 0
173 197 0
176 199 0
175 198 0
174 198 0
173 197 0
174 197 0
175 198 0
174 198 0
175 198 0
174 198 0
175 198 0
174 198 0
175 198 0
175 198 0
174 198 0
173 197 0
175 198 0
174 198 0
174 198 0
173 197 0
175 198 0
175 198 0
176 199 0
175 198 0
176 198 0
175 198 0
173 197 0
174 197 0
175 198 0
174 197 0
175 198 0
176 199 0
173 197 0
173 197 0
174 197 0
174 198 0
174 197 0
174 198 0
174 198 0
175 198 0
175 198 0
173 197 0
175 198 0
174 197 0
174 198 0
173 197 0
174 198 0
173 197 0
174 197 0
175 198 0
174 198 0
175 198 0
175 198 0
175 198 0
174 197 0
174 197 0
173 197 0
174 198 0
175 198 0
174 197 0
175 198 0
175 198 0
173 197 0
174 198 0
175 198 0
176 199 0
175 198 0
174 198 0
176 198 0
173 197 0
173 197 0
176 199 0
175 198 0
173 197 0
173 197 0
175 198 0
177 199 0
176 198 0
174 198 0
175 198 0
176 199 0
176 199 0
174 198 0
173 197 0
174 198 0
175 198 0
173 197 0
174 198 0
175 198 0
174 198 0
174 197 0
175 198 0
174 198 0
175 198 0
175 198 0
174 197 0
175 198 0
175 198 0
174 198 0
176 199 0
176 198 0
174 198 0
174 198 0
175 198 0
175 198 0
175 198 0
173 197 0
174 198 0
175 198 0
173 197 0
174 198 0
173 197 0
175 198 0
172 197 0
175 198 0
174 198 0
173 197 0
174 198 0
175 198 0
175 198 0
175 198 0
175 198 0
175 198 0
176 199 0
174 198 0
175 198 0
173 197 0
175 198 0
173 197 0
174 197 0
173 197 0
175 198 0
175 198 0
175 198 0
174 198 0
176 198 0
175 198 0
176 199 0
174 198 0
175 198 0
174 198 0
174 198 0
176 199 0
175 198 0
174 198 0
174 198 0
175 198 0
174 197 0
175 198 0
175 198 0
174 198 0
174 197 0
173 197 0
174 198 0
176 199 0
173 197 0
175 198 0
173 197 0
174 197 0
174 197 0
174 198 0
173 197 0
176 199 0
174 198 0
175 198 0
176 198 0
175 198 0
174 198 0
174 198 0
175 198 0
174 198 0
174 198 0
175 198 0
175 198 0
174 198 0
174 197 0
174 198 0
173 197 0
174 197 0
174 198 0
175 198 0
175 198 0
176 199 0
174 198 0
174 198 0
174 198 0
176 199 0
175 198 0
174 197 0
173 197 0
175 198 0
175 198 0
174 198 0
174 198 0
175 198 0
173 197 0
174 198 0
174 198 0
175 198 0
175 198 0
174 198 0
173 197 0
175 198 0
172 196 0
176 199 0
174 197 0
176 198 0
174 197 0
174 198 0
173 197 0
175 198 0
174 198 0
175 198 0
174 197 0
175 198 0
173 197 0
174 198 0
174 198 0
173 197 0
174 198 0
175 198 0
173 197 0
176 199 0
174 198 0
175 198 0
173 197 0
174 198 0
175 198 0
177 199 0
174 198 0
174 197 0
173 197 0
174 197 0
174 197 0
173 197 0
174 197 0
176 198 0
175 198 0
174 196 0
174 198 0
173 197 0
175 198 0
173 197 0
174 198 0
174 197 0
176 199 0
174 198 0
173 197 0
174 198 0
173 196 0
173 197 0
174 197 0
173 197 0
175 198 0
172 196 0
174 197 0
175 198 0
172 197 0
171 194 0
174 198 0
174 197 0
172 196 0
173 197 0
173 197 0
171 195 0
175 198 0
173 196 0
174 197 0
175 198 0
173 196 0
173 197 0
171 195 0
172 196 0
171 195 0
173 195 0
174 198 0
172 196 0
173 196 0
174 197 0
170 193 0
170 192 0
172 195 0
174 197 0
170 193 0
112 139 148
63 100 181
61 99 181
62 99 181
61 99 181
61 99 181
61 99 181
62 99 179
62 99 181
62 99 181
62 99 180
62 99 181
62 99 180
62 99 181
62 99 181
62 99 181
61 99 180
62 99 177
61 98 177
61 99 179
62 98 175
61 97 173
100 111 131
136 131 76
125 123 74
121 120 77
133 132 90
124 125 87
130 131 92
145 144 99
142 140 95
151 149 99
161 159 105
165 162 107
173 168 108
174 169 110
174 169 109
171 166 105
172 169 108
174 169 108
174 169 104
169 165 105
173 167 104
169 164 102
169 163 101
164 158 98
164 158 95
151 146 86
151 145 77
146 140 76
171 193 11
172 196 0
172 195 0
173 196 0
171 193 0
174 198 0
172 196 0
174 197 0
174 197 0
173 196 0
173 196 0
173 196 0
173 197 0
176 198 0
173 197 0
173 196 0
175 198 0
174 197 0
175 198 0
175 197 0
174 197 0
174 197 0
176 199 0
174 197 0
173 197 0
174 197 0
176 199 0
175 198 0
176 199 0
174 197 0
175 197 0
174 197 0
173 197 0
175 198 0
174 198 0
175 198 0
174 197 0
175 198 0
174 198 0
174 198 0
175 198 0
174 198 0
175 198 0
176 199 0
173 197 0
175 198 0
174 198 0
174 197 0
174 198 0
174 198 0
174 198 0
174 198 0
175 198 0
175 198 0
173 196 0
174 198 0
174 197 0
174 198 0
175 198 0
175 198 0
173 197 0
173 197 0
175 198 0
176 198 0
174 198 0
175 198 0
175 198 0
173 197 0
174 198 0
176 199 0
175 198 0
174 197 0
175 198 0
173 197 0
174 197 0
174 198 0
175 198 0
174 197 0
176 199 0
175 198 0
174 198 0
173 197 0
174 197 0
174 198 0
175 198 0
174 198 0
175 198 0
175 198 0
174 198 0
174 198 0
176 198 0
174 198 0
174 198 0
174 198 0
174 198 0
174 198 0
173 197 0
175 198 0
175 198 0
175 198 0
174 198 0
174 198 0
174 197 0
174 198 0
174 198 0
174 198 0
175 198 0
174 198 0
174 198 0
174 197 0
175 198 0
174 197 0
174 198 0
175 198 0
173 197 0
174 198 0
175 198 0
174 198 0
175 198 0
174 197 0
172 197 0
173 197 0
174 198 0
175 198 0
175 198 0
174 198 0
175 198 0
175 198 0
174 198 0
176 198 0
174 197 0
176 198 0
175 198 0
175 198 0
174 198 0
174 197 0
174 197 0
174 198 0
175 198 0
173 197 0
175 198 0
177 199 0
175 198 0
174 198 0
176 199 0
175 198 0
175 198 0
174 198 0
175 198 0
173 197 0
174 198 0
174 197 0
175 198 0
175 198 0
174 198 0
175 198 0
173 197 0
176 199 0
175 198 0
177 199 0
174 197 0
174 197 0
174 198 0
174 197 0
175 198 0
174 198 0
173 197 0
174 198 0
175 198 0
174 198 0
175 198 0
175 198 0
175 198 0
175 198 0
174 197 0
175 198 0
173 197 0
175 198 0
173 197 0
173 197 0
175 198 0
173 197 0
174 198 0
176 199 0
174 198 0
174 198 0
172 197 0
174 198 0
175 198 0
174 198 0
173 197 0
176 198 0
174 198 0
174 198 0
175 198 0
175 198 0
173 197 0
174 197 0
174 197 0
173 197 0
174 198 0
175 198 0
175 198 0
175 198 0
174 198 0
175 198 0
175 198 0
176 199 0
175 198 0
174 197 0
174 198 0
175 198 0
175 198 0
174 198 0
175 198 0
175 198 0
175 198 0
174 198 0
174 198 0
174 198 0
173 197 0
174 198 0
173 197 0
175 198 0
173 197 0
175 198 0
176 199 0
174 198 0
175 198 0
173 197 0
174 197 0
175 198 0
175 198 0
173 197 0
175 198 0
174 198 0
174 197 0
175 198 0
175 198 0
176 199 0
174 198 0
174 198 0
176 198 0
173 197 0
174 198 0
172 197 0
173 197 0
174 198 0
175 198 0
176 199 0
175 198 0
174 198 0
176 199 0
174 198 0
175 198 0
174 198 0
174 197 0
174 197 0
174 197 0
175 198 0
174 197 0
176 198 0
175 198 0
174 197 0
174 198 0
174 197 0
174 198 0
175 198 0
174 198 0
173 197 0
175 198 0
174 197 0
173 197 0
175 198 0
175 198 0
175 198 0
174 197 0
174 198 0
173 197 0
176 199 0
174 198 0
175 198 0
175 198 0
175 198 0
176 199 0
175 198 0
175 198 0
174 198 0
173 197 0
175 198 0
173 197 0
172 197 0
174 197 0
175 198 0
175 198 0
174 198 0
174 197 0
171 195 0
174 198 0
172 196 0
174 197 0
173 197 0
175 198 0
174 197 0
172 196 0
173 197 0
174 197 0
173 197 0
176 198 0
174 197 0
173 197 0
174 197 0
175 198 0
173 197 0
174 198 0
174 197 0
174 198 0
173 197 0
174 198 0
174 197 0
175 198 0
172 196 0
173 196 0
172 196 0
175 198 0
173 197 0
172 195 0
174 198 0
173 196 0
174 198 0
175 197 0
173 197 0
173 197 0
175 198 0
174 197 0
174 197 0
174 196 0
171 195 0
172 197 0
173 197 0
171 195 0
173 196 0
172 195 0
172 195 0
173 196 0
170 194 0
173 196 0
170 193 0
172 195 0
120 147 134
62 99 181
62 99 181
62 99 181
62 99 181
61 99 181
61 99 181
62 99 181
62 99 181
62 99 180
61 98 181
61 99 181
61 99 180
62 99 180
62 99 181
61 98 179
61 99 180
61 98 177
61 98 175
61 98 177
62 98 177
62 98 173
63 99 176
61 97 170
95 106 119
119 118 71
117 116 77
113 113 77
125 126 87
131 131 91
137 137 93
145 143 96
152 150 100
161 158 104
164 161 105
169 165 109
171 167 109
170 166 106
169 165 102
173 167 101
178 171 108
173 168 106
173 167 103
168 163 97
162 158 97
168 162 95
162 156 90
159 152 88
152 146 79
144 140 69
131 126 61
165 184 22
173 197 0
173 196 0
172 195 0
173 196 0
174 196 0
172 195 0
173 196 0
174 197 0
172 195 0
174 197 0
173 196 0
173 196 0
173 196 0
172 195 0
173 197 0
173 196 0
175 197 0
174 197 0
174 197 0
174 197 0
173 197 0
174 197 0
175 198 0
176 198 0
173 197 0
174 197 0
175 198 0
174 197 0
174 197 0
174 197 0
175 198 0
175 198 0
173 197 0
175 198 0
175 198 0
174 198 0
176 198 0
174 197 0
174 197 0
174 197 0
176 198 0
175 198 0
174 197 0
177 199 0
176 199 0
175 198 0
176 198 0
175 198 0
175 198 0
175 198 0
175 198 0
175 198 0
174 198 0
175 198 0
174 197 0
174 198 0
174 198 0
173 197 0
174 197 0
176 199 0
175 198 0
176 199 0
173 197 0
174 198 0
176 198 0
175 198 0
175 198 0
176 199 0
174 198 0
174 198 0
175 198 0
174 198 0
175 198 0
172 197 0
175 198 0
173 197 0
175 198 0
174 198 0
175 198 0
174 197 0
174 198 0
174 197 0
172 197 0
173 197 0
174 198 0
175 198 0
173 197 0
175 198 0
176 198 0
175 198 0
175 198 0
174 198 0
173 197 0
175 198 0
175 198 0
174 197 0
174 198 0
174 198 0
174 197 0
174 197 0
175 198 0
172 197 0
176 199 0
175 198 0
175 198 0
174 198 0
176 198 0
173 197 0
175 198 0
175 198 0
175 198 0
175 198 0
173 197 0
176 199 0
174 198 0
174 198 0
174 198 0
175 198 0
175 198 0
176 198 0
175 198 0
174 198 0
176 199 0
175 198 0
176 198 0
173 197 0
173 197 0
175 198 0
174 198 0
174 198 0
174 197 0
174 198 0
174 197 0
176 199 0
175 198 0
175 198 0
175 198 0
175 198 0
175 198 0
176 199 0
173 197 0
174 198 0
174 197 0
175 198 0
175 198 0
175 198 0
175 198 0
173 197 0
175 198 0
175 198 0
174 198 0
174 197 0
175 198 0
175 198 0
175 198 0
175 198 0
175 198 0
175 198 0
175 198 0
175 198 0
176 198 0
175 198 0
175 198 0
175 198 0
175 198 0
175 198 0
176 199 0
175 198 0
175 198 0
174 198 0
175 198 0
174 197 0
175 198 0
174 197 0
175 198 0
176 199 0
176 199 0
175 198 0
175 198 0
175 198 0
176 199 0
174 198 0
175 198 0
174 198 0
176 199 0
174 197 0
174 198 0
174 198 0
175 198 0
174 197 0
174 198 0
175 198 0
174 197 0
174 198 0
175 198 0
175 198 0
175 198 0
174 198 0
174 198 0
174 198 0
175 198 0
174 198 0
174 198 0
174 198 0
173 197 0
174 198 0
175 198 0
175 198 0
175 198 0
174 197 0
175 198 0
174 198 0
173 197 0
173 197 0
175 198 0
173 197 0
175 198 0
173 197 0
174 198 0
174 198 0
175 198 0
173 197 0
175 198 0
174 197 0
174 198 0
175 198 0
174 198 0
174 198 0
176 199 0
175 198 0
175 198 0
173 197 0
174 197 0
174 198 0
175 198 0
174 198 0
173 197 0
172 197 0
174 198 0
175 198 0
173 197 0
173 197 0
175 198 0
173 197 0
174 198 0
173 196 0
175 198 0
174 198 0
175 198 0
175 198 0
175 198 0
174 198 0
174 197 0
174 198 0
176 198 0
175 198 0
174 198 0
175 198 0
173 197 0
174 197 0
175 198 0
176 199 0
174 198 0
175 198 0
174 198 0
173 197 0
174 198 0
174 197 0
174 197 0
172 196 0
175 198 0
174 197 0
174 197 0
175 198 0
175 198 0
175 198 0
174 197 0
172 196 0
174 197 0
174 198 0
172 196 0
174 198 0
175 198 0
175 198 0
173 197 0
174 198 0
174 198 0
175 198 0
175 198 0
173 197 0
174 198 0
173 197 0
173 197 0
175 198 0
174 198 0
174 197 0
173 196 0
174 198 0
175 198 0
175 198 0
173 196 0
173 197 0
175 198 0
173 196 0
174 197 0
176 199 0
171 195 0
174 197 0
174 198 0
174 198 0
173 197 0
173 197 0
174 198 0
174 197 0
174 197 0
175 198 0
173 197 0
173 197 0
173 196 0
174 197 0
174 197 0
174 198 0
172 195 0
173 197 0
173 197 0
174 198 0
173 197 0
171 195 0
172 196 0
175 197 0
173 196 0
173 196 0
175 198 0
171 194 0
175 198 0
174 197 0
174 197 0
173 196 0
171 195 0
171 194 0
172 194 0
173 197 0
172 195 0
170 194 0
172 195 0
170 194 0
173 196 0
142 166 100
62 99 180
62 99 181
62 99 178
62 99 181
62 99 181
62 99 178
62 99 181
62 99 180
61 98 180
62 99 180
62 99 178
62 99 181
61 99 181
62 99 179
62 99 180
62 99 177
62 99 180
62 99 174
62 99 177
62 99 180
62 99 177
62 99 177
61 97 170
61 97 170
61 96 166
91 100 109
99 100 68
110 110 72
110 111 80
115 117 84
131 129 88
141 140 93
145 143 96
152 149 98
167 163 105
164 161 103
171 166 104
170 165 102
172 168 103
175 170 103
172 166 100
173 168 104
172 166 99
171 165 99
173 167 101
164 158 89
163 157 90
159 154 83
156 150 80
142 137 69
139 133 68
161 180 16
173 196 0
175 197 0
174 197 0
172 196 0
172 195 0
171 194 0
172 195 0
173 196 0
174 196 0
174 197 0
173 197 0
174 197 0
174 197 0
173 196 0
174 198 0
173 197 0
172 196 0
175 197 0
175 198 0
173 197 0
171 194 0
175 198 0
173 196 0
176 198 0
174 197 0
174 197 0
174 198 0
174 197 0
173 197 0
173 197 0
174 197 0
175 198 0
174 197 0
174 197 0
174 198 0
172 196 0
175 198 0
174 198 0
173 197 0
175 197 0
174 197 0
174 198 0
172 196 0
174 198 0
174 197 0
173 197 0
175 198 0
174 198 0
175 198 0
175 198 0
175 198 0
174 197 0
175 198 0
174 198 0
175 198 0
174 197 0
174 198 0
173 197 0
174 197 0
175 198 0
174 198 0
174 197 0
174 198 0
173 197 0
175 198 0
174 197 0
175 198 0
173 197 0
175 198 0
173 197 0
174 198 0
174 198 0
173 197 0
174 198 0
174 197 0
175 198 0
176 198 0
175 198 0
175 198 0
175 198 0
175 198 0
175 198 0
174 197 0
175 198 0
175 198 0
174 198 0
173 197 0
174 198 0
175 198 0
174 198 0
175 198 0
176 199 0
175 198 0
172 197 0
176 198 0
174 198 0
175 198 0
174 197 0
175 198 0
174 198 0
176 198 0
174 198 0
173 197 0
175 198 0
176 199 0
174 198 0
175 198 0
174 198 0
175 198 0
174 198 0
175 198 0
173 197 0
175 198 0
174 198 0
175 198 0
175 198 0
175 198 0
174 198 0
175 198 0
175 198 0
173 197 0
172 197 0
174 198 0
173 197 0
174 198 0
174 197 0
175 198 0
175 198 0
176 199 0
174 197 0
174 198 0
173 197 0
175 198 0
176 199 0
175 198 0
174 198 0
174 198 0
173 197 0
173 197 0
175 198 0
175 198 0
175 198 0
175 198 0
174 198 0
174 197 0
174 198 0
175 198 0
173 197 0
175 198 0
175 198 0
175 198 0
173 197 0
174 198 0
175 198 0
175 198 0
174 197 0
174 198 0
173 197 0
174 198 0
177 199 0
174 198 0
175 198 0
175 198 0
176 198 0
174 198 0
175 198 0
175 198 0
173 197 0
175 198 0
175 198 0
174 198 0
173 197 0
174 198 0
176 199 0
176 198 0
174 198 0
174 198 0
174 198 0
175 198 0
176 199 0
174 198 0
175 198 0
175 198 0
174 198 0
176 199 0
174 197 0
174 197 0
174 198 0
174 198 0
174 198 0
176 199 0
174 198 0
173 197 0
174 198 0
177 199 0
174 198 0
175 198 0
174 198 0
176 199 0
174 198 0
174 197 0
174 197 0
173 197 0
174 198 0
174 198 0
174 198 0
176 199 0
175 198 0
173 197 0
175 198 0
175 198 0
176 199 0
172 196 0
173 197 0
174 198 0
174 198 0
174 198 0
173 197 0
173 197 0
174 197 0
174 197 0
174 198 0
174 198 0
175 198 0
176 199 0
174 197 0
175 198 0
175 198 0
175 198 0
173 197 0
173 197 0
175 198 0
173 197 0
176 198 0
176 198 0
175 198 0
173 197 0
174 198 0
174 198 0
175 198 0
174 197 0
174 197 0
174 198 0
174 197 0
173 197 0
175 198 0
174 198 0
176 199 0
175 198 0
174 197 0
174 198 0
175 198 0
173 197 0
175 198 0
174 198 0
174 198 0
175 198 0
175 198 0
174 198 0
175 198 0
174 198 0
174 197 0
175 198 0
175 198 0
174 198 0
176 198 0
173 197 0
174 198 0
175 198 0
173 197 0
173 197 0
174 197 0
173 197 0
175 198 0
174 198 0
175 198 0
175 198 0
174 197 0
174 198 0
173 197 0
174 198 0
175 198 0
175 198 0
175 198 0
173 196 0
175 198 0
175 198 0
173 197 0
175 198 0
175 198 0
174 197 0
173 197 0
172 196 0
174 198 0
175 198 0
175 198 0
176 199 0
173 197 0
173 197 0
173 196 0
175 198 0
173 196 0
172 196 0
174 198 0
173 197 0
174 197 0
174 197 0
173 197 0
173 197 0
174 198 0
175 198 0
175 198 0
174 197 0
169 193 0
174 197 0
175 198 0
173 196 0
173 197 0
174 197 0
173 197 0
173 197 0
173 197 0
172 196 0
172 196 0
173 196 0
174 197 0
172 196 0
174 198 0
173 196 0
172 195 0
173 196 0
173 196 0
174 197 0
173 196 0
172 195 0
172 196 0
171 194 0
173 196 0
174 197 0
174 197 0
170 194 0
174 196 0
172 195 0
173 196 0
171 194 0
170 192 0
162 185 51
73 108 174
63 100 179
62 99 181
62 99 181
62 99 179
62 99 181
62 99 179
62 99 176
61 99 180
62 99 179
62 99 181
62 99 180
62 99 180
63 99 180
62 99 181
61 98 178
61 98 178
62 99 180
62 99 179
62 99 177
62 99 176
62 99 175
62 99 177
62 99 174
62 99 172
60 96 164
61 94 160
98 100 70
101 102 72
108 109 73
111 113 78
118 120 83
131 132 88
132 132 88
150 148 98
154 151 95
161 158 99
166 162 95
171 165 102
174 168 100
172 166 102
175 169 99
170 164 95
170 164 94
167 161 93
174 168 99
169 163 93
159 153 84
162 156 90
157 151 84
155 148 76
133 128 62
162 180 25
173 196 0
173 196 0
173 195 0
174 196 0
173 196 0
172 194 0
174 197 0
173 196 0
173 196 0
175 197 0
174 197 0
173 196 0
173 196 0
174 197 0
173 197 0
174 197 0
174 197 0
173 197 0
173 197 0
175 198 0
174 197 0
172 196 0
175 198 0
175 198 0
173 196 0
172 197 0
175 198 0
174 197 0
174 198 0
177 199 0
173 197 0
175 198 0
175 198 0
174 197 0
174 198 0
174 198 0
173 197 0
174 198 0
175 198 0
174 197 0
174 198 0
175 198 0
174 198 0
173 197 0
173 196 0
174 198 0
175 198 0
173 197 0
173 197 0
175 198 0
174 198 0
175 198 0
175 198 0
175 198 0
176 198 0
176 199 0
175 198 0
174 198 0
174 198 0
175 198 0
173 197 0
174 197 0
173 197 0
174 198 0
174 197 0
173 197 0
173 197 0
174 198 0
174 198 0
174 198 0
175 198 0
174 198 0
174 197 0
176 199 0
174 198 0
175 198 0
173 197 0
175 198 0
174 197 0
175 198 0
174 198 0
175 198 0
175 198 0
176 199 0
174 198 0
175 198 0
175 198 0
174 198 0
175 198 0
173 197 0
173 197 0
175 198 0
175 198 0
173 197 0
174 197 0
174 198 0
174 198 0
175 198 0
173 197 0
174 197 0
174 197 0
174 198 0
174 198 0
174 198 0
175 198 0
174 198 0
174 197 0
174 198 0
176 198 0
175 198 0
174 198 0
174 198 0
175 198 0
174 198 0
175 198 0
175 198 0
174 198 0
174 198 0
175 198 0
174 197 0
175 198 0
174 198 0
175 198 0
174 197 0
175 198 0
175 198 0
176 199 0
174 198 0
175 198 0
174 197 0
174 198 0
174 198 0
174 198 0
173 197 0
174 198 0
176 199 0
174 198 0
175 198 0
175 198 0
173 197 0
174 198 0
175 198 0
175 198 0
175 198 0
174 197 0
176 198 0
174 198 0
175 198 0
176 199 0
175 198 0
174 198 0
175 198 0
173 197 0
175 198 0
174 197 0
176 199 0
174 197 0
175 198 0
175 198 0
175 198 0
173 197 0
174 198 0
173 197 0
174 198 0
176 199 0
175 198 0
175 198 0
174 198 0
174 197 0
174 198 0
174 198 0
175 198 0
174 198 0
174 198 0
173 197 0
174 198 0
174 198 0
175 198 0
175 198 0
174 197 0
173 197 0
174 198 0
175 198 0
174 197 0
174 198 0
175 198 0
174 197 0
174 198 0
174 198 0
175 198 0
174 197 0
173 197 0
175 198 0
174 198 0
175 198 0
175 198 0
173 197 0
175 198 0
174 198 0
175 198 0
174 198 0
174 198 0
176 199 0
174 198 0
175 198 0
174 198 0
174 198 0
175 198 0
175 198 0
174 198 0
175 198 0
175 198 0
176 199 0
176 199 0
174 197 0
174 198 0
174 198 0
175 198 0
175 198 0
175 198 0
176 199 0
176 199 0
174 198 0
175 198 0
172 197 0
175 198 0
174 197 0
176 199 0
175 198 0
175 198 0
176 199 0
174 198 0
176 199 0
175 198 0
175 198 0
174 198 0
174 198 0
175 198 0
173 197 0
175 198 0
172 196 0
173 197 0
175 198 0
176 199 0
175 198 0
172 197 0
175 198 0
175 198 0
173 197 0
174 198 0
174 198 0
174 198 0
175 198 0
174 198 0
174 198 0
174 198 0
174 198 0
175 198 0
174 198 0
176 199 0
174 197 0
173 197 0
174 198 0
174 198 0
173 197 0
176 199 0
175 198 0
173 197 0
175 198 0
174 197 0
175 198 0
176 198 0
174 197 0
172 196 0
173 196 0
171 196 0
176 198 0
175 198 0
175 198 0
175 198 0
173 197 0
174 197 0
175 198 0
175 198 0
175 198 0
175 198 0
175 198 0
174 198 0
173 197 0
174 197 0
177 199 0
174 198 0
173 197 0
175 198 0
177 199 0
175 198 0
175 198 0
173 197 0
173 197 0
173 197 0
172 196 0
174 197 0
176 198 0
175 198 0
174 198 0
173 197 0
174 198 0
173 196 0
173 197 0
173 196 0
174 197 0
174 197 0
173 196 0
174 198 0
173 196 0
171 195 0
173 197 0
173 197 0
175 197 0
174 197 0
170 193 0
173 197 0
173 196 0
173 196 0
173 196 0
174 197 0
172 196 0
172 195 0
174 197 0
173 197 0
171 194 0
173 196 0
174 197 0
171 195 0
173 197 0
174 197 0
170 194 0
171 195 0
169 193 0
172 195 0
170 194 0
173 196 0
172 195 0
172 195 0
173 196 0
171 194 0
117 144 137
62 99 176
62 99 179
62 99 180
62 99 178
62 99 180
62 99 181
62 99 180
61 98 177
63 100 181
62 99 179
62 99 176
61 99 178
62 99 176
62 99 177
62 99 180
63 99 180
62 99 180
62 99 175
62 99 177
62 99 170
62 99 173
63 99 175
62 99 171
63 99 174
63 99 172
62 98 166
61 97 171
79 95 123
75 77 55
85 89 66
108 109 73
117 117 76
130 129 84
139 136 83
144 142 88
152 150 94
151 149 89
163 158 92
168 163 102
169 164 98
172 167 99
175 169 99
162 158 87
172 166 95
169 162 90
164 158 81
167 159 91
166 159 86
160 154 75
156 149 78
152 145 71
133 128 59
165 186 11
172 194 0
173 195 0
175 197 0
171 195 0
170 194 0
174 197 0
174 196 0
172 196 0
172 195 0
174 196 0
175 197 0
175 198 0
174 196 0
174 197 0
172 195 0
174 196 0
173 197 0
172 196 0
175 198 0
174 197 0
174 197 0
173 196 0
177 199 0
175 197 0
175 197 0
174 198 0
174 197 0
174 197 0
172 195 0
173 197 0
174 198 0
174 197 0
174 198 0
176 198 0
174 197 0
175 198 0
175 198 0
175 198 0
174 196 0
175 198 0
174 198 0
174 197 0
176 199 0
175 198 0
174 197 0
175 198 0
176 199 0
174 198 0
173 197 0
175 198 0
175 198 0
176 199 0
174 197 0
174 198 0
172 197 0
173 197 0
175 198 0
175 198 0
176 198 0
175 198 0
173 197 0
174 197 0
175 198 0
175 198 0
176 198 0
175 198 0
174 197 0
175 198 0
174 197 0
174 198 0
175 198 0
173 197 0
173 197 0
175 198 0
175 198 0
174 198 0
175 198 0
174 198 0
174 197 0
175 198 0
174 197 0
174 198 0
174 198 0
174 198 0
176 198 0
174 197 0
173 197 0
174 198 0
175 198 0
175 198 0
175 198 0
174 198 0
175 198 0
173 197 0
176 198 0
174 197 0
175 198 0
176 199 0
175 198 0
174 197 0
176 199 0
175 198 0
174 198 0
175 198 0
175 198 0
173 197 0
174 198 0
172 197 0
175 198 0
175 198 0
175 198 0
176 199 0
173 197 0
173 197 0
172 197 0
175 198 0
174 197 0
174 197 0
174 197 0
174 198 0
175 198 0
176 198 0
174 198 0
174 197 0
174 198 0
174 197 0
175 198 0
174 198 0
174 198 0
174 198 0
173 197 0
174 198 0
174 198 0
175 198 0
176 199 0
173 197 0
174 198 0
174 198 0
173 197 0
174 198 0
174 198 0
174 197 0
175 198 0
174 197 0
177 199 0
175 198 0
174 198 0
175 198 0
175 198 0
176 198 0
174 198 0
173 197 0
175 198 0
174 198 0
175 198 0
173 197 0
174 198 0
175 198 0
173 197 0
176 198 0
176 199 0
174 198 0
174 198 0
175 198 0
174 198 0
174 198 0
174 198 0
174 198 0
175 198 0
175 198 0
174 197 0
175 198 0
175 198 0
174 198 0
174 198 0
176 199 0
175 198 0
174 198 0
175 198 0
175 198 0
174 198 0
175 198 0
173 197 0
173 197 0
174 198 0
175 198 0
174 198 0
175 198 0
175 198 0
173 197 0
175 198 0
174 198 0
176 198 0
175 198 0
172 197 0
175 198 0
174 198 0
174 198 0
174 198 0
174 198 0
174 198 0
173 197 0
174 197 0
175 198 0
175 198 0
174 198 0
175 198 0
175 198 0
173 197 0
174 198 0
174 198 0
174 198 0
175 198 0
176 198 0
175 198 0
174 197 0
174 198 0
174 198 0
176 199 0
174 198 0
175 198 0
175 198 0
174 197 0
175 198 0
173 197 0
174 197 0
174 198 0
174 198 0
175 198 0
174 198 0
174 198 0
175 198 0
173 197 0
174 198 0
173 197 0
174 198 0
174 198 0
176 198 0
176 198 0
174 198 0
174 198 0
174 198 0
176 198 0
173 197 0
175 198 0
174 198 0
173 197 0
174 198 0
174 198 0
173 197 0
174 197 0
174 198 0
175 198 0
175 198 0
176 199 0
176 199 0
173 197 0
174 198 0
174 198 0
174 198 0
174 198 0
175 198 0
174 198 0
174 197 0
177 199 0
175 198 0
173 197 0
175 198 0
174 198 0
175 198 0
173 197 0
175 198 0
174 198 0
172 196 0
175 198 0
174 198 0
175 198 0
174 197 0
175 198 0
173 197 0
174 197 0
174 198 0
174 197 0
175 198 0
173 197 0
172 196 0
173 197 0
173 197 0
174 197 0
173 197 0
173 197 0
174 197 0
175 198 0
174 198 0
174 198 0
174 198 0
174 197 0
174 197 0
174 197 0
173 197 0
173 197 0
175 198 0
174 197 0
173 197 0
174 198 0
172 196 0
175 198 0
175 198 0
172 196 0
173 196 0
174 198 0
172 196 0
173 196 0
171 195 0
172 196 0
173 197 0
174 198 0
172 196 0
174 197 0
175 198 0
174 197 0
173 196 0
170 194 0
174 197 0
173 196 0
172 196 0
171 195 0
174 197 0
172 196 0
171 195 0
172 196 0
171 194 0
170 194 0
171 194 0
170 193 0
172 195 0
170 194 0
172 196 0
172 195 0
172 195 0
169 193 0
169 192 0
171 193 0
175 198 0
173 197 0
167 191 44
64 100 178
62 99 178
62 98 174
63 100 179
62 99 177
62 99 178
62 99 180
61 98 176
62 99 178
62 99 178
61 98 177
62 99 179
62 99 176
61 98 174
62 99 176
62 99 178
62 99 178
62 98 172
62 99 176
62 99 174
62 99 174
62 99 173
62 98 171
62 99 176
62 98 168
62 98 170
62 98 167
61 97 169
58 91 149
63 70 58
56 63 49
87 92 63
102 105 72
122 123 81
131 130 81
143 141 85
152 149 86
150 147 89
162 157 89
169 163 95
166 161 93
172 166 94
171 165 94
170 163 88
170 164 89
168 161 85
158 152 78
171 163 93
156 150 80
159 153 80
152 146 67
145 139 67
141 137 59
172 194 0
172 194 0
173 196 0
172 194 0
172 194 0
173 196 0
172 195 0
173 196 0
172 195 0
172 194 0
173 196 0
174 197 0
172 196 0
173 197 0
174 198 0
173 196 0
175 198 0
173 196 0
173 196 0
175 198 0
174 197 0
175 198 0
173 196 0
175 198 0
172 196 0
174 197 0
173 196 0
175 198 0
172 196 0
175 198 0
175 198 0
172 196 0
174 197 0
175 198 0
173 197 0
173 197 0
176 199 0
174 197 0
174 197 0
176 199 0
173 197 0
175 198 0
175 198 0
174 197 0
175 198 0
175 198 0
173 197 0
174 197 0
175 198 0
173 197 0
174 197 0
176 199 0
174 198 0
175 198 0
174 197 0
174 197 0
173 197 0
174 198 0
174 197 0
174 198 0
174 198 0
175 198 0
173 197 0
174 198 0
174 198 0
176 199 0
173 197 0
175 198 0
174 197 0
175 198 0
173 197 0
174 198 0
174 198 0
174 197 0
174 198 0
173 197 0
175 198 0
175 198 0
175 198 0
175 198 0
175 198 0
174 198 0
174 198 0
173 197 0
175 198 0
175 198 0
174 198 0
173 197 0
174 198 0
174 198 0
174 198 0
175 198 0
174 198 0
176 198 0
174 197 0
175 198 0
175 198 0
175 198 0
174 198 0
176 198 0
174 198 0
176 198 0
172 197 0
174 198 0
174 198 0
176 199 0
174 198 0
174 198 0
174 197 0
175 197 0
174 197 0
174 198 0
174 197 0
177 199 0
175 198 0
176 199 0
177 199 0
176 199 0
175 198 0
175 198 0
173 197 0
174 198 0
174 198 0
175 198 0
175 198 0
174 198 0
175 198 0
175 198 0
175 198 0
175 198 0
174 198 0
175 198 0
176 198 0
177 199 0
175 198 0
176 199 0
174 197 0
176 199 0
175 198 0
177 199 0
176 198 0
174 198 0
176 198 0
175 198 0
175 198 0
176 199 0
174 198 0
175 198 0
176 199 0
174 197 0
174 198 0
175 198 0
174 198 0
174 198 0
175 198 0
174 198 0
175 198 0
174 198 0
174 198 0
174 198 0
174 198 0
175 198 0
175 198 0
176 198 0
174 198 0
174 198 0
173 197 0
175 198 0
173 197 0
174 198 0
176 199 0
174 198 0
174 198 0
174 198 0
173 197 0
175 198 0
175 198 0
175 198 0
176 198 0
174 198 0
175 198 0
173 197 0
174 197 0
174 198 0
175 198 0
175 198 0
174 198 0
173 197 0
173 197 0
175 198 0
174 198 0
173 197 0
175 198 0
176 199 0
175 198 0
173 197 0
175 198 0
175 198 0
173 197 0
173 197 0
176 199 0
174 198 0
173 197 0
174 198 0
175 198 0
175 198 0
174 198 0
174 197 0
175 198 0
174 198 0
175 198 0
177 199 0
173 197 0
175 198 0
172 197 0
173 197 0
174 198 0
173 197 0
174 198 0
176 199 0
174 197 0
174 197 0
175 198 0
173 197 0
173 197 0
175 198 0
175 198 0
175 198 0
175 198 0
174 198 0
174 198 0
173 197 0
174 198 0
176 198 0
173 197 0
175 198 0
175 198 0
175 198 0
173 197 0
175 198 0
175 198 0
174 197 0
175 198 0
176 199 0
175 198 0
174 198 0
175 198 0
175 198 0
173 197 0
174 197 0
174 197 0
174 197 0
175 198 0
176 198 0
175 198 0
175 198 0
175 198 0
175 198 0
174 198 0
173 197 0
174 198 0
175 198 0
175 198 0
174 198 0
174 198 0
174 197 0
175 198 0
174 198 0
176 198 0
177 199 0
174 198 0
174 198 0
174 198 0
175 198 0
174 197 0
175 198 0
174 197 0
173 197 0
176 199 0
175 197 0
174 198 0
174 197 0
173 197 0
174 197 0
175 198 0
174 197 0
176 198 0
176 199 0
172 196 0
174 197 0
174 197 0
175 198 0
175 198 0
174 197 0
173 197 0
173 196 0
174 198 0
174 198 0
174 197 0
174 197 0
173 196 0
174 198 0
173 197 0
172 196 0
173 197 0
174 197 0
172 195 0
173 197 0
174 197 0
174 198 0
173 197 0
175 198 0
172 196 0
175 198 0
173 197 0
175 198 0
171 195 0
173 196 0
173 195 0
174 198 0
172 195 0
173 197 0
171 195 0
170 193 0
172 195 0
170 193 0
172 196 0
173 197 0
171 195 0
174 197 0
175 198 0
170 194 0
172 195 0
172 196 0
170 192 0
171 194 0
172 195 0
173 196 0
172 195 0
172 196 0
171 194 0
170 193 0
168 191 0
174 198 0
172 195 0
170 193 0
137 162 113
63 99 177
63 100 180
63 100 181
62 99 177
62 99 176
62 98 174
62 99 174
62 99 180
63 100 179
62 99 177
62 99 177
62 99 176
62 99 175
62 99 178
63 100 176
63 99 174
63 100 173
62 99 176
62 99 173
62 99 175
62 99 174
62 99 175
62 99 174
62 99 170
63 99 177
62 99 170
62 98 168
61 97 164
59 93 151
53 71 94
63 68 48
81 84 52
101 102 66
108 109 65
127 126 72
131 130 77
146 142 75
157 152 90
153 150 83
162 157 86
161 156 80
171 164 93
170 164 88
168 162 87
169 163 85
168 162 84
162 156 80
164 157 83
155 150 72
158 151 77
140 135 64
138 133 62
150 156 47
171 195 0
172 193 0
172 194 0
171 192 0
173 195 0
173 196 0
173 197 0
173 196 0
173 196 0
172 194 0
173 196 0
173 196 0
173 197 0
173 196 0
174 197 0
173 196 0
173 197 0
173 196 0
174 197 0
174 197 0
174 197 0
173 196 0
174 198 0
173 196 0
173 196 0
174 197 0
173 196 0
174 197 0
175 198 0
174 197 0
172 196 0
172 197 0
173 197 0
173 197 0
174 197 0
177 199 0
173 197 0
175 198 0
171 195 0
175 197 0
174 197 0
173 197 0
175 198 0
175 197 0
172 196 0
173 197 0
173 197 0
174 197 0
176 199 0
173 197 0
174 198 0
174 198 0
174 198 0
175 198 0
175 198 0
173 196 0
173 197 0
174 198 0
174 197 0
174 198 0
175 198 0
174 198 0
174 198 0
174 198 0
176 199 0
173 197 0
175 198 0
173 197 0
174 197 0
175 198 0
174 197 0
173 197 0
173 197 0
174 197 0
175 198 0
176 198 0
176 198 0
175 198 0
175 198 0
174 198 0
175 198 0
174 198 0
176 198 0
174 198 0
175 198 0
173 197 0
175 198 0
174 197 0
175 198 0
174 197 0
175 198 0
173 197 0
175 198 0
174 198 0
175 198 0
173 197 0
174 198 0
174 198 0
176 199 0
175 198 0
174 197 0
174 198 0
174 198 0
175 198 0
173 197 0
176 199 0
174 198 0
173 197 0
174 198 0
174 197 0
173 197 0
174 198 0
176 198 0
174 198 0
174 198 0
174 198 0
175 198 0
175 198 0
174 198 0
176 199 0
174 198 0
175 198 0
174 198 0
176 198 0
173 197 0
173 197 0
174 197 0
175 198 0
174 198 0
175 198 0
175 198 0
174 198 0
175 198 0
173 197 0
175 198 0
177 199 0
175 198 0
175 198 0
176 199 0
175 198 0
175 198 0
175 198 0
174 198 0
176 199 0
174 198 0
175 198 0
174 197 0
174 197 0
173 197 0
174 198 0
175 198 0
174 198 0
175 198 0
175 198 0
174 197 0
172 197 0
174 197 0
173 197 0
174 198 0
174 198 0
175 198 0
173 197 0
175 198 0
175 198 0
173 197 0
175 198 0
173 197 0
175 198 0
174 198 0
173 197 0
173 197 0
175 198 0
175 198 0
176 198 0
175 198 0
174 197 0
176 198 0
175 198 0
176 198 0
174 198 0
175 198 0
174 198 0
174 198 0
176 198 0
176 199 0
174 198 0
174 198 0
176 198 0
174 198 0
174 198 0
174 198 0
173 197 0
173 197 0
175 198 0
173 197 0
175 198 0
175 198 0
176 198 0
174 198 0
174 198 0
174 198 0
175 198 0
176 198 0
175 198 0
175 198 0
176 199 0
173 197 0
175 198 0
175 198 0
175 198 0
173 197 0
177 199 0
173 197 0
175 198 0
173 197 0
175 198 0
173 197 0
175 198 0
175 198 0
173 197 0
176 199 0
174 197 0
174 198 0
174 198 0
175 198 0
175 198 0
175 198 0
174 197 0
175 198 0
175 198 0
174 198 0
173 197 0
175 198 0
175 198 0
175 198 0
175 198 0
173 197 0
173 197 0
172 197 0
174 197 0
173 197 0
174 197 0
175 198 0
174 198 0
174 198 0
174 197 0
175 198 0
175 198 0
173 197 0
175 198 0
173 196 0
175 198 0
174 197 0
176 199 0
176 198 0
174 198 0
176 199 0
176 199 0
174 198 0
174 198 0
175 198 0
174 198 0
175 198 0
176 198 0
174 198 0
172 196 0
175 198 0
175 198 0
175 198 0
174 198 0
174 198 0
174 197 0
175 198 0
174 198 0
173 197 0
175 198 0
175 198 0
175 198 0
174 197 0
173 197 0
175 198 0
176 199 0
172 197 0
174 197 0
173 197 0
175 198 0
173 196 0
173 197 0
175 198 0
175 198 0
174 198 0
174 198 0
174 197 0
175 198 0
173 197 0
174 197 0
174 198 0
175 198 0
173 196 0
173 197 0
174 198 0
171 195 0
173 197 0
174 197 0
174 197 0
175 198 0
176 199 0
174 198 0
174 197 0
174 197 0
174 197 0
173 197 0
172 195 0
175 198 0
173 197 0
171 195 0
174 197 0
173 197 0
172 196 0
175 198 0
175 198 0
174 196 0
173 197 0
173 196 0
173 196 0
172 195 0
172 195 0
174 198 0
173 197 0
171 195 0
172 196 0
170 194 0
171 195 0
171 195 0
170 193 0
174 197 0
173 196 0
170 194 0
171 195 0
170 194 0
172 195 0
173 196 0
169 193 0
169 193 0
168 192 0
168 190 0
107 135 150
63 100 178
62 99 176
63 100 179
63 99 177
63 100 179
62 99 175
62 99 180
62 99 176
62 99 180
62 99 178
63 100 179
62 99 176
62 99 175
62 98 172
62 99 172
62 99 170
61 98 176
62 98 173
62 99 171
62 98 168
62 98 171
62 98 171
63 99 171
62 98 167
62 99 169
62 98 167
62 97 164
61 97 163
61 96 161
62 87 125
46 52 34
74 78 50
96 98 58
107 108 62
132 130 71
129 126 73
140 137 70
151 147 78
156 152 82
158 153 79
164 159 82
165 159 78
168 162 83
160 156 75
163 156 80
160 154 71
157 151 75
162 153 81
152 145 72
151 145 67
148 142 64
133 128 53
148 161 30
172 194 0
169 191 0
170 193 0
169 191 0
174 195 0
172 194 0
171 194 0
171 193 0
174 196 0
172 194 0
173 196 0
173 196 0
171 195 0
173 196 0
171 195 0
173 197 0
174 198 0
172 195 0
176 198 0
173 195 0
174 197 0
175 198 0
175 198 0
174 196 0
173 197 0
174 197 0
175 197 0
175 198 0
174 197 0
175 198 0
173 196 0
175 198 0
177 199 0
174 196 0
174 197 0
177 199 0
173 197 0
173 197 0
173 197 0
174 197 0
174 198 0
173 196 0
174 198 0
175 198 0
175 198 0
173 196 0
174 198 0
175 198 0
174 198 0
173 197 0
173 196 0
175 198 0
175 198 0
174 198 0
173 197 0
173 196 0
175 197 0
174 197 0
174 197 0
174 197 0
172 197 0
174 198 0
175 198 0
174 197 0
175 198 0
175 198 0
174 198 0
174 198 0
173 197 0
175 198 0
174 197 0
176 199 0
174 198 0
176 198 0
175 198 0
174 198 0
176 198 0
175 198 0
173 197 0
175 198 0
174 198 0
175 198 0
174 198 0
174 198 0
174 198 0
174 198 0
174 198 0
174 197 0
174 197 0
174 198 0
175 198 0
175 198 0
174 197 0
173 197 0
174 198 0
174 198 0
175 198 0
175 198 0
173 197 0
175 198 0
173 197 0
173 197 0
176 199 0
175 198 0
173 197 0
174 198 0
175 198 0
172 197 0
174 198 0
175 198 0
175 198 0
174 197 0
175 198 0
173 197 0
173 197 0
174 198 0
175 198 0
175 198 0
175 198 0
173 197 0
176 199 0
175 198 0
175 198 0
175 198 0
174 198 0
173 197 0
174 198 0
174 198 0
175 198 0
174 198 0
174 198 0
175 198 0
174 198 0
173 197 0
173 197 0
175 198 0
173 197 0
174 197 0
175 198 0
173 197 0
174 198 0
173 197 0
174 198 0
174 198 0
175 198 0
173 197 0
174 198 0
176 198 0
175 198 0
175 198 0
174 198 0
174 198 0
174 198 0
175 198 0
175 198 0
174 198 0
176 199 0
176 198 0
173 197 0
175 198 0
175 198 0
174 198 0
173 197 0
174 198 0
175 198 0
177 199 0
175 198 0
175 198 0
174 198 0
175 198 0
174 197 0
175 198 0
174 198 0
174 197 0
174 197 0
175 198 0
175 198 0
174 198 0
175 198 0
173 197 0
174 198 0
173 197 0
175 198 0
175 198 0
175 198 0
176 199 0
173 197 0
177 199 0
174 198 0
175 198 0
176 199 0
175 198 0
174 197 0
176 199 0
174 198 0
174 197 0
172 197 0
175 198 0
174 198 0
176 199 0
174 198 0
175 198 0
175 198 0
174 197 0
175 198 0
174 198 0
175 198 0
174 198 0
175 198 0
175 198 0
176 198 0
173 197 0
175 198 0
175 198 0
174 198 0
175 198 0
175 198 0
174 198 0
174 197 0
174 198 0
175 198 0
175 198 0
173 197 0
174 198 0
175 198 0
173 197 0
175 198 0
173 197 0
175 198 0
174 198 0
174 198 0
173 197 0
174 198 0
175 198 0
176 199 0
175 198 0
174 197 0
175 198 0
173 197 0
174 198 0
173 197 0
175 198 0
174 197 0
175 198 0
174 197 0
173 197 0
175 198 0
174 198 0
175 198 0
172 197 0
173 197 0
174 197 0
176 199 0
175 198 0
175 198 0
176 199 0
173 197 0
174 198 0
173 197 0
174 198 0
173 197 0
173 197 0
174 198 0
174 198 0
175 198 0
174 197 0
174 198 0
175 198 0
175 198 0
174 198 0
174 198 0
175 198 0
174 197 0
173 197 0
174 198 0
174 198 0
174 198 0
174 198 0
173 197 0
174 198 0
172 196 0
176 199 0
174 197 0
175 198 0
174 197 0
175 198 0
173 197 0
174 197 0
174 198 0
174 197 0
174 197 0
174 198 0
173 196 0
174 198 0
174 197 0
173 197 0
171 194 0
175 198 0
173 197 0
171 195 0
173 197 0
175 198 0
173 197 0
175 198 0
174 197 0
174 197 0
172 195 0
173 196 0
174 197 0
173 197 0
173 196 0
174 198 0
172 196 0
175 198 0
174 198 0
171 195 0
171 195 0
175 198 0
172 196 0
173 196 0
173 196 0
174 197 0
172 195 0
172 196 0
175 198 0
173 196 0
175 198 0
171 194 0
172 196 0
172 195 0
172 195 0
169 192 0
169 193 0
171 195 0
169 193 0
169 193 0
173 195 0
170 193 0
170 193 0
169 192 0
165 189 0
170 193 0
169 192 0
168 191 0
167 191 0
165 189 47
65 101 175
62 99 174
62 99 178
63 99 177
61 98 174
62 99 173
62 98 176
62 98 173
62 99 176
62 99 176
63 100 179
61 98 172
61 98 175
62 98 174
63 100 179
62 99 169
61 98 169
61 98 168
62 98 167
62 99 172
62 98 172
63 99 172
63 99 176
61 98 161
61 98 168
61 97 160
63 99 166
61 97 166
62 98 164
60 95 155
62 95 146
55 60 32
75 78 33
85 89 44
103 104 48
121 120 68
131 128 65
135 133 72
154 149 79
148 143 69
156 151 67
162 156 79
162 156 79
162 156 69
162 156 73
159 153 70
160 155 69
152 146 65
158 152 69
163 156 75
145 140 58
146 140 63
142 137 58
165 184 11
169 191 0
169 192 0
171 192 0
174 197 0
171 193 0
172 194 0
173 195 0
173 195 0
171 192 0
174 196 0
174 197 0
173 197 0
171 194 0
173 196 0
172 195 0
172 196 0
172 195 0
174 197 0
173 197 0
173 196 0
173 196 0
174 197 0
174 196 0
173 197 0
173 196 0
173 197 0
171 195 0
173 196 0
174 197 0
172 195 0
172 196 0
174 197 0
174 197 0
175 198 0
175 197 0
174 198 0
172 196 0
174 197 0
175 198 0
172 196 0
175 198 0
173 197 0
174 197 0
173 196 0
173 197 0
173 197 0
173 197 0
174 197 0
174 197 0
175 198 0
173 197 0
175 198 0
176 199 0
174 198 0
173 197 0
174 198 0
174 198 0
175 198 0
176 199 0
173 197 0
176 199 0
173 197 0
175 198 0
173 197 0
173 197 0
175 198 0
175 198 0
173 197 0
174 198 0
175 198 0
173 197 0
175 198 0
175 198 0
174 197 0
174 197 0
174 198 0
175 198 0
174 198 0
174 198 0
174 198 0
175 198 0
176 198 0
173 197 0
173 197 0
174 197 0
174 198 0
175 198 0
174 197 0
174 198 0
175 198 0
173 197 0
172 196 0
175 198 0
175 198 0
175 198 0
175 198 0
174 198 0
174 197 0
175 198 0
174 197 0
175 198 0
174 198 0
174 197 0
175 198 0
174 198 0
174 198 0
175 198 0
175 198 0
173 197 0
176 199 0
175 198 0
173 197 0
176 199 0
175 198 0
174 198 0
174 198 0
174 198 0
174 198 0
173 197 0
177 199 0
174 198 0
175 198 0
175 198 0
174 198 0
173 197 0
175 198 0
175 198 0
174 197 0
175 198 0
174 197 0
175 198 0
175 198 0
174 198 0
176 199 0
173 197 0
174 197 0
177 199 0
174 198 0
175 198 0
176 199 0
173 197 0
175 198 0
173 197 0
171 196 0
174 198 0
175 198 0
173 197 0
175 198 0
174 198 0
174 198 0
174 197 0
175 198 0
175 198 0
175 198 0
174 198 0
175 198 0
174 198 0
175 198 0
175 198 0
176 199 0
173 197 0
174 198 0
173 197 0
174 198 0
174 198 0
175 198 0
174 198 0
174 197 0
174 198 0
175 198 0
175 198 0
176 198 0
175 198 0
175 198 0
174 198 0
174 198 0
174 198 0
173 197 0
174 198 0
174 198 0
174 198 0
175 198 0
174 198 0
176 199 0
173 197 0
174 198 0
174 198 0
176 199 0
174 197 0
174 197 0
176 199 0
173 197 0
175 198 0
173 197 0
175 198 0
174 198 0
173 197 0
174 198 0
174 197 0
174 198 0
174 198 0
175 198 0
176 198 0
176 199 0
174 198 0
175 198 0
175 198 0
175 198 0
173 197 0
174 197 0
174 197 0
175 198 0
173 197 0
173 197 0
176 199 0
174 197 0
174 198 0
175 198 0
175 198 0
172 196 0
174 197 0
175 198 0
174 197 0
172 197 0
173 197 0
174 198 0
173 197 0
173 197 0
174 198 0
175 198 0
175 198 0
174 198 0
173 197 0
174 198 0
172 197 0
174 198 0
174 197 0
174 198 0
174 197 0
175 198 0
175 198 0
174 197 0
173 197 0
174 197 0
174 198 0
173 197 0
174 198 0
173 197 0
175 198 0
175 198 0
175 198 0
174 198 0
172 196 0
174 197 0
172 197 0
174 198 0
174 197 0
174 197 0
175 198 0
174 197 0
175 198 0
172 197 0
174 198 0
173 197 0
173 197 0
175 198 0
172 196 0
175 198 0
173 197 0
174 197 0
175 198 0
174 198 0
174 197 0
174 198 0
175 198 0
175 198 0
174 198 0
174 198 0
173 197 0
174 198 0
175 198 0
174 198 0
174 198 0
175 198 0
173 196 0
175 198 0
174 198 0
173 197 0
174 198 0
173 197 0
172 196 0
173 197 0
176 199 0
174 197 0
174 197 0
175 198 0
173 197 0
174 197 0
172 196 0
175 198 0
174 198 0
173 197 0
173 197 0
173 197 0
173 197 0
172 196 0
173 197 0
174 197 0
174 197 0
173 196 0
174 197 0
174 197 0
172 196 0
175 198 0
172 196 0
175 198 0
173 196 0
172 196 0
173 196 0
175 198 0
174 197 0
177 199 0
173 196 0
174 197 0
174 198 0
171 195 0
172 195 0
173 196 0
172 195 0
171 195 0
171 194 0
170 194 0
171 194 0
169 193 0
170 194 0
173 197 0
172 196 0
171 194 0
169 192 0
171 194 0
167 190 0
173 196 0
173 196 0
166 189 0
168 190 0
147 170 82
63 100 176
63 100 177
63 99 177
62 99 179
62 99 175
62 99 175
61 98 173
62 99 176
62 99 176
62 98 166
62 99 170
62 99 173
62 99 173
63 99 175
62 99 172
63 100 176
61 98 164
62 99 172
61 98 170
62 99 174
62 99 176
63 99 174
63 99 168
62 99 172
61 97 163
62 98 166
61 98 163
62 98 165
62 98 162
61 96 156
60 94 151
68 77 62
64 66 28
83 85 39
102 102 34
114 113 48
126 125 51
144 138 74
140 137 58
142 138 64
156 150 67
154 149 71
155 150 71
163 156 73
167 159 80
154 149 68
157 152 66
154 147 63
149 143 57
151 145 62
144 137 53
137 132 49
148 160 22
168 188 0
168 187 0
170 192 0
166 186 0
173 194 0
170 190 0
172 193 0
173 194 0
172 193 0
172 193 0
170 193 0
174 196 0
172 195 0
173 195 0
173 196 0
172 194 0
174 196 0
175 197 0
173 195 0
172 195 0
170 193 0
172 196 0
175 197 0
174 196 0
173 196 0
173 197 0
173 196 0
173 197 0
175 198 0
173 196 0
173 197 0
174 197 0
173 196 0
173 197 0
173 195 0
173 197 0
174 197 0
174 198 0
174 198 0
175 198 0
174 197 0
172 195 0
174 197 0
175 198 0
173 197 0
174 198 0
172 196 0
173 197 0
174 197 0
176 198 0
174 198 0
175 198 0
175 198 0
174 198 0
176 199 0
174 197 0
174 198 0
173 196 0
174 197 0
174 197 0
174 197 0
175 198 0
174 198 0
175 198 0
175 198 0
175 198 0
173 197 0
174 198 0
173 197 0
173 197 0
175 198 0
173 197 0
174 198 0
176 198 0
174 198 0
175 198 0
173 197 0
175 198 0
173 197 0
175 198 0
173 197 0
174 198 0
174 198 0
173 197 0
173 197 0
175 198 0
174 197 0
175 198 0
173 197 0
175 198 0
174 198 0
174 197 0
174 198 0
174 197 0
175 198 0
175 198 0
173 197 0
175 198 0
173 197 0
174 198 0
173 197 0
175 198 0
175 198 0
174 198 0
173 197 0
175 198 0
176 199 0
175 198 0
174 198 0
174 198 0
175 198 0
174 198 0
175 198 0
174 197 0
176 199 0
175 198 0
175 198 0
174 198 0
172 197 0
177 199 0
174 197 0
175 198 0
175 198 0
175 198 0
174 197 0
173 197 0
174 198 0
174 197 0
172 197 0
173 197 0
175 198 0
174 198 0
174 197 0
174 197 0
176 199 0
174 198 0
174 197 0
174 198 0
175 198 0
174 198 0
174 197 0
173 197 0
173 197 0
174 197 0
175 198 0
175 198 0
175 198 0
174 197 0
175 198 0
174 198 0
174 198 0
175 198 0
174 198 0
173 197 0
174 198 0
174 198 0
174 197 0
175 198 0
175 198 0
174 198 0
176 199 0
176 199 0
175 198 0
174 197 0
174 198 0
174 198 0
175 198 0
175 198 0
175 198 0
175 198 0
174 197 0
175 198 0
174 198 0
175 198 0
174 198 0
176 199 0
174 198 0
174 197 0
175 198 0
174 198 0
175 198 0
175 198 0
174 198 0
175 198 0
175 198 0
173 197 0
175 198 0
175 198 0
174 198 0
175 198 0
174 197 0
174 198 0
174 197 0
175 198 0
174 198 0
175 198 0
174 198 0
175 198 0
173 197 0
175 198 0
174 197 0
174 197 0
176 198 0
172 197 0
173 197 0
173 197 0
176 199 0
174 198 0
174 198 0
176 198 0
176 198 0
175 198 0
173 197 0
172 197 0
175 198 0
174 198 0
174 198 0
175 198 0
173 197 0
174 198 0
174 198 0
175 198 0
172 197 0
174 198 0
174 198 0
176 199 0
174 198 0
174 198 0
173 197 0
174 197 0
175 198 0
173 197 0
174 197 0
174 198 0
174 198 0
174 197 0
173 197 0
175 198 0
175 198 0
174 198 0
175 198 0
175 198 0
174 197 0
174 198 0
175 198 0
175 198 0
175 198 0
176 199 0
174 197 0
174 197 0
173 197 0
174 198 0
175 198 0
175 198 0
175 198 0
175 198 0
175 198 0
173 197 0
176 198 0
175 198 0
173 197 0
174 198 0
173 197 0
174 197 0
174 198 0
176 198 0
173 196 0
172 196 0
174 198 0
173 197 0
175 198 0
175 198 0
174 198 0
174 198 0
173 197 0
174 198 0
174 197 0
175 198 0
174 198 0
174 197 0
176 198 0
174 198 0
175 197 0
171 196 0
174 197 0
175 198 0
174 197 0
175 198 0
173 197 0
174 197 0
173 196 0
171 194 0
173 196 0
174 198 0
173 197 0
172 197 0
173 197 0
175 198 0
173 197 0
174 198 0
173 197 0
175 198 0
174 197 0
175 198 0
174 197 0
175 198 0
173 196 0
173 197 0
174 197 0
172 196 0
172 195 0
173 196 0
173 196 0
173 196 0
173 197 0
173 197 0
172 195 0
174 198 0
172 196 0
172 195 0
173 196 0
173 196 0
171 195 0
174 196 0
173 197 0
173 197 0
171 194 0
170 194 0
171 194 0
171 194 0
175 198 0
169 193 0
175 197 0
169 193 0
170 194 0
168 192 0
169 193 0
173 196 0
168 191 0
169 194 0
169 193 0
170 193 0
172 195 0
169 193 0
166 190 0
167 190 0
146 170 86
62 99 171
63 99 179
63 100 177
62 98 170
63 99 176
62 99 174
61 98 175
62 98 170
62 98 172
61 98 173
62 99 170
62 99 173
61 98 171
62 99 173
62 99 170
62 99 169
62 98 166
62 99 173
62 98 166
62 99 172
62 98 167
61 97 164
62 99 167
62 98 164
62 98 165
64 100 169
62 98 162
63 99 166
62 98 163
61 95 150
61 96 148
70 81 82
73 75 25
94 94 42
93 93 41
114 113 46
127 125 49
132 130 62
141 136 59
146 141 62
149 143 57
145 141 58
149 143 64
153 147 66
157 150 62
156 149 66
143 138 56
150 144 54
150 144 58
142 136 49
128 123 42
130 131 42
161 177 0
168 187 0
169 190 0
165 184 0
167 187 0
170 191 0
168 188 0
170 192 0
170 192 0
169 190 0
175 197 0
171 194 0
170 192 0
174 197 0
172 194 0
170 193 0
172 195 0
173 196 0
173 195 0
173 196 0
172 196 0
175 197 0
174 197 0
175 198 0
172 196 0
173 196 0
174 198 0
172 196 0
174 196 0
172 197 0
174 197 0
174 197 0
173 197 0
173 197 0
174 197 0
175 198 0
172 196 0
171 194 0
174 198 0
176 198 0
173 197 0
174 198 0
175 198 0
174 197 0
175 197 0
173 197 0
176 199 0
174 197 0
173 197 0
172 196 0
175 198 0
175 198 0
173 197 0
174 197 0
175 198 0
173 197 0
174 198 0
175 198 0
173 196 0
173 197 0
174 197 0
175 198 0
175 198 0
174 197 0
174 198 0
173 197 0
174 197 0
175 198 0
175 198 0
174 198 0
176 198 0
175 198 0
174 197 0
174 198 0
174 198 0
173 197 0
174 197 0
175 198 0
175 198 0
175 198 0
175 198 0
174 198 0
174 197 0
175 198 0
174 198 0
175 198 0
174 198 0
175 198 0
173 197 0
175 198 0
173 197 0
175 198 0
175 198 0
174 197 0
175 198 0
174 198 0
174 197 0
175 198 0
175 198 0
173 197 0
174 198 0
176 199 0
175 198 0
174 197 0
174 198 0
174 198 0
173 197 0
172 197 0
176 199 0
176 198 0
175 198 0
175 198 0
175 198 0
175 198 0
175 198 0
176 199 0
174 198 0
176 199 0
174 198 0
173 197 0
174 197 0
173 197 0
176 199 0
175 198 0
176 199 0
174 197 0
176 199 0
175 198 0
174 197 0
176 199 0
175 198 0
175 198 0
173 197 0
178 200 0
174 198 0
174 198 0
175 198 0
174 198 0
174 198 0
173 197 0
174 198 0
175 198 0
175 198 0
174 198 0
176 198 0
173 197 0
177 199 0
174 198 0
175 198 0
174 198 0
173 197 0
174 198 0
173 197 0
175 198 0
175 198 0
175 198 0
175 198 0
174 197 0
175 198 0
174 198 0
172 197 0
174 198 0
173 197 0
175 198 0
175 198 0
175 198 0
175 198 0
173 197 0
175 198 0
174 198 0
173 197 0
175 198 0
176 199 0
175 198 0
173 197 0
175 198 0
176 199 0
172 197 0
175 198 0
174 198 0
174 198 0
175 198 0
174 198 0
174 198 0
174 198 0
173 197 0
175 198 0
176 198 0
176 198 0
175 198 0
174 198 0
174 198 0
174 198 0
175 198 0
174 198 0
175 198 0
176 199 0
174 198 0
174 197 0
173 197 0
175 198 0
175 198 0
174 197 0
175 198 0
174 197 0
175 198 0
175 198 0
175 198 0
173 197 0
176 199 0
174 198 0
175 198 0
174 198 0
173 197 0
175 198 0
173 197 0
174 198 0
175 198 0
174 198 0
174 198 0
174 197 0
175 198 0
175 198 0
175 198 0
175 198 0
174 198 0
174 198 0
175 198 0
175 198 0
175 198 0
174 198 0
174 197 0
175 198 0
175 198 0
175 198 0
174 198 0
175 198 0
175 198 0
173 197 0
173 197 0
175 198 0
175 198 0
173 197 0
175 198 0
176 198 0
175 198 0
174 198 0
175 198 0
173 197 0
175 198 0
174 198 0
173 197 0
175 198 0
175 198 0
174 198 0
173 197 0
173 197 0
173 197 0
176 198 0
175 198 0
174 198 0
174 198 0
175 198 0
175 198 0
175 198 0
172 197 0
174 198 0
173 197 0
176 198 0
173 197 0
175 197 0
174 198 0
173 197 0
174 198 0
175 198 0
174 197 0
175 198 0
173 197 0
174 197 0
173 197 0
174 197 0
173 197 0
176 199 0
171 195 0
176 198 0
172 197 0
173 196 0
176 199 0
173 197 0
173 197 0
174 197 0
172 196 0
175 198 0
174 198 0
173 196 0
174 197 0
173 197 0
174 198 0
173 197 0
175 198 0
172 195 0
175 198 0
173 197 0
173 196 0
174 197 0
173 197 0
172 196 0
174 198 0
176 199 0
172 196 0
173 197 0
171 195 0
171 195 0
174 197 0
174 197 0
172 196 0
172 196 0
173 197 0
175 198 0
173 197 0
171 195 0
173 197 0
172 196 0
173 197 0
172 196 0
171 195 0
172 195 0
173 196 0
173 197 0
174 197 0
173 196 0
174 196 0
172 195 0
167 191 0
171 194 0
175 198 51
172 194 57
177 200 80
178 200 92
174 197 80
176 198 84
178 201 76
175 196 88
175 197 95
170 192 44
166 190 0
163 187 0
130 155 117
63 99 170
63 99 168
61 98 168
63 99 169
62 99 172
62 98 172
62 98 175
62 98 173
62 98 168
63 99 176
62 98 167
61 98 170
61 97 163
62 98 168
61 98 166
62 98 168
62 98 167
62 98 162
62 99 170
62 98 165
62 98 162
62 99 171
62 98 159
63 99 164
61 97 158
61 97 157
63 99 164
61 97 152
61 97 153
59 94 146
61 96 147
67 75 63
80 79 23
96 94 25
91 91 32
110 109 47
119 117 36
134 130 49
124 121 48
135 132 47
142 138 56
149 144 63
147 142 58
152 146 60
148 142 47
143 137 51
145 140 47
144 138 57
133 127 45
128 123 39
133 130 36
157 172 11
165 182 0
166 183 0
168 187 0
171 191 0
171 191 0
168 189 0
169 191 0
169 190 0
173 195 0
171 194 0
171 193 0
171 190 0
172 194 0
173 195 0
171 193 0
172 195 0
174 196 0
174 196 0
173 196 0
172 195 0
172 195 0
173 196 0
174 197 0
174 198 0
173 196 0
173 197 0
174 197 0
171 195 0
173 197 0
174 197 0
174 197 0
174 196 0
173 196 0
172 196 0
174 196 0
174 197 0
174 197 0
174 197 0
172 195 0
176 198 0
175 198 0
174 198 0
173 196 0
173 197 0
173 197 0
174 198 0
173 196 0
175 197 0
175 198 0
174 197 0
174 197 0
173 197 0
172 195 0
175 198 0
174 198 0
175 198 0
173 197 0
175 198 0
174 198 0
172 196 0
176 198 0
175 198 0
176 199 0
176 199 0
175 198 0
173 197 0
176 199 0
174 198 0
175 198 0
174 197 0
175 198 0
174 197 0
176 198 0
175 198 0
173 197 0
174 197 0
175 198 0
174 197 0
174 198 0
173 197 0
174 198 0
174 198 0
174 197 0
174 198 0
174 198 0
174 198 0
176 198 0
174 198 0
174 197 0
174 197 0
173 197 0
175 198 0
175 198 0
174 198 0
175 198 0
174 198 0
173 197 0
176 198 0
175 198 0
176 198 0
172 196 0
176 199 0
176 199 0
176 198 0
173 197 0
176 199 0
174 198 0
175 198 0
175 198 0
175 198 0
174 198 0
174 198 0
174 198 0
175 198 0
173 197 0
173 197 0
173 197 0
175 198 0
173 197 0
174 198 0
174 198 0
176 199 0
174 198 0
174 197 0
176 199 0
175 198 0
175 198 0
175 198 0
174 198 0
173 197 0
175 198 0
174 198 0
174 198 0
175 198 0
175 198 0
174 198 0
175 198 0
174 198 0
174 197 0
174 198 0
175 198 0
174 198 0
176 198 0
176 199 0
175 198 0
175 198 0
175 198 0
174 198 0
174 197 0
173 197 0
174 198 0
174 197 0
175 198 0
175 198 0
173 197 0
174 198 0
175 198 0
175 198 0
175 198 0
176 199 0
176 198 0
174 197 0
175 198 0
174 198 0
174 198 0
176 199 0
174 198 0
176 199 0
173 197 0
174 198 0
174 198 0
175 198 0
175 198 0
173 197 0
174 198 0
173 197 0
174 197 0
174 198 0
173 197 0
174 198 0
174 198 0
174 197 0
175 198 0
175 198 0
175 198 0
175 198 0
176 199 0
175 198 0
173 197 0
173 197 0
175 198 0
173 197 0
175 198 0
174 198 0
175 198 0
173 197 0
174 197 0
174 198 0
174 197 0
175 198 0
174 197 0
176 199 0
174 197 0
175 198 0
175 198 0
173 197 0
174 197 0
174 198 0
173 197 0
175 198 0
174 198 0
176 199 0
176 199 0
175 198 0
175 198 0
173 197 0
175 198 0
173 197 0
174 198 0
173 197 0
173 197 0
174 198 0
174 198 0
174 198 0
174 198 0
175 198 0
175 198 0
174 198 0
173 197 0
174 197 0
174 197 0
174 198 0
173 197 0
173 197 0
175 198 0
174 197 0
174 197 0
174 198 0
174 198 0
174 198 0
175 198 0
175 198 0
172 197 0
174 198 0
175 198 0
174 197 0
174 197 0
175 198 0
174 198 0
174 197 0
174 197 0
173 197 0
175 198 0
174 198 0
175 198 0
173 197 0
174 198 0
175 198 0
176 199 0
174 198 0
175 198 0
174 198 0
175 198 0
173 197 0
174 198 0
175 198 0
174 198 0
174 198 0
174 198 0
174 198 0
173 197 0
173 197 0
175 198 0
174 198 0
174 197 0
173 197 0
174 198 0
174 198 0
173 197 0
175 198 0
175 198 0
174 198 0
174 197 0
175 198 0
175 198 0
174 197 0
173 197 0
173 197 0
172 196 0
173 197 0
174 197 0
175 198 0
175 198 0
174 198 0
175 198 0
176 198 0
173 196 0
176 198 0
174 197 0
174 197 0
172 196 0
175 198 0
175 198 0
173 197 0
172 196 0
174 197 0
174 198 0
169 194 0
171 195 0
172 196 0
174 197 0
174 198 0
171 196 0
173 197 0
174 197 0
173 197 0
174 198 0
172 196 0
173 196 0
173 196 0
172 195 0
174 197 0
175 198 0
172 195 0
171 195 0
171 194 0
172 195 0
172 196 0
170 195 0
169 193 0
172 196 0
168 192 0
171 194 51
171 194 57
174 197 62
183 204 111
186 207 133
180 203 99
188 208 140
194 213 163
187 208 135
190 210 149
184 206 117
182 203 114
184 206 114
180 201 114
171 193 92
111 137 125
80 112 161
63 100 175
61 97 166
60 97 167
61 98 172
61 98 173
62 99 174
62 98 170
62 99 167
61 98 170
63 99 172
63 100 172
63 99 168
62 98 167
62 98 163
62 98 162
63 99 173
62 98 169
62 98 164
63 99 166
62 98 162
62 99 169
62 98 164
62 98 163
61 97 158
62 98 158
62 98 162
62 98 161
60 95 147
61 96 149
59 94 141
75 86 81
85 84 18
93 90 18
99 99 14
113 110 34
114 110 33
123 120 35
124 122 37
134 130 44
139 135 50
139 133 49
143 138 42
142 138 36
135 130 37
142 135 47
144 137 45
130 126 42
135 129 45
126 121 30
148 155 25
167 183 0
163 181 0
162 180 0
170 187 0
170 192 0
169 189 0
171 191 0
171 192 0
170 191 0
172 192 0
171 191 0
170 192 0
171 194 0
172 193 0
171 194 0
170 192 0
171 194 0
173 195 0
172 195 0
170 193 0
172 195 0
172 195 0
173 196 0
174 196 0
172 196 0
172 195 0
176 198 0
172 196 0
174 197 0
173 197 0
173 195 0
174 197 0
172 196 0
175 198 0
175 198 0
173 196 0
173 196 0
173 197 0
173 196 0
173 196 0
174 198 0
173 196 0
175 197 0
172 196 0
175 198 0
173 196 0
173 196 0
174 198 0
174 198 0
174 198 0
173 197 0
174 198 0
174 197 0
174 197 0
174 197 0
172 196 0
175 198 0
171 195 0
173 196 0
174 198 0
175 198 0
175 198 0
174 197 0
175 198 0
174 198 0
175 197 0
175 198 0
175 198 0
174 197 0
174 197 0
173 197 0
174 198 0
175 198 0
173 197 0
175 198 0
175 198 0
173 197 0
175 198 0
176 199 0
173 197 0
174 197 0
174 198 0
175 198 0
176 198 0
174 197 0
175 198 0
175 198 0
175 198 0
175 198 0
174 197 0
174 198 0
175 198 0
174 198 0
174 198 0
174 197 0
173 197 0
174 198 0
175 198 0
174 198 0
175 198 0
174 197 0
174 197 0
173 197 0
176 199 0
173 197 0
174 198 0
176 198 0
173 197 0
176 199 0
172 196 0
174 198 0
175 198 0
173 197 0
174 197 0
174 198 0
175 198 0
175 198 0
172 196 0
173 197 0
174 197 0
174 198 0
174 198 0
174 198 0
175 198 0
173 197 0
174 198 0
175 198 0
175 198 0
176 199 0
174 198 0
173 197 0
175 198 0
175 198 0
174 198 0
175 198 0
176 198 0
174 198 0
175 198 0
176 198 0
174 198 0
173 197 0
175 198 0
175 198 0
173 197 0
176 198 0
175 198 0
174 198 0
175 198 0
174 198 0
176 198 0
175 198 0
175 198 0
176 199 0
176 199 0
173 197 0
174 198 0
173 197 0
176 199 0
175 198 0
175 198 0
173 197 0
174 198 0
175 198 0
173 197 0
175 198 0
174 198 0
174 197 0
174 198 0
176 199 0
175 198 0
174 198 0
175 198 0
174 198 0
174 198 0
176 199 0
176 199 0
177 199 0
174 198 0
175 198 0
175 198 0
174 198 0
174 198 0
175 198 0
174 198 0
174 198 0
173 197 0
174 198 0
174 198 0
173 197 0
174 198 0
176 199 0
175 198 0
175 198 0
173 197 0
173 197 0
173 197 0
173 197 0
174 197 0
174 198 0
176 199 0
174 197 0
175 198 0
176 199 0
175 198 0
175 198 0
175 198 0
175 198 0
174 197 0
173 197 0
175 198 0
174 198 0
174 198 0
175 198 0
175 198 0
175 198 0
175 198 0
174 197 0
175 198 0
173 197 0
175 198 0
174 197 0
176 199 0
173 197 0
173 197 0
176 199 0
175 198 0
175 198 0
174 198 0
174 198 0
174 197 0
174 198 0
173 197 0
175 198 0
175 198 0
175 198 0
174 197 0
174 198 0
173 197 0
175 198 0
173 197 0
175 198 0
175 198 0
174 197 0
176 198 0
173 197 0
174 197 0
173 197 0
175 198 0
174 197 0
175 198 0
174 197 0
175 198 0
173 197 0
174 197 0
175 198 0
173 197 0
175 198 0
174 197 0
174 198 0
174 198 0
174 198 0
173 197 0
173 197 0
174 197 0
172 197 0
173 197 0
175 198 0
174 197 0
175 198 0
174 198 0
173 197 0
175 198 0
175 198 0
174 197 0
173 197 0
175 198 0
175 198 0
172 196 0
172 196 0
174 197 0
174 197 0
173 197 0
175 198 0
173 197 0
171 196 0
174 198 0
174 197 0
175 198 0
173 197 0
174 197 0
175 198 0
175 198 0
174 198 0
172 196 0
174 196 0
175 198 0
174 198 0
173 196 0
176 199 0
173 197 0
175 198 0
174 197 0
173 197 0
171 195 0
173 197 0
173 197 0
176 199 0
174 197 0
173 197 0
172 196 0
174 197 0
172 196 0
172 196 0
171 195 0
172 196 0
170 194 0
172 196 0
172 196 0
171 195 0
174 198 0
174 197 0
173 197 0
172 196 0
172 196 0
172 195 0
172 196 0
171 194 0
174 197 0
170 194 0
168 191 0
172 195 0
176 199 51
179 200 92
182 204 108
181 203 108
196 215 167
207 224 211
214 230 237
217 232 245
217 233 252
215 231 246
216 232 248
217 233 250
218 234 253
216 231 240
208 225 212
200 218 179
139 162 173
108 133 186
76 108 174
84 116 154
63 98 163
61 98 167
61 98 168
61 98 165
61 98 167
61 98 172
62 98 165
61 98 168
62 98 168
62 98 165
63 99 167
62 98 165
61 97 163
62 98 161
63 99 168
62 99 166
62 98 165
62 98 163
63 99 165
61 97 157
62 99 162
62 98 162
63 99 168
62 97 152
62 98 154
60 95 142
62 98 157
61 96 147
60 95 142
71 78 62
90 87 14
81 81 12
97 95 11
96 95 22
115 112 25
120 118 37
128 122 39
124 120 31
135 131 42
140 135 41
136 131 37
125 122 30
136 131 37
135 130 34
132 127 45
132 127 32
127 124 32
148 157 22
162 177 0
163 178 0
161 176 0
164 181 0
166 184 0
167 187 0
166 185 0
170 191 0
170 190 0
167 188 0
170 191 0
174 196 0
171 193 0
170 193 0
172 194 0
168 190 0
173 195 0
171 193 0
173 196 0
172 195 0
173 196 0
173 195 0
175 198 0
174 195 0
174 197 0
175 197 0
173 196 0
175 197 0
174 197 0
171 194 0
173 196 0
174 197 0
174 197 0
174 197 0
174 197 0
173 197 0
174 197 0
173 196 0
175 198 0
174 197 0
173 196 0
173 196 0
175 198 0
173 196 0
173 197 0
175 198 0
175 198 0
173 197 0
172 197 0
175 198 0
175 198 0
176 198 0
173 197 0
174 198 0
175 198 0
174 198 0
176 198 0
173 197 0
175 198 0
175 198 0
175 198 0
174 198 0
174 198 0
175 198 0
174 198 0
175 198 0
174 197 0
174 198 0
174 197 0
175 198 0
173 197 0
173 197 0
174 198 0
175 198 0
175 198 0
174 198 0
175 198 0
175 198 0
175 198 0
175 198 0
175 198 0
175 198 0
175 198 0
174 197 0
174 197 0
173 197 0
175 198 0
176 199 0
174 198 0
173 197 0
174 198 0
175 198 0
174 198 0
175 198 0
175 198 0
174 197 0
174 197 0
173 197 0
174 198 0
176 199 0
173 196 0
174 198 0
174 198 0
174 197 0
175 198 0
175 198 0
174 198 0
174 198 0
175 198 0
174 198 0
173 197 0
177 199 0
174 197 0
175 198 0
175 198 0
176 199 0
175 198 0
173 197 0
174 198 0
175 198 0
175 198 0
175 198 0
175 198 0
175 198 0
173 197 0
174 198 0
174 198 0
175 198 0
175 198 0
173 197 0
176 199 0
174 198 0
174 198 0
175 198 0
174 197 0
175 198 0
174 197 0
174 197 0
175 198 0
174 198 0
173 197 0
176 198 0
173 197 0
175 198 0
175 198 0
173 197 0
175 198 0
176 199 0
175 198 0
174 198 0
174 198 0
175 198 0
176 198 0
173 197 0
177 199 0
175 198 0
174 198 0
176 199 0
174 197 0
174 197 0
173 197 0
175 198 0
175 198 0
174 198 0
176 199 0
176 199 0
173 197 0
176 199 0
174 198 0
175 198 0
173 197 0
175 198 0
175 198 0
174 197 0
173 197 0
173 197 0
174 198 0
174 198 0
175 198 0
173 197 0
174 198 0
176 198 0
174 197 0
173 197 0
175 198 0
174 198 0
175 198 0
175 198 0
174 198 0
176 199 0
173 197 0
174 198 0
174 197 0
175 198 0
176 198 0
174 198 0
175 198 0
175 198 0
175 198 0
173 197 0
175 198 0
174 197 0
173 197 0
174 197 0
174 198 0
175 198 0
173 197 0
175 198 0
174 198 0
174 198 0
174 198 0
175 198 0
174 197 0
174 198 0
174 198 0
174 198 0
174 198 0
174 197 0
175 198 0
175 198 0
174 198 0
175 198 0
172 197 0
175 198 0
174 197 0
174 198 0
174 198 0
175 198 0
172 197 0
175 198 0
176 199 0
173 197 0
175 198 0
176 199 0
173 197 0
174 198 0
172 196 0
174 197 0
173 197 0
174 198 0
175 198 0
175 198 0
173 197 0
174 197 0
175 198 0
174 198 0
175 198 0
174 197 0
174 198 0
175 198 0
174 197 0
174 197 0
174 198 0
174 198 0
175 198 0
174 197 0
176 198 0
174 197 0
173 197 0
173 197 0
174 198 0
175 198 0
174 198 0
172 196 0
175 198 0
174 198 0
174 197 0
173 197 0
174 198 0
174 198 0
174 197 0
172 196 0
173 197 0
172 197 0
173 197 0
174 197 0
175 198 0
176 198 0
173 197 0
174 198 0
173 197 0
174 198 0
174 197 0
175 198 0
174 197 0
174 198 0
173 196 0
175 198 0
173 197 0
174 198 0
173 197 0
175 198 0
174 198 0
174 197 0
175 198 0
175 198 0
174 196 0
172 196 0
174 197 0
175 198 0
173 197 0
174 197 0
172 196 0
173 196 0
173 197 0
174 197 0
174 198 0
174 198 0
174 198 0
173 196 0
173 197 0
174 197 0
173 197 0
173 197 0
175 198 0
174 197 0
173 196 0
170 194 0
174 198 0
172 195 0
171 194 0
173 196 0
173 196 0
174 196 0
175 198 0
172 196 0
171 195 0
171 194 0
175 198 0
168 192 0
173 195 25
177 199 62
180 202 95
186 207 127
201 219 194
217 232 245
215 231 246
214 231 253
213 231 252
211 230 253
210 229 252
208 227 244
210 228 245
210 229 249
210 229 249
212 230 252
215 231 252
217 233 252
187 204 234
88 118 184
107 133 194
69 104 175
73 107 165
67 101 162
65 100 166
61 97 167
61 98 162
61 97 163
62 98 165
60 97 162
62 99 165
63 99 172
62 98 163
63 99 168
62 98 162
62 99 169
62 99 169
61 97 156
62 98 160
61 98 161
61 97 155
62 98 160
61 97 151
62 98 160
62 97 151
61 97 147
62 97 148
61 97 153
61 95 141
61 96 147
58 92 133
106 110 45
79 76 0
77 73 0
95 93 12
102 99 8
107 105 11
106 104 11
117 115 21
123 117 21
120 115 22
117 112 25
118 114 19
123 117 19
122 116 16
122 117 25
127 121 36
122 122 22
147 156 0
160 170 0
158 173 0
164 180 0
161 178 0
161 175 0
165 182 0
164 183 0
168 187 0
171 190 0
169 187 0
168 189 0
173 193 0
173 194 0
169 191 0
172 195 0
169 191 0
171 194 0
170 191 0
173 196 0
173 195 0
172 194 0
174 196 0
173 196 0
173 196 0
173 195 0
172 196 0
173 196 0
173 196 0
172 196 0
173 196 0
173 195 0
170 193 0
175 198 0
174 196 0
173 196 0
175 197 0
173 196 0
173 197 0
174 196 0
175 197 0
172 196 0
174 197 0
172 196 0
172 196 0
174 197 0
176 199 0
174 197 0
174 197 0
175 198 0
173 197 0
175 198 0
174 197 0
174 198 0
174 197 0
174 197 0
174 197 0
175 198 0
174 197 0
175 198 0
174 197 0
175 198 0
174 198 0
174 197 0
176 198 0
174 198 0
173 197 0
173 197 0
174 198 0
174 198 0
173 197 0
175 198 0
175 198 0
173 197 0
174 197 0
174 198 0
174 198 0
174 198 0
175 198 0
174 197 0
174 197 0
173 197 0
174 198 0
175 198 0
174 198 0
173 197 0
175 198 0
174 197 0
175 198 0
174 197 0
173 197 0
174 198 0
176 199 0
174 198 0
175 198 0
175 198 0
174 198 0
175 198 0
175 198 0
175 198 0
174 198 0
175 198 0
175 198 0
175 198 0
175 198 0
173 197 0
176 198 0
174 197 0
173 197 0
174 198 0
175 198 0
174 198 0
173 197 0
174 198 0
175 198 0
175 198 0
174 198 0
176 199 0
173 197 0
174 197 0
175 198 0
174 198 0
174 198 0
175 198 0
174 198 0
173 197 0
175 198 0
173 197 0
175 198 0
174 197 0
174 198 0
175 198 0
177 199 0
174 198 0
176 198 0
174 198 0
175 198 0
174 197 0
174 197 0
176 199 0
174 197 0
176 199 0
174 197 0
176 199 0
174 197 0
173 197 0
175 198 0
172 197 0
174 198 0
173 197 0
175 198 0
173 197 0
175 198 0
176 198 0
174 198 0
175 198 0
173 197 0
174 198 0
175 198 0
177 199 0
174 198 0
175 198 0
174 197 0
175 198 0
175 198 0
173 197 0
174 197 0
174 197 0
175 198 0
176 199 0
175 198 0
174 198 0
174 198 0
173 197 0
174 198 0
173 197 0
176 198 0
175 198 0
175 198 0
173 197 0
175 198 0
175 198 0
173 197 0
174 198 0
175 198 0
175 198 0
174 198 0
175 198 0
175 198 0
174 198 0
175 198 0
173 197 0
174 198 0
175 198 0
174 198 0
175 198 0
174 197 0
174 198 0
175 198 0
175 198 0
174 198 0
174 197 0
174 198 0
175 198 0
176 199 0
176 199 0
174 197 0
175 198 0
173 197 0
174 198 0
175 198 0
174 198 0
174 198 0
174 198 0
174 198 0
174 198 0
176 198 0
174 198 0
174 197 0
174 198 0
175 198 0
174 198 0
175 198 0
174 198 0
175 198 0
176 198 0
174 198 0
173 197 0
175 198 0
174 197 0
173 197 0
175 198 0
175 198 0
173 197 0
173 197 0
174 198 0
173 197 0
174 198 0
173 197 0
174 198 0
174 198 0
174 197 0
175 198 0
173 197 0
173 197 0
174 198 0
177 199 0
174 197 0
174 198 0
175 198 0
175 198 0
175 198 0
175 198 0
174 198 0
175 198 0
175 198 0
175 198 0
174 198 0
174 198 0
174 198 0
174 198 0
175 198 0
176 199 0
173 197 0
175 198 0
174 197 0
174 198 0
175 198 0
175 198 0
176 199 0
175 198 0
173 197 0
173 197 0
174 197 0
172 196 0
174 197 0
175 198 0
174 198 0
176 198 0
174 197 0
174 198 0
175 198 0
173 197 0
174 197 0
174 197 0
174 198 0
175 198 0
175 198 0
175 198 0
173 197 0
174 197 0
174 198 0
175 198 0
176 198 0
174 197 0
175 198 0
174 198 0
175 198 0
173 197 0
172 196 0
174 197 0
174 197 0
174 197 0
174 197 0
174 197 0
172 196 0
175 198 0
174 197 0
173 196 0
174 197 0
174 197 0
173 196 0
172 195 0
172 196 0
173 197 0
172 195 0
173 197 0
173 197 0
169 192 0
172 195 0
173 197 0
174 198 0
173 196 0
171 195 0
171 194 0
172 196 0
172 196 0
170 195 0
172 195 0
173 197 0
171 194 0
173 197 36
180 201 108
181 203 99
194 214 161
217 232 245
215 232 250
212 230 252
211 230 254
207 226 240
205 223 226
204 222 211
198 217 191
191 211 159
194 213 171
193 212 169
193 212 167
200 218 194
200 219 211
208 226 242
209 227 251
159 179 220
80 112 183
89 118 181
62 99 175
64 100 170
66 101 160
61 97 159
61 98 167
61 97 163
61 97 163
62 98 166
63 99 170
61 97 158
62 98 166
61 97 159
61 97 154
62 98 160
62 98 158
61 97 158
62 98 165
62 98 159
62 97 153
61 96 150
62 97 156
62 97 155
62 98 155
62 97 153
61 97 149
62 97 151
61 96 145
60 95 139
58 91 140
115 118 0
98 102 0
89 87 0
79 74 8
91 86 0
97 91 0
102 99 0
117 112 0
109 106 0
113 110 0
120 115 11
109 104 0
114 109 16
115 108 19
109 106 19
126 127 11
147 155 0
154 163 0
157 169 0
167 180 0
157 172 0
163 180 0
162 179 0
162 179 0
161 180 0
166 185 0
167 187 0
167 188 0
167 188 0
164 187 0
165 187 0
166 187 0
169 191 0
172 194 0
170 191 0
169 191 0
172 195 0
169 192 0
171 194 0
172 195 0
173 193 0
173 196 0
172 195 0
172 193 0
170 194 0
172 195 0
172 195 0
174 197 0
173 196 0
174 195 0
174 197 0
173 196 0
175 198 0
175 198 0
172 196 0
173 197 0
174 197 0
174 197 0
172 197 0
174 197 0
172 195 0
174 197 0
174 197 0
172 196 0
172 196 0
173 196 0
172 196 0
175 198 0
175 198 0
171 195 0
174 198 0
172 195 0
174 198 0
174 198 0
173 196 0
173 197 0
174 197 0
176 198 0
176 199 0
176 199 0
174 198 0
174 197 0
174 198 0
173 197 0
174 198 0
175 198 0
175 198 0
175 198 0
174 198 0
174 197 0
173 197 0
175 198 0
173 197 0
176 198 0
176 199 0
174 198 0
174 197 0
175 198 0
175 198 0
175 198 0
175 198 0
175 198 0
175 198 0
177 199 0
175 198 0
174 198 0
176 199 0
173 197 0
175 198 0
174 198 0
174 197 0
174 198 0
175 198 0
174 197 0
175 198 0
175 198 0
174 197 0
176 199 0
175 198 0
174 197 0
175 198 0
174 198 0
174 197 0
174 198 0
176 198 0
175 198 0
176 198 0
172 197 0
173 197 0
174 198 0
174 197 0
175 198 0
175 198 0
174 198 0
175 198 0
175 198 0
175 198 0
174 198 0
175 198 0
174 198 0
175 198 0
176 198 0
174 198 0
174 197 0
175 198 0
176 198 0
174 198 0
175 198 0
174 197 0
174 198 0
173 197 0
174 198 0
175 198 0
175 198 0
175 198 0
174 198 0
177 199 0
174 198 0
176 199 0
174 197 0
173 197 0
174 198 0
176 199 0
175 198 0
175 198 0
175 198 0
175 198 0
175 198 0
176 199 0
174 198 0
174 198 0
173 197 0
173 197 0
173 197 0
174 198 0
173 197 0
173 197 0
174 198 0
175 198 0
174 198 0
174 198 0
175 198 0
177 199 0
175 198 0
175 198 0
174 198 0
175 198 0
175 198 0
175 198 0
173 197 0
173 197 0
174 198 0
175 198 0
174 198 0
175 198 0
176 198 0
173 197 0
174 198 0
173 197 0
175 198 0
174 198 0
175 198 0
175 198 0
175 198 0
173 197 0
175 198 0
175 198 0
175 198 0
175 198 0
173 197 0
175 198 0
175 198 0
175 198 0
174 197 0
174 198 0
174 198 0
172 197 0
174 198 0
173 197 0
175 198 0
174 197 0
174 197 0
176 198 0
175 198 0
175 198 0
174 198 0
174 198 0
174 198 0
175 198 0
174 198 0
175 198 0
174 198 0
174 197 0
173 197 0
173 197 0
175 198 0
174 197 0
174 198 0
175 198 0
176 199 0
176 199 0
175 198 0
174 197 0
173 197 0
175 198 0
174 198 0
174 198 0
176 199 0
175 198 0
172 196 0
175 198 0
173 197 0
174 198 0
175 198 0
175 198 0
176 199 0
175 198 0
176 198 0
173 197 0
175 198 0
176 199 0
173 197 0
174 198 0
174 197 0
175 198 0
175 198 0
173 197 0
175 198 0
174 198 0
173 197 0
173 197 0
175 198 0
174 198 0
174 197 0
172 196 0
174 197 0
176 198 0
175 198 0
174 198 0
175 198 0
175 198 0
176 198 0
174 197 0
176 198 0
173 196 0
175 198 0
177 199 0
174 198 0
174 197 0
174 197 0
174 198 0
174 197 0
175 198 0
174 198 0
174 198 0
173 197 0
175 198 0
174 198 0
174 198 0
173 196 0
174 198 0
175 198 0
175 198 0
173 197 0
174 198 0
174 197 0
173 197 0
175 198 0
174 198 0
174 197 0
176 199 0
173 197 0
174 197 0
174 197 0
173 197 0
173 197 0
170 195 0
173 197 0
174 197 0
174 197 0
173 197 0
175 198 0
175 198 0
173 197 0
174 197 0
173 197 0
173 197 0
175 198 0
172 197 0
171 194 0
174 197 0
174 198 0
174 197 0
174 197 0
170 194 0
172 196 0
172 195 0
173 197 0
174 197 0
173 197 0
172 196 0
174 197 0
173 196 0
174 197 0
170 193 0
168 192 0
170 193 0
173 196 36
179 201 88
183 204 108
205 222 206
218 233 252
213 231 250
211 229 249
205 223 234
200 219 198
190 210 147
178 201 92
176 199 67
170 194 57
176 199 72
172 196 62
175 198 72
173 197 84
173 197 67
174 198 67
134 158 164
122 147 174
157 178 206
144 165 211
81 113 183
75 107 176
67 102 173
62 98 166
69 102 155
62 97 165
61 97 160
61 96 156
61 98 164
61 97 154
61 97 158
61 96 158
62 99 164
62 98 157
62 98 161
61 97 157
61 97 156
61 97 150
62 97 153
62 98 163
61 97 151
61 96 152
61 97 151
61 96 149
61 97 148
61 96 144
61 96 143
61 95 145
61 96 147
87 108 101
110 118 0
108 113 0
90 91 0
99 98 0
94 90 0
95 90 0
95 90 0
84 78 0
100 94 0
100 94 0
109 102 11
109 104 0
120 116 11
125 126 0
147 152 0
143 153 0
151 159 0
155 163 0
155 166 0
161 173 0
161 176 0
166 182 0
161 178 0
167 187 0
161 180 0
166 187 0
166 186 0
170 188 0
166 186 0
168 189 0
170 191 0
171 192 0
172 192 0
171 193 0
171 193 0
172 192 0
175 198 0
170 192 0
172 194 0
171 193 0
172 194 0
171 194 0
173 194 0
175 198 0
173 195 0
172 194 0
171 194 0
171 194 0
171 195 0
173 196 0
172 196 0
173 196 0
175 197 0
171 195 0
173 196 0
171 194 0
175 198 0
172 195 0
175 197 0
174 197 0
175 198 0
174 197 0
175 198 0
174 198 0
175 198 0
172 196 0
175 198 0
174 197 0
175 198 0
173 196 0
175 198 0
174 198 0
174 197 0
174 197 0
175 198 0
174 198 0
172 196 0
175 197 0
174 198 0
174 197 0
174 198 0
174 197 0
175 198 0
173 197 0
174 197 0
174 198 0
174 197 0
174 197 0
175 198 0
175 198 0
175 198 0
174 198 0
174 198 0
175 198 0
174 197 0
173 196 0
175 198 0
174 197 0
174 197 0
175 198 0
174 198 0
176 199 0
175 198 0
175 198 0
174 198 0
174 197 0
174 197 0
174 198 0
173 197 0
174 197 0
174 198 0
176 199 0
175 198 0
173 197 0
176 198 0
173 197 0
175 198 0
174 197 0
175 198 0
175 198 0
175 198 0
176 199 0
174 198 0
174 198 0
174 198 0
176 199 0
173 197 0
175 198 0
175 198 0
177 199 0
173 197 0
176 198 0
173 196 0
176 199 0
174 198 0
172 196 0
175 198 0
175 198 0
173 197 0
176 198 0
175 198 0
174 198 0
173 197 0
174 198 0
176 198 0
176 199 0
174 197 0
173 197 0
175 198 0
173 197 0
174 197 0
175 198 0
174 198 0
174 198 0
174 198 0
175 198 0
175 198 0
175 198 0
173 197 0
173 197 0
175 198 0
176 199 0
176 198 0
176 198 0
173 197 0
175 198 0
174 197 0
174 198 0
174 198 0
175 198 0
174 198 0
175 198 0
175 198 0
175 198 0
174 198 0
175 198 0
173 197 0
176 199 0
174 198 0
174 197 0
175 198 0
174 198 0
176 198 0
174 197 0
173 197 0
175 198 0
173 197 0
176 199 0
174 198 0
173 197 0
174 197 0
174 198 0
174 198 0
174 198 0
174 198 0
174 198 0
174 198 0
175 198 0
176 199 0
173 197 0
175 198 0
174 198 0
175 198 0
174 198 0
173 197 0
174 198 0
173 197 0
172 196 0
175 198 0
174 197 0
175 198 0
175 198 0
174 198 0
175 198 0
174 198 0
175 198 0
177 199 0
174 198 0
173 197 0
172 197 0
174 198 0
175 198 0
175 198 0
174 198 0
175 198 0
175 198 0
174 197 0
174 198 0
174 197 0
175 198 0
174 198 0
173 197 0
174 198 0
175 198 0
174 198 0
174 198 0
174 197 0
174 198 0
174 198 0
173 197 0
173 197 0
177 199 0
175 198 0
173 197 0
174 197 0
175 198 0
174 198 0
175 198 0
174 198 0
175 198 0
173 197 0
174 198 0
174 198 0
175 198 0
174 198 0
172 196 0
173 197 0
175 198 0
173 197 0
173 197 0
175 198 0
175 198 0
175 198 0
175 198 0
175 198 0
175 198 0
175 198 0
174 198 0
174 198 0
175 198 0
176 198 0
174 198 0
175 198 0
175 198 0
174 197 0
172 197 0
175 198 0
175 198 0
174 197 0
174 197 0
174 198 0
172 196 0
176 199 0
176 199 0
173 196 0
174 198 0
174 198 0
174 198 0
174 198 0
174 197 0
175 198 0
173 197 0
173 197 0
174 198 0
174 197 0
174 198 0
174 198 0
175 198 0
173 197 0
175 198 0
174 198 0
177 199 0
174 197 0
174 197 0
173 197 0
173 197 0
174 197 0
174 197 0
173 197 0
174 197 0
174 197 0
174 197 0
173 197 0
174 198 0
173 197 0
174 197 0
173 197 0
175 198 0
172 195 0
171 195 0
174 198 0
174 197 0
173 197 0
173 197 0
173 197 0
172 197 0
173 197 0
171 194 0
173 197 0
171 194 0
172 196 0
175 198 0
173 196 0
169 193 0
171 195 0
173 196 0
170 194 0
172 196 0
171 195 0
172 196 0
174 197 0
174 198 0
171 195 0
166 190 0
171 194 0
172 196 0
171 194 25
183 204 105
186 206 117
214 229 230
217 233 253
212 230 250
204 223 224
192 212 161
183 205 122
175 198 44
172 195 51
171 195 51
173 197 62
173 197 80
169 192 57
171 195 84
172 194 67
171 195 57
173 196 62
174 197 80
114 141 158
101 129 173
110 137 165
99 127 162
75 108 175
74 107 178
87 116 175
61 98 170
62 98 169
61 96 160
64 99 161
61 96 161
61 96 153
61 97 155
61 97 159
62 98 164
62 98 158
62 98 157
61 97 155
61 97 148
62 97 158
61 97 150
61 97 153
61 97 148
62 98 156
62 98 157
61 97 151
61 96 145
60 95 147
59 94 131
61 96 141
62 97 148
60 94 139
97 112 67
119 128 0
102 108 0
113 117 0
104 107 0
107 107 0
109 110 0
117 115 0
115 116 0
106 104 0
116 112 0
126 127 0
138 138 0
133 133 0
137 142 0
149 156 0
148 157 0
154 164 0
154 165 0
157 170 0
164 179 0
166 181 0
163 178 0
162 179 0
163 181 0
166 184 0
162 181 0
169 190 0
169 186 0
167 187 0
168 188 0
170 191 0
169 191 0
170 191 0
173 195 0
170 191 0
171 192 0
171 193 0
171 194 0
169 192 0
172 194 0
171 193 0
172 194 0
173 196 0
174 197 0
172 195 0
173 196 0
170 193 0
171 193 0
172 195 0
174 197 0
173 197 0
174 197 0
171 195 0
174 197 0
172 195 0
172 195 0
173 196 0
172 195 0
174 197 0
173 197 0
171 195 0
175 198 0
175 198 0
173 196 0
174 197 0
175 198 0
175 197 0
175 198 0
175 198 0
174 197 0
174 197 0
173 197 0
171 194 0
174 198 0
174 198 0
175 197 0
172 195 0
175 197 0
175 198 0
174 197 0
171 195 0
174 198 0
174 198 0
174 198 0
174 197 0
173 197 0
174 197 0
175 198 0
175 198 0
175 198 0
174 198 0
173 196 0
175 198 0
174 197 0
175 198 0
174 197 0
173 197 0
173 197 0
174 198 0
174 198 0
175 198 0
174 197 0
174 197 0
174 198 0
175 198 0
174 198 0
173 197 0
176 198 0
175 198 0
176 199 0
175 198 0
173 197 0
174 197 0
174 198 0
174 197 0
175 198 0
174 198 0
174 197 0
173 197 0
176 199 0
174 197 0
174 198 0
173 197 0
175 198 0
172 197 0
174 197 0
175 198 0
174 198 0
176 199 0
175 198 0
176 199 0
176 198 0
174 198 0
174 197 0
175 198 0
174 197 0
173 197 0
174 197 0
173 197 0
174 198 0
175 198 0
174 197 0
173 197 0
174 198 0
173 197 0
174 198 0
173 197 0
175 198 0
172 197 0
175 198 0
174 197 0
175 198 0
173 197 0
175 198 0
175 198 0
174 198 0
175 198 0
174 197 0
175 198 0
174 198 0
175 198 0
174 197 0
175 198 0
173 197 0
174 197 0
175 198 0
175 198 0
175 198 0
175 198 0
173 197 0
174 197 0
173 197 0
173 197 0
174 198 0
174 198 0
174 198 0
175 198 0
174 198 0
174 198 0
174 198 0
174 197 0
175 198 0
175 198 0
174 198 0
174 198 0
175 198 0
175 198 0
174 198 0
176 199 0
174 198 0
175 198 0
176 198 0
176 198 0
175 198 0
175 198 0
174 198 0
175 198 0
175 198 0
175 198 0
175 198 0
175 198 0
173 197 0
175 198 0
174 197 0
174 198 0
176 198 0
174 197 0
174 198 0
174 198 0
174 198 0
175 198 0
176 199 0
174 198 0
174 197 0
176 199 0
174 197 0
175 198 0
173 197 0
175 198 0
174 197 0
174 198 0
174 198 0
175 198 0
173 197 0
174 198 0
175 198 0
175 198 0
173 197 0
175 198 0
174 198 0
174 197 0
175 198 0
173 197 0
174 197 0
173 197 0
175 198 0
175 198 0
174 198 0
173 197 0
175 198 0
175 198 0
174 197 0
175 198 0
176 199 0
175 198 0
176 198 0
175 198 0
175 198 0
174 198 0
174 198 0
175 198 0
174 198 0
175 198 0
174 197 0
174 198 0
173 197 0
173 197 0
175 198 0
176 199 0
173 197 0
175 198 0
174 197 0
174 197 0
176 198 0
174 197 0
176 199 0
174 198 0
175 198 0
174 198 0
175 198 0
173 197 0
175 198 0
174 198 0
175 198 0
173 197 0
175 198 0
175 198 0
175 198 0
176 199 0
174 198 0
173 197 0
173 197 0
174 198 0
174 198 0
175 198 0
174 197 0
174 197 0
176 198 0
174 198 0
175 198 0
173 197 0
174 198 0
174 198 0
174 197 0
173 197 0
175 198 0
173 197 0
175 198 0
172 196 0
174 198 0
174 198 0
175 198 0
175 198 0
175 198 0
174 198 0
173 197 0
176 199 0
172 196 0
175 197 0
175 198 0
175 198 0
173 197 0
173 197 0
174 198 0
175 198 0
173 197 0
172 196 0
171 194 0
174 197 0
173 197 0
173 197 0
174 197 0
174 198 0
174 197 0
175 198 0
172 196 0
173 196 0
174 197 0
174 197 0
172 196 0
172 196 0
173 197 0
172 196 0
173 196 0
172 196 0
172 195 0
174 197 0
173 196 0
174 197 0
173 197 0
169 192 0
168 192 0
171 195 0
171 195 0
171 194 0
171 195 25
185 206 125
181 203 88
213 228 228
216 232 250
209 227 240
200 219 194
180 202 117
176 199 84
173 197 95
173 197 67
175 199 76
172 196 76
175 198 67
172 195 67
170 194 72
171 195 80
167 192 80
167 191 80
173 195 67
170 194 57
151 176 135
96 125 173
99 128 169
109 135 156
109 135 171
101 129 168
77 110 181
80 112 181
64 100 167
61 97 161
62 97 153
61 96 156
62 97 153
62 98 163
62 98 165
61 96 149
61 97 155
62 97 153
61 96 150
61 96 149
61 96 149
61 97 155
62 97 150
62 97 157
61 96 147
61 96 147
61 97 144
60 95 144
61 96 151
59 94 135
59 93 133
58 92 124
72 100 118
114 122 18
120 128 0
124 132 0
110 117 0
117 125 0
116 123 0
114 114 0
110 113 0
119 122 0
119 124 0
127 131 0
133 138 0
138 142 0
136 138 0
139 144 0
144 156 0
151 161 0
151 160 0
159 169 0
156 168 0
155 168 0
160 173 0
163 180 0
166 183 0
164 181 0
163 183 0
167 186 0
165 185 0
166 187 0
166 187 0
168 189 0
171 190 0
169 189 0
168 190 0
171 193 0
170 190 0
172 192 0
170 192 0
169 192 0
171 193 0
175 197 0
173 193 0
172 194 0
169 192 0
172 195 0
171 194 0
173 196 0
175 198 0
171 194 0
172 196 0
174 197 0
173 196 0
171 194 0
174 197 0
173 196 0
174 197 0
174 197 0
174 197 0
174 196 0
174 197 0
173 196 0
174 197 0
173 196 0
175 198 0
173 197 0
172 196 0
175 198 0
174 196 0
173 197 0
173 196 0
172 195 0
173 197 0
175 198 0
174 197 0
174 197 0
173 197 0
174 197 0
175 198 0
175 198 0
172 196 0
175 198 0
173 197 0
174 198 0
174 197 0
173 196 0
172 196 0
174 197 0
174 198 0
173 197 0
174 197 0
173 196 0
174 198 0
175 198 0
175 198 0
175 198 0
173 197 0
174 198 0
176 199 0
173 197 0
176 198 0
172 196 0
176 198 0
175 198 0
175 198 0
174 198 0
175 198 0
175 198 0
173 197 0
173 197 0
174 197 0
174 197 0
175 198 0
173 197 0
174 197 0
174 198 0
174 198 0
175 198 0
174 198 0
175 198 0
174 198 0
175 198 0
174 197 0
175 198 0
174 197 0
175 198 0
171 195 0
174 198 0
174 197 0
175 198 0
175 198 0
175 198 0
174 198 0
174 198 0
174 198 0
174 198 0
176 199 0
176 199 0
172 197 0
176 198 0
175 198 0
174 198 0
174 198 0
176 198 0
174 198 0
172 196 0
175 198 0
175 198 0
175 198 0
173 197 0
174 197 0
175 198 0
174 197 0
173 197 0
173 197 0
175 198 0
174 197 0
175 198 0
175 198 0
176 198 0
174 198 0
175 198 0
174 198 0
175 198 0
174 198 0
175 198 0
174 198 0
175 198 0
173 197 0
175 198 0
174 197 0
175 198 0
175 198 0
174 198 0
173 197 0
172 196 0
173 197 0
175 198 0
175 198 0
173 197 0
175 198 0
174 197 0
174 198 0
174 198 0
175 198 0
173 197 0
177 199 0
175 198 0
173 197 0
176 198 0
176 199 0
175 198 0
174 198 0
174 198 0
174 198 0
174 198 0
174 198 0
175 198 0
174 198 0
175 198 0
176 198 0
175 198 0
174 198 0
174 197 0
172 197 0
174 197 0
176 199 0
174 198 0
175 198 0
173 197 0
173 197 0
175 198 0
174 198 0
174 198 0
175 198 0
173 197 0
174 197 0
174 198 0
174 198 0
174 197 0
176 199 0
175 198 0
174 198 0
175 198 0
174 198 0
175 198 0
174 198 0
176 199 0
172 197 0
175 198 0
175 198 0
176 199 0
174 198 0
174 198 0
174 197 0
173 197 0
172 197 0
175 198 0
174 198 0
174 198 0
175 198 0
174 198 0
175 198 0
172 197 0
174 197 0
174 198 0
173 197 0
174 198 0
173 197 0
173 197 0
174 197 0
174 197 0
175 198 0
174 197 0
174 197 0
175 198 0
173 197 0
174 197 0
175 198 0
172 196 0
175 198 0
174 198 0
173 197 0
172 196 0
171 196 0
175 198 0
175 198 0
174 197 0
174 198 0
175 198 0
172 196 0
174 197 0
175 198 0
175 198 0
174 198 0
174 198 0
174 198 0
173 197 0
174 198 0
175 198 0
174 197 0
175 198 0
176 198 0
174 197 0
174 198 0
175 198 0
173 197 0
174 198 0
173 197 0
174 198 0
173 197 0
175 198 0
175 198 0
175 198 0
175 198 0
173 197 0
173 197 0
174 197 0
177 199 0
173 197 0
175 198 0
175 198 0
173 197 0
174 197 0
174 198 0
174 198 0
174 197 0
174 198 0
173 197 0
172 197 0
174 197 0
173 197 0
174 197 0
174 198 0
173 197 0
175 198 0
174 197 0
174 197 0
172 196 0
173 197 0
172 195 0
173 196 0
173 196 0
174 197 0
171 195 0
175 198 0
173 197 0
173 197 0
173 197 0
173 197 0
173 197 0
174 198 0
170 194 0
172 195 0
172 195 0
172 195 0
171 196 0
173 196 0
175 198 0
171 195 0
172 195 0
173 196 0
172 195 0
175 198 0
171 194 0
172 196 0
172 195 0
181 203 102
182 204 102
210 225 220
217 232 250
210 228 241
197 216 181
177 200 95
174 198 76
173 197 72
169 193 72
172 196 57
173 197 80
173 197 67
169 193 62
168 191 36
169 193 72
170 194 88
170 195 80
169 193 57
169 193 72
168 191 62
161 184 54
103 131 156
94 123 159
88 118 162
99 126 171
107 134 159
100 127 169
82 113 180
67 102 170
60 96 158
66 101 159
62 97 144
60 96 145
60 95 150
62 98 155
61 97 150
61 97 147
61 97 148
61 96 147
61 96 150
62 98 155
60 95 141
60 95 141
61 96 144
60 95 140
61 96 144
62 98 150
60 94 131
61 96 140
60 95 137
59 94 129
59 93 125
99 115 81
119 131 0
130 144 0
121 132 0
125 136 0
126 133 0
124 133 0
124 132 0
125 133 0
126 135 0
127 133 0
128 134 0
137 144 0
145 153 0
133 141 0
143 148 0
157 168 0
153 165 0
154 165 0
161 176 0
153 164 0
163 178 0
162 177 0
157 171 0
163 179 0
161 179 0
165 184 0
168 188 0
166 184 0
170 191 0
168 187 0
170 190 0
170 190 0
167 188 0
171 192 0
170 192 0
167 189 0
171 194 0
170 192 0
172 193 0
173 195 0
171 194 0
171 192 0
173 196 0
173 196 0
171 194 0
171 194 0
174 198 0
174 197 0
173 196 0
174 196 0
171 193 0
171 194 0
172 195 0
174 197 0
173 196 0
173 196 0
174 197 0
173 196 0
174 197 0
174 197 0
174 197 0
173 197 0
173 197 0
175 198 0
173 197 0
171 195 0
174 197 0
174 197 0
173 196 0
175 197 0
175 198 0
175 198 0
174 197 0
175 198 0
176 198 0
172 196 0
174 197 0
175 198 0
175 198 0
174 197 0
174 197 0
175 198 0
174 198 0
175 198 0
172 197 0
174 198 0
174 197 0
174 197 0
173 196 0
175 198 0
173 196 0
174 197 0
174 197 0
171 196 0
173 197 0
172 196 0
173 197 0
173 197 0
175 198 0
173 197 0
174 197 0
175 198 0
174 198 0
174 198 0
174 197 0
175 197 0
174 198 0
174 198 0
174 198 0
174 198 0
174 197 0
174 197 0
176 199 0
172 196 0
175 198 0
173 197 0
176 198 0
174 198 0
173 197 0
175 198 0
175 198 0
176 198 0
173 197 0
174 197 0
174 198 0
174 197 0
174 198 0
173 197 0
174 197 0
173 197 0
173 197 0
175 198 0
175 198 0
174 197 0
175 198 0
175 198 0
175 198 0
175 198 0
175 198 0
173 197 0
174 198 0
175 198 0
173 197 0
174 197 0
175 198 0
176 199 0
174 198 0
175 198 0
174 198 0
174 197 0
173 197 0
175 198 0
175 198 0
174 197 0
174 198 0
173 197 0
173 197 0
175 198 0
175 198 0
174 198 0
175 198 0
175 198 0
173 197 0
174 197 0
174 198 0
175 198 0
174 198 0
175 198 0
174 198 0
175 198 0
174 198 0
173 197 0
175 198 0
175 198 0
176 198 0
175 198 0
174 197 0
174 198 0
174 197 0
175 198 0
173 197 0
174 198 0
175 198 0
175 198 0
175 198 0
174 198 0
175 198 0
173 197 0
173 197 0
174 197 0
175 198 0
173 197 0
175 198 0
173 197 0
174 197 0
175 198 0
172 197 0
176 198 0
176 199 0
174 197 0
175 198 0
174 198 0
173 197 0
173 197 0
173 197 0
174 197 0
172 197 0
175 198 0
174 197 0
173 197 0
174 198 0
174 198 0
175 198 0
173 197 0
174 198 0
176 199 0
175 198 0
173 197 0
174 198 0
174 197 0
174 198 0
176 199 0
174 197 0
174 197 0
174 198 0
175 198 0
175 198 0
174 198 0
174 198 0
173 197 0
173 197 0
175 198 0
173 197 0
175 198 0
175 198 0
174 197 0
173 197 0
174 198 0
175 198 0
175 198 0
174 197 0
174 197 0
174 198 0
174 198 0
175 198 0
175 198 0
173 197 0
175 198 0
175 198 0
175 198 0
174 197 0
173 197 0
175 198 0
175 198 0
175 198 0
177 199 0
174 198 0
176 199 0
174 198 0
175 198 0
174 198 0
173 197 0
173 197 0
174 197 0
174 197 0
173 197 0
173 197 0
174 198 0
174 198 0
172 196 0
175 198 0
176 198 0
172 196 0
175 198 0
173 197 0
174 198 0
174 197 0
174 197 0
172 196 0
174 198 0
175 198 0
173 197 0
174 198 0
174 197 0
174 198 0
174 197 0
173 197 0
175 198 0
174 197 0
174 198 0
173 197 0
176 198 0
173 197 0
175 198 0
175 198 0
174 197 0
173 196 0
174 198 0
173 197 0
174 198 0
173 197 0
173 197 0
175 198 0
175 198 0
174 198 0
175 198 0
175 198 0
173 197 0
176 198 0
176 199 0
175 198 0
174 197 0
174 198 0
173 197 0
173 197 0
174 197 0
173 197 0
173 197 0
173 197 0
173 197 0
173 197 0
175 198 0
174 197 0
172 196 0
173 196 0
172 196 0
172 196 0
175 198 0
175 198 0
175 198 0
174 197 0
175 198 0
174 198 0
171 195 0
174 197 0
171 195 0
174 197 0
173 197 0
171 195 0
172 196 0
172 196 0
172 195 0
172 195 0
173 196 0
172 195 0
176 199 62
179 201 92
194 214 159
218 233 246
213 230 246
185 205 133
174 198 88
173 197 67
174 197 62
175 199 95
172 196 76
170 194 76
172 197 95
171 195 67
173 196 67
168 192 76
166 190 67
167 191 84
166 190 72
168 191 76
164 187 62
163 187 67
164 188 88
144 168 90
84 114 148
97 125 159
101 128 165
98 125 159
97 125 144
90 119 166
78 109 171
70 102 162
60 96 153
62 96 148
65 99 145
61 96 155
60 95 144
61 97 144
61 97 156
60 95 140
61 97 147
59 94 135
61 96 142
62 97 149
62 97 144
61 97 143
60 95 143
60 95 137
59 93 126
60 94 131
60 95 133
59 93 127
59 93 122
71 96 110
121 133 0
111 123 0
140 152 0
136 150 0
122 134 0
122 134 0
127 138 0
120 128 0
127 139 0
125 132 0
138 146 0
131 141 0
150 159 0
142 151 0
138 147 0
149 159 0
149 158 0
159 173 0
157 172 0
149 162 0
155 171 0
161 177 0
158 175 0
161 177 0
160 177 0
165 183 0
167 187 0
168 188 0
168 190 0
163 183 0
172 193 0
167 187 0
167 188 0
167 188 0
172 195 0
171 192 0
170 192 0
172 193 0
172 193 0
171 192 0
170 192 0
171 193 0
172 195 0
173 196 0
172 195 0
172 196 0
172 195 0
173 196 0
174 197 0
171 194 0
173 196 0
170 192 0
175 197 0
173 196 0
173 195 0
174 196 0
172 195 0
173 196 0
173 197 0
174 197 0
175 198 0
172 195 0
174 198 0
171 195 0
172 195 0
171 194 0
174 197 0
172 196 0
175 198 0
174 197 0
174 197 0
173 197 0
173 197 0
173 197 0
172 195 0
173 196 0
174 198 0
175 198 0
175 198 0
174 197 0
175 198 0
174 197 0
174 197 0
173 197 0
174 197 0
174 197 0
174 197 0
173 197 0
174 198 0
177 199 0
174 198 0
177 199 0
174 198 0
175 198 0
173 196 0
174 198 0
174 198 0
175 198 0
172 196 0
174 197 0
172 197 0
175 198 0
176 199 0
174 198 0
174 198 0
172 197 0
174 198 0
174 198 0
175 198 0
175 198 0
174 198 0
174 197 0
175 198 0
174 198 0
175 198 0
175 198 0
174 198 0
175 198 0
174 197 0
173 197 0
175 198 0
175 198 0
174 198 0
175 198 0
174 198 0
175 198 0
175 198 0
174 198 0
174 198 0
174 197 0
174 198 0
175 198 0
175 198 0
174 198 0
173 197 0
175 198 0
173 197 0
173 197 0
174 197 0
174 198 0
174 198 0
176 199 0
174 198 0
174 197 0
173 197 0
173 197 0
175 198 0
175 198 0
172 196 0
174 197 0
175 198 0
173 197 0
174 198 0
174 197 0
175 198 0
176 198 0
174 198 0
173 197 0
173 197 0
175 198 0
175 198 0
176 199 0
175 198 0
174 198 0
175 198 0
174 198 0
176 198 0
173 197 0
175 198 0
174 197 0
174 198 0
172 196 0
175 198 0
175 198 0
174 198 0
175 198 0
176 198 0
174 198 0
175 198 0
172 197 0
174 197 0
174 198 0
175 198 0
175 198 0
175 198 0
174 198 0
175 198 0
173 197 0
174 198 0
175 198 0
174 198 0
174 198 0
176 199 0
174 197 0
174 198 0
175 198 0
176 198 0
174 198 0
176 199 0
174 197 0
175 198 0
175 198 0
175 198 0
172 197 0
174 198 0
175 198 0
175 198 0
175 198 0
173 197 0
173 197 0
174 198 0
176 198 0
175 198 0
175 198 0
175 198 0
176 198 0
175 198 0
175 198 0
175 198 0
174 197 0
175 198 0
175 198 0
175 198 0
175 198 0
176 199 0
173 197 0
173 197 0
174 197 0
174 197 0
175 198 0
174 198 0
173 197 0
175 198 0
175 198 0
176 198 0
174 198 0
175 198 0
174 198 0
174 197 0
174 198 0
174 198 0
176 199 0
175 198 0
173 197 0
173 197 0
175 198 0
175 198 0
174 198 0
175 198 0
174 198 0
175 198 0
174 197 0
172 196 0
175 198 0
174 198 0
174 198 0
173 197 0
173 197 0
176 198 0
175 198 0
175 198 0
175 198 0
174 198 0
174 198 0
174 197 0
175 198 0
175 198 0
175 198 0
174 197 0
173 197 0
174 198 0
175 198 0
175 198 0
174 197 0
174 198 0
174 197 0
174 197 0
174 198 0
174 198 0
176 198 0
173 197 0
175 198 0
175 198 0
174 197 0
175 198 0
175 198 0
174 198 0
174 197 0
173 197 0
175 198 0
175 198 0
176 199 0
174 197 0
175 198 0
177 199 0
175 198 0
173 197 0
174 198 0
174 198 0
175 198 0
175 198 0
173 197 0
175 198 0
173 197 0
173 197 0
175 198 0
174 197 0
172 196 0
173 197 0
174 197 0
176 199 0
173 197 0
172 196 0
174 198 0
173 197 0
173 196 0
173 197 0
174 198 0
173 197 0
172 197 0
174 197 0
173 197 0
175 198 0
172 196 0
175 197 0
173 197 0
172 196 0
175 198 0
174 197 0
172 196 0
173 196 0
174 197 0
172 196 0
173 196 0
173 196 0
174 197 0
173 197 0
175 198 0
170 194 0
174 197 0
172 195 0
168 192 0
174 197 0
173 196 0
172 196 0
172 196 0
177 200 72
182 204 99
218 232 241
215 232 248
188 208 153
175 199 99
173 197 62
175 198 76
174 198 76
172 195 92
172 196 105
169 193 84
167 190 72
168 192 72
166 191 76
164 189 72
165 188 62
167 189 57
163 187 57
166 190 72
162 186 67
157 180 67
162 185 57
156 178 72
123 148 126
89 117 138
85 114 155
97 124 161
100 126 170
96 123 132
80 110 159
77 108 167
63 98 151
61 96 153
66 99 147
61 96 139
61 96 143
61 97 145
61 96 144
61 97 142
61 96 141
62 96 142
61 95 136
62 97 144
62 97 145
59 93 130
60 94 141
61 96 142
61 95 139
60 95 131
59 93 127
58 91 124
61 93 110
109 124 41
122 136 0
128 143 0
130 146 0
131 145 0
129 144 0
131 144 0
129 140 0
140 150 0
138 148 0
136 150 0
141 152 0
145 159 0
143 153 0
142 153 0
146 158 0
152 166 0
154 168 0
153 168 0
156 173 0
160 177 0
162 177 0
159 176 0
162 176 0
163 180 0
162 179 0
167 185 0
163 182 0
171 190 0
168 186 0
167 187 0
169 191 0
169 191 0
171 192 0
169 191 0
172 193 0
167 188 0
170 192 0
170 192 0
172 194 0
174 196 0
170 192 0
167 190 0
171 193 0
167 189 0
173 196 0
172 195 0
170 194 0
172 195 0
172 195 0
172 195 0
174 195 0
172 195 0
173 196 0
171 194 0
173 196 0
173 197 0
174 197 0
174 196 0
172 194 0
172 195 0
175 198 0
173 197 0
174 197 0
172 195 0
172 196 0
174 197 0
173 196 0
174 197 0
172 196 0
174 197 0
173 196 0
175 198 0
172 196 0
174 197 0
174 198 0
173 196 0
174 198 0
173 196 0
174 198 0
173 197 0
174 197 0
174 197 0
172 196 0
175 198 0
173 197 0
175 198 0
174 197 0
174 197 0
178 199 0
174 197 0
173 197 0
173 197 0
173 197 0
175 198 0
175 198 0
174 197 0
173 197 0
175 198 0
173 196 0
174 197 0
173 197 0
175 198 0
173 197 0
173 197 0
175 198 0
173 197 0
174 197 0
173 197 0
174 198 0
173 197 0
175 198 0
174 197 0
174 197 0
174 198 0
174 198 0
174 197 0
175 198 0
174 198 0
175 198 0
174 197 0
175 198 0
176 199 0
175 198 0
173 197 0
173 197 0
174 198 0
175 198 0
173 197 0
175 198 0
174 197 0
173 197 0
174 198 0
173 196 0
173 196 0
175 198 0
175 198 0
174 198 0
173 197 0
175 198 0
174 197 0
176 199 0
173 197 0
173 197 0
176 199 0
175 198 0
175 198 0
174 198 0
175 198 0
173 197 0
175 198 0
175 198 0
174 197 0
174 198 0
175 198 0
174 198 0
176 199 0
174 198 0
173 197 0
175 198 0
174 197 0
176 199 0
174 198 0
173 197 0
175 198 0
174 198 0
174 197 0
174 197 0
175 198 0
173 197 0
174 197 0
174 197 0
174 197 0
174 197 0
172 197 0
175 198 0
172 197 0
177 199 0
176 199 0
175 198 0
175 198 0
174 198 0
175 198 0
174 198 0
176 199 0
177 199 0
173 197 0
175 198 0
174 198 0
176 198 0
173 197 0
174 198 0
174 198 0
176 199 0
174 198 0
174 198 0
173 197 0
175 198 0
174 197 0
174 198 0
174 198 0
174 198 0
175 198 0
174 198 0
175 198 0
174 198 0
175 198 0
174 198 0
174 198 0
174 197 0
174 198 0
175 198 0
175 198 0
175 198 0
175 198 0
173 197 0
175 198 0
174 198 0
173 197 0
174 198 0
175 198 0
174 197 0
174 198 0
174 198 0
174 197 0
175 198 0
173 197 0
175 198 0
174 198 0
173 197 0
174 198 0
175 198 0
174 197 0
175 198 0
176 198 0
174 197 0
173 197 0
174 197 0
174 198 0
175 198 0
173 197 0
174 197 0
175 198 0
174 197 0
174 198 0
174 197 0
173 197 0
173 197 0
175 198 0
175 198 0
173 197 0
175 198 0
174 198 0
173 197 0
173 197 0
175 198 0
174 198 0
174 198 0
173 197 0
174 198 0
175 198 0
174 198 0
175 198 0
175 198 0
177 199 0
172 197 0
176 199 0
174 198 0
173 197 0
175 198 0
173 197 0
173 197 0
172 197 0
174 197 0
174 198 0
175 198 0
172 196 0
173 197 0
175 198 0
174 198 0
172 196 0
175 198 0
173 197 0
174 197 0
175 198 0
174 197 0
173 197 0
174 198 0
174 197 0
174 198 0
174 198 0
175 198 0
174 197 0
175 198 0
174 197 0
172 197 0
174 197 0
173 197 0
173 196 0
174 198 0
173 196 0
173 197 0
173 197 0
174 198 0
175 198 0
174 197 0
175 198 0
173 197 0
175 198 0
173 197 0
172 196 0
175 198 0
172 196 0
175 198 0
173 197 0
173 197 0
176 198 0
174 197 0
173 197 0
174 197 0
173 196 0
173 197 0
175 198 0
173 197 0
175 198 0
170 194 0
173 197 0
173 196 0
173 196 0
170 193 0
174 196 0
175 198 0
174 197 0
173 197 0
172 196 0
173 197 0
173 196 0
170 194 0
172 196 0
173 197 0
174 197 0
173 196 0
173 196 0
173 196 0
173 196 0
172 195 0
175 198 51
180 202 76
197 215 169
219 234 252
200 219 193
175 198 51
170 194 57
173 196 62
174 198 72
175 198 88
173 195 76
173 197 72
171 195 44
165 190 44
166 191 72
170 194 67
163 187 72
168 193 95
169 193 92
160 184 67
170 195 88
155 180 72
164 188 67
159 182 62
159 183 80
149 172 84
97 124 126
88 115 127
91 119 142
93 121 159
95 122 163
95 121 142
83 113 163
80 106 151
64 99 156
60 94 136
61 95 139
59 93 133
60 95 133
60 95 144
61 95 135
61 96 147
61 95 135
61 96 139
59 94 126
60 95 135
59 93 131
61 95 139
59 93 118
59 93 124
58 91 117
57 90 111
55 88 101
102 118 54
98 112 0
125 140 0
134 150 0
124 138 0
135 149 0
125 141 0
139 153 0
134 147 0
139 153 0
138 152 0
140 155 0
135 147 0
139 153 0
147 162 0
142 156 0
150 164 0
159 175 0
157 171 0
154 172 0
158 176 0
155 171 0
157 174 0
163 181 0
161 177 0
160 178 0
164 183 0
161 181 0
169 187 0
165 186 0
168 189 0
164 185 0
168 190 0
165 186 0
170 193 0
171 192 0
168 189 0
170 191 0
168 189 0
172 194 0
171 193 0
172 194 0
171 195 0
171 193 0
174 197 0
174 196 0
173 195 0
172 194 0
170 192 0
173 195 0
173 196 0
174 197 0
172 195 0
172 194 0
172 195 0
174 196 0
174 197 0
174 197 0
173 197 0
173 196 0
175 197 0
173 196 0
174 197 0
174 198 0
174 197 0
174 197 0
175 198 0
174 197 0
173 197 0
175 197 0
174 197 0
175 197 0
171 195 0
173 196 0
174 197 0
175 197 0
174 198 0
173 197 0
175 197 0
174 197 0
174 198 0
174 197 0
174 198 0
172 196 0
175 198 0
175 198 0
175 198 0
173 197 0
175 198 0
174 198 0
173 197 0
173 197 0
173 197 0
173 197 0
174 197 0
173 197 0
174 197 0
174 197 0
174 197 0
174 198 0
176 198 0
174 198 0
173 197 0
172 197 0
174 197 0
175 198 0
174 197 0
172 196 0
174 198 0
173 197 0
175 198 0
174 198 0
173 196 0
174 197 0
173 197 0
174 198 0
174 197 0
174 198 0
173 197 0
174 197 0
174 197 0
174 198 0
174 197 0
174 198 0
173 197 0
172 196 0
174 197 0
175 198 0
175 198 0
174 197 0
176 198 0
174 198 0
175 198 0
174 197 0
174 197 0
175 198 0
175 198 0
176 199 0
176 198 0
173 197 0
173 197 0
174 198 0
175 198 0
175 198 0
176 199 0
174 198 0
175 198 0
174 198 0
175 198 0
175 198 0
172 197 0
173 197 0
174 197 0
175 198 0
175 198 0
174 198 0
175 198 0
174 197 0
172 197 0
175 198 0
173 197 0
173 197 0
174 198 0
176 199 0
174 198 0
173 197 0
174 198 0
175 198 0
174 197 0
174 198 0
175 198 0
174 198 0
174 198 0
173 197 0
172 197 0
175 198 0
175 198 0
174 198 0
176 198 0
173 197 0
174 197 0
174 198 0
175 198 0
175 198 0
174 198 0
174 198 0
174 198 0
174 198 0
175 198 0
173 197 0
176 199 0
175 198 0
175 198 0
173 197 0
173 197 0
175 198 0
174 198 0
175 198 0
174 198 0
175 198 0
174 197 0
174 198 0
174 198 0
174 197 0
175 198 0
175 198 0
175 198 0
173 197 0
175 198 0
175 198 0
174 197 0
173 197 0
174 197 0
175 198 0
176 198 0
175 198 0
175 198 0
175 198 0
173 197 0
174 198 0
175 198 0
175 198 0
175 198 0
174 197 0
175 198 0
175 198 0
175 198 0
174 198 0
173 197 0
175 198 0
175 198 0
176 198 0
174 198 0
176 198 0
176 199 0
175 198 0
176 198 0
175 198 0
172 196 0
175 198 0
173 197 0
176 199 0
175 198 0
174 197 0
172 197 0
175 198 0
174 198 0
175 198 0
174 198 0
176 199 0
174 198 0
174 198 0
174 198 0
174 198 0
175 198 0
173 197 0
173 197 0
174 198 0
174 197 0
174 198 0
174 198 0
175 198 0
174 198 0
174 198 0
174 197 0
174 198 0
176 199 0
174 198 0
175 198 0
175 198 0
174 198 0
176 198 0
174 198 0
175 198 0
174 197 0
175 198 0
174 198 0
174 197 0
176 198 0
175 198 0
173 197 0
174 197 0
174 198 0
175 198 0
175 198 0
173 197 0
175 198 0
173 197 0
175 198 0
175 198 0
174 198 0
174 197 0
173 197 0
175 198 0
175 198 0
172 196 0
174 198 0
176 199 0
176 199 0
172 196 0
174 198 0
174 197 0
174 197 0
175 198 0
174 198 0
175 198 0
174 197 0
175 198 0
171 196 0
172 196 0
175 198 0
174 198 0
174 198 0
174 197 0
174 198 0
173 197 0
174 198 0
175 197 0
172 196 0
174 198 0
174 198 0
173 197 0
173 196 0
174 198 0
173 197 0
172 196 0
172 196 0
174 197 0
174 197 0
173 197 0
175 198 0
173 196 0
172 196 0
173 197 0
174 197 0
171 194 0
173 197 0
174 198 0
174 197 0
173 196 0
172 196 0
168 192 0
173 196 0
168 192 0
170 194 0
171 195 0
169 192 0
175 198 62
180 202 92
211 227 220
214 230 240
179 201 95
176 198 51
176 199 80
173 197 67
172 196 84
172 194 80
174 197 67
169 193 72
171 196 92
169 193 92
168 194 95
170 195 76
167 192 95
168 193 72
160 184 76
161 185 62
162 187 84
161 184 57
164 188 62
162 184 62
154 177 80
148 171 76
132 155 74
82 109 106
91 117 133
108 133 137
96 122 134
86 113 136
75 106 145
80 109 156
75 103 147
65 98 145
64 97 131
59 93 117
59 93 127
58 92 122
57 91 111
60 94 133
60 94 126
59 94 127
58 92 120
59 93 127
59 93 124
59 93 121
59 93 120
59 93 124
56 90 111
56 88 105
85 105 76
115 130 0
115 131 0
121 133 0
138 154 0
134 148 0
128 143 0
135 154 0
141 157 0
136 151 0
134 148 0
143 158 0
146 162 0
142 158 0
149 165 0
135 152 0
152 169 0
154 168 0
152 166 0
157 175 0
156 171 0
157 174 0
163 181 0
163 180 0
160 176 0
159 180 0
160 179 0
162 181 0
161 180 0
164 183 0
162 182 0
163 183 0
169 192 0
167 189 0
165 185 0
170 192 0
170 192 0
172 195 0
166 186 0
171 193 0
171 193 0
173 195 0
172 194 0
170 193 0
173 194 0
170 193 0
169 192 0
169 193 0
173 195 0
173 196 0
173 196 0
173 196 0
173 196 0
174 195 0
172 195 0
173 196 0
171 194 0
174 197 0
172 196 0
171 194 0
172 197 0
171 195 0
175 198 0
173 196 0
174 196 0
172 195 0
172 197 0
176 198 0
173 196 0
173 197 0
175 198 0
173 195 0
173 196 0
175 198 0
172 196 0
174 196 0
174 197 0
175 198 0
175 198 0
174 197 0
172 196 0
173 197 0
173 196 0
173 196 0
175 198 0
174 198 0
175 198 0
173 196 0
173 197 0
173 197 0
173 197 0
175 198 0
174 198 0
173 197 0
173 197 0
176 198 0
174 197 0
174 197 0
173 197 0
174 198 0
173 197 0
174 197 0
174 197 0
175 198 0
177 199 0
174 197 0
174 197 0
174 197 0
173 197 0
175 198 0
175 198 0
175 198 0
176 198 0
176 198 0
175 198 0
174 198 0
175 198 0
174 198 0
174 197 0
175 198 0
174 197 0
174 198 0
175 198 0
174 198 0
173 197 0
175 198 0
174 197 0
174 197 0
174 198 0
174 198 0
176 199 0
175 198 0
173 197 0
177 199 0
174 198 0
175 198 0
174 197 0
175 198 0
173 197 0
175 198 0
175 198 0
174 198 0
174 198 0
174 198 0
174 198 0
174 197 0
175 198 0
174 197 0
173 197 0
174 198 0
175 198 0
174 198 0
175 198 0
174 198 0
176 199 0
176 199 0
174 198 0
175 198 0
175 198 0
174 198 0
175 198 0
175 198 0
174 198 0
175 198 0
174 198 0
175 198 0
175 198 0
175 198 0
174 197 0
175 198 0
173 197 0
176 199 0
174 197 0
175 198 0
175 198 0
174 198 0
174 198 0
173 197 0
172 196 0
175 198 0
175 198 0
173 197 0
175 198 0
176 198 0
176 199 0
174 198 0
175 198 0
175 198 0
173 197 0
175 198 0
175 198 0
174 198 0
175 198 0
175 198 0
175 198 0
176 199 0
176 199 0
175 198 0
175 198 0
176 199 0
175 198 0
174 197 0
175 198 0
175 198 0
174 198 0
172 197 0
175 198 0
174 198 0
175 198 0
175 198 0
173 197 0
175 198 0
175 198 0
176 199 0
176 199 0
176 198 0
173 197 0
175 198 0
174 198 0
175 198 0
174 198 0
174 198 0
174 198 0
174 198 0
174 198 0
174 197 0
174 197 0
174 197 0
175 198 0
174 198 0
174 197 0
176 198 0
174 197 0
174 198 0
175 198 0
175 198 0
174 198 0
173 197 0
176 198 0
174 197 0
174 197 0
174 198 0
174 198 0
175 198 0
174 197 0
175 198 0
173 197 0
175 198 0
173 197 0
174 197 0
177 199 0
173 197 0
178 200 0
175 198 0
174 198 0
175 198 0
174 198 0
175 198 0
174 198 0
174 198 0
174 198 0
174 198 0
174 198 0
175 198 0
174 198 0
172 197 0
175 198 0
174 197 0
176 199 0
175 198 0
176 198 0
173 197 0
173 197 0
174 198 0
174 197 0
173 197 0
174 197 0
175 198 0
175 198 0
175 198 0
173 197 0
173 197 0
175 198 0
175 198 0
176 199 0
176 199 0
174 198 0
174 197 0
174 197 0
174 197 0
175 198 0
173 197 0
175 198 0
175 198 0
174 197 0
174 198 0
174 197 0
177 199 0
174 198 0
174 197 0
176 199 0
174 197 0
173 197 0
173 197 0
173 197 0
176 198 0
175 198 0
173 196 0
172 196 0
171 195 0
174 198 0
173 197 0
175 198 0
173 197 0
173 196 0
174 198 0
172 196 0
174 197 0
173 197 0
173 196 0
175 198 0
175 198 0
173 197 0
173 196 0
174 197 0
174 197 0
172 196 0
175 198 0
174 197 0
174 197 0
172 195 0
173 196 0
174 197 0
173 196 0
173 196 0
172 196 0
172 196 0
172 196 0
171 194 0
173 196 0
171 195 0
173 197 0
172 196 0
173 196 0
172 196 0
170 193 0
170 193 0
171 195 0
181 202 88
185 206 114
221 235 253
189 209 142
176 199 67
176 199 76
175 198 67
172 196 102
174 197 62
168 192 72
172 196 76
168 192 67
168 192 57
168 192 67
166 190 80
165 189 76
168 192 92
161 185 72
163 185 67
169 191 108
162 185 76
166 189 99
167 190 72
155 177 88
153 175 84
147 168 76
148 169 72
121 143 70
79 107 104
95 121 128
91 117 134
92 119 135
93 119 139
75 106 152
80 108 145
61 95 126
63 95 120
64 96 115
58 91 110
58 91 122
59 93 122
58 92 113
59 93 120
56 90 108
59 92 115
59 93 124
56 89 107
58 91 110
56 89 100
56 89 94
65 92 95
96 112 40
110 124 0
114 132 0
126 142 0
122 139 0
127 142 0
128 145 0
128 145 0
145 163 0
141 159 0
144 161 0
142 161 0
147 166 0
143 158 0
154 168 0
151 167 0
155 175 0
148 164 0
151 167 0
150 166 0
161 180 0
159 178 0
158 176 0
162 180 0
161 179 0
163 183 0
164 183 0
162 182 0
162 180 0
161 180 0
166 187 0
169 191 0
169 189 0
168 187 0
166 186 0
166 188 0
166 188 0
167 188 0
171 193 0
167 189 0
168 188 0
169 192 0
168 190 0
169 192 0
171 194 0
174 197 0
174 198 0
171 194 0
172 194 0
172 196 0
168 192 0
173 197 0
173 196 0
170 194 0
173 196 0
171 194 0
173 196 0
174 196 0
172 196 0
173 197 0
173 197 0
173 196 0
173 196 0
174 197 0
173 196 0
172 195 0
175 197 0
172 195 0
174 196 0
174 198 0
175 198 0
174 197 0
172 195 0
173 196 0
172 194 0
174 197 0
174 198 0
173 197 0
174 197 0
173 197 0
176 198 0
173 197 0
175 198 0
172 196 0
175 198 0
173 197 0
174 198 0
174 197 0
172 196 0
175 198 0
174 197 0
173 197 0
174 198 0
174 197 0
174 197 0
175 198 0
173 197 0
174 198 0
173 197 0
174 198 0
175 198 0
173 197 0
173 197 0
174 197 0
174 198 0
174 198 0
176 199 0
175 198 0
173 197 0
176 198 0
177 199 0
175 198 0
175 198 0
175 198 0
175 198 0
174 197 0
173 197 0
174 197 0
173 197 0
174 198 0
176 198 0
175 198 0
174 198 0
176 199 0
171 196 0
173 197 0
174 198 0
174 198 0
175 198 0
173 197 0
176 199 0
175 198 0
175 198 0
175 198 0
174 198 0
174 197 0
175 198 0
174 198 0
175 198 0
175 198 0
174 197 0
173 196 0
172 197 0
175 198 0
175 198 0
175 198 0
175 198 0
175 198 0
172 196 0
175 198 0
175 198 0
175 198 0
173 197 0
173 197 0
175 198 0
174 197 0
176 198 0
175 198 0
176 199 0
175 198 0
174 197 0
174 198 0
176 199 0
174 197 0
174 198 0
173 197 0
174 198 0
175 198 0
175 198 0
174 198 0
176 199 0
175 198 0
174 197 0
175 198 0
174 198 0
175 198 0
174 198 0
175 198 0
173 197 0
175 198 0
175 198 0
174 198 0
175 198 0
173 197 0
174 198 0
175 198 0
175 198 0
175 198 0
175 198 0
173 197 0
175 198 0
174 197 0
177 199 0
173 197 0
173 197 0
175 198 0
173 197 0
174 197 0
174 198 0
174 198 0
175 198 0
173 197 0
174 198 0
174 198 0
175 198 0
174 197 0
175 198 0
175 198 0
176 199 0
175 198 0
174 197 0
174 198 0
173 197 0
174 197 0
175 198 0
173 197 0
175 198 0
176 198 0
174 198 0
175 198 0
175 198 0
173 197 0
174 198 0
175 198 0
175 198 0
175 198 0
176 198 0
175 198 0
175 198 0
175 198 0
175 198 0
175 198 0
174 197 0
176 199 0
173 197 0
176 198 0
174 198 0
175 198 0
174 197 0
174 198 0
174 197 0
176 198 0
175 198 0
173 197 0
176 199 0
174 198 0
175 198 0
176 198 0
176 198 0
173 196 0
175 198 0
174 197 0
174 198 0
172 197 0
173 197 0
173 196 0
175 198 0
174 197 0
173 197 0
175 198 0
174 198 0
174 198 0
175 198 0
173 197 0
173 197 0
176 198 0
176 199 0
174 198 0
173 197 0
175 198 0
174 197 0
174 198 0
175 198 0
174 198 0
175 198 0
175 198 0
175 198 0
174 198 0
175 198 0
174 197 0
175 198 0
173 197 0
174 197 0
175 198 0
173 197 0
173 197 0
174 197 0
173 197 0
174 198 0
173 197 0
174 197 0
174 197 0
174 197 0
175 198 0
173 197 0
172 196 0
174 197 0
175 198 0
173 197 0
173 197 0
175 198 0
174 197 0
174 197 0
172 197 0
171 195 0
173 197 0
175 198 0
174 197 0
173 197 0
174 198 0
174 197 0
173 197 0
175 198 0
175 198 0
175 198 0
175 198 0
174 198 0
175 198 0
174 197 0
175 198 0
175 198 0
174 197 0
175 198 0
172 196 0
171 195 0
173 197 0
174 197 0
171 195 0
171 195 0
173 196 0
173 196 0
174 197 0
173 196 0
171 194 0
170 194 0
172 195 0
173 197 0
173 196 0
169 193 0
172 195 0
170 194 0
171 195 0
170 194 0
169 193 0
170 194 0
171 195 0
171 194 0
169 193 0
173 196 44
182 204 92
193 212 151
210 226 221
176 199 57
173 196 57
176 199 92
168 192 67
172 195 88
173 196 80
171 195 80
172 196 62
170 194 72
170 194 80
171 195 62
175 198 84
169 192 102
178 200 117
169 192 84
170 193 92
169 191 102
165 187 92
168 191 105
157 180 99
160 181 88
151 173 76
141 163 80
154 176 76
142 162 88
114 135 82
83 108 99
98 122 125
89 114 120
101 126 129
100 116 125
75 105 130
74 104 125
68 98 121
67 96 97
56 89 107
58 91 107
57 90 111
56 90 95
59 92 118
55 88 100
56 89 103
56 88 97
56 90 102
57 90 107
55 88 102
67 89 74
102 116 25
114 129 0
121 135 0
114 132 0
126 145 0
132 150 0
121 137 0
142 161 0
131 148 0
136 152 0
137 155 0
143 161 0
149 168 0
155 173 0
148 167 0
139 154 0
152 169 0
157 177 0
158 178 0
153 174 0
153 171 0
161 181 0
158 176 0
166 187 0
161 181 0
158 176 0
159 179 0
157 176 0
159 179 0
163 181 0
161 181 0
163 184 0
165 188 0
164 184 0
168 189 0
168 191 0
170 191 0
168 189 0
167 189 0
169 191 0
168 190 0
171 193 0
168 189 0
170 192 0
169 191 0
170 193 0
170 192 0
170 192 0
173 196 0
171 193 0
170 192 0
170 193 0
172 194 0
172 195 0
173 196 0
173 196 0
174 197 0
171 193 0
172 195 0
172 196 0
174 197 0
170 193 0
174 198 0
173 195 0
172 195 0
172 195 0
173 197 0
174 198 0
173 197 0
174 198 0
172 194 0
172 195 0
172 196 0
174 197 0
174 197 0
172 195 0
175 197 0
176 198 0
173 196 0
174 197 0
173 197 0
174 198 0
174 198 0
172 196 0
175 198 0
171 195 0
174 197 0
171 195 0
174 197 0
173 196 0
175 198 0
175 198 0
174 197 0
173 196 0
175 198 0
174 198 0
173 197 0
173 197 0
174 198 0
172 196 0
175 198 0
174 197 0
175 198 0
172 196 0
174 197 0
174 198 0
175 198 0
175 198 0
173 197 0
174 197 0
175 198 0
173 197 0
175 198 0
174 198 0
174 197 0
174 198 0
174 198 0
174 197 0
173 197 0
175 198 0
173 197 0
174 197 0
173 197 0
174 197 0
177 199 0
175 198 0
175 198 0
174 198 0
175 198 0
174 198 0
172 197 0
175 198 0
172 197 0
175 198 0
175 198 0
173 197 0
176 199 0
175 198 0
174 198 0
173 197 0
174 198 0
175 198 0
174 198 0
173 197 0
175 198 0
175 198 0
176 199 0
174 198 0
173 197 0
173 197 0
175 198 0
175 198 0
174 198 0
174 197 0
175 198 0
174 197 0
175 198 0
174 197 0
174 198 0
175 198 0
176 198 0
176 199 0
174 198 0
173 197 0
174 198 0
173 197 0
174 198 0
174 198 0
176 198 0
174 197 0
175 198 0
175 198 0
176 199 0
175 198 0
175 198 0
174 197 0
174 197 0
174 197 0
173 197 0
174 198 0
174 198 0
175 198 0
175 198 0
174 197 0
175 198 0
176 198 0
174 197 0
174 198 0
174 198 0
173 197 0
175 198 0
175 198 0
176 199 0
174 198 0
174 198 0
175 198 0
174 197 0
173 197 0
174 198 0
174 198 0
176 199 0
174 198 0
176 199 0
174 197 0
174 198 0
175 198 0
175 198 0
175 198 0
174 197 0
174 198 0
174 198 0
175 198 0
174 198 0
176 198 0
177 199 0
173 197 0
173 197 0
176 198 0
174 198 0
174 198 0
174 198 0
174 197 0
174 198 0
175 198 0
173 197 0
174 197 0
175 198 0
176 199 0
175 198 0
175 198 0
174 198 0
175 198 0
175 198 0
174 198 0
174 198 0
174 197 0
175 198 0
174 198 0
175 198 0
174 198 0
174 198 0
174 198 0
173 197 0
174 198 0
174 197 0
174 198 0
174 198 0
175 198 0
173 197 0
175 198 0
173 197 0
175 198 0
175 198 0
174 198 0
175 198 0
174 198 0
173 197 0
174 197 0
174 198 0
174 198 0
174 198 0
175 198 0
174 198 0
174 198 0
174 198 0
175 198 0
175 198 0
174 197 0
172 197 0
175 198 0
173 197 0
175 198 0
173 197 0
175 198 0
174 197 0
173 197 0
173 197 0
174 198 0
175 198 0
173 197 0
175 198 0
174 198 0
174 197 0
174 198 0
175 198 0
174 197 0
175 198 0
173 197 0
175 198 0
173 197 0
174 197 0
174 197 0
174 197 0
174 198 0
174 197 0
175 198 0
174 198 0
174 198 0
173 197 0
176 199 0
172 196 0
171 195 0
174 197 0
172 196 0
175 198 0
175 198 0
174 197 0
174 197 0
172 196 0
172 197 0
175 197 0
173 197 0
173 197 0
173 197 0
173 197 0
173 197 0
174 197 0
173 196 0
175 198 0
173 197 0
172 195 0
174 197 0
174 197 0
173 196 0
175 198 0
175 198 0
173 197 0
173 197 0
173 197 0
173 196 0
172 196 0
170 193 0
172 196 0
172 196 0
172 196 0
171 194 0
172 195 0
173 196 0
174 198 0
171 195 0
173 196 0
171 195 0
172 196 0
172 195 0
173 196 0
172 195 0
174 197 0
171 195 0
172 195 0
173 197 25
178 200 72
195 213 157
194 213 171
175 198 67
172 195 36
177 199 72
172 196 80
176 200 95
173 197 76
169 193 44
171 195 51
166 190 44
170 194 99
171 195 92
171 195 62
169 191 88
168 193 88
170 194 88
171 195 117
164 187 70
164 186 84
163 186 95
156 179 92
158 180 102
159 179 111
154 175 102
153 172 105
138 157 84
140 158 99
115 135 82
94 119 114
96 120 130
101 126 124
120 139 92
111 130 92
72 102 113
68 96 110
65 93 85
56 89 82
55 87 78
53 84 84
56 89 102
55 87 97
55 87 92
55 87 99
55 87 95
55 87 88
73 95 72
90 107 36
101 117 0
114 130 0
121 137 0
114 131 0
127 144 0
117 135 0
132 149 0
138 156 0
133 150 0
136 156 0
150 168 0
146 163 0
149 170 0
147 166 0
140 160 0
149 169 0
154 171 0
152 170 0
155 174 0
158 177 0
153 171 0
152 171 0
155 175 0
160 179 0
165 186 0
160 178 0
162 180 0
161 181 0
167 187 0
162 184 0
164 185 0
162 183 0
167 185 0
165 188 0
169 191 0
165 186 0
166 188 0
167 189 0
169 190 0
167 189 0
171 193 0
171 192 0
172 195 0
170 192 0
170 193 0
170 191 0
168 189 0
169 192 0
173 196 0
175 197 0
171 194 0
172 195 0
171 193 0
172 196 0
172 194 0
173 196 0
171 194 0
171 193 0
173 196 0
172 195 0
174 197 0
173 197 0
173 196 0
173 195 0
172 195 0
174 197 0
172 195 0
174 197 0
170 194 0
173 197 0
174 197 0
173 197 0
173 196 0
174 197 0
176 198 0
172 196 0
176 198 0
175 198 0
174 197 0
175 197 0
172 195 0
174 198 0
175 197 0
174 197 0
172 196 0
173 197 0
174 198 0
173 197 0
174 198 0
175 198 0
173 197 0
174 197 0
173 197 0
173 196 0
174 198 0
174 197 0
174 197 0
172 196 0
174 197 0
172 196 0
174 197 0
174 198 0
173 197 0
173 197 0
174 198 0
174 197 0
174 198 0
175 198 0
174 197 0
175 198 0
175 198 0
174 198 0
175 198 0
173 197 0
173 196 0
174 197 0
174 198 0
175 198 0
172 197 0
173 197 0
174 198 0
175 198 0
175 198 0
174 198 0
175 198 0
174 197 0
175 198 0
175 198 0
174 197 0
173 197 0
176 199 0
175 198 0
173 197 0
175 198 0
173 197 0
175 198 0
175 198 0
174 198 0
175 198 0
175 198 0
173 197 0
175 198 0
175 198 0
173 197 0
174 197 0
174 197 0
174 198 0
174 198 0
175 198 0
174 197 0
174 198 0
175 198 0
174 198 0
176 199 0
174 198 0
174 198 0
174 198 0
173 197 0
175 198 0
174 197 0
174 198 0
175 198 0
174 198 0
175 198 0
176 198 0
173 197 0
176 199 0
176 199 0
174 198 0
176 199 0
175 198 0
173 197 0
174 198 0
174 197 0
175 198 0
175 198 0
174 198 0
174 198 0
174 197 0
174 197 0
175 198 0
174 197 0
176 199 0
175 198 0
175 198 0
174 197 0
174 197 0
175 198 0
176 199 0
174 197 0
175 198 0
175 198 0
175 198 0
174 198 0
175 198 0
175 198 0
174 197 0
174 198 0
174 197 0
175 198 0
175 198 0
174 198 0
174 198 0
175 198 0
174 197 0
174 198 0
174 198 0
174 198 0
176 199 0
174 198 0
175 198 0
175 198 0
175 198 0
174 198 0
173 197 0
174 197 0
175 198 0
176 198 0
177 199 0
173 197 0
173 197 0
174 197 0
175 198 0
175 198 0
174 198 0
175 198 0
174 198 0
174 198 0
175 198 0
173 196 0
175 198 0
174 198 0
173 197 0
174 197 0
174 198 0
174 197 0
176 199 0
175 198 0
174 198 0
175 198 0
175 198 0
173 197 0
174 197 0
175 198 0
175 198 0
173 196 0
175 198 0
175 198 0
175 198 0
172 196 0
174 198 0
176 199 0
173 197 0
173 197 0
175 198 0
175 198 0
173 197 0
174 197 0
175 198 0
174 197 0
173 197 0
174 198 0
173 197 0
173 197 0
176 198 0
176 199 0
174 197 0
176 198 0
173 197 0
175 198 0
176 199 0
173 197 0
174 197 0
174 197 0
177 199 0
175 198 0
174 198 0
172 196 0
175 198 0
173 197 0
174 198 0
173 196 0
173 196 0
176 199 0
175 198 0
174 198 0
177 199 0
175 198 0
174 197 0
173 197 0
172 196 0
172 196 0
175 198 0
175 198 0
174 198 0
175 198 0
174 198 0
173 196 0
173 197 0
174 197 0
174 198 0
173 196 0
176 199 0
174 197 0
173 197 0
173 197 0
173 197 0
174 198 0
172 195 0
174 197 0
174 198 0
174 197 0
176 198 0
172 196 0
175 198 0
174 197 0
175 198 0
174 197 0
172 196 0
175 198 0
174 197 0
174 198 0
172 196 0
175 198 0
172 196 0
173 197 0
175 198 0
174 197 0
174 198 0
174 197 0
173 197 0
174 198 0
173 197 0
174 198 0
171 194 0
173 196 0
173 197 0
175 198 0
169 194 0
172 196 0
171 195 0
172 195 0
174 198 0
170 195 0
173 196 0
174 197 0
171 195 0
174 197 0
173 197 0
173 196 0
175 198 36
179 201 72
198 216 169
186 206 130
177 199 84
176 199 84
174 197 95
173 198 88
170 193 76
171 194 84
174 198 76
173 197 67
173 196 102
174 197 84
172 196 102
169 192 84
166 190 84
162 184 80
165 189 88
167 190 122
167 189 84
159 183 102
165 189 100
163 185 97
162 184 111
159 182 102
152 173 92
162 183 125
145 165 99
128 147 80
113 131 76
108 128 84
102 124 111
99 123 103
103 124 105
144 158 18
99 121 86
78 102 97
85 105 55
67 89 57
81 102 51
70 95 70
65 90 57
59 84 72
65 89 76
77 96 51
78 95 40
96 111 0
99 116 0
90 106 0
104 119 0
111 126 0
123 140 0
135 154 0
125 142 0
138 155 0
136 154 0
131 149 0
130 149 0
135 155 0
142 162 0
151 170 0
140 158 0
153 171 0
150 170 0
152 173 0
155 174 0
151 171 0
155 175 0
153 172 0
152 172 0
156 177 0
157 177 0
157 177 0
157 177 0
164 184 0
162 183 0
163 184 0
164 185 0
163 183 0
159 181 0
163 183 0
169 190 0
167 189 0
164 184 0
167 189 0
170 191 0
169 190 0
167 189 0
171 194 0
169 190 0
172 193 0
166 188 0
170 191 0
170 193 0
170 192 0
170 193 0
173 194 0
171 193 0
172 196 0
170 191 0
173 197 0
171 193 0
174 197 0
172 194 0
170 194 0
171 195 0
174 197 0
169 192 0
170 193 0
173 196 0
173 196 0
172 196 0
172 195 0
173 196 0
173 197 0
173 197 0
173 197 0
173 196 0
175 197 0
174 198 0
172 196 0
174 197 0
173 196 0
172 196 0
174 197 0
175 197 0
174 197 0
174 198 0
173 196 0
173 196 0
174 197 0
174 198 0
172 195 0
170 193 0
172 196 0
174 198 0
174 197 0
173 196 0
173 197 0
174 197 0
175 198 0
175 197 0
174 198 0
171 196 0
175 198 0
175 198 0
175 198 0
174 197 0
174 198 0
173 196 0
175 197 0
173 197 0
175 198 0
173 197 0
173 195 0
174 198 0
174 198 0
174 197 0
173 197 0
173 197 0
174 197 0
174 198 0
176 199 0
175 198 0
173 197 0
175 198 0
174 198 0
176 198 0
175 198 0
172 196 0
174 198 0
173 197 0
175 198 0
175 198 0
174 198 0
176 199 0
173 197 0
174 198 0
173 197 0
173 197 0
173 197 0
173 197 0
175 198 0
175 198 0
174 197 0
173 197 0
173 197 0
175 198 0
174 198 0
173 197 0
173 197 0
174 198 0
174 198 0
173 197 0
175 198 0
175 198 0
174 198 0
175 198 0
175 198 0
173 197 0
173 197 0
174 198 0
175 198 0
175 198 0
174 198 0
173 197 0
174 197 0
175 198 0
174 198 0
174 198 0
175 198 0
175 198 0
176 198 0
175 198 0
174 197 0
173 197 0
174 198 0
176 198 0
175 198 0
174 198 0
174 198 0
175 198 0
174 198 0
176 199 0
176 198 0
174 198 0
175 198 0
174 198 0
175 198 0
175 198 0
175 198 0
175 198 0
176 199 0
175 198 0
175 198 0
174 198 0
176 198 0
174 198 0
175 198 0
175 198 0
175 198 0
174 198 0
174 198 0
175 198 0
174 198 0
175 198 0
175 198 0
174 198 0
173 197 0
174 198 0
174 198 0
175 198 0
174 198 0
173 197 0
174 198 0
176 199 0
175 198 0
174 198 0
175 198 0
175 198 0
176 199 0
174 197 0
175 198 0
174 198 0
173 197 0
176 198 0
175 198 0
176 199 0
175 198 0
174 198 0
175 198 0
175 198 0
176 198 0
175 198 0
174 198 0
174 198 0
175 198 0
174 197 0
175 198 0
174 198 0
174 198 0
173 197 0
176 198 0
174 198 0
175 198 0
173 197 0
173 197 0
174 197 0
175 198 0
174 198 0
175 198 0
174 198 0
174 198 0
172 196 0
174 198 0
174 198 0
175 198 0
174 198 0
173 197 0
174 198 0
176 199 0
174 198 0
175 198 0
175 198 0
176 198 0
173 197 0
174 198 0
175 198 0
174 198 0
175 198 0
174 198 0
175 198 0
175 198 0
176 199 0
175 198 0
174 197 0
175 198 0
174 197 0
173 197 0
174 197 0
174 198 0
173 197 0
174 198 0
176 198 0
174 198 0
175 198 0
172 196 0
175 198 0
174 198 0
174 198 0
175 198 0
175 198 0
173 196 0
174 198 0
173 196 0
175 198 0
175 198 0
176 199 0
174 198 0
174 198 0
174 198 0
174 198 0
173 197 0
174 198 0
172 196 0
174 197 0
176 199 0
173 196 0
173 197 0
173 197 0
174 197 0
172 196 0
174 197 0
174 198 0
175 198 0
174 197 0
174 198 0
175 198 0
173 197 0
173 197 0
174 197 0
173 196 0
172 197 0
173 197 0
173 197 0
172 196 0
175 197 0
173 197 0
174 197 0
173 197 0
176 198 0
173 197 0
173 196 0
172 195 0
175 198 0
169 194 0
172 196 0
174 197 0
175 198 0
173 196 0
173 197 0
174 197 0
172 195 0
174 197 0
173 196 0
170 194 0
174 197 0
171 194 0
166 189 0
170 194 0
171 195 0
170 195 0
171 194 0
170 193 0
171 194 0
169 192 0
171 195 0
173 196 0
174 197 0
175 198 57
174 197 44
194 213 157
178 200 92
173 195 51
172 195 72
171 194 72
173 196 67
172 195 92
170 194 67
169 193 84
172 195 92
176 199 99
167 191 95
167 191 92
173 198 105
170 193 105
167 191 80
171 195 105
166 189 111
168 192 114
165 188 102
162 185 97
161 184 105
163 185 88
163 185 105
159 181 105
152 172 92
148 168 92
144 162 105
141 159 76
138 155 99
113 128 80
100 121 88
113 133 78
148 165 0
131 149 18
92 110 36
111 128 0
106 122 0
94 108 0
90 105 0
101 117 0
92 108 0
95 112 0
96 113 0
103 119 0
91 108 0
106 123 0
131 148 0
125 141 0
119 138 0
117 135 0
125 145 0
137 157 0
141 161 0
139 157 0
132 150 0
143 162 0
143 161 0
141 162 0
148 168 0
155 177 0
151 171 0
148 167 0
160 182 0
157 177 0
158 178 0
154 175 0
156 175 0
158 177 0
164 184 0
158 178 0
158 179 0
165 186 0
163 182 0
162 183 0
164 184 0
169 190 0
165 188 0
159 180 0
165 187 0
164 186 0
164 186 0
167 188 0
162 183 0
162 183 0
171 193 0
167 190 0
169 191 0
169 189 0
171 192 0
169 189 0
166 188 0
171 193 0
169 190 0
168 192 0
169 193 0
168 190 0
170 190 0
169 191 0
171 193 0
169 192 0
171 193 0
173 196 0
171 194 0
172 195 0
172 195 0
171 194 0
173 196 0
172 196 0
171 194 0
174 197 0
172 195 0
173 195 0
171 194 0
174 197 0
174 197 0
172 196 0
174 198 0
173 197 0
171 195 0
173 196 0
174 197 0
175 198 0
173 197 0
172 196 0
174 197 0
173 196 0
173 197 0
172 195 0
173 196 0
172 196 0
175 198 0
174 197 0
175 198 0
174 197 0
173 196 0
173 196 0
173 197 0
174 197 0
173 197 0
176 199 0
175 198 0
176 198 0
173 197 0
174 197 0
173 197 0
174 198 0
174 197 0
173 197 0
174 198 0
174 197 0
174 198 0
173 197 0
176 198 0
174 198 0
174 198 0
173 197 0
175 198 0
175 198 0
172 196 0
175 198 0
175 198 0
174 197 0
174 198 0
175 197 0
174 197 0
174 197 0
175 197 0
176 199 0
174 198 0
175 198 0
174 197 0
176 199 0
176 199 0
175 198 0
175 198 0
173 197 0
173 197 0
176 199 0
174 198 0
176 199 0
175 198 0
175 198 0
176 199 0
174 197 0
173 197 0
173 197 0
174 197 0
176 199 0
174 197 0
175 198 0
175 198 0
174 197 0
174 198 0
174 197 0
175 198 0
173 196 0
175 198 0
175 198 0
175 198 0
174 198 0
173 197 0
175 198 0
175 198 0
174 198 0
174 198 0
174 198 0
176 199 0
175 198 0
173 197 0
174 197 0
174 198 0
174 198 0
176 199 0
175 198 0
174 197 0
173 197 0
174 198 0
174 198 0
174 197 0
174 198 0
176 198 0
174 198 0
173 197 0
175 198 0
173 197 0
176 198 0
175 198 0
173 197 0
174 197 0
173 197 0
174 198 0
174 198 0
176 199 0
175 198 0
174 198 0
175 198 0
175 198 0
173 197 0
172 197 0
175 198 0
174 198 0
174 198 0
173 197 0
173 197 0
175 198 0
174 198 0
175 198 0
174 198 0
175 198 0
174 197 0
175 198 0
175 198 0
176 198 0
174 197 0
175 198 0
175 198 0
174 198 0
175 198 0
174 198 0
175 198 0
174 197 0
175 198 0
174 197 0
174 198 0
175 198 0
175 198 0
173 197 0
175 198 0
176 198 0
174 198 0
175 198 0
174 198 0
176 199 0
173 197 0
174 198 0
175 198 0
173 197 0
175 198 0
175 198 0
174 197 0
176 198 0
174 197 0
173 197 0
174 198 0
176 199 0
176 199 0
173 197 0
174 198 0
175 198 0
173 197 0
172 197 0
173 197 0
173 197 0
173 197 0
173 197 0
175 198 0
175 198 0
174 198 0
174 198 0
174 198 0
174 197 0
174 197 0
175 198 0
175 198 0
175 198 0
173 197 0
175 198 0
175 198 0
174 198 0
174 197 0
174 197 0
176 199 0
175 198 0
175 198 0
174 197 0
174 198 0
173 197 0
174 198 0
175 198 0
175 198 0
174 197 0
174 198 0
175 198 0
172 196 0
172 196 0
174 197 0
173 197 0
173 197 0
173 197 0
174 198 0
175 198 0
176 199 0
174 198 0
175 198 0
176 198 0
174 198 0
174 197 0
175 198 0
175 198 0
173 197 0
176 198 0
173 197 0
174 198 0
176 199 0
176 198 0
174 197 0
173 197 0
173 197 0
174 197 0
175 198 0
175 198 0
173 196 0
172 196 0
174 197 0
173 197 0
174 197 0
172 196 0
173 197 0
175 198 0
176 199 0
174 197 0
175 198 0
173 197 0
173 196 0
173 197 0
173 196 0
176 198 0
174 196 0
174 197 0
173 197 0
174 197 0
174 198 0
172 196 0
174 198 0
171 196 0
173 196 0
174 198 0
173 197 0
175 198 0
172 196 0
173 197 0
173 195 0
173 196 0
171 195 0
173 196 0
172 196 0
172 195 0
170 194 0
174 197 0
172 196 0
172 195 0
165 189 0
172 196 0
173 196 0
169 194 0
172 196 0
170 195 0
177 199 51
180 201 67
178 200 57
175 197 57
175 198 76
170 193 67
174 196 80
171 194 57
169 192 51
171 195 84
174 197 88
172 195 102
174 196 108
172 196 102
166 189 92
169 192 102
169 192 95
166 190 92
157 181 67
165 187 67
164 187 114
164 187 108
164 186 95
164 187 72
158 181 105
154 176 102
158 179 102
152 174 80
152 172 108
140 158 84
136 154 84
129 147 84
130 149 51
111 126 62
127 145 51
146 166 0
140 159 0
118 136 0
116 134 0
111 128 0
109 126 0
96 113 0
105 123 0
98 114 0
105 122 0
115 132 0
112 129 0
107 126 0
110 128 0
121 139 0
122 140 0
126 145 0
117 136 0
126 145 0
126 145 0
137 156 0
136 156 0
142 163 0
143 162 0
150 170 0
147 168 0
149 169 0
155 175 0
146 168 0
148 168 0
149 168 0
150 170 0
163 183 0
152 173 0
157 179 0
157 178 0
163 183 0
165 186 0
160 181 0
162 183 0
164 184 0
164 185 0
165 188 0
162 182 0
167 188 0
165 186 0
165 185 0
172 195 0
169 191 0
170 193 0
168 190 0
171 193 0
164 186 0
169 191 0
167 189 0
167 189 0
168 191 0
171 193 0
167 189 0
171 194 0
167 190 0
171 193 0
171 192 0
172 194 0
171 194 0
171 192 0
171 194 0
168 192 0
174 196 0
170 192 0
173 196 0
171 194 0
171 193 0
170 193 0
174 198 0
173 196 0
172 195 0
171 194 0
172 195 0
170 193 0
174 197 0
173 195 0
175 198 0
174 196 0
173 196 0
171 195 0
173 196 0
173 195 0
172 195 0
173 196 0
173 196 0
174 198 0
174 197 0
175 198 0
174 197 0
173 196 0
172 196 0
174 197 0
175 198 0
173 197 0
172 195 0
175 197 0
174 197 0
174 197 0
174 197 0
174 197 0
173 197 0
174 198 0
175 198 0
174 197 0
175 198 0
175 198 0
172 196 0
175 198 0
175 198 0
174 197 0
175 198 0
174 197 0
175 198 0
174 197 0
174 198 0
174 198 0
175 198 0
175 198 0
172 196 0
174 198 0
175 198 0
174 197 0
175 198 0
174 198 0
175 198 0
175 198 0
174 198 0
175 198 0
174 198 0
175 198 0
174 198 0
174 198 0
175 198 0
173 197 0
173 197 0
173 197 0
175 198 0
173 197 0
175 198 0
174 198 0
175 198 0
174 198 0
174 198 0
175 198 0
175 198 0
175 198 0
172 197 0
176 198 0
173 197 0
174 197 0
174 197 0
175 198 0
173 197 0
175 198 0
173 197 0
176 199 0
173 197 0
173 197 0
175 198 0
175 198 0
175 198 0
174 197 0
175 198 0
176 199 0
175 198 0
175 198 0
174 198 0
176 199 0
176 199 0
174 197 0
176 199 0
175 198 0
175 198 0
175 198 0
175 198 0
173 197 0
175 198 0
175 198 0
174 198 0
174 198 0
174 198 0
175 198 0
173 197 0
175 198 0
175 198 0
174 198 0
174 197 0
174 198 0
174 198 0
174 197 0
175 198 0
174 198 0
176 198 0
175 198 0
176 198 0
173 197 0
175 198 0
174 198 0
175 198 0
172 197 0
174 197 0
174 197 0
175 198 0
174 198 0
175 198 0
176 198 0
175 198 0
175 198 0
175 198 0
174 198 0
175 198 0
174 198 0
175 198 0
174 198 0
174 198 0
175 198 0
174 198 0
174 198 0
175 198 0
175 198 0
174 198 0
174 197 0
174 197 0
175 198 0
174 198 0
174 197 0
176 199 0
176 198 0
174 198 0
174 198 0
174 198 0
174 198 0
175 198 0
176 199 0
173 197 0
172 197 0
175 198 0
174 198 0
175 198 0
175 198 0
175 198 0
175 198 0
176 199 0
175 198 0
175 198 0
173 197 0
174 198 0
175 198 0
174 198 0
175 198 0
174 198 0
175 198 0
176 199 0
174 197 0
175 198 0
174 198 0
177 199 0
175 198 0
177 199 0
174 197 0
174 198 0
174 197 0
175 198 0
173 197 0
175 198 0
173 197 0
174 198 0
174 198 0
174 198 0
175 198 0
176 199 0
174 198 0
175 198 0
173 197 0
175 198 0
174 198 0
173 197 0
176 199 0
175 198 0
174 197 0
174 197 0
174 197 0
174 197 0
174 198 0
174 198 0
175 198 0
173 197 0
176 198 0
175 198 0
174 198 0
175 198 0
174 197 0
174 197 0
175 198 0
174 198 0
175 198 0
174 197 0
174 198 0
173 197 0
175 198 0
172 196 0
174 198 0
174 197 0
173 197 0
174 197 0
175 198 0
174 197 0
174 197 0
174 198 0
174 197 0
175 198 0
174 197 0
175 198 0
173 197 0
174 198 0
174 197 0
174 198 0
175 198 0
173 197 0
174 197 0
174 197 0
174 197 0
172 196 0
174 197 0
173 197 0
173 197 0
175 198 0
172 196 0
174 197 0
175 198 0
173 196 0
173 196 0
175 198 0
173 197 0
172 196 0
175 198 0
172 196 0
173 197 0
172 195 0
173 196 0
172 196 0
174 197 0
171 195 0
173 196 0
174 197 0
173 196 0
170 194 0
168 191 0
170 194 0
168 192 0
173 196 0
172 195 0
169 194 0
173 196 0
171 194 0
174 197 0
171 195 0
171 194 0
173 196 0
170 194 0
177 200 62
175 198 44
172 195 62
172 195 57
171 194 51
173 196 67
171 194 88
173 196 76
173 196 99
175 198 95
174 197 108
173 196 76
169 192 84
178 202 105
163 186 80
169 193 84
163 186 80
167 191 92
160 183 84
164 187 88
156 179 99
159 181 92
160 182 76
167 189 111
164 187 117
155 176 114
151 172 92
160 180 114
152 171 95
161 180 102
147 167 72
138 158 72
137 156 51
138 156 25
157 179 0
140 159 0
127 148 0
135 155 0
112 130 0
105 123 0
125 143 0
112 131 0
118 137 0
121 140 0
116 135 0
113 131 0
115 133 0
130 149 0
119 137 0
132 152 0
121 140 0
130 150 0
138 157 0
135 156 0
137 156 0
141 162 0
141 163 0
148 167 0
141 162 0
151 173 0
150 170 0
154 175 0
160 182 0
146 167 0
156 179 0
153 174 0
152 174 0
161 181 0
161 182 0
158 179 0
153 174 0
162 184 0
161 183 0
157 178 0
171 193 0
165 187 0
163 186 0
163 184 0
163 186 0
170 193 0
160 181 0
167 190 0
168 191 0
165 187 0
173 195 0
166 187 0
168 190 0
168 190 0
170 193 0
168 191 0
170 192 0
171 194 0
170 193 0
165 187 0
171 194 0
170 193 0
169 193 0
171 194 0
171 192 0
173 195 0
172 194 0
174 197 0
173 196 0
172 195 0
173 195 0
173 196 0
175 198 0
173 197 0
173 195 0
172 195 0
174 197 0
171 193 0
174 197 0
173 196 0
173 197 0
172 196 0
173 197 0
173 196 0
172 196 0
175 198 0
173 196 0
174 197 0
173 195 0
173 197 0
172 196 0
173 196 0
175 197 0
173 195 0
174 197 0
173 197 0
175 198 0
174 197 0
173 196 0
172 195 0
173 196 0
173 196 0
172 195 0
174 198 0
175 198 0
174 197 0
173 197 0
173 197 0
176 199 0
174 198 0
174 198 0
175 198 0
174 197 0
174 197 0
173 196 0
173 196 0
175 198 0
172 196 0
174 198 0
175 198 0
172 197 0
174 197 0
173 197 0
175 198 0
175 198 0
176 199 0
173 197 0
174 197 0
173 197 0
175 198 0
174 197 0
174 198 0
176 199 0
175 198 0
173 197 0
173 197 0
176 198 0
173 197 0
175 198 0
175 198 0
174 198 0
173 197 0
175 198 0
175 198 0
174 198 0
174 197 0
174 197 0
174 198 0
173 196 0
173 196 0
174 197 0
174 197 0
174 198 0
175 198 0
174 198 0
173 197 0
174 198 0
175 198 0
176 199 0
174 198 0
176 198 0
174 198 0
174 197 0
174 197 0
175 198 0
174 198 0
174 198 0
175 198 0
176 199 0
174 198 0
174 198 0
173 197 0
172 197 0
176 199 0
175 198 0
174 198 0
174 198 0
174 198 0
174 198 0
175 198 0
176 199 0
175 198 0
175 197 0
173 197 0
175 198 0
172 197 0
175 198 0
174 198 0
173 197 0
175 198 0
174 198 0
174 198 0
173 197 0
174 197 0
175 198 0
174 198 0
174 198 0
174 197 0
176 199 0
175 198 0
175 198 0
174 197 0
174 198 0
175 198 0
174 198 0
175 198 0
175 198 0
175 198 0
173 197 0
173 197 0
174 198 0
173 197 0
175 198 0
173 197 0
174 198 0
173 197 0
175 198 0
174 198 0
174 198 0
176 199 0
175 198 0
174 197 0
175 198 0
175 198 0
174 198 0
174 197 0
176 199 0
173 197 0
174 197 0
173 197 0
177 199 0
175 198 0
173 197 0
173 197 0
175 198 0
174 197 0
173 197 0
175 198 0
174 198 0
175 198 0
175 198 0
174 198 0
175 198 0
174 197 0
174 198 0
174 197 0
174 198 0
174 198 0
175 198 0
175 198 0
174 197 0
174 198 0
175 198 0
175 198 0
176 199 0
174 198 0
174 197 0
174 198 0
174 198 0
175 198 0
173 197 0
175 198 0
176 199 0
174 198 0
174 197 0
175 198 0
174 197 0
175 198 0
174 197 0
176 199 0
175 198 0
177 199 0
174 198 0
175 198 0
172 196 0
173 197 0
174 198 0
173 196 0
174 197 0
175 198 0
173 197 0
174 198 0
174 197 0
175 198 0
174 197 0
174 197 0
175 198 0
175 198 0
175 198 0
175 198 0
174 197 0
174 197 0
173 196 0
175 198 0
175 198 0
174 198 0
173 197 0
174 198 0
174 197 0
175 198 0
173 197 0
172 196 0
173 197 0
176 199 0
175 197 0
174 198 0
175 198 0
173 197 0
175 198 0
174 197 0
175 198 0
173 197 0
175 198 0
175 198 0
175 198 0
173 197 0
174 197 0
172 195 0
173 196 0
176 198 0
172 196 0
173 197 0
174 196 0
173 197 0
174 198 0
175 198 0
175 198 0
174 198 0
173 197 0
174 197 0
173 197 0
175 198 0
174 198 0
175 198 0
174 198 0
170 194 0
174 198 0
172 196 0
172 196 0
174 197 0
171 195 0
172 196 0
172 196 0
172 195 0
173 197 0
172 196 0
171 195 0
175 198 0
171 195 0
173 196 0
172 196 0
172 196 0
172 196 0
172 195 0
171 195 0
175 198 0
171 195 0
172 196 0
172 195 0
173 197 0
172 195 0
172 196 0
171 195 0
171 195 0
174 197 0
174 198 0
174 197 36
176 198 57
176 199 72
176 198 92
175 197 84
172 194 72
170 193 72
175 197 90
176 198 102
174 198 99
172 194 88
176 199 114
170 193 92
168 192 92
172 195 84
167 190 102
171 194 84
165 188 99
172 196 108
164 187 84
168 191 99
159 182 95
164 187 99
160 181 95
168 190 108
153 175 95
157 178 92
151 171 88
157 177 99
156 175 108
141 161 51
147 167 62
143 162 36
136 157 0
158 180 0
143 163 0
135 156 0
127 147 0
132 152 0
123 142 0
135 155 0
118 138 0
125 144 0
121 141 0
129 149 0
126 146 0
128 149 0
131 150 0
141 162 0
141 161 0
131 152 0
139 159 0
140 159 0
147 168 0
148 167 0
144 164 0
148 169 0
144 164 0
153 174 0
155 176 0
155 175 0
153 173 0
158 179 0
157 178 0
157 178 0
162 184 0
159 180 0
163 184 0
152 171 0
152 173 0
159 180 0
164 187 0
164 186 0
161 182 0
161 184 0
167 189 0
164 185 0
163 184 0
168 189 0
166 189 0
164 187 0
169 192 0
170 193 0
169 192 0
167 190 0
170 191 0
171 192 0
170 192 0
171 193 0
171 194 0
169 190 0
167 190 0
167 190 0
170 192 0
168 192 0
170 192 0
173 195 0
170 194 0
173 195 0
169 192 0
172 195 0
170 194 0
170 192 0
173 195 0
170 194 0
171 194 0
172 195 0
172 195 0
171 194 0
168 192 0
173 195 0
172 194 0
173 196 0
173 197 0
170 193 0
173 197 0
173 195 0
174 196 0
175 198 0
172 195 0
173 197 0
174 197 0
171 194 0
174 196 0
174 197 0
172 195 0
174 197 0
175 198 0
175 198 0
173 197 0
174 198 0
174 197 0
174 198 0
172 196 0
173 197 0
173 197 0
175 198 0
174 198 0
174 197 0
174 197 0
175 198 0
174 197 0
174 198 0
175 198 0
175 198 0
174 198 0
173 197 0
173 197 0
175 198 0
174 198 0
175 198 0
173 196 0
173 197 0
174 197 0
175 198 0
174 197 0
173 196 0
174 198 0
172 196 0
173 197 0
175 198 0
175 198 0
174 197 0
175 198 0
174 198 0
172 197 0
175 198 0
171 195 0
175 198 0
174 197 0
176 198 0
173 197 0
175 198 0
176 198 0
173 197 0
174 198 0
174 197 0
173 197 0
174 197 0
174 197 0
173 197 0
176 199 0
175 198 0
172 197 0
174 198 0
173 197 0
174 197 0
173 197 0
174 198 0
175 198 0
174 198 0
175 198 0
175 198 0
175 198 0
175 198 0
175 198 0
175 198 0
175 198 0
175 198 0
174 198 0
173 197 0
175 198 0
175 198 0
174 198 0
173 197 0
175 198 0
174 198 0
174 198 0
173 197 0
173 197 0
174 198 0
176 199 0
174 198 0
174 198 0
175 198 0
175 198 0
173 197 0
173 197 0
172 197 0
176 198 0
176 199 0
175 198 0
176 199 0
173 197 0
175 198 0
174 198 0
173 197 0
173 197 0
173 196 0
175 198 0
175 198 0
175 198 0
174 198 0
174 198 0
176 199 0
174 198 0
174 197 0
175 198 0
172 197 0
175 198 0
174 198 0
174 198 0
174 197 0
176 199 0
175 198 0
175 198 0
174 198 0
174 198 0
173 197 0
175 198 0
173 197 0
173 197 0
175 198 0
175 198 0
173 197 0
175 198 0
174 198 0
175 198 0
175 198 0
175 198 0
173 197 0
175 198 0
175 198 0
173 197 0
174 197 0
174 198 0
174 197 0
174 197 0
173 197 0
175 198 0
173 197 0
175 198 0
174 197 0
175 198 0
175 198 0
176 199 0
176 198 0
173 197 0
174 198 0
173 197 0
173 196 0
175 198 0
175 198 0
176 198 0
176 199 0
174 198 0
174 198 0
174 197 0
174 198 0
174 197 0
173 197 0
173 197 0
173 197 0
174 198 0
173 197 0
174 198 0
173 197 0
174 198 0
173 197 0
174 198 0
175 198 0
172 196 0
172 197 0
173 197 0
175 198 0
176 199 0
175 198 0
176 198 0
174 197 0
173 197 0
172 196 0
172 197 0
173 197 0
175 198 0
174 198 0
175 198 0
174 197 0
174 198 0
174 198 0
174 198 0
174 198 0
175 198 0
174 198 0
174 198 0
173 197 0
176 199 0
174 198 0
175 198 0
176 199 0
175 198 0
173 197 0
173 197 0
174 197 0
175 198 0
173 197 0
175 197 0
172 196 0
175 198 0
175 198 0
174 197 0
175 198 0
174 198 0
174 197 0
174 198 0
174 197 0
174 197 0
176 199 0
174 198 0
173 197 0
174 197 0
175 198 0
173 197 0
174 198 0
174 198 0
175 197 0
175 198 0
173 197 0
174 197 0
174 197 0
174 198 0
173 197 0
175 198 0
172 196 0
172 196 0
173 196 0
171 195 0
173 196 0
175 198 0
173 196 0
172 196 0
172 196 0
173 197 0
172 196 0
174 197 0
173 196 0
173 197 0
171 196 0
174 197 0
171 196 0
172 196 0
172 196 0
175 198 0
173 197 0
172 196 0
170 194 0
173 196 0
171 195 0
171 194 0
172 194 0
172 196 0
169 193 0
171 195 0
172 195 0
173 196 0
169 193 0
171 195 0
169 192 0
170 194 0
173 197 0
173 197 0
173 197 36
175 199 57
176 199 67
176 198 84
172 194 80
171 193 72
170 192 67
168 191 86
173 196 94
177 200 114
173 195 108
173 196 111
168 191 72
169 191 88
167 190 80
171 194 99
169 193 102
169 192 99
167 189 99
173 195 95
171 193 99
163 185 111
161 183 92
162 185 92
162 183 99
153 175 76
158 178 117
157 178 108
162 183 92
159 179 99
159 178 99
147 168 44
140 161 0
146 169 25
160 183 0
146 168 0
134 155 0
130 151 0
131 150 0
142 162 0
123 144 0
125 144 0
135 155 0
143 164 0
139 158 0
122 142 0
137 158 0
137 156 0
130 149 0
134 156 0
146 169 0
135 156 0
147 168 0
144 165 0
148 169 0
146 166 0
150 171 0
147 169 0
152 174 0
153 175 0
151 172 0
158 181 0
151 172 0
158 179 0
152 174 0
156 179 0
156 177 0
161 182 0
167 189 0
158 179 0
161 184 0
165 187 0
163 185 0
164 186 0
166 187 0
165 188 0
163 185 0
165 186 0
165 188 0
164 186 0
164 186 0
164 186 0
168 190 0
168 188 0
170 192 0
167 189 0
167 190 0
171 193 0
171 193 0
165 187 0
171 194 0
171 193 0
171 193 0
169 192 0
171 193 0
170 193 0
171 193 0
171 195 0
168 192 0
171 194 0
174 197 0
171 194 0
170 192 0
172 195 0
171 194 0
173 195 0
172 195 0
172 195 0
171 194 0
171 195 0
170 193 0
172 196 0
172 196 0
172 196 0
172 196 0
173 196 0
170 192 0
170 193 0
175 197 0
173 197 0
170 193 0
171 195 0
172 195 0
173 196 0
173 196 0
173 196 0
173 196 0
173 196 0
174 197 0
173 197 0
175 198 0
175 198 0
173 196 0
173 197 0
176 198 0
176 199 0
173 197 0
174 197 0
173 197 0
174 197 0
175 198 0
172 196 0
172 196 0
172 196 0
175 198 0
174 197 0
175 198 0
174 198 0
175 198 0
175 198 0
173 197 0
175 198 0
173 196 0
174 197 0
174 198 0
176 199 0
175 198 0
174 197 0
175 197 0
174 198 0
174 198 0
173 197 0
175 198 0
174 198 0
175 198 0
174 198 0
174 197 0
176 198 0
173 197 0
174 197 0
174 197 0
175 198 0
175 198 0
174 198 0
172 196 0
172 196 0
173 197 0
176 198 0
174 198 0
174 197 0
173 197 0
174 197 0
175 198 0
175 198 0
175 197 0
174 198 0
173 196 0
174 198 0
176 199 0
175 198 0
173 197 0
175 198 0
175 198 0
174 197 0
174 197 0
175 198 0
175 198 0
174 198 0
173 197 0
174 198 0
175 198 0
174 197 0
175 198 0
174 197 0
175 198 0
175 198 0
174 198 0
173 197 0
176 199 0
175 198 0
175 198 0
172 197 0
175 198 0
172 196 0
174 198 0
175 198 0
174 198 0
174 198 0
175 198 0
174 198 0
174 197 0
175 198 0
174 197 0
176 198 0
174 198 0
175 198 0
174 198 0
175 198 0
174 198 0
173 197 0
175 198 0
175 198 0
175 198 0
175 198 0
174 197 0
176 199 0
174 198 0
176 199 0
174 197 0
176 199 0
176 199 0
174 198 0
173 197 0
176 199 0
173 197 0
174 198 0
175 198 0
175 198 0
174 198 0
174 198 0
175 198 0
174 198 0
176 199 0
174 198 0
174 198 0
173 197 0
176 199 0
175 198 0
175 198 0
174 198 0
174 197 0
174 198 0
174 198 0
174 198 0
175 198 0
173 197 0
175 198 0
174 197 0
173 197 0
175 198 0
173 197 0
174 198 0
174 197 0
173 197 0
175 198 0
173 197 0
174 198 0
174 197 0
173 197 0
173 197 0
176 198 0
174 198 0
175 198 0
174 197 0
173 197 0
174 197 0
173 197 0
176 198 0
176 199 0
175 198 0
174 198 0
173 197 0
175 198 0
173 197 0
176 199 0
175 198 0
174 197 0
176 199 0
175 198 0
175 198 0
175 198 0
175 198 0
174 198 0
176 199 0
173 197 0
175 198 0
175 198 0
175 198 0
175 198 0
175 198 0
175 198 0
175 198 0
175 198 0
174 197 0
175 198 0
175 198 0
173 197 0
174 197 0
173 197 0
173 197 0
175 198 0
173 197 0
175 198 0
176 198 0
175 198 0
172 196 0
173 197 0
175 198 0
174 197 0
176 198 0
173 197 0
174 198 0
175 198 0
174 198 0
174 197 0
174 198 0
174 198 0
173 197 0
175 198 0
174 197 0
173 197 0
173 197 0
174 197 0
176 198 0
174 198 0
175 198 0
174 197 0
174 198 0
173 197 0
176 198 0
177 199 0
173 197 0
173 197 0
176 199 0
176 198 0
173 196 0
174 197 0
175 198 0
174 198 0
174 197 0
173 197 0
173 196 0
173 197 0
171 195 0
174 198 0
174 197 0
172 196 0
174 197 0
174 197 0
175 198 0
173 196 0
172 196 0
174 197 0
173 197 0
174 197 0
173 197 0
173 197 0
172 196 0
173 195 0
173 196 0
174 198 0
173 197 0
175 198 0
172 196 0
172 196 0
174 197 0
172 195 0
171 195 0
173 196 0
173 197 0
169 192 0
170 194 0
171 194 0
173 197 0
168 192 0
166 189 0
172 195 0
169 193 0
170 194 0
174 197 0
174 198 0
177 199 44
174 197 72
174 197 76
170 193 51
173 195 92
168 191 78
165 188 81
169 192 92
169 192 92
175 198 84
171 193 92
175 199 95
175 197 99
165 188 97
171 195 80
174 197 111
162 186 102
168 191 92
157 179 57
172 194 99
166 188 111
164 186 88
164 187 95
160 183 105
161 183 92
165 186 105
161 181 105
156 176 88
153 174 51
146 168 51
149 172 36
149 171 25
152 174 36
162 185 0
146 168 0
149 172 0
142 164 0
152 173 0
133 153 0
131 152 0
129 149 0
136 157 0
141 162 0
138 158 0
143 165 0
143 164 0
139 161 0
145 166 0
139 160 0
145 167 0
151 172 0
143 163 0
143 162 0
148 170 0
148 168 0
150 170 0
150 171 0
147 170 0
150 172 0
157 180 0
153 174 0
155 176 0
159 181 0
160 181 0
156 178 0
158 181 0
158 180 0
157 180 0
162 184 0
161 184 0
165 187 0
166 188 0
165 187 0
162 185 0
166 189 0
165 188 0
164 185 0
165 186 0
167 189 0
166 186 0
168 190 0
168 190 0
167 190 0
169 190 0
166 189 0
170 192 0
166 188 0
167 190 0
168 191 0
171 193 0
170 192 0
170 193 0
171 193 0
171 193 0
170 193 0
170 192 0
171 193 0
169 191 0
174 197 0
172 195 0
172 195 0
173 196 0
171 193 0
171 196 0
172 195 0
172 196 0
175 197 0
173 197 0
171 194 0
172 194 0
174 198 0
174 196 0
174 197 0
173 197 0
172 195 0
171 195 0
173 197 0
174 197 0
174 198 0
172 196 0
169 193 0
173 197 0
172 196 0
173 197 0
174 197 0
174 197 0
174 198 0
174 196 0
174 197 0
174 197 0
172 196 0
174 197 0
175 198 0
172 196 0
172 196 0
173 197 0
174 198 0
172 196 0
173 197 0
174 198 0
175 198 0
172 195 0
174 197 0
174 197 0
175 198 0
173 197 0
172 197 0
174 197 0
173 197 0
174 197 0
173 197 0
172 196 0
175 198 0
174 197 0
173 197 0
175 197 0
173 197 0
172 196 0
172 196 0
174 198 0
173 197 0
174 197 0
175 198 0
174 198 0
173 196 0
174 197 0
174 197 0
174 197 0
174 198 0
174 197 0
175 197 0
173 197 0
175 198 0
175 198 0
175 198 0
173 197 0
174 198 0
174 198 0
174 197 0
176 199 0
175 198 0
174 197 0
173 197 0
175 198 0
172 197 0
175 198 0
173 197 0
173 196 0
174 198 0
175 198 0
174 197 0
175 198 0
174 198 0
174 198 0
174 197 0
173 197 0
173 197 0
176 198 0
174 197 0
176 198 0
174 198 0
175 198 0
175 198 0
174 197 0
175 198 0
175 198 0
172 197 0
173 196 0
174 198 0
175 198 0
175 198 0
175 198 0
174 198 0
174 198 0
174 197 0
174 197 0
173 197 0
174 198 0
174 197 0
175 198 0
175 198 0
175 198 0
174 197 0
174 198 0
175 198 0
174 198 0
173 197 0
173 197 0
174 197 0
174 197 0
174 198 0
174 198 0
172 197 0
174 198 0
174 198 0
175 198 0
174 197 0
174 198 0
175 198 0
173 197 0
174 198 0
175 198 0
175 198 0
173 197 0
175 198 0
173 197 0
173 197 0
175 198 0
175 198 0
174 198 0
174 198 0
174 198 0
175 198 0
173 197 0
175 198 0
175 198 0
175 198 0
174 198 0
174 198 0
173 197 0
174 198 0
176 199 0
174 198 0
174 198 0
176 199 0
173 197 0
176 198 0
173 197 0
175 198 0
174 198 0
173 197 0
175 198 0
174 198 0
175 198 0
174 198 0
174 198 0
175 198 0
174 198 0
174 198 0
175 198 0
173 197 0
175 198 0
174 198 0
175 198 0
174 198 0
176 199 0
172 196 0
175 198 0
173 197 0
175 198 0
175 198 0
175 198 0
175 198 0
176 199 0
176 199 0
175 198 0
176 198 0
175 198 0
175 198 0
174 198 0
174 198 0
176 198 0
172 196 0
174 198 0
173 197 0
175 198 0
175 198 0
175 198 0
173 197 0
175 198 0
173 197 0
174 197 0
175 198 0
174 197 0
175 198 0
174 198 0
176 199 0
175 198 0
173 197 0
172 196 0
175 198 0
175 198 0
174 197 0
174 198 0
175 198 0
173 197 0
173 197 0
174 197 0
175 198 0
173 197 0
175 198 0
174 197 0
176 199 0
173 197 0
173 197 0
175 198 0
174 198 0
174 197 0
172 197 0
173 197 0
174 198 0
174 197 0
174 197 0
175 198 0
173 197 0
176 199 0
173 197 0
173 196 0
175 198 0
175 198 0
172 197 0
174 198 0
174 197 0
172 196 0
172 196 0
175 198 0
173 197 0
174 197 0
173 197 0
173 197 0
172 196 0
173 196 0
174 197 0
172 196 0
174 197 0
174 197 0
174 197 0
174 198 0
172 196 0
174 198 0
175 198 0
174 197 0
172 196 0
173 197 0
173 196 0
170 195 0
173 196 0
172 197 0
170 194 0
173 196 0
172 195 0
174 197 0
173 196 0
171 194 0
174 197 0
172 195 0
173 197 0
173 197 0
172 196 0
172 195 0
172 196 0
170 193 0
171 195 0
170 194 0
172 196 0
175 197 0
171 194 0
173 196 0
173 196 0
174 198 0
173 196 0
172 195 57
172 195 54
179 201 92
163 185 65
166 188 74
170 194 82
163 186 70
174 195 92
177 200 108
168 191 99
169 192 80
174 197 84
169 191 95
173 196 108
169 192 92
171 194 88
166 188 80
159 181 95
165 187 88
171 194 102
165 187 84
164 185 95
162 183 88
166 186 99
167 188 102
163 183 84
161 182 88
162 183 76
158 179 51
153 176 36
153 175 25
159 181 0
163 186 0
149 172 0
151 172 0
146 168 0
151 172 0
139 160 0
142 163 0
139 161 0
138 158 0
145 167 0
139 161 0
142 165 0
148 168 0
145 167 0
140 161 0
145 167 0
147 168 0
149 170 0
153 176 0
155 176 0
147 169 0
150 173 0
155 176 0
154 175 0
155 176 0
145 166 0
157 178 0
157 180 0
162 184 0
155 178 0
163 183 0
160 183 0
161 183 0
162 184 0
163 184 0
164 187 0
163 185 0
161 182 0
171 193 0
164 187 0
171 193 0
163 186 0
166 188 0
163 186 0
170 192 0
166 189 0
171 191 0
163 185 0
169 191 0
167 190 0
169 191 0
173 195 0
170 193 0
164 186 0
167 190 0
170 193 0
170 193 0
169 192 0
172 195 0
170 193 0
168 191 0
170 192 0
172 194 0
169 192 0
169 191 0
169 191 0
173 195 0
171 195 0
173 196 0
171 194 0
172 195 0
174 197 0
174 197 0
174 197 0
173 196 0
172 196 0
172 195 0
173 197 0
173 196 0
173 196 0
174 196 0
173 196 0
173 196 0
174 197 0
172 195 0
173 196 0
174 197 0
171 194 0
173 197 0
173 197 0
171 195 0
173 195 0
171 194 0
173 196 0
176 198 0
173 196 0
172 196 0
175 197 0
175 198 0
173 196 0
175 198 0
172 195 0
175 198 0
174 197 0
173 197 0
173 197 0
175 198 0
174 197 0
174 197 0
174 197 0
174 197 0
173 197 0
174 198 0
174 197 0
174 196 0
176 199 0
175 197 0
173 196 0
171 195 0
173 196 0
175 198 0
173 196 0
173 197 0
174 197 0
174 197 0
175 198 0
174 197 0
174 197 0
173 197 0
174 197 0
174 198 0
173 197 0
174 197 0
173 197 0
173 196 0
175 198 0
173 197 0
176 198 0
173 197 0
174 198 0
175 198 0
175 198 0
174 198 0
174 197 0
174 198 0
174 197 0
175 198 0
174 197 0
173 197 0
174 198 0
174 198 0
175 198 0
175 198 0
175 198 0
175 198 0
173 197 0
174 198 0
173 197 0
173 197 0
173 197 0
173 197 0
175 198 0
173 197 0
174 197 0
175 198 0
175 198 0
173 197 0
174 198 0
174 198 0
173 197 0
174 197 0
174 198 0
174 198 0
175 198 0
174 197 0
174 198 0
176 199 0
175 198 0
174 197 0
177 199 0
176 199 0
174 197 0
174 198 0
176 199 0
175 198 0
174 198 0
174 198 0
174 198 0
174 197 0
174 198 0
175 198 0
174 198 0
173 197 0
175 198 0
174 198 0
176 199 0
176 199 0
176 199 0
173 197 0
175 198 0
175 198 0
174 198 0
175 198 0
176 198 0
174 198 0
175 198 0
174 198 0
174 197 0
176 198 0
175 198 0
175 198 0
174 198 0
174 197 0
174 198 0
175 198 0
174 197 0
174 198 0
174 198 0
175 198 0
174 197 0
175 198 0
175 198 0
174 197 0
175 198 0
175 198 0
174 198 0
174 197 0
174 197 0
173 197 0
173 197 0
173 197 0
174 197 0
175 198 0
174 198 0
174 197 0
173 197 0
175 198 0
174 198 0
175 198 0
173 197 0
175 198 0
175 198 0
174 198 0
175 198 0
175 198 0
174 197 0
177 199 0
172 196 0
173 197 0
174 198 0
175 198 0
174 198 0
173 197 0
175 198 0
174 198 0
174 198 0
173 197 0
174 198 0
174 198 0
173 197 0
174 197 0
174 198 0
173 197 0
176 199 0
173 197 0
176 199 0
174 198 0
173 197 0
176 199 0
173 197 0
176 199 0
174 197 0
174 198 0
175 198 0
175 198 0
177 199 0
175 197 0
175 198 0
173 197 0
175 198 0
175 198 0
174 198 0
174 197 0
175 198 0
172 196 0
175 198 0
174 198 0
173 197 0
175 198 0
175 197 0
176 199 0
173 197 0
175 198 0
173 197 0
173 197 0
174 198 0
173 197 0
174 198 0
174 197 0
174 197 0
175 198 0
173 197 0
174 198 0
175 198 0
175 198 0
174 197 0
173 196 0
173 197 0
174 198 0
174 198 0
173 196 0
174 197 0
174 197 0
174 198 0
174 197 0
175 198 0
174 198 0
173 197 0
176 199 0
174 198 0
173 196 0
174 198 0
172 197 0
175 198 0
173 196 0
175 198 0
172 196 0
173 197 0
174 197 0
175 198 0
173 196 0
174 197 0
172 196 0
174 197 0
175 197 0
173 197 0
172 195 0
174 198 0
174 198 0
172 196 0
174 197 0
173 196 0
173 197 0
174 198 0
173 197 0
172 196 0
173 197 0
175 198 0
170 193 0
175 198 0
171 196 0
166 191 0
172 196 0
172 196 0
171 195 0
175 198 0
169 193 0
174 197 0
172 194 0
170 194 0
173 196 0
170 194 0
169 193 0
170 195 0
174 197 0
171 195 0
171 194 0
173 196 0
172 195 40
176 198 76
173 196 51
175 196 86
172 194 76
169 191 84
168 191 77
167 190 60
170 192 99
176 198 99
175 197 102
174 197 105
171 193 84
175 198 99
168 190 88
170 192 108
167 189 84
171 192 92
172 194 108
168 190 105
165 187 84
165 187 92
168 189 99
163 184 99
164 185 102
157 178 84
157 177 62
165 187 80
156 179 44
146 168 0
164 187 51
163 186 0
156 179 0
148 170 0
146 168 0
146 168 0
156 178 0
144 167 0
153 175 0
153 174 0
135 157 0
137 158 0
148 170 0
156 177 0
145 167 0
140 162 0
145 166 0
152 175 0
147 169 0
145 167 0
153 175 0
154 177 0
142 163 0
153 174 0
152 175 0
155 176 0
156 178 0
161 182 0
159 181 0
157 180 0
162 185 0
162 184 0
164 185 0
160 181 0
163 186 0
157 180 0
161 184 0
165 187 0
163 186 0
167 191 0
166 188 0
159 181 0
169 192 0
170 191 0
162 184 0
164 187 0
168 191 0
165 187 0
165 187 0
165 188 0
165 188 0
169 191 0
169 192 0
169 191 0
172 194 0
169 191 0
172 195 0
170 192 0
169 191 0
169 192 0
170 192 0
171 194 0
172 194 0
170 194 0
169 192 0
172 195 0
172 195 0
171 194 0
170 193 0
171 194 0
171 194 0
171 194 0
174 197 0
175 198 0
170 194 0
173 196 0
172 196 0
171 195 0
174 196 0
173 196 0
174 197 0
174 197 0
172 196 0
172 196 0
173 197 0
173 197 0
172 196 0
172 196 0
174 196 0
172 196 0
175 197 0
171 195 0
174 197 0
173 195 0
173 196 0
174 198 0
175 198 0
174 198 0
172 196 0
174 197 0
174 197 0
174 197 0
174 197 0
175 198 0
173 197 0
175 198 0
173 197 0
174 197 0
173 196 0
175 198 0
175 198 0
174 197 0
175 198 0
175 197 0
173 197 0
174 198 0
175 198 0
176 198 0
175 198 0
175 198 0
174 197 0
173 197 0
173 196 0
171 196 0
173 197 0
173 197 0
173 197 0
175 198 0
174 198 0
176 198 0
175 197 0
174 197 0
175 198 0
174 197 0
173 197 0
174 197 0
175 198 0
176 198 0
175 198 0
175 198 0
175 198 0
174 198 0
175 198 0
174 198 0
174 197 0
173 197 0
175 198 0
174 197 0
173 197 0
175 198 0
174 198 0
174 197 0
174 198 0
173 197 0
175 198 0
174 198 0
174 198 0
174 198 0
175 198 0
174 197 0
176 199 0
175 198 0
176 199 0
175 198 0
175 198 0
175 198 0
173 197 0
174 198 0
174 198 0
175 198 0
173 197 0
174 198 0
175 198 0
173 197 0
176 198 0
173 197 0
175 198 0
173 197 0
175 198 0
176 198 0
176 199 0
174 198 0
175 198 0
174 197 0
174 198 0
174 198 0
174 198 0
175 198 0
174 198 0
173 197 0
175 198 0
173 197 0
174 198 0
176 199 0
173 197 0
173 197 0
175 198 0
174 198 0
174 198 0
174 197 0
175 198 0
174 197 0
174 198 0
176 198 0
176 199 0
174 197 0
175 198 0
175 198 0
173 197 0
173 197 0
173 197 0
174 197 0
173 196 0
174 198 0
174 198 0
175 198 0
176 198 0
174 198 0
174 197 0
173 197 0
176 199 0
174 198 0
174 198 0
174 198 0
174 198 0
174 198 0
174 197 0
174 198 0
174 198 0
175 198 0
176 198 0
174 197 0
175 198 0
174 197 0
175 198 0
174 198 0
174 198 0
174 198 0
175 198 0
176 199 0
174 198 0
174 198 0
174 197 0
174 197 0
175 198 0
173 197 0
175 198 0
174 198 0
175 198 0
175 198 0
175 198 0
173 197 0
174 197 0
174 198 0
174 198 0
174 198 0
173 197 0
174 198 0
175 198 0
176 199 0
174 197 0
175 198 0
173 197 0
175 198 0
174 197 0
174 198 0
173 197 0
174 197 0
175 198 0
176 198 0
173 197 0
172 196 0
173 197 0
174 197 0
175 198 0
174 197 0
173 197 0
174 197 0
174 197 0
176 198 0
174 198 0
174 197 0
174 198 0
174 197 0
175 198 0
175 198 0
173 197 0
173 196 0
173 197 0
175 198 0
174 197 0
175 198 0
174 198 0
174 197 0
175 198 0
175 198 0
174 197 0
174 198 0
175 198 0
174 198 0
174 198 0
174 198 0
175 198 0
174 197 0
176 199 0
173 197 0
174 198 0
173 197 0
174 197 0
173 197 0
177 199 0
174 197 0
175 198 0
173 197 0
174 198 0
175 198 0
173 196 0
174 198 0
174 198 0
172 196 0
172 196 0
172 196 0
175 198 0
176 198 0
175 198 0
174 198 0
175 198 0
173 197 0
175 198 0
172 196 0
173 196 0
171 195 0
172 196 0
173 197 0
174 197 0
173 197 0
175 198 0
170 195 0
175 198 0
173 197 0
173 197 0
175 198 0
170 195 0
172 196 0
173 196 0
173 197 0
174 197 0
174 197 0
172 196 0
172 196 0
172 196 0
173 196 0
172 196 0
171 195 0
174 197 0
174 197 0
170 194 0
172 196 0
171 195 0
171 195 0
171 195 0
172 196 0
173 197 0
172 195 0
172 196 0
173 196 0
173 196 0
173 196 0
171 195 0
175 198 0
173 197 0
174 197 36
169 192 47
165 188 57
166 189 60
172 193 67
173 194 82
166 189 95
174 196 84
170 192 76
168 190 80
177 199 111
177 200 105
174 197 99
173 195 95
168 190 102
171 193 80
169 191 108
165 186 102
171 192 105
169 190 111
163 184 95
168 189 95
150 171 62
163 185 92
163 184 92
158 180 44
163 184 57
159 181 51
154 177 36
160 183 25
160 184 0
156 177 0
149 172 0
158 179 0
148 170 0
162 183 0
151 171 0
146 167 0
154 176 0
140 162 0
149 171 0
144 166 0
145 167 0
144 165 0
148 169 0
148 171 0
154 175 0
155 176 0
156 178 0
154 177 0
150 173 0
151 175 0
151 174 0
159 182 0
160 183 0
154 177 0
154 176 0
162 184 0
160 182 0
162 184 0
152 176 0
162 183 0
162 185 0
163 187 0
158 179 0
160 182 0
168 191 0
166 189 0
165 187 0
169 192 0
166 188 0
164 186 0
167 190 0
167 189 0
170 192 0
165 187 0
163 185 0
167 189 0
169 193 0
171 194 0
169 192 0
169 192 0
170 193 0
170 192 0
167 190 0
168 191 0
170 193 0
172 194 0
168 191 0
170 193 0
172 195 0
169 191 0
171 194 0
172 195 0
170 193 0
170 193 0
172 195 0
172 195 0
172 194 0
174 198 0
173 195 0
171 193 0
172 196 0
170 194 0
174 197 0
174 197 0
171 195 0
170 194 0
172 195 0
174 197 0
173 197 0
173 196 0
171 194 0
174 197 0
171 195 0
174 196 0
171 195 0
172 195 0
175 198 0
173 196 0
174 198 0
174 197 0
172 194 0
170 194 0
173 196 0
173 197 0
170 194 0
173 196 0
175 198 0
174 197 0
173 196 0
174 197 0
173 196 0
173 197 0
173 197 0
173 197 0
175 198 0
173 197 0
173 197 0
172 196 0
174 197 0
174 198 0
175 198 0
173 197 0
172 196 0
171 195 0
174 197 0
173 197 0
175 197 0
174 197 0
172 197 0
174 198 0
175 198 0
173 197 0
175 198 0
174 198 0
173 197 0
175 198 0
175 198 0
173 197 0
175 198 0
174 197 0
174 197 0
175 198 0
174 197 0
173 197 0
174 198 0
175 198 0
173 197 0
175 198 0
174 197 0
174 197 0
173 197 0
175 198 0
175 198 0
175 198 0
174 197 0
173 197 0
174 197 0
173 197 0
172 196 0
172 196 0
174 197 0
175 198 0
174 198 0
175 198 0
174 198 0
174 198 0
174 198 0
176 198 0
175 198 0
176 199 0
174 197 0
175 198 0
173 197 0
176 199 0
175 198 0
175 198 0
172 196 0
174 197 0
174 198 0
173 197 0
173 197 0
175 198 0
174 198 0
174 197 0
175 198 0
175 198 0
174 198 0
175 198 0
175 198 0
173 197 0
174 198 0
174 198 0
173 197 0
174 197 0
177 199 0
175 198 0
175 198 0
175 198 0
173 197 0
175 198 0
174 197 0
175 198 0
176 198 0
174 197 0
175 198 0
174 198 0
174 198 0
173 197 0
176 199 0
174 198 0
174 197 0
174 197 0
175 198 0
175 198 0
175 198 0
176 199 0
175 198 0
174 198 0
174 198 0
175 198 0
174 198 0
177 199 0
174 198 0
173 197 0
175 198 0
174 197 0
174 197 0
174 198 0
176 199 0
175 198 0
175 198 0
174 198 0
175 198 0
175 198 0
175 198 0
175 198 0
174 198 0
174 198 0
174 198 0
175 198 0
173 197 0
173 197 0
174 198 0
175 198 0
173 197 0
174 197 0
173 197 0
175 198 0
173 197 0
174 198 0
174 197 0
175 198 0
175 198 0
173 197 0
174 198 0
175 198 0
175 198 0
175 198 0
175 198 0
174 198 0
174 197 0
174 198 0
175 198 0
174 198 0
174 198 0
174 197 0
174 198 0
175 198 0
173 197 0
174 198 0
174 198 0
176 199 0
175 198 0
173 197 0
175 198 0
174 198 0
174 198 0
173 197 0
175 198 0
175 198 0
174 197 0
174 198 0
175 198 0
175 198 0
175 198 0
174 197 0
178 200 0
174 197 0
174 197 0
175 198 0
175 198 0
175 198 0
175 198 0
175 198 0
175 198 0
174 197 0
175 198 0
174 198 0
176 199 0
172 196 0
175 198 0
174 197 0
176 198 0
175 198 0
173 197 0
174 198 0
175 198 0
173 196 0
175 198 0
175 198 0
173 197 0
173 197 0
174 197 0
174 198 0
175 198 0
175 198 0
175 198 0
176 199 0
174 198 0
174 197 0
173 197 0
175 198 0
175 198 0
174 197 0
173 196 0
173 196 0
172 196 0
173 197 0
173 196 0
174 198 0
174 198 0
173 197 0
173 197 0
175 198 0
173 196 0
174 197 0
175 198 0
173 197 0
172 196 0
175 198 0
172 196 0
174 198 0
174 198 0
174 197 0
175 198 0
173 196 0
176 199 0
174 197 0
174 197 0
173 197 0
173 196 0
170 194 0
174 197 0
174 198 0
173 197 0
173 196 0
174 198 0
171 195 0
173 196 0
173 196 0
170 194 0
171 195 0
171 195 0
171 195 0
173 197 0
173 196 0
170 194 0
173 197 0
168 192 0
171 195 0
172 195 0
172 195 0
171 194 0
166 190 0
173 196 0
173 197 0
173 197 0
173 197 0
169 193 0
168 191 18
173 195 40
161 184 44
165 188 44
169 191 76
170 192 60
174 196 78
169 191 97
172 194 102
174 196 99
173 194 84
170 192 76
170 193 95
168 190 92
173 194 102
166 187 114
174 194 80
166 187 80
166 188 76
163 184 99
165 185 80
169 191 62
168 190 72
163 185 36
162 183 76
164 185 72
157 180 44
161 183 0
167 190 0
155 178 0
160 184 0
154 176 0
149 172 0
144 166 0
147 170 0
149 171 0
154 176 0
148 169 0
158 180 0
153 175 0
155 178 0
155 177 0
158 180 0
148 171 0
151 174 0
153 176 0
156 178 0
161 184 0
157 180 0
152 174 0
158 180 0
153 174 0
159 181 0
158 181 0
154 177 0
162 184 0
162 185 0
164 187 0
164 185 0
166 189 0
163 185 0
160 183 0
165 189 0
157 179 0
161 183 0
160 182 0
165 187 0
166 187 0
166 189 0
163 186 0
166 189 0
163 186 0
160 182 0
168 190 0
169 192 0
168 190 0
171 193 0
168 189 0
174 196 0
168 191 0
168 191 0
168 191 0
168 191 0
169 191 0
166 188 0
171 193 0
169 192 0
171 195 0
170 193 0
171 194 0
171 193 0
169 193 0
170 192 0
171 194 0
172 195 0
172 194 0
171 194 0
172 196 0
170 194 0
173 196 0
173 195 0
172 196 0
171 194 0
171 195 0
170 193 0
174 198 0
174 196 0
174 198 0
170 192 0
173 196 0
171 194 0
174 196 0
174 197 0
173 196 0
171 194 0
174 196 0
174 197 0
173 196 0
172 196 0
176 199 0
175 197 0
174 197 0
175 197 0
173 196 0
173 196 0
173 197 0
172 196 0
175 198 0
174 197 0
171 195 0
174 197 0
174 197 0
173 196 0
172 196 0
173 196 0
175 197 0
174 198 0
174 198 0
174 197 0
172 196 0
173 197 0
174 197 0
174 197 0
173 197 0
176 198 0
176 198 0
173 196 0
174 197 0
174 197 0
174 198 0
173 196 0
174 197 0
174 197 0
174 197 0
174 197 0
174 197 0
174 198 0
173 197 0
174 198 0
173 197 0
175 198 0
173 196 0
173 197 0
174 197 0
175 198 0
173 197 0
172 197 0
174 197 0
175 198 0
176 199 0
175 198 0
174 198 0
174 197 0
175 198 0
173 197 0
175 198 0
174 198 0
175 198 0
176 198 0
173 197 0
174 198 0
173 197 0
173 197 0
175 198 0
175 198 0
175 198 0
175 198 0
174 197 0
175 198 0
174 197 0
174 197 0
174 198 0
175 198 0
175 198 0
173 197 0
175 198 0
175 198 0
173 197 0
175 198 0
173 197 0
175 198 0
176 199 0
174 198 0
175 198 0
174 198 0
174 198 0
174 198 0
175 198 0
174 197 0
175 198 0
175 198 0
173 197 0
175 198 0
174 198 0
175 198 0
174 197 0
174 197 0
176 199 0
174 198 0
173 197 0
174 198 0
172 197 0
175 198 0
173 197 0
175 198 0
175 198 0
175 198 0
177 199 0
175 198 0
174 198 0
174 198 0
176 198 0
174 197 0
174 198 0
174 198 0
175 198 0
173 197 0
174 197 0
174 198 0
174 198 0
174 198 0
176 199 0
176 199 0
174 197 0
176 199 0
173 197 0
174 198 0
174 198 0
174 198 0
174 197 0
174 197 0
173 197 0
173 197 0
176 199 0
175 198 0
175 198 0
173 197 0
172 196 0
176 199 0
175 198 0
175 198 0
174 197 0
175 198 0
174 198 0
174 197 0
174 198 0
173 197 0
173 197 0
176 198 0
175 198 0
175 198 0
175 198 0
173 197 0
174 198 0
175 198 0
175 198 0
175 198 0
175 198 0
172 197 0
174 198 0
173 197 0
174 197 0
175 198 0
174 198 0
175 198 0
173 197 0
173 197 0
176 199 0
173 196 0
173 197 0
175 198 0
176 198 0
174 198 0
175 198 0
174 198 0
173 197 0
174 198 0
172 196 0
174 198 0
174 198 0
176 199 0
174 198 0
175 198 0
174 197 0
175 198 0
175 198 0
175 198 0
172 196 0
174 198 0
173 197 0
175 198 0
175 198 0
173 197 0
174 197 0
173 196 0
175 198 0
172 197 0
175 198 0
175 198 0
175 198 0
174 197 0
173 197 0
175 198 0
174 197 0
174 198 0
173 197 0
175 198 0
173 197 0
175 198 0
175 198 0
174 197 0
174 197 0
173 197 0
174 196 0
173 197 0
173 197 0
173 197 0
176 199 0
175 198 0
174 198 0
173 197 0
174 197 0
174 197 0
172 196 0
173 197 0
174 198 0
174 198 0
173 197 0
174 197 0
176 198 0
174 198 0
174 198 0
173 197 0
174 197 0
173 197 0
173 197 0
172 196 0
174 197 0
173 197 0
173 196 0
174 198 0
173 197 0
176 199 0
173 196 0
174 197 0
171 195 0
172 196 0
174 197 0
173 196 0
175 198 0
172 195 0
170 194 0
172 195 0
174 197 0
172 196 0
171 195 0
169 193 0
173 196 0
172 196 0
173 197 0
174 197 0
173 196 0
170 194 0
173 196 0
172 196 0
173 196 0
173 196 0
169 193 0
172 196 0
173 197 0
169 192 0
172 196 0
169 192 0
172 196 0
169 193 0
170 193 0
174 197 0
174 197 0
175 198 0
173 196 0
172 195 0
171 194 0
167 191 47
169 192 54
171 194 51
166 189 40
169 191 66
169 191 65
175 196 80
173 194 100
176 198 80
175 197 102
172 193 62
168 190 88
174 196 88
172 193 88
169 190 84
164 185 62
163 185 76
159 181 67
159 181 51
162 184 44
169 191 67
169 190 67
170 191 80
161 184 44
158 180 44
160 182 0
167 190 0
159 183 0
156 178 0
155 176 0
153 175 0
154 175 0
156 179 0
153 175 0
159 182 0
157 181 0
158 181 0
156 178 0
154 177 0
155 178 0
149 170 0
155 178 0
155 177 0
154 176 0
162 183 0
155 177 0
157 179 0
159 183 0
156 180 0
160 183 0
160 183 0
166 189 0
164 187 0
162 184 0
162 184 0
163 187 0
163 185 0
160 185 0
163 186 0
164 187 0
159 182 0
168 192 0
164 186 0
165 187 0
165 187 0
161 183 0
168 190 0
164 187 0
163 186 0
166 190 0
167 190 0
167 190 0
167 189 0
172 195 0
168 191 0
167 190 0
171 194 0
172 196 0
171 194 0
169 192 0
168 190 0
172 195 0
168 192 0
166 189 0
170 193 0
171 194 0
172 195 0
170 193 0
171 194 0
172 194 0
172 195 0
173 195 0
170 193 0
171 194 0
172 195 0
171 194 0
172 196 0
172 196 0
173 196 0
170 194 0
174 198 0
172 196 0
175 198 0
171 193 0
171 195 0
174 197 0
170 194 0
170 194 0
171 195 0
172 195 0
172 196 0
172 196 0
172 195 0
173 196 0
173 196 0
173 196 0
173 197 0
171 194 0
172 195 0
176 198 0
173 196 0
172 196 0
174 197 0
173 197 0
175 198 0
173 196 0
172 196 0
173 196 0
173 197 0
172 197 0
174 197 0
173 196 0
173 197 0
173 196 0
174 197 0
173 197 0
173 196 0
172 196 0
173 197 0
173 196 0
173 196 0
174 197 0
174 198 0
174 197 0
174 198 0
173 197 0
174 198 0
173 196 0
173 197 0
175 198 0
176 199 0
174 197 0
174 198 0
176 199 0
173 197 0
175 197 0
173 197 0
174 197 0
174 197 0
174 198 0
175 197 0
175 198 0
174 198 0
175 198 0
175 198 0
173 197 0
172 196 0
173 196 0
175 198 0
174 197 0
172 196 0
174 197 0
173 197 0
173 197 0
177 199 0
176 198 0
176 199 0
173 197 0
174 197 0
174 198 0
174 197 0
176 198 0
173 197 0
173 197 0
175 197 0
174 198 0
175 198 0
174 197 0
173 197 0
174 197 0
174 197 0
175 198 0
174 198 0
174 198 0
174 198 0
175 198 0
173 197 0
173 197 0
173 197 0
176 199 0
174 197 0
174 197 0
174 198 0
174 197 0
174 198 0
174 197 0
176 198 0
174 198 0
175 198 0
173 197 0
174 198 0
173 197 0
174 197 0
174 198 0
175 198 0
175 198 0
175 198 0
174 198 0
176 198 0
176 198 0
175 198 0
174 198 0
173 196 0
175 198 0
173 197 0
175 198 0
172 197 0
175 198 0
175 198 0
174 198 0
175 198 0
175 198 0
176 198 0
175 198 0
175 198 0
175 198 0
175 198 0
171 196 0
175 198 0
175 198 0
174 198 0
174 198 0
174 198 0
175 198 0
173 197 0
173 197 0
174 198 0
175 198 0
174 197 0
175 198 0
174 198 0
174 198 0
175 198 0
176 199 0
173 197 0
174 198 0
173 197 0
175 198 0
174 198 0
176 199 0
176 199 0
174 197 0
174 198 0
175 198 0
174 198 0
175 198 0
173 197 0
174 198 0
174 198 0
173 197 0
174 197 0
173 197 0
174 198 0
174 197 0
175 198 0
176 199 0
174 198 0
174 197 0
174 198 0
176 199 0
172 197 0
173 197 0
176 199 0
174 198 0
174 198 0
173 197 0
175 198 0
175 198 0
173 197 0
176 199 0
174 197 0
173 197 0
174 197 0
174 198 0
174 198 0
174 197 0
175 198 0
175 198 0
174 197 0
174 198 0
173 197 0
175 198 0
175 198 0
175 198 0
173 197 0
174 197 0
175 198 0
175 198 0
175 198 0
175 198 0
173 197 0
175 198 0
174 198 0
175 198 0
174 198 0
173 197 0
176 199 0
174 198 0
174 198 0
175 198 0
174 198 0
174 198 0
174 197 0
176 198 0
173 197 0
173 197 0
175 198 0
174 197 0
173 196 0
174 198 0
174 197 0
174 197 0
174 198 0
175 198 0
174 198 0
175 198 0
175 198 0
175 198 0
173 196 0
175 198 0
175 198 0
174 198 0
175 198 0
174 197 0
175 198 0
174 197 0
174 197 0
174 197 0
174 198 0
175 198 0
173 197 0
174 197 0
174 197 0
174 197 0
173 196 0
173 196 0
175 198 0
174 197 0
172 196 0
173 197 0
173 196 0
172 196 0
172 196 0
173 197 0
174 197 0
172 196 0
171 195 0
171 195 0
171 195 0
173 196 0
172 196 0
174 197 0
173 197 0
172 196 0
173 196 0
173 196 0
174 197 0
173 197 0
173 196 0
173 197 0
172 195 0
173 196 0
173 197 0
172 195 0
172 195 0
169 193 0
170 193 0
169 193 0
173 197 0
173 196 0
174 197 0
173 196 0
170 193 0
172 196 0
173 196 0
171 195 0
173 197 0
174 197 0
171 194 0
168 191 25
174 197 0
169 191 18
167 189 36
166 189 25
167 190 54
168 190 44
167 189 78
173 194 54
166 188 67
175 196 84
171 192 67
174 195 72
171 193 80
168 190 67
168 190 95
167 189 80
162 184 57
159 181 57
166 187 62
170 191 62
163 184 80
164 186 62
162 184 57
169 191 36
169 192 44
165 188 0
161 184 0
164 187 0
158 180 0
157 179 0
154 175 0
160 182 0
155 178 0
155 178 0
157 179 0
155 177 0
152 175 0
156 180 0
149 172 0
149 172 0
158 180 0
162 184 0
159 181 0
155 179 0
156 179 0
163 185 0
161 185 0
163 185 0
160 184 0
164 187 0
158 180 0
160 183 0
159 182 0
156 179 0
161 184 0
161 184 0
162 185 0
162 186 0
158 180 0
159 180 0
161 184 0
164 186 0
168 192 0
167 189 0
168 191 0
171 191 0
169 190 0
168 191 0
169 191 0
167 190 0
164 187 0
169 191 0
169 192 0
164 186 0
169 191 0
172 195 0
169 190 0
170 192 0
168 192 0
173 195 0
168 190 0
169 193 0
169 192 0
171 194 0
169 192 0
167 190 0
171 194 0
169 192 0
171 194 0
171 194 0
173 196 0
171 195 0
172 196 0
171 193 0
171 194 0
170 194 0
172 195 0
174 197 0
171 194 0
171 194 0
172 196 0
173 196 0
172 195 0
174 197 0
172 195 0
172 194 0
173 196 0
173 196 0
172 195 0
171 195 0
172 196 0
173 196 0
173 197 0
173 196 0
172 195 0
176 199 0
173 196 0
174 196 0
172 196 0
172 196 0
174 197 0
173 197 0
172 196 0
174 197 0
174 197 0
172 197 0
173 197 0
173 195 0
173 197 0
174 198 0
173 197 0
173 197 0
173 197 0
175 197 0
174 197 0
174 197 0
175 198 0
173 197 0
174 197 0
174 198 0
174 196 0
175 197 0
175 198 0
172 195 0
173 197 0
173 196 0
175 198 0
174 197 0
174 198 0
174 197 0
174 197 0
173 197 0
173 197 0
174 197 0
172 197 0
171 195 0
174 198 0
173 197 0
173 196 0
175 198 0
174 198 0
174 198 0
175 197 0
174 198 0
175 198 0
174 198 0
173 197 0
174 198 0
175 198 0
172 197 0
176 198 0
176 199 0
175 198 0
175 198 0
175 198 0
174 198 0
174 198 0
175 198 0
175 198 0
174 198 0
173 196 0
174 198 0
173 197 0
174 197 0
172 197 0
174 198 0
175 198 0
174 198 0
174 198 0
175 198 0
174 197 0
174 197 0
173 197 0
176 199 0
176 199 0
175 198 0
176 199 0
175 198 0
174 198 0
175 198 0
175 198 0
175 198 0
175 198 0
176 199 0
174 198 0
174 198 0
175 198 0
174 198 0
175 198 0
175 198 0
175 198 0
173 197 0
174 198 0
175 198 0
175 198 0
177 199 0
175 198 0
174 198 0
174 198 0
175 198 0
176 199 0
174 198 0
173 197 0
173 197 0
175 198 0
175 198 0
173 197 0
175 198 0
174 197 0
176 199 0
174 197 0
176 198 0
175 198 0
173 197 0
175 198 0
174 198 0
174 198 0
175 198 0
174 198 0
176 199 0
175 198 0
174 198 0
175 198 0
175 198 0
174 198 0
174 198 0
175 198 0
175 198 0
174 198 0
175 198 0
174 197 0
174 198 0
174 198 0
173 197 0
174 197 0
174 197 0
173 197 0
175 198 0
175 198 0
174 197 0
173 197 0
174 198 0
174 198 0
174 197 0
175 198 0
174 198 0
173 197 0
173 197 0
175 198 0
174 198 0
174 198 0
173 197 0
175 198 0
174 197 0
174 198 0
176 199 0
173 197 0
176 199 0
174 197 0
174 198 0
174 197 0
173 197 0
175 198 0
175 198 0
173 197 0
174 197 0
173 197 0
175 198 0
174 197 0
175 198 0
175 198 0
173 197 0
175 198 0
176 199 0
176 198 0
173 197 0
174 197 0
173 197 0
175 198 0
174 198 0
175 198 0
176 199 0
175 198 0
176 198 0
176 198 0
173 197 0
175 198 0
174 198 0
176 199 0
174 198 0
174 198 0
173 197 0
172 197 0
175 198 0
174 198 0
174 198 0
174 198 0
174 197 0
176 199 0
174 197 0
174 197 0
173 197 0
173 197 0
174 198 0
176 198 0
175 198 0
174 197 0
175 198 0
174 197 0
174 198 0
174 197 0
172 197 0
174 198 0
172 196 0
172 195 0
175 198 0
173 197 0
174 197 0
175 198 0
174 198 0
174 198 0
175 198 0
174 197 0
174 198 0
173 196 0
173 197 0
175 198 0
174 197 0
171 195 0
174 197 0
175 198 0
172 196 0
173 197 0
174 197 0
173 197 0
173 197 0
176 199 0
175 198 0
174 197 0
174 197 0
169 193 0
171 195 0
171 195 0
171 196 0
174 198 0
174 198 0
172 196 0
174 197 0
175 197 0
172 195 0
171 195 0
172 196 0
172 195 0
175 198 0
173 197 0
174 198 0
172 196 0
171 196 0
173 197 0
172 196 0
173 197 0
173 196 0
172 196 0
172 195 0
170 194 0
173 196 0
173 196 0
171 194 0
173 195 0
173 197 0
174 198 0
170 194 0
170 193 0
172 196 0
170 194 0
174 197 0
174 197 0
171 196 0
170 195 0
169 192 0
168 191 33
172 195 25
168 191 0
168 189 25
166 189 31
165 188 40
166 189 44
168 191 44
171 192 57
178 198 44
176 197 62
174 195 44
169 192 84
167 188 62
168 189 51
166 187 57
167 189 62
168 189 67
169 190 62
165 186 80
165 186 62
160 182 36
167 189 51
163 186 36
166 190 0
169 192 0
155 178 0
156 178 0
159 181 0
156 178 0
164 186 0
160 182 0
159 181 0
161 184 0
163 186 0
153 175 0
154 177 0
156 178 0
155 178 0
166 189 0
160 183 0
158 180 0
162 186 0
158 181 0
162 184 0
161 183 0
160 184 0
159 180 0
161 183 0
163 185 0
170 193 0
162 184 0
163 186 0
167 190 0
163 187 0
165 188 0
168 192 0
165 187 0
167 190 0
167 189 0
163 187 0
165 187 0
168 192 0
161 184 0
166 188 0
168 190 0
167 189 0
167 191 0
169 193 0
166 189 0
165 187 0
169 192 0
169 192 0
170 194 0
169 192 0
166 188 0
166 189 0
170 193 0
170 193 0
170 193 0
168 191 0
167 190 0
169 192 0
166 188 0
170 193 0
169 192 0
171 195 0
173 196 0
172 195 0
172 195 0
173 196 0
173 196 0
173 195 0
169 192 0
172 195 0
171 194 0
173 196 0
170 193 0
172 196 0
168 192 0
175 198 0
171 194 0
174 197 0
171 194 0
175 198 0
173 196 0
174 196 0
171 194 0
171 194 0
175 198 0
175 197 0
172 195 0
173 196 0
174 196 0
174 197 0
173 196 0
174 198 0
172 196 0
171 194 0
171 194 0
171 195 0
175 197 0
171 195 0
173 197 0
172 196 0
174 197 0
173 196 0
173 196 0
175 198 0
174 197 0
174 197 0
174 197 0
172 196 0
171 195 0
174 197 0
172 196 0
175 198 0
172 196 0
174 198 0
172 195 0
173 197 0
174 197 0
174 198 0
175 198 0
175 198 0
174 198 0
174 197 0
174 198 0
175 198 0
173 197 0
174 197 0
175 198 0
173 196 0
174 198 0
174 197 0
175 198 0
175 198 0
173 197 0
175 198 0
173 197 0
173 197 0
175 198 0
174 198 0
174 197 0
173 197 0
175 198 0
174 198 0
175 198 0
175 198 0
174 198 0
174 197 0
174 198 0
175 198 0
175 198 0
173 197 0
175 198 0
174 197 0
176 198 0
174 197 0
175 198 0
175 198 0
175 198 0
175 198 0
174 198 0
174 198 0
174 197 0
174 198 0
175 198 0
174 197 0
173 197 0
174 198 0
174 197 0
175 198 0
172 196 0
177 199 0
174 197 0
174 197 0
174 198 0
173 197 0
174 197 0
175 198 0
173 197 0
175 198 0
174 198 0
174 197 0
177 199 0
173 197 0
176 199 0
175 198 0
174 197 0
174 198 0
175 198 0
175 198 0
175 198 0
172 197 0
174 198 0
175 198 0
175 198 0
172 197 0
174 198 0
174 198 0
176 199 0
175 198 0
174 198 0
173 197 0
174 198 0
175 198 0
174 198 0
174 197 0
173 197 0
175 198 0
173 197 0
176 198 0
176 199 0
174 197 0
175 198 0
176 198 0
173 197 0
175 198 0
174 197 0
175 198 0
174 198 0
173 197 0
175 198 0
175 198 0
175 198 0
175 198 0
173 197 0
174 197 0
176 198 0
173 196 0
176 199 0
174 197 0
174 198 0
174 198 0
173 197 0
174 197 0
173 197 0
173 197 0
175 198 0
175 198 0
174 198 0
175 198 0
175 198 0
175 198 0
175 198 0
175 198 0
173 197 0
174 198 0
174 198 0
176 198 0
174 198 0
173 197 0
174 197 0
174 197 0
175 198 0
175 198 0
174 198 0
175 198 0
176 199 0
175 198 0
175 198 0
174 198 0
175 198 0
176 199 0
174 198 0
175 198 0
175 198 0
174 197 0
174 197 0
174 198 0
174 198 0
173 197 0
174 198 0
175 198 0
175 198 0
174 198 0
173 197 0
174 198 0
173 197 0
175 198 0
174 197 0
172 197 0
175 198 0
174 198 0
173 197 0
173 197 0
174 198 0
174 197 0
173 197 0
172 196 0
177 199 0
175 198 0
174 198 0
175 198 0
173 197 0
174 198 0
174 197 0
174 198 0
174 197 0
175 198 0
175 198 0
174 198 0
174 198 0
172 196 0
174 198 0
174 198 0
174 198 0
174 198 0
172 196 0
175 198 0
175 198 0
173 197 0
174 198 0
176 198 0
172 195 0
174 198 0
174 198 0
174 197 0
175 198 0
174 198 0
173 197 0
173 197 0
173 197 0
174 198 0
174 197 0
173 197 0
173 196 0
173 197 0
172 196 0
173 197 0
172 196 0
175 198 0
174 197 0
173 197 0
174 198 0
174 198 0
173 197 0
172 196 0
170 195 0
175 198 0
173 196 0
172 196 0
173 196 0
173 197 0
175 198 0
174 197 0
173 196 0
172 196 0
173 196 0
174 198 0
173 197 0
172 195 0
172 196 0
169 193 0
172 196 0
173 196 0
174 197 0
173 197 0
172 196 0
172 196 0
173 196 0
170 193 0
171 195 0
173 196 0
170 193 0
169 192 0
171 194 0
169 193 0
173 196 0
172 196 0
168 192 0
172 195 0
170 194 0
170 194 0
172 196 0
171 194 0
175 197 0
172 196 0
173 197 0
168 190 0
172 195 0
167 190 18
169 191 22
173 195 57
171 192 40
167 189 57
167 188 47
166 187 47
174 196 72
174 195 62
172 193 62
172 193 67
173 194 62
172 194 76
170 192 80
173 194 57
168 190 57
170 192 76
177 198 84
168 190 51
165 187 51
164 186 57
164 187 25
167 190 0
161 184 0
157 180 0
159 182 0
156 177 25
158 181 0
161 183 0
163 185 0
160 183 0
157 179 0
156 179 0
154 177 0
156 178 0
160 183 0
155 178 0
154 176 0
158 181 0
161 185 0
165 186 0
165 187 0
154 178 0
155 178 0
167 190 0
162 185 0
160 184 0
162 184 0
159 182 0
163 186 0
162 184 0
165 188 0
162 184 0
164 186 0
161 185 0
164 187 0
169 193 0
168 191 0
162 186 0
164 186 0
167 190 0
168 191 0
162 186 0
165 188 0
164 187 0
166 189 0
164 187 0
169 192 0
169 192 0
168 191 0
171 194 0
166 188 0
169 192 0
167 190 0
174 197 0
168 191 0
173 196 0
170 194 0
169 191 0
169 192 0
172 194 0
169 193 0
171 193 0
168 190 0
169 192 0
165 188 0
170 194 0
174 196 0
171 194 0
172 195 0
170 193 0
172 194 0
170 194 0
173 196 0
171 194 0
171 194 0
173 196 0
172 195 0
172 194 0
170 194 0
170 194 0
172 196 0
170 194 0
171 193 0
172 196 0
172 196 0
172 195 0
173 196 0
169 193 0
172 196 0
173 196 0
173 197 0
174 197 0
172 195 0
173 197 0
173 197 0
175 198 0
174 197 0
174 198 0
175 198 0
173 195 0
171 194 0
172 196 0
173 195 0
172 196 0
177 199 0
174 197 0
174 196 0
173 197 0
174 197 0
174 198 0
174 196 0
173 197 0
173 197 0
171 195 0
172 196 0
175 198 0
174 197 0
175 198 0
174 198 0
175 197 0
173 197 0
173 196 0
171 195 0
174 198 0
173 197 0
174 197 0
173 197 0
174 198 0
175 198 0
174 197 0
173 196 0
172 196 0
176 199 0
175 198 0
173 197 0
176 198 0
174 197 0
176 199 0
176 198 0
175 198 0
174 197 0
173 197 0
175 198 0
173 197 0
176 198 0
175 198 0
175 198 0
174 197 0
173 197 0
174 198 0
175 198 0
175 198 0
174 198 0
173 196 0
173 196 0
175 198 0
174 197 0
175 198 0
175 198 0
174 198 0
174 197 0
174 197 0
175 198 0
176 199 0
174 197 0
173 197 0
173 197 0
174 198 0
173 197 0
174 197 0
175 198 0
174 198 0
173 197 0
174 198 0
175 198 0
173 197 0
175 198 0
173 197 0
174 197 0
174 198 0
174 197 0
174 198 0
174 197 0
175 198 0
174 198 0
175 198 0
176 198 0
177 199 0
175 198 0
175 198 0
174 197 0
174 198 0
173 197 0
175 198 0
174 198 0
173 197 0
172 196 0
174 197 0
174 198 0
173 197 0
175 198 0
174 197 0
175 198 0
174 198 0
174 198 0
175 198 0
175 198 0
174 197 0
174 198 0
175 198 0
174 197 0
174 198 0
174 197 0
173 197 0
175 198 0
174 197 0
174 198 0
174 197 0
174 198 0
176 199 0
173 197 0
174 197 0
176 199 0
174 198 0
173 197 0
173 197 0
175 198 0
174 198 0
176 199 0
175 198 0
174 197 0
173 197 0
176 198 0
176 199 0
174 197 0
175 198 0
173 197 0
174 198 0
173 197 0
175 198 0
175 198 0
176 199 0
175 198 0
174 198 0
174 197 0
173 197 0
175 198 0
174 197 0
174 197 0
176 198 0
174 198 0
176 199 0
174 198 0
174 198 0
174 197 0
175 198 0
174 197 0
174 197 0
174 198 0
174 198 0
176 199 0
175 198 0
174 197 0
173 197 0
174 198 0
173 197 0
174 198 0
175 198 0
174 197 0
175 198 0
175 198 0
175 198 0
173 197 0
174 197 0
173 197 0
174 197 0
175 198 0
174 198 0
175 198 0
175 198 0
175 198 0
176 199 0
174 198 0
175 198 0
175 198 0
175 198 0
174 198 0
173 197 0
174 198 0
174 197 0
175 198 0
173 197 0
175 198 0
174 197 0
174 197 0
174 198 0
175 198 0
174 198 0
174 197 0
175 197 0
173 197 0
173 197 0
175 198 0
174 198 0
173 197 0
175 198 0
175 198 0
174 197 0
175 198 0
175 198 0
175 198 0
173 197 0
174 198 0
174 198 0
175 198 0
174 198 0
173 197 0
172 196 0
173 197 0
174 198 0
174 198 0
174 198 0
175 198 0
173 197 0
174 198 0
174 198 0
175 197 0
173 196 0
174 197 0
172 196 0
174 197 0
173 196 0
173 197 0
171 195 0
173 197 0
175 198 0
174 197 0
173 196 0
174 197 0
172 195 0
173 197 0
172 196 0
171 194 0
175 198 0
173 197 0
173 197 0
172 196 0
174 197 0
173 196 0
175 198 0
173 197 0
174 198 0
173 197 0
173 197 0
171 195 0
172 196 0
174 198 0
171 195 0
172 195 0
170 194 0
173 197 0
169 194 0
169 194 0
172 196 0
170 193 0
170 193 0
171 196 0
173 196 0
170 193 0
171 195 0
171 194 0
171 195 0
173 196 0
175 198 0
173 197 0
173 196 0
175 198 0
171 194 18
171 194 0
173 196 18
173 195 36
173 196 51
173 195 62
166 188 60
174 195 54
171 193 51
173 195 57
173 194 76
171 191 72
172 194 80
171 193 51
168 189 67
173 193 72
174 195 72
173 193 57
174 195 76
165 187 44
163 185 36
172 194 57
168 190 25
170 192 0
168 189 0
162 183 0
163 185 0
158 179 0
155 177 0
161 183 0
160 182 0
148 171 0
154 176 0
155 178 0
164 187 0
165 187 0
161 184 0
158 181 0
159 183 0
155 177 0
159 183 0
160 182 0
161 184 0
160 183 0
156 178 0
162 185 0
162 185 0
165 188 0
166 190 0
160 183 0
161 184 0
162 185 0
160 183 0
163 185 0
163 185 0
160 183 0
160 183 0
165 187 0
165 188 0
167 191 0
167 190 0
163 186 0
168 191 0
166 189 0
169 192 0
168 191 0
168 191 0
169 192 0
167 189 0
171 194 0
163 186 0
167 189 0
168 191 0
167 189 0
169 192 0
170 193 0
165 187 0
171 193 0
170 192 0
172 194 0
169 192 0
171 194 0
170 193 0
168 191 0
170 194 0
171 195 0
169 192 0
171 194 0
169 192 0
172 196 0
171 194 0
173 195 0
170 192 0
172 195 0
171 194 0
170 193 0
170 195 0
171 194 0
175 198 0
172 196 0
173 197 0
173 196 0
173 196 0
173 195 0
173 196 0
173 197 0
171 195 0
173 196 0
171 195 0
175 198 0
174 197 0
171 195 0
172 195 0
170 193 0
174 197 0
175 198 0
171 195 0
173 197 0
174 197 0
174 197 0
174 197 0
175 198 0
173 196 0
173 196 0
174 197 0
175 198 0
173 197 0
171 194 0
174 197 0
174 197 0
173 197 0
174 197 0
175 198 0
175 198 0
173 197 0
171 196 0
175 198 0
174 198 0
175 198 0
175 198 0
174 197 0
174 197 0
175 198 0
174 197 0
173 197 0
174 197 0
174 198 0
174 197 0
173 197 0
173 196 0
175 198 0
174 198 0
175 197 0
173 197 0
174 198 0
175 198 0
174 197 0
175 198 0
173 196 0
173 197 0
173 197 0
173 197 0
174 197 0
174 197 0
175 198 0
174 197 0
173 197 0
173 197 0
174 197 0
174 197 0
174 198 0
175 198 0
174 198 0
175 198 0
173 197 0
174 198 0
173 197 0
175 198 0
174 197 0
176 198 0
175 198 0
173 197 0
174 197 0
175 198 0
175 198 0
174 197 0
174 198 0
174 198 0
176 198 0
174 198 0
174 198 0
174 198 0
174 197 0
174 197 0
176 199 0
173 197 0
174 198 0
173 197 0
174 197 0
175 198 0
175 198 0
175 198 0
174 198 0
176 199 0
174 197 0
174 198 0
174 197 0
175 198 0
174 198 0
176 199 0
176 198 0
175 198 0
173 197 0
175 198 0
173 197 0
174 197 0
176 199 0
173 197 0
176 199 0
176 199 0
173 197 0
174 198 0
175 198 0
175 198 0
174 197 0
174 198 0
175 198 0
173 197 0
175 198 0
174 197 0
175 198 0
174 198 0
174 198 0
173 197 0
174 198 0
175 198 0
177 199 0
173 197 0
175 198 0
175 198 0
174 198 0
174 197 0
174 197 0
175 198 0
174 197 0
174 198 0
175 198 0
175 198 0
175 198 0
175 198 0
174 198 0
176 198 0
174 198 0
173 197 0
174 198 0
174 197 0
174 198 0
174 197 0
175 198 0
176 199 0
174 198 0
174 198 0
173 197 0
174 198 0
175 198 0
175 198 0
173 197 0
174 198 0
173 197 0
173 197 0
175 198 0
174 198 0
175 198 0
175 198 0
175 198 0
175 198 0
174 198 0
175 198 0
176 199 0
174 198 0
177 199 0
173 197 0
173 197 0
175 198 0
175 198 0
175 198 0
175 198 0
174 197 0
174 198 0
174 198 0
173 197 0
175 198 0
174 198 0
176 198 0
175 198 0
172 196 0
173 197 0
175 198 0
176 199 0
174 197 0
174 197 0
174 197 0
175 198 0
173 197 0
174 197 0
175 198 0
174 197 0
174 197 0
175 198 0
175 198 0
176 199 0
174 198 0
174 198 0
173 197 0
174 197 0
175 198 0
173 197 0
175 198 0
174 198 0
173 197 0
174 198 0
174 198 0
173 196 0
174 197 0
173 197 0
174 197 0
173 197 0
176 199 0
173 197 0
174 197 0
175 198 0
173 197 0
173 197 0
175 198 0
175 198 0
175 198 0
172 196 0
173 197 0
174 197 0
175 198 0
174 198 0
174 198 0
175 198 0
172 196 0
174 197 0
174 198 0
174 196 0
174 198 0
175 198 0
174 197 0
175 198 0
172 196 0
174 197 0
173 197 0
176 199 0
175 198 0
173 197 0
172 196 0
173 197 0
172 196 0
173 196 0
174 198 0
173 196 0
175 198 0
173 197 0
171 195 0
173 196 0
175 198 0
172 196 0
172 195 0
173 196 0
174 197 0
174 198 0
173 197 0
174 197 0
172 195 0
171 195 0
174 198 0
173 196 0
175 198 0
172 196 0
172 195 0
172 196 0
171 195 0
170 193 0
171 195 0
173 195 0
170 193 0
170 194 0
172 195 0
170 194 0
173 196 0
171 194 0
172 195 0
171 193 0
173 195 0
168 192 0
172 196 0
173 196 0
171 194 0
173 196 0
173 197 0
174 196 18
172 194 0
171 193 25
170 192 31
174 196 54
179 200 62
181 202 95
179 199 95
178 199 72
169 190 57
175 195 80
175 195 67
176 197 76
176 197 80
171 192 80
171 192 57
167 189 25
172 194 62
171 193 51
167 190 0
168 192 0
172 194 0
157 180 0
163 185 0
163 186 25
164 186 0
165 187 0
160 182 0
162 185 0
161 183 0
162 185 0
157 180 0
160 183 0
160 182 0
161 184 0
164 187 0
162 185 0
162 185 0
166 189 0
159 181 0
160 182 0
158 182 0
166 189 0
167 190 0
163 186 0
162 185 0
165 189 0
165 187 0
163 186 0
162 186 0
161 183 0
167 190 0
160 183 0
163 187 0
168 191 0
163 187 0
168 192 0
167 189 0
163 186 0
165 188 0
169 192 0
169 191 0
169 192 0
171 194 0
168 192 0
170 194 0
167 191 0
166 189 0
169 192 0
172 194 0
166 190 0
168 190 0
172 195 0
165 189 0
166 190 0
171 194 0
171 195 0
170 194 0
170 192 0
172 195 0
170 194 0
170 194 0
165 187 0
172 195 0
172 196 0
170 194 0
169 192 0
172 196 0
170 192 0
171 194 0
169 191 0
172 195 0
169 192 0
172 195 0
170 193 0
172 195 0
172 195 0
171 194 0
175 198 0
173 196 0
175 198 0
173 195 0
173 196 0
174 197 0
170 192 0
172 196 0
171 194 0
173 195 0
173 196 0
173 196 0
172 195 0
171 195 0
174 197 0
174 197 0
174 196 0
175 198 0
172 195 0
174 196 0
172 196 0
174 197 0
173 197 0
174 197 0
174 197 0
173 197 0
174 197 0
173 197 0
173 197 0
174 198 0
175 198 0
174 197 0
174 196 0
175 198 0
173 197 0
174 197 0
174 198 0
173 196 0
174 197 0
174 198 0
173 197 0
173 196 0
174 197 0
174 197 0
175 198 0
174 197 0
173 196 0
172 196 0
174 198 0
171 195 0
176 198 0
174 197 0
174 198 0
174 197 0
174 198 0
174 197 0
174 197 0
173 197 0
173 197 0
175 198 0
172 196 0
173 197 0
175 198 0
176 199 0
174 197 0
174 197 0
173 197 0
175 198 0
173 197 0
172 196 0
174 198 0
175 198 0
175 198 0
176 199 0
174 198 0
175 198 0
174 198 0
176 199 0
175 198 0
173 197 0
173 197 0
174 197 0
175 198 0
175 198 0
175 198 0
174 197 0
174 197 0
174 198 0
176 198 0
174 198 0
175 198 0
174 198 0
175 198 0
174 197 0
175 198 0
173 197 0
175 198 0
174 197 0
173 197 0
175 198 0
174 198 0
175 198 0
173 197 0
173 197 0
175 198 0
174 197 0
175 198 0
173 197 0
173 197 0
174 197 0
175 198 0
175 198 0
174 198 0
174 197 0
174 197 0
173 197 0
174 197 0
173 196 0
174 197 0
173 197 0
174 197 0
173 197 0
174 198 0
175 198 0
174 197 0
175 198 0
174 197 0
175 198 0
174 198 0
173 197 0
173 197 0
175 198 0
174 197 0
175 198 0
175 198 0
174 197 0
174 198 0
173 197 0
174 198 0
175 198 0
175 198 0
175 198 0
176 198 0
174 198 0
175 198 0
176 199 0
175 198 0
174 198 0
175 198 0
174 198 0
175 198 0
175 198 0
173 197 0
175 198 0
173 197 0
174 198 0
175 198 0
175 198 0
174 198 0
176 198 0
173 197 0
175 198 0
175 198 0
175 198 0
175 198 0
174 198 0
175 198 0
174 198 0
175 198 0
173 197 0
174 197 0
175 198 0
175 198 0
175 198 0
173 197 0
173 197 0
174 197 0
174 198 0
174 197 0
174 198 0
173 197 0
175 198 0
174 197 0
174 198 0
175 198 0
176 199 0
174 198 0
174 197 0
172 196 0
176 198 0
174 198 0
175 198 0
174 197 0
174 197 0
173 197 0
172 197 0
176 199 0
175 198 0
173 197 0
174 197 0
175 198 0
175 198 0
175 198 0
175 198 0
172 196 0
175 198 0
175 198 0
175 198 0
174 198 0
174 198 0
174 197 0
175 198 0
173 197 0
175 198 0
173 197 0
174 197 0
173 197 0
173 197 0
174 198 0
174 198 0
175 198 0
173 197 0
175 197 0
176 199 0
175 198 0
173 197 0
173 196 0
174 197 0
175 198 0
174 198 0
173 197 0
175 198 0
175 198 0
174 198 0
175 198 0
174 198 0
173 197 0
175 198 0
173 197 0
173 197 0
175 198 0
173 197 0
173 197 0
174 198 0
172 196 0
173 197 0
174 197 0
175 198 0
174 197 0
172 196 0
174 197 0
174 198 0
172 196 0
174 198 0
173 197 0
174 197 0
174 198 0
173 197 0
172 196 0
171 195 0
173 197 0
173 196 0
173 197 0
174 198 0
172 196 0
176 198 0
175 198 0
173 196 0
173 197 0
173 197 0
170 194 0
172 196 0
171 195 0
174 197 0
173 196 0
171 195 0
172 196 0
174 197 0
174 197 0
175 198 0
170 194 0
171 195 0
172 196 0
172 196 0
174 197 0
173 197 0
173 196 0
172 196 0
172 195 0
171 194 0
172 194 0
172 195 0
170 193 0
171 195 0
170 193 0
169 192 0
174 197 0
171 194 0
174 197 0
172 195 0
172 196 0
170 194 0
171 195 0
174 197 18
171 194 25
177 198 40
171 192 0
168 191 0
172 194 57
175 196 44
174 195 62
172 192 44
176 196 57
175 196 67
169 190 51
174 196 51
173 193 44
168 190 0
172 193 44
172 195 36
170 194 0
171 193 0
166 188 0
164 187 0
168 188 0
163 184 0
162 183 0
166 188 0
162 185 0
164 187 0
164 186 0
166 189 0
158 180 0
161 184 0
162 184 0
161 185 0
158 180 0
160 182 0
167 190 0
162 185 0
162 185 0
162 184 0
161 185 0
165 188 0
163 184 0
162 185 0
165 188 0
162 185 0
163 186 0
166 189 0
162 184 0
165 188 0
165 188 0
163 187 0
163 187 0
162 184 0
169 192 0
160 184 0
167 190 0
164 187 0
165 188 0
164 188 0
168 191 0
167 190 0
168 191 0
168 191 0
168 192 0
169 192 0
167 190 0
169 192 0
168 191 0
167 191 0
169 192 0
169 193 0
171 194 0
170 193 0
172 196 0
173 196 0
170 193 0
170 193 0
170 193 0
172 195 0
172 195 0
171 194 0
173 197 0
170 193 0
170 193 0
173 195 0
173 197 0
171 194 0
172 195 0
170 192 0
170 194 0
172 195 0
171 194 0
174 197 0
173 197 0
174 197 0
172 196 0
172 194 0
175 198 0
173 195 0
172 195 0
169 193 0
175 197 0
169 193 0
172 196 0
171 194 0
172 195 0
173 195 0
174 196 0
171 194 0
173 196 0
174 198 0
173 196 0
171 195 0
174 197 0
172 196 0
172 195 0
174 198 0
172 196 0
173 196 0
175 197 0
173 196 0
173 197 0
174 196 0
173 196 0
173 196 0
174 198 0
175 198 0
175 198 0
174 197 0
174 197 0
173 197 0
175 198 0
172 196 0
172 195 0
174 198 0
175 198 0
172 196 0
172 196 0
173 196 0
172 196 0
174 197 0
171 195 0
174 198 0
174 198 0
174 198 0
175 198 0
175 198 0
172 196 0
173 196 0
173 197 0
173 197 0
174 197 0
175 198 0
174 198 0
174 197 0
174 197 0
173 197 0
174 198 0
174 197 0
175 198 0
173 197 0
174 197 0
174 198 0
174 198 0
173 197 0
173 197 0
174 198 0
173 197 0
173 197 0
174 198 0
174 197 0
176 199 0
174 197 0
174 198 0
174 197 0
175 198 0
175 198 0
175 198 0
177 199 0
173 197 0
176 199 0
175 198 0
173 197 0
174 198 0
175 198 0
174 198 0
174 198 0
175 198 0
176 198 0
174 198 0
174 197 0
174 197 0
174 197 0
175 198 0
174 198 0
172 197 0
174 197 0
174 197 0
172 196 0
175 198 0
176 199 0
174 198 0
176 198 0
174 197 0
173 197 0
174 197 0
173 197 0
174 198 0
175 198 0
173 197 0
175 198 0
175 198 0
173 197 0
175 198 0
174 198 0
175 198 0
174 197 0
176 198 0
174 198 0
174 197 0
175 198 0
175 198 0
176 199 0
173 197 0
175 198 0
176 199 0
175 198 0
174 198 0
175 198 0
175 198 0
174 198 0
175 198 0
175 197 0
172 196 0
176 199 0
174 198 0
173 197 0
175 198 0
174 197 0
174 198 0
172 197 0
175 198 0
174 198 0
175 198 0
174 198 0
175 198 0
175 198 0
176 199 0
175 198 0
174 197 0
174 198 0
175 198 0
174 198 0
174 198 0
175 198 0
175 198 0
175 198 0
173 197 0
173 197 0
174 198 0
175 198 0
173 197 0
175 198 0
176 198 0
174 197 0
175 198 0
174 198 0
173 197 0
176 199 0
172 197 0
175 198 0
175 198 0
174 198 0
174 198 0
173 197 0
173 197 0
176 198 0
173 197 0
174 197 0
175 198 0
176 199 0
174 197 0
175 198 0
172 197 0
174 198 0
173 197 0
175 198 0
174 197 0
174 197 0
175 198 0
174 197 0
176 199 0
175 198 0
173 197 0
173 197 0
174 197 0
174 197 0
173 197 0
173 197 0
175 198 0
174 197 0
173 197 0
174 198 0
175 198 0
175 198 0
174 197 0
174 198 0
173 196 0
173 197 0
172 197 0
173 197 0
175 197 0
174 198 0
173 197 0
175 198 0
174 198 0
175 198 0
174 197 0
175 198 0
174 198 0
174 197 0
173 196 0
174 197 0
175 198 0
173 197 0
174 198 0
174 198 0
176 198 0
175 198 0
172 197 0
175 198 0
174 198 0
174 198 0
174 198 0
172 197 0
175 198 0
174 197 0
173 197 0
174 198 0
175 198 0
175 198 0
174 198 0
174 197 0
175 198 0
174 197 0
172 197 0
172 196 0
173 197 0
173 196 0
175 198 0
173 197 0
175 198 0
173 197 0
173 197 0
174 197 0
174 197 0
174 198 0
174 197 0
172 196 0
175 198 0
173 197 0
172 196 0
173 197 0
173 196 0
173 197 0
172 196 0
172 196 0
174 197 0
171 195 0
170 195 0
171 195 0
175 198 0
173 196 0
171 195 0
172 196 0
171 195 0
174 198 0
174 197 0
174 198 0
173 196 0
173 196 0
172 196 0
172 195 0
172 195 0
172 196 0
173 196 0
170 193 0
173 197 0
171 195 0
174 197 0
171 194 0
171 195 0
174 198 0
170 194 0
172 196 0
170 193 0
173 196 0
174 197 0
173 196 0
172 195 0
172 196 0
174 197 0
171 195 0
175 197 31
172 193 25
174 195 36
172 193 57
175 196 36
172 195 36
171 193 62
175 196 57
175 196 44
173 196 44
175 197 51
171 192 0
172 194 0
167 190 0
173 196 0
166 189 0
166 189 0
168 191 0
169 190 0
163 185 0
164 186 0
168 191 0
164 187 0
166 189 0
166 189 0
158 180 0
162 185 0
166 188 0
163 185 0
167 190 0
158 181 0
163 186 0
165 188 0
165 187 0
163 186 0
163 186 0
164 187 0
162 185 0
164 186 0
166 188 0
161 186 0
166 189 0
165 188 0
165 188 0
162 185 0
168 190 0
168 192 0
165 188 0
160 183 0
168 190 0
163 186 0
162 185 0
170 193 0
161 184 0
165 188 0
165 188 0
167 191 0
172 194 0
168 191 0
169 192 0
168 191 0
170 194 0
171 193 0
169 191 0
167 191 0
170 193 0
168 191 0
169 192 0
166 189 0
168 192 0
165 189 0
170 193 0
172 195 0
169 191 0
172 194 0
168 191 0
170 193 0
170 193 0
173 195 0
170 193 0
169 194 0
171 194 0
171 195 0
170 192 0
172 195 0
171 194 0
170 193 0
170 194 0
174 196 0
172 196 0
171 194 0
174 197 0
170 194 0
173 196 0
173 196 0
173 197 0
173 196 0
170 194 0
172 195 0
171 194 0
169 193 0
173 197 0
172 195 0
172 195 0
173 196 0
173 196 0
171 194 0
174 198 0
174 197 0
175 197 0
175 197 0
172 196 0
172 196 0
173 196 0
175 198 0
172 196 0
173 196 0
174 197 0
173 196 0
172 196 0
174 197 0
173 197 0
173 196 0
172 195 0
175 198 0
171 195 0
174 197 0
175 198 0
174 197 0
174 197 0
173 197 0
174 197 0
175 198 0
175 198 0
174 197 0
172 197 0
174 198 0
174 198 0
172 197 0
177 199 0
173 197 0
173 197 0
174 198 0
177 199 0
176 199 0
173 196 0
174 197 0
174 198 0
174 197 0
172 196 0
174 197 0
173 197 0
175 198 0
173 197 0
175 198 0
176 198 0
173 196 0
175 198 0
174 197 0
174 197 0
173 197 0
176 199 0
174 197 0
174 197 0
173 197 0
174 198 0
174 197 0
173 197 0
174 197 0
174 197 0
175 198 0
173 197 0
173 197 0
174 198 0
174 198 0
173 197 0
175 198 0
173 197 0
175 198 0
176 198 0
174 197 0
173 197 0
174 197 0
176 198 0
173 197 0
174 198 0
174 198 0
174 198 0
173 197 0
173 197 0
175 198 0
173 197 0
174 198 0
174 198 0
174 198 0
174 198 0
174 197 0
175 198 0
174 198 0
174 197 0
174 198 0
174 198 0
175 198 0
173 197 0
175 198 0
176 198 0
175 198 0
174 198 0
176 198 0
174 198 0
176 199 0
173 197 0
175 198 0
174 198 0
175 198 0
174 198 0
174 198 0
176 199 0
175 198 0
175 198 0
175 198 0
174 198 0
175 198 0
174 198 0
175 198 0
175 198 0
175 198 0
176 198 0
174 197 0
174 197 0
174 197 0
175 198 0
174 198 0
173 197 0
175 198 0
174 198 0
172 197 0
175 198 0
175 198 0
177 199 0
175 198 0
173 197 0
173 197 0
175 198 0
175 198 0
174 198 0
175 198 0
174 197 0
174 198 0
173 197 0
175 198 0
173 197 0
173 197 0
175 198 0
173 197 0
175 198 0
174 198 0
173 196 0
173 197 0
174 197 0
174 198 0
173 197 0
175 198 0
173 197 0
174 197 0
174 198 0
174 197 0
174 198 0
173 197 0
174 197 0
175 198 0
175 198 0
176 198 0
173 197 0
174 198 0
174 198 0
174 197 0
175 198 0
174 198 0
175 198 0
175 198 0
174 198 0
175 198 0
175 198 0
177 199 0
176 199 0
174 197 0
174 197 0
176 199 0
174 197 0
175 198 0
174 197 0
174 198 0
174 197 0
174 198 0
173 197 0
173 197 0
173 197 0
174 198 0
175 198 0
174 197 0
174 198 0
175 198 0
174 197 0
175 198 0
173 197 0
175 198 0
174 197 0
175 198 0
175 198 0
174 198 0
175 198 0
175 198 0
175 198 0
172 197 0
175 198 0
176 199 0
173 196 0
174 198 0
174 197 0
173 197 0
173 197 0
175 198 0
173 197 0
174 198 0
175 198 0
175 198 0
175 198 0
173 197 0
174 197 0
175 198 0
174 198 0
174 197 0
174 197 0
173 197 0
173 197 0
173 197 0
175 198 0
173 196 0
173 197 0
174 197 0
173 197 0
174 197 0
172 195 0
174 198 0
175 198 0
174 198 0
175 198 0
173 197 0
174 197 0
173 196 0
175 198 0
173 196 0
174 197 0
173 197 0
175 198 0
175 198 0
174 198 0
171 195 0
173 197 0
173 197 0
174 198 0
171 195 0
173 197 0
170 194 0
172 196 0
173 197 0
174 197 0
171 195 0
170 194 0
173 197 0
174 197 0
173 197 0
173 196 0
172 196 0
171 195 0
171 195 0
173 196 0
171 194 0
173 196 0
173 197 0
173 197 0
173 196 0
172 196 0
173 197 0
172 196 0
174 196 0
175 198 0
172 195 0
175 197 0
170 193 0
173 195 0
171 195 0
173 196 0
172 195 0
173 196 0
171 194 0
170 194 0
173 197 0
171 195 0
174 196 0
171 193 0
175 197 0
175 197 25
175 198 36
174 196 0
176 198 25
170 192 0
170 192 25
170 193 0
169 192 0
171 194 0
171 194 0
170 192 0
165 188 0
171 193 0
167 189 0
165 187 0
161 182 0
165 187 0
169 190 0
158 180 0
161 182 0
163 186 0
161 184 0
155 178 0
164 187 0
165 187 0
161 184 0
161 185 0
162 185 0
168 191 0
161 184 0
162 186 0
162 185 0
167 190 0
160 184 0
166 190 0
165 189 0
163 187 0
166 189 0
166 189 0
165 188 0
167 190 0
164 187 0
163 186 0
168 192 0
165 189 0
163 186 0
167 190 0
170 193 0
168 191 0
167 191 0
168 192 0
164 186 0
166 189 0
171 193 0
168 190 0
167 190 0
167 190 0
169 193 0
168 192 0
168 190 0
165 187 0
169 192 0
170 192 0
167 190 0
169 192 0
167 191 0
167 191 0
170 194 0
169 192 0
173 196 0
171 194 0
172 196 0
168 190 0
168 191 0
169 191 0
169 193 0
170 193 0
171 194 0
171 194 0
169 192 0
173 196 0
171 196 0
171 194 0
171 193 0
172 194 0
172 195 0
173 196 0
173 197 0
171 194 0
170 192 0
172 195 0
173 197 0
171 194 0
172 195 0
171 195 0
171 194 0
173 196 0
172 195 0
173 195 0
173 196 0
173 196 0
174 196 0
174 198 0
174 197 0
175 198 0
175 197 0
174 197 0
173 197 0
174 197 0
175 198 0
175 198 0
175 198 0
174 197 0
172 195 0
172 195 0
172 196 0
172 196 0
172 197 0
172 196 0
173 196 0
175 198 0
173 196 0
174 197 0
175 198 0
175 198 0
175 198 0
174 197 0
174 198 0
174 197 0
174 198 0
173 197 0
171 195 0
173 196 0
174 197 0
175 198 0
174 198 0
175 198 0
174 198 0
173 196 0
175 198 0
172 195 0
174 197 0
175 198 0
174 197 0
173 197 0
175 198 0
174 198 0
175 197 0
173 197 0
176 199 0
176 199 0
174 197 0
174 197 0
172 196 0
173 197 0
174 197 0
173 197 0
176 198 0
174 197 0
174 197 0
174 198 0
174 197 0
174 197 0
173 197 0
173 197 0
176 199 0
175 198 0
176 199 0
174 198 0
176 199 0
173 197 0
174 197 0
175 198 0
174 198 0
175 198 0
174 198 0
173 197 0
175 198 0
175 198 0
174 198 0
176 198 0
174 198 0
174 198 0
174 197 0
175 198 0
173 197 0
174 198 0
174 198 0
175 198 0
173 197 0
175 198 0
174 198 0
174 198 0
173 197 0
173 197 0
174 197 0
175 198 0
173 197 0
176 199 0
173 196 0
175 198 0
173 197 0
174 198 0
174 198 0
175 198 0
174 198 0
174 198 0
174 198 0
176 199 0
174 197 0
174 197 0
175 198 0
176 199 0
174 198 0
173 197 0
174 197 0
174 198 0
174 197 0
174 197 0
176 199 0
173 197 0
174 197 0
175 198 0
175 198 0
175 198 0
175 198 0
175 198 0
174 198 0
174 198 0
174 197 0
174 198 0
173 197 0
174 198 0
173 197 0
175 198 0
174 198 0
175 198 0
173 197 0
174 197 0
174 198 0
175 198 0
176 199 0
173 197 0
174 198 0
173 197 0
174 198 0
174 198 0
175 198 0
174 198 0
173 197 0
175 198 0
175 198 0
174 197 0
175 198 0
176 198 0
175 198 0
173 197 0
174 198 0
173 197 0
173 197 0
175 198 0
174 198 0
173 197 0
176 199 0
175 198 0
174 198 0
173 197 0
173 197 0
174 197 0
175 198 0
175 198 0
175 198 0
177 199 0
174 198 0
172 197 0
175 198 0
174 198 0
173 197 0
174 198 0
174 197 0
175 198 0
174 198 0
175 198 0
174 198 0
174 198 0
174 197 0
174 198 0
176 199 0
174 198 0
174 197 0
174 197 0
173 197 0
174 198 0
176 198 0
175 198 0
175 198 0
173 197 0
176 198 0
174 198 0
176 198 0
173 197 0
174 198 0
173 197 0
175 198 0
173 197 0
172 197 0
175 198 0
175 198 0
175 198 0
173 197 0
174 197 0
174 198 0
174 197 0
173 197 0
174 197 0
175 198 0
174 197 0
174 198 0
173 197 0
174 197 0
174 198 0
175 198 0
175 198 0
173 197 0
174 197 0
174 198 0
174 197 0
175 198 0
173 197 0
174 197 0
175 198 0
173 197 0
174 197 0
175 198 0
174 198 0
173 197 0
172 196 0
174 197 0
174 197 0
171 195 0
173 197 0
173 196 0
175 198 0
174 198 0
174 198 0
175 198 0
173 197 0
173 197 0
171 195 0
173 196 0
175 198 0
174 197 0
173 196 0
174 197 0
173 196 0
172 196 0
173 197 0
175 198 0
175 198 0
171 195 0
171 195 0
170 193 0
175 198 0
175 197 0
172 196 0
174 197 0
171 194 0
172 195 0
173 196 0
173 197 0
172 196 0
173 196 0
173 196 0
174 197 0
173 196 0
172 195 0
171 195 0
171 195 0
172 195 0
172 196 0
171 196 0
171 195 0
174 197 0
172 195 0
172 196 0
172 194 0
174 197 0
172 195 0
172 195 0
171 195 0
172 195 0
172 195 0
173 195 0
176 198 0
172 195 0
173 196 0
171 195 0
172 196 0
171 194 0
174 197 0
173 196 0
173 196 0
173 195 0
173 196 0
176 198 0
169 193 0
169 192 0
173 196 0
170 192 0
169 193 0
173 195 0
169 190 0
172 194 0
164 185 0
171 193 0
164 187 0
161 184 0
169 192 0
166 188 0
162 186 0
159 182 0
170 192 0
164 187 0
164 186 0
165 188 0
161 184 0
164 187 0
167 190 0
162 185 0
161 185 0
163 187 0
164 188 0
168 190 0
165 188 0
163 186 0
167 190 0
167 190 0
164 187 0
168 192 0
166 189 0
160 183 0
167 191 0
169 192 0
166 189 0
165 189 0
164 188 0
165 188 0
168 192 0
164 186 0
169 193 0
166 189 0
171 194 0
172 195 0
169 193 0
169 191 0
169 191 0
172 195 0
169 192 0
169 192 0
172 195 0
172 196 0
169 192 0
173 195 0
168 191 0
168 192 0
169 192 0
170 192 0
171 193 0
169 191 0
169 192 0
173 195 0
171 195 0
171 194 0
172 195 0
171 194 0
169 192 0
172 196 0
172 195 0
170 193 0
173 196 0
171 195 0
169 192 0
173 196 0
171 195 0
171 194 0
172 196 0
172 196 0
171 193 0
174 196 0
172 194 0
171 194 0
173 197 0
169 193 0
173 196 0
171 194 0
173 197 0
170 193 0
174 197 0
172 196 0
173 196 0
174 197 0
172 196 0
175 198 0
172 196 0
174 197 0
172 196 0
174 197 0
171 195 0
174 197 0
170 193 0
175 198 0
174 197 0
174 197 0
174 197 0
174 197 0
174 197 0
173 197 0
174 197 0
174 196 0
171 195 0
174 197 0
173 196 0
174 197 0
174 197 0
174 196 0
174 197 0
175 198 0
175 198 0
174 197 0
173 197 0
173 196 0
174 196 0
175 198 0
173 197 0
174 198 0
173 197 0
174 197 0
176 199 0
174 197 0
174 197 0
175 198 0
175 198 0
176 199 0
173 197 0
174 197 0
173 196 0
174 198 0
175 198 0
171 195 0
173 196 0
175 198 0
176 199 0
174 198 0
175 198 0
174 197 0
174 198 0
174 197 0
174 198 0
173 196 0
174 198 0
175 197 0
174 198 0
173 196 0
172 196 0
175 198 0
175 198 0
176 199 0
175 198 0
172 197 0
175 198 0
176 198 0
174 197 0
174 198 0
175 198 0
175 198 0
176 198 0
174 198 0
175 198 0
176 199 0
175 198 0
174 198 0
174 197 0
174 198 0
174 197 0
174 198 0
174 198 0
175 198 0
176 198 0
175 198 0
175 198 0
173 197 0
174 197 0
174 198 0
173 197 0
174 198 0
174 198 0
174 198 0
174 198 0
174 197 0
173 197 0
174 198 0
176 198 0
174 198 0
175 198 0
173 196 0
175 198 0
174 198 0
175 198 0
174 197 0
175 198 0
174 198 0
175 198 0
175 198 0
174 198 0
174 198 0
174 197 0
172 196 0
175 198 0
176 199 0
176 199 0
174 197 0
174 198 0
173 197 0
174 198 0
174 198 0
175 198 0
174 198 0
174 198 0
175 198 0
175 198 0
174 198 0
175 198 0
176 198 0
174 198 0
174 198 0
175 198 0
175 198 0
175 198 0
175 198 0
175 198 0
174 198 0
175 198 0
174 197 0
174 197 0
175 198 0
173 197 0
176 199 0
176 198 0
172 197 0
174 198 0
173 197 0
175 198 0
174 198 0
174 197 0
173 197 0
173 197 0
174 197 0
174 198 0
172 196 0
174 198 0
175 198 0
174 197 0
177 199 0
175 198 0
176 198 0
175 198 0
174 198 0
174 198 0
173 197 0
173 197 0
176 198 0
175 198 0
174 198 0
175 198 0
175 198 0
174 198 0
174 197 0
173 197 0
173 197 0
173 197 0
175 198 0
174 198 0
174 198 0
176 199 0
174 197 0
175 198 0
174 198 0
175 198 0
174 198 0
173 197 0
175 198 0
174 198 0
174 198 0
173 197 0
175 198 0
174 198 0
175 198 0
173 197 0
174 198 0
174 198 0
175 198 0
173 197 0
175 198 0
176 198 0
175 198 0
173 197 0
175 198 0
175 198 0
174 197 0
173 197 0
177 199 0
176 199 0
175 198 0
172 196 0
174 197 0
174 197 0
173 197 0
173 197 0
173 197 0
176 198 0
176 198 0
173 197 0
173 197 0
175 198 0
173 196 0
174 198 0
175 198 0
175 198 0
174 198 0
174 198 0
176 198 0
173 197 0
174 197 0
172 196 0
172 196 0
172 196 0
173 197 0
173 197 0
173 197 0
175 198 0
173 197 0
174 198 0
175 198 0
175 198 0
174 197 0
174 197 0
174 197 0
176 198 0
176 198 0
173 197 0
172 196 0
171 195 0
174 197 0
173 197 0
172 196 0
173 197 0
171 195 0
174 197 0
173 197 0
172 195 0
176 198 0
174 197 0
175 198 0
174 197 0
174 198 0
174 197 0
172 196 0
174 197 0
173 196 0
174 197 0
172 195 0
173 197 0
173 197 0
174 197 0
171 194 0
172 195 0
169 193 0
175 198 0
175 197 0
174 197 0
174 197 0
173 196 0
173 196 0
174 196 0
172 195 0
170 193 0
174 197 0
174 197 0
175 197 0
170 193 0
173 195 0
173 195 0
174 196 0
172 194 0
174 197 0
173 195 0
172 194 0
174 196 0
173 196 0
172 195 0
176 197 0
173 195 0
174 196 0
173 195 0
171 194 0
171 193 0
174 195 0
171 194 0
172 194 0
171 193 0
169 190 0
172 193 0
169 191 0
172 194 0
166 188 0
171 194 0
164 186 0
167 189 0
170 192 0
165 187 0
166 188 0
166 188 0
163 185 0
168 192 0
165 188 0
169 192 0
161 184 0
166 189 0
169 191 0
164 188 0
169 192 0
165 189 0
169 192 0
168 191 0
160 184 0
164 188 0
169 192 0
164 188 0
165 188 0
165 189 0
167 190 0
167 191 0
164 187 0
168 190 0
168 190 0
164 187 0
169 193 0
166 189 0
169 192 0
164 188 0
169 192 0
163 186 0
168 191 0
167 190 0
168 190 0
171 194 0
166 190 0
168 191 0
172 195 0
171 195 0
168 192 0
168 192 0
170 193 0
167 190 0
173 196 0
172 195 0
171 194 0
172 195 0
168 192 0
169 193 0
172 195 0
168 192 0
172 195 0
173 196 0
170 193 0
170 193 0
171 194 0
172 195 0
172 195 0
173 195 0
172 196 0
173 196 0
171 194 0
170 193 0
170 193 0
172 196 0
173 196 0
173 196 0
173 196 0
174 197 0
173 195 0
175 198 0
171 195 0
170 193 0
172 196 0
172 195 0
174 197 0
173 196 0
173 196 0
174 197 0
172 195 0
171 195 0
171 194 0
173 197 0
174 196 0
173 197 0
174 197 0
173 197 0
174 197 0
170 194 0
174 197 0
174 197 0
172 196 0
174 197 0
175 198 0
173 196 0
171 194 0
175 198 0
173 197 0
175 198 0
173 197 0
174 198 0
174 197 0
174 198 0
173 196 0
174 197 0
173 197 0
172 195 0
174 196 0
174 198 0
174 196 0
173 196 0
175 198 0
175 198 0
174 197 0
174 197 0
174 197 0
175 197 0
174 197 0
175 198 0
175 198 0
173 197 0
175 198 0
173 197 0
175 198 0
173 197 0
174 198 0
173 197 0
174 197 0
172 196 0
173 197 0
175 198 0
175 198 0
174 197 0
174 198 0
174 197 0
173 197 0
173 197 0
174 197 0
173 196 0
174 198 0
175 198 0
175 198 0
174 197 0
174 197 0
173 197 0
173 197 0
175 198 0
174 197 0
174 198 0
175 198 0
175 198 0
175 198 0
174 197 0
175 198 0
175 198 0
174 198 0
174 198 0
173 197 0
173 197 0
174 198 0
175 198 0
174 197 0
175 198 0
175 198 0
174 197 0
174 197 0
174 198 0
175 198 0
175 198 0
176 199 0
174 198 0
174 197 0
174 198 0
174 197 0
174 198 0
175 198 0
174 198 0
171 196 0
175 198 0
174 198 0
174 198 0
175 198 0
174 198 0
174 198 0
174 198 0
173 197 0
175 198 0
175 198 0
174 198 0
176 198 0
173 197 0
175 198 0
173 197 0
175 198 0
172 196 0
173 197 0
174 198 0
174 198 0
175 198 0
174 197 0
175 198 0
175 198 0
173 197 0
175 198 0
174 197 0
175 198 0
174 198 0
173 197 0
174 198 0
174 198 0
174 198 0
175 198 0
173 197 0
173 197 0
174 197 0
174 197 0
173 197 0
176 198 0
175 198 0
174 198 0
175 198 0
176 199 0
175 198 0
174 198 0
173 197 0
175 198 0
176 198 0
174 198 0
176 199 0
176 198 0
174 197 0
175 198 0
175 198 0
175 198 0
175 198 0
173 197 0
175 198 0
175 198 0
176 198 0
175 198 0
175 198 0
174 198 0
175 198 0
172 197 0
175 198 0
174 198 0
175 198 0
174 198 0
174 197 0
175 198 0
174 198 0
174 198 0
175 198 0
175 198 0
174 198 0
174 198 0
174 198 0
175 198 0
174 197 0
175 198 0
174 197 0
174 197 0
173 196 0
174 197 0
175 198 0
174 197 0
173 197 0
174 197 0
174 197 0
174 197 0
174 197 0
174 198 0
173 197 0
176 199 0
173 197 0
176 199 0
172 196 0
173 197 0
174 198 0
174 197 0
175 198 0
174 198 0
175 198 0
173 197 0
175 198 0
175 198 0
174 198 0
175 198 0
172 196 0
173 197 0
175 198 0
175 198 0
174 197 0
174 197 0
172 196 0
173 197 0
173 197 0
173 197 0
173 197 0
173 197 0
174 198 0
175 198 0
172 197 0
173 197 0
173 197 0
173 197 0
173 197 0
175 198 0
173 196 0
175 198 0
174 197 0
173 196 0
174 197 0
175 198 0
171 196 0
173 197 0
174 197 0
174 197 0
175 198 0
174 197 0
174 197 0
174 197 0
176 199 0
175 198 0
175 198 0
174 198 0
172 196 0
174 198 0
173 197 0
173 197 0
174 197 0
172 196 0
172 196 0
174 197 0
175 198 0
170 195 0
174 197 0
173 196 0
173 197 0
174 197 0
174 198 0
172 196 0
172 196 0
173 196 0
174 197 0
175 198 0
174 197 0
173 196 0
171 195 0
172 196 0
173 197 0
174 198 0
173 196 0
171 195 0
171 195 0
171 194 0
173 197 0
173 197 0
174 197 0
170 194 0
173 196 0
170 194 0
171 194 0
173 197 0
174 197 0
173 197 0
172 195 0
172 194 0
173 196 0
173 196 0
172 195 0
173 196 0
169 191 0
174 196 0
174 196 0
173 195 0
171 194 0
172 194 0
171 193 0
172 194 0
176 198 0
175 197 0
170 193 0
176 198 0
172 194 0
168 190 0
170 191 0
172 194 25
173 194 0
166 188 0
174 195 0
171 194 0
168 189 0
170 192 0
169 190 0
171 193 0
165 188 0
165 189 0
158 181 0
170 193 0
165 188 0
170 193 0
168 191 0
164 187 0
163 186 0
169 192 0
166 189 0
163 186 0
166 189 0
167 190 0
171 194 0
165 188 0
170 193 0
162 186 0
163 186 0
168 192 0
168 191 0
166 189 0
168 192 0
166 189 0
167 190 0
169 193 0
169 192 0
165 189 0
170 192 0
168 191 0
169 192 0
161 185 0
168 192 0
166 190 0
170 192 0
166 190 0
169 194 0
168 191 0
167 189 0
167 190 0
166 190 0
167 191 0
171 194 0
174 197 0
167 191 0
169 192 0
170 194 0
171 194 0
171 195 0
171 194 0
174 197 0
169 193 0
167 190 0
170 193 0
172 194 0
171 194 0
171 194 0
170 194 0
174 196 0
172 195 0
172 196 0
170 193 0
171 194 0
170 193 0
172 195 0
174 197 0
173 196 0
173 197 0
174 197 0
172 195 0
173 196 0
173 196 0
171 194 0
168 191 0
173 195 0
172 195 0
172 196 0
175 198 0
174 197 0
173 195 0
172 196 0
171 194 0
173 197 0
173 197 0
172 195 0
174 197 0
172 195 0
172 195 0
174 197 0
173 197 0
173 196 0
172 195 0
175 197 0
173 196 0
172 196 0
174 197 0
174 197 0
175 198 0
172 195 0
173 197 0
175 198 0
175 197 0
173 197 0
172 196 0
173 196 0
173 197 0
172 196 0
173 197 0
174 196 0
174 197 0
172 196 0
174 197 0
173 197 0
174 198 0
173 197 0
173 196 0
173 197 0
174 198 0
172 196 0
174 197 0
173 197 0
174 198 0
175 198 0
174 197 0
173 196 0
174 197 0
175 198 0
174 197 0
172 197 0
175 198 0
174 198 0
175 198 0
175 198 0
174 198 0
173 196 0
172 196 0
174 197 0
172 196 0
175 198 0
174 197 0
176 199 0
173 197 0
173 197 0
174 197 0
174 198 0
175 198 0
175 198 0
175 198 0
174 198 0
173 197 0
172 197 0
175 198 0
174 197 0
175 198 0
173 197 0
175 198 0
175 198 0
174 198 0
174 198 0
173 197 0
173 197 0
173 197 0
174 198 0
173 197 0
176 198 0
176 198 0
175 198 0
173 197 0
174 197 0
173 197 0
175 198 0
174 198 0
174 197 0
175 198 0
175 198 0
175 198 0
175 198 0
175 198 0
175 198 0
173 197 0
175 198 0
175 198 0
175 198 0
173 197 0
175 198 0
175 198 0
173 197 0
173 197 0
174 198 0
173 197 0
174 197 0
174 198 0
176 199 0
175 198 0
174 198 0
174 197 0
174 197 0
175 198 0
174 198 0
175 198 0
172 197 0
175 198 0
174 198 0
174 197 0
175 198 0
174 198 0
175 198 0
174 198 0
174 198 0
174 198 0
173 197 0
173 197 0
175 198 0
174 197 0
175 198 0
174 198 0
176 199 0
174 197 0
174 198 0
174 197 0
175 198 0
172 197 0
175 198 0
175 198 0
175 198 0
174 198 0
174 198 0
173 197 0
173 197 0
175 198 0
173 197 0
175 198 0
174 198 0
175 198 0
173 197 0
174 198 0
174 198 0
175 198 0
174 198 0
173 197 0
174 197 0
175 198 0
175 198 0
174 197 0
176 199 0
173 197 0
175 198 0
174 198 0
173 196 0
177 199 0
175 198 0
173 197 0
174 197 0
176 198 0
174 198 0
173 197 0
176 199 0
174 198 0
173 197 0
173 197 0
174 198 0
173 197 0
173 197 0
174 197 0
173 197 0
175 198 0
175 198 0
175 198 0
175 198 0
174 197 0
175 198 0
175 198 0
174 197 0
174 198 0
175 198 0
175 198 0
174 197 0
173 197 0
173 197 0
174 198 0
175 198 0
174 197 0
173 197 0
174 197 0
174 197 0
174 197 0
172 196 0
173 197 0
173 197 0
175 198 0
174 198 0
174 198 0
176 199 0
173 197 0
173 197 0
175 198 0
175 198 0
173 197 0
175 198 0
174 198 0
175 198 0
174 198 0
174 198 0
175 198 0
174 197 0
174 197 0
174 198 0
173 197 0
175 198 0
174 198 0
173 197 0
173 197 0
175 198 0
173 197 0
174 197 0
174 197 0
174 198 0
174 198 0
173 197 0
172 196 0
174 198 0
174 197 0
173 197 0
174 197 0
174 198 0
173 197 0
174 198 0
173 196 0
173 196 0
174 198 0
175 198 0
173 197 0
173 197 0
173 197 0
175 198 0
173 196 0
172 196 0
172 196 0
173 197 0
174 198 0
173 196 0
173 197 0
174 198 0
172 196 0
176 198 0
175 198 0
175 198 0
175 198 0
174 197 0
170 194 0
175 198 0
172 196 0
172 195 0
171 195 0
174 197 0
174 198 0
172 196 0
173 196 0
173 197 0
172 196 0
174 197 0
172 196 0
172 195 0
171 195 0
172 196 0
173 197 0
172 195 0
170 193 0
172 196 0
173 196 0
174 197 0
174 197 0
173 196 0
174 197 0
173 195 0
176 198 0
172 195 0
169 191 0
173 194 0
170 192 0
168 190 25
171 193 0
173 194 0
175 196 0
172 194 0
176 197 0
171 192 0
169 191 0
175 197 0
173 195 0
173 195 0
172 194 0
172 194 0
170 191 0
173 195 0
171 193 0
164 185 0
168 191 0
173 195 0
169 190 0
170 193 0
164 187 0
163 186 0
164 186 0
167 189 0
170 192 0
170 193 0
164 186 0
167 191 0
172 195 0
162 186 0
165 188 0
172 194 0
168 191 0
168 190 0
168 192 0
167 190 0
167 192 0
165 187 0
172 195 0
169 192 0
166 189 0
165 188 0
166 190 0
169 193 0
166 190 0
171 194 0
166 190 0
171 194 0
171 195 0
166 190 0
165 187 0
167 190 0
167 189 0
168 190 0
170 193 0
170 194 0
170 194 0
167 190 0
169 192 0
165 189 0
170 195 0
171 194 0
167 190 0
168 192 0
171 194 0
169 192 0
170 194 0
171 194 0
170 194 0
170 194 0
174 196 0
173 196 0
172 195 0
169 193 0
170 194 0
172 195 0
174 197 0
174 197 0
173 195 0
170 193 0
171 194 0
172 196 0
174 197 0
172 195 0
171 194 0
172 196 0
172 194 0
172 195 0
173 196 0
168 192 0
172 196 0
172 195 0
173 196 0
171 194 0
172 196 0
174 196 0
175 197 0
172 194 0
173 196 0
170 193 0
173 196 0
174 197 0
173 196 0
173 195 0
174 197 0
173 196 0
172 196 0
174 197 0
172 196 0
172 196 0
174 197 0
173 196 0
174 197 0
174 196 0
174 197 0
174 198 0
175 198 0
174 198 0
173 197 0
173 196 0
173 196 0
174 197 0
173 197 0
173 197 0
174 197 0
175 197 0
173 195 0
175 198 0
173 196 0
172 196 0
173 197 0
173 196 0
173 197 0
176 198 0
173 197 0
174 197 0
174 196 0
173 197 0
174 197 0
173 197 0
175 197 0
172 197 0
172 196 0
175 198 0
175 198 0
173 196 0
174 197 0
174 197 0
173 196 0
173 197 0
174 197 0
173 197 0
173 197 0
173 197 0
173 197 0
174 198 0
174 198 0
175 197 0
176 199 0
173 197 0
175 198 0
175 198 0
173 197 0
174 197 0
174 198 0
173 197 0
175 198 0
176 199 0
175 198 0
173 197 0
175 198 0
175 198 0
174 197 0
173 197 0
174 197 0
173 197 0
173 197 0
175 198 0
174 198 0
174 197 0
175 198 0
175 198 0
173 197 0
175 198 0
174 198 0
173 197 0
174 198 0
173 197 0
174 197 0
175 198 0
173 197 0
174 198 0
174 197 0
175 198 0
176 198 0
174 198 0
175 198 0
174 197 0
174 197 0
173 197 0
175 198 0
175 198 0
174 198 0
174 198 0
174 198 0
174 197 0
174 197 0
172 196 0
173 197 0
175 198 0
174 198 0
176 199 0
175 198 0
174 197 0
174 198 0
174 197 0
176 198 0
174 198 0
174 198 0
173 197 0
175 198 0
174 197 0
175 198 0
175 198 0
175 198 0
174 198 0
174 198 0
174 197 0
174 198 0
175 198 0
173 197 0
172 197 0
175 198 0
174 198 0
175 198 0
174 198 0
176 199 0
173 197 0
173 197 0
175 198 0
174 198 0
174 197 0
175 198 0
174 198 0
173 196 0
173 197 0
174 198 0
174 198 0
174 197 0
174 198 0
175 198 0
174 198 0
176 198 0
174 198 0
175 198 0
175 198 0
173 197 0
175 198 0
174 198 0
172 196 0
175 198 0
174 198 0
175 198 0
174 198 0
174 198 0
174 198 0
174 197 0
175 198 0
176 199 0
174 198 0
174 198 0
175 198 0
173 197 0
174 197 0
174 198 0
174 198 0
176 199 0
174 197 0
173 197 0
175 198 0
174 197 0
175 198 0
175 198 0
175 198 0
172 197 0
174 197 0
175 198 0
174 198 0
173 197 0
175 198 0
171 196 0
174 198 0
174 198 0
174 198 0
175 198 0
174 197 0
175 198 0
174 197 0
175 198 0
173 197 0
175 198 0
174 198 0
175 198 0
175 198 0
174 197 0
172 196 0
176 199 0
174 197 0
173 197 0
174 197 0
174 198 0
172 196 0
174 198 0
175 198 0
175 198 0
174 198 0
173 197 0
174 197 0
175 198 0
173 197 0
175 198 0
174 198 0
175 198 0
174 198 0
173 197 0
174 198 0
175 198 0
173 196 0
174 197 0
174 197 0
173 197 0
174 197 0
176 199 0
173 197 0
172 195 0
173 197 0
173 197 0
174 198 0
172 196 0
174 197 0
174 197 0
174 197 0
175 198 0
174 198 0
173 197 0
176 199 0
172 196 0
174 197 0
173 197 0
173 197 0
174 197 0
174 198 0
175 198 0
174 197 0
175 198 0
172 196 0
173 197 0
173 197 0
174 197 0
173 197 0
174 197 0
175 198 0
174 197 0
171 195 0
172 196 0
173 196 0
174 198 0
172 196 0
174 198 0
173 196 0
171 196 0
172 196 0
171 194 0
174 197 0
175 198 0
173 196 0
170 194 0
172 196 0
173 197 0
173 197 0
173 196 0
172 196 0
172 196 0
171 195 0
173 197 0
173 196 0
173 197 0
171 195 0
173 196 0
171 194 0
172 195 0
177 199 0
173 196 0
174 197 0
173 196 0
176 198 0
171 194 0
171 193 0
173 194 0
167 189 0
171 193 0
174 196 0
171 193 0
173 194 0
172 195 0
173 194 0
170 193 0
173 194 0
175 196 0
171 193 0
172 194 0
169 190 0
175 197 0
169 191 0
172 193 0
167 189 0
171 193 0
171 193 0
169 192 0
169 191 0
171 193 0
168 190 0
163 187 0
168 192 0
165 189 0
168 192 0
169 191 0
168 191 0
166 189 0
171 195 0
168 192 0
168 191 0
169 192 0
167 191 0
166 189 0
166 190 0
164 188 0
168 192 0
168 191 0
167 190 0
170 194 0
169 192 0
170 193 0
165 189 0
169 193 0
168 192 0
173 196 0
169 191 0
170 193 0
166 190 0
165 189 0
168 192 0
167 191 0
168 192 0
169 192 0
168 191 0
169 192 0
172 195 0
172 196 0
169 193 0
170 193 0
170 194 0
174 198 0
170 193 0
168 191 0
170 194 0
168 190 0
171 194 0
168 192 0
170 194 0
170 194 0
168 191 0
169 193 0
170 193 0
170 193 0
171 194 0
172 195 0
173 196 0
172 195 0
170 193 0
171 193 0
171 194 0
169 193 0
168 191 0
174 197 0
173 196 0
170 194 0
169 193 0
171 195 0
173 196 0
174 197 0
170 193 0
174 197 0
173 196 0
171 195 0
172 193 0
173 196 0
174 197 0
174 197 0
174 197 0
175 198 0
175 198 0
172 196 0
172 196 0
177 199 0
172 196 0
172 196 0
173 197 0
171 194 0
173 197 0
172 195 0
175 198 0
171 194 0
172 196 0
174 197 0
174 197 0
174 197 0
174 198 0
170 194 0
174 198 0
173 196 0
173 197 0
174 197 0
173 196 0
174 197 0
173 197 0
172 196 0
173 197 0
174 198 0
172 196 0
172 197 0
174 198 0
170 195 0
174 197 0
172 196 0
173 197 0
174 198 0
174 197 0
174 198 0
174 197 0
174 198 0
173 197 0
174 198 0
174 198 0
174 197 0
176 199 0
175 198 0
173 197 0
175 197 0
174 197 0
175 198 0
174 198 0
175 198 0
174 197 0
175 198 0
175 197 0
172 196 0
175 198 0
175 198 0
173 196 0
173 197 0
175 198 0
176 198 0
173 197 0
175 198 0
172 196 0
174 197 0
174 198 0
173 197 0
174 197 0
172 196 0
175 198 0
174 197 0
175 198 0
175 198 0
174 197 0
175 198 0
174 197 0
172 196 0
174 197 0
173 197 0
174 198 0
173 196 0
175 198 0
173 197 0
173 197 0
174 197 0
175 198 0
175 198 0
173 197 0
175 198 0
175 198 0
173 197 0
175 198 0
175 198 0
174 197 0
174 197 0
174 198 0
175 198 0
175 198 0
174 197 0
175 198 0
174 198 0
174 198 0
174 198 0
174 198 0
174 198 0
175 198 0
175 197 0
173 197 0
173 197 0
174 198 0
173 197 0
175 198 0
175 198 0
175 198 0
175 198 0
173 197 0
174 198 0
175 198 0
174 198 0
176 198 0
174 198 0
174 197 0
174 198 0
175 198 0
175 198 0
174 198 0
175 198 0
175 198 0
175 198 0
173 197 0
173 197 0
174 198 0
174 197 0
173 197 0
172 197 0
176 199 0
173 196 0
173 197 0
176 199 0
175 198 0
173 197 0
176 198 0
175 198 0
175 198 0
174 197 0
175 197 0
172 197 0
174 198 0
175 198 0
174 197 0
174 198 0
175 198 0
173 197 0
174 197 0
173 197 0
175 198 0
176 199 0
175 198 0
174 198 0
175 198 0
173 197 0
176 198 0
174 197 0
174 197 0
175 198 0
174 197 0
174 198 0
173 197 0
173 197 0
173 197 0
174 198 0
174 198 0
174 198 0
175 198 0
175 198 0
174 197 0
174 198 0
174 197 0
173 197 0
172 196 0
174 198 0
175 198 0
175 198 0
174 198 0
174 197 0
174 197 0
174 198 0
174 198 0
174 198 0
174 197 0
173 197 0
175 198 0
175 198 0
173 197 0
174 198 0
174 198 0
175 198 0
175 198 0
173 197 0
175 198 0
176 198 0
175 198 0
176 199 0
174 198 0
173 197 0
173 197 0
171 196 0
174 198 0
175 198 0
174 197 0
173 197 0
173 196 0
175 198 0
174 198 0
173 197 0
175 198 0
174 198 0
173 197 0
174 197 0
175 198 0
174 197 0
173 197 0
174 198 0
174 198 0
174 197 0
173 196 0
174 198 0
174 197 0
174 198 0
174 197 0
173 197 0
176 198 0
175 198 0
174 198 0
173 197 0
176 199 0
174 197 0
174 197 0
175 198 0
174 198 0
174 197 0
174 198 0
173 197 0
174 197 0
174 198 0
174 198 0
175 198 0
172 196 0
173 196 0
174 197 0
170 195 0
173 197 0
171 195 0
174 198 0
174 197 0
173 197 0
173 197 0
175 197 0
172 196 0
173 196 0
174 197 0
175 198 0
173 196 0
173 196 0
172 196 0
172 195 0
174 197 0
174 197 0
173 197 0
174 198 0
173 197 0
170 194 0
172 196 0
174 197 0
174 198 0
172 196 0
173 197 0
172 196 0
172 195 0
172 196 0
172 196 0
172 196 0
175 198 0
173 196 0
171 194 0
174 197 0
173 196 0
174 197 0
174 197 0
171 194 0
175 197 0
172 195 0
172 195 0
173 195 0
173 195 0
175 196 0
169 191 0
170 192 0
173 196 0
170 192 0
175 196 0
173 194 0
174 196 0
173 194 0
175 196 0
170 191 0
175 197 0
172 192 0
171 193 0
173 196 0
170 193 0
168 191 0
175 197 0
173 195 0
167 190 0
168 192 0
166 189 0
166 188 0
169 191 0
168 192 0
166 189 0
165 188 0
165 188 0
167 190 0
166 189 0
166 190 0
166 189 0
170 192 0
169 192 0
168 191 0
168 191 0
164 187 0
170 194 0
167 191 0
168 192 0
165 188 0
170 193 0
170 193 0
169 193 0
164 187 0
164 188 0
164 187 0
168 191 0
170 194 0
165 188 0
167 191 0
170 192 0
171 194 0
169 193 0
170 192 0
169 192 0
167 190 0
172 196 0
165 189 0
170 192 0
170 194 0
171 193 0
168 191 0
169 192 0
167 191 0
171 194 0
168 190 0
166 189 0
170 193 0
174 196 0
172 196 0
170 193 0
170 194 0
169 192 0
171 195 0
170 193 0
173 195 0
171 194 0
172 196 0
173 196 0
171 193 0
174 197 0
174 196 0
170 194 0
170 194 0
174 196 0
173 196 0
172 195 0
172 195 0
173 196 0
171 194 0
173 196 0
172 195 0
171 195 0
174 197 0
172 195 0
172 194 0
174 197 0
174 197 0
171 194 0
175 198 0
172 195 0
172 195 0
175 198 0
174 196 0
172 195 0
172 195 0
172 196 0
173 197 0
169 193 0
172 196 0
175 198 0
172 196 0
173 196 0
172 196 0
174 197 0
172 196 0
174 197 0
173 196 0
171 196 0
174 198 0
174 197 0
174 197 0
175 198 0
171 195 0
176 198 0
174 198 0
173 197 0
174 198 0
173 197 0
174 197 0
175 198 0
172 196 0
174 197 0
174 198 0
174 198 0
174 198 0
175 198 0
172 196 0
173 196 0
171 194 0
174 197 0
174 198 0
175 198 0
175 198 0
174 197 0
174 197 0
172 197 0
174 198 0
173 197 0
175 198 0
174 197 0
174 197 0
175 198 0
174 197 0
174 198 0
175 198 0
174 197 0
174 198 0
172 196 0
175 198 0
173 196 0
174 197 0
174 197 0
175 198 0
173 196 0
173 197 0
173 197 0
174 198 0
174 197 0
175 198 0
175 198 0
172 197 0
174 198 0
174 198 0
174 197 0
174 198 0
176 199 0
175 198 0
175 197 0
174 197 0
174 197 0
174 198 0
175 198 0
173 197 0
174 198 0
174 198 0
175 198 0
174 198 0
174 198 0
175 198 0
173 196 0
173 197 0
175 198 0
174 197 0
173 197 0
174 198 0
174 198 0
175 198 0
175 198 0
175 198 0
176 199 0
175 198 0
174 198 0
174 198 0
175 198 0
173 197 0
175 198 0
174 197 0
174 197 0
173 197 0
174 197 0
174 198 0
174 198 0
172 197 0
175 198 0
175 198 0
174 197 0
174 197 0
175 198 0
174 198 0
173 197 0
174 197 0
175 198 0
173 197 0
176 199 0
175 198 0
173 197 0
173 197 0
175 198 0
173 197 0
174 198 0
176 199 0
173 197 0
174 198 0
174 198 0
176 198 0
175 198 0
174 198 0
174 198 0
173 197 0
176 199 0
176 199 0
173 197 0
175 198 0
175 198 0
175 198 0
175 198 0
174 198 0
175 198 0
175 198 0
176 198 0
175 198 0
173 197 0
175 198 0
175 198 0
175 198 0
174 198 0
175 198 0
174 198 0
174 198 0
175 198 0
176 198 0
172 196 0
175 198 0
175 198 0
174 197 0
174 198 0
174 198 0
175 198 0
174 198 0
176 199 0
174 198 0
175 198 0
177 199 0
173 197 0
175 198 0
174 198 0
174 198 0
174 197 0
175 198 0
175 198 0
174 198 0
174 198 0
175 198 0
174 197 0
175 198 0
175 198 0
173 197 0
173 197 0
173 196 0
174 197 0
174 198 0
176 199 0
174 197 0
174 198 0
174 198 0
173 197 0
174 198 0
176 198 0
177 199 0
175 198 0
172 196 0
175 198 0
173 196 0
175 198 0
175 198 0
175 198 0
175 198 0
174 198 0
174 198 0
172 196 0
174 198 0
173 197 0
174 197 0
175 198 0
173 197 0
173 197 0
174 197 0
173 197 0
172 196 0
173 197 0
175 198 0
174 197 0
175 198 0
175 198 0
173 197 0
175 198 0
174 197 0
175 198 0
174 197 0
173 197 0
173 197 0
173 197 0
173 197 0
175 198 0
176 199 0
176 199 0
174 198 0
174 198 0
173 197 0
173 197 0
171 195 0
173 197 0
173 197 0
172 196 0
174 198 0
175 198 0
173 197 0
171 195 0
173 197 0
174 198 0
177 199 0
175 198 0
173 196 0
174 198 0
175 198 0
173 197 0
173 196 0
173 197 0
175 198 0
175 198 0
174 196 0
175 198 0
174 197 0
173 196 0
173 196 0
173 197 0
172 196 0
174 197 0
171 195 0
173 197 0
172 195 0
174 197 0
172 195 0
170 194 0
174 197 0
174 198 0
174 197 0
172 195 0
174 197 0
173 196 0
173 196 0
172 196 0
174 197 0
173 196 0
173 197 0
173 196 0
171 194 0
169 193 0
174 196 0
173 197 0
174 197 0
175 197 0
174 197 0
173 196 0
173 196 0
174 197 0
175 197 0
173 196 0
175 197 0
175 196 0
172 194 0
170 192 0
174 196 0
174 195 0
171 193 0
175 197 0
169 192 0
174 196 0
173 195 0
174 196 0
174 196 0
172 194 0
171 193 0
173 195 0
169 191 0
171 192 0
168 190 0
168 190 0
169 192 0
167 190 0
171 193 0
166 189 0
167 190 0
166 190 0
168 192 0
168 191 0
167 190 0
172 195 0
168 190 0
165 188 0
167 191 0
168 192 0
168 191 0
168 192 0
166 190 0
168 191 0
163 187 0
165 189 0
168 192 0
167 190 0
168 191 0
168 191 0
169 193 0
169 192 0
166 189 0
169 192 0
173 196 0
172 195 0
168 191 0
169 193 0
172 195 0
167 190 0
169 192 0
167 190 0
168 191 0
165 188 0
168 193 0
168 191 0
171 195 0
166 190 0
169 192 0
171 194 0
168 191 0
168 191 0
171 195 0
170 193 0
168 191 0
168 192 0
170 194 0
171 194 0
170 193 0
173 196 0
172 195 0
172 195 0
170 192 0
171 194 0
171 194 0
171 195 0
172 195 0
173 196 0
173 196 0
172 195 0
169 193 0
171 195 0
170 194 0
172 196 0
172 196 0
172 196 0
171 194 0
170 192 0
175 197 0
171 194 0
173 196 0
175 198 0
173 196 0
173 197 0
171 194 0
173 196 0
175 198 0
173 196 0
174 197 0
172 195 0
171 195 0
173 195 0
174 197 0
173 197 0
174 197 0
172 196 0
172 196 0
172 196 0
172 196 0
174 197 0
171 195 0
174 197 0
173 196 0
173 196 0
172 195 0
173 197 0
174 197 0
174 197 0
174 197 0
175 198 0
173 196 0
175 198 0
173 196 0
173 196 0
173 197 0
174 198 0
173 197 0
175 198 0
174 197 0
174 198 0
174 197 0
175 198 0
173 197 0
174 197 0
173 197 0
173 197 0
172 195 0
174 198 0
172 197 0
174 197 0
171 196 0
175 198 0
173 196 0
175 198 0
174 198 0
176 198 0
173 197 0
174 197 0
173 197 0
174 198 0
174 197 0
174 197 0
172 196 0
175 198 0
174 197 0
174 197 0
174 198 0
173 197 0
174 198 0
177 199 0
174 197 0
175 198 0
174 197 0
175 198 0
174 197 0
173 196 0
174 198 0
173 197 0
173 197 0
174 197 0
175 198 0
172 196 0
172 196 0
175 198 0
174 197 0
173 197 0
174 198 0
174 198 0
175 198 0
173 197 0
173 197 0
174 198 0
174 198 0
173 197 0
175 198 0
174 197 0
174 197 0
173 197 0
172 195 0
174 197 0
173 197 0
173 197 0
174 198 0
174 197 0
175 198 0
173 196 0
175 198 0
174 197 0
174 197 0
174 198 0
173 197 0
175 198 0
174 198 0
176 198 0
175 198 0
175 198 0
175 198 0
173 197 0
173 197 0
173 197 0
174 198 0
175 198 0
173 197 0
173 197 0
175 198 0
175 198 0
174 197 0
174 197 0
175 198 0
175 198 0
176 199 0
175 198 0
175 198 0
175 198 0
174 197 0
175 198 0
175 198 0
175 198 0
174 198 0
174 198 0
174 197 0
174 198 0
175 198 0
174 198 0
175 198 0
174 198 0
174 198 0
175 198 0
175 198 0
174 198 0
174 197 0
174 198 0
175 198 0
172 197 0
174 198 0
174 198 0
176 199 0
175 198 0
174 197 0
173 197 0
175 198 0
175 198 0
175 198 0
175 198 0
175 198 0
173 197 0
173 197 0
174 197 0
174 197 0
174 198 0
172 196 0
173 197 0
174 198 0
173 197 0
173 197 0
174 198 0
175 198 0
174 198 0
175 198 0
174 197 0
174 198 0
176 199 0
173 197 0
174 198 0
174 198 0
172 197 0
174 197 0
173 197 0
174 197 0
174 198 0
173 197 0
174 197 0
175 198 0
173 197 0
173 197 0
173 197 0
175 198 0
175 198 0
174 198 0
176 198 0
173 197 0
174 197 0
174 198 0
175 198 0
177 199 0
173 197 0
173 197 0
172 196 0
174 198 0
173 197 0
174 197 0
175 198 0
175 198 0
174 198 0
173 197 0
172 196 0
173 197 0
175 198 0
174 198 0
175 198 0
174 197 0
175 198 0
173 197 0
174 198 0
174 198 0
175 198 0
176 198 0
174 198 0
173 197 0
174 197 0
173 197 0
175 198 0
174 198 0
174 198 0
173 196 0
175 198 0
173 196 0
173 197 0
173 197 0
174 197 0
175 198 0
173 196 0
173 196 0
174 197 0
174 197 0
173 197 0
172 196 0
173 197 0
174 197 0
175 198 0
173 197 0
174 198 0
174 197 0
175 198 0
173 197 0
174 197 0
174 198 0
174 197 0
173 196 0
171 195 0
175 198 0
174 198 0
175 198 0
172 197 0
172 196 0
175 198 0
173 197 0
174 198 0
172 195 0
172 195 0
171 195 0
172 197 0
173 197 0
173 197 0
173 197 0
175 198 0
172 196 0
175 198 0
175 198 0
173 196 0
173 197 0
173 197 0
171 195 0
172 196 0
174 197 0
174 197 0
172 195 0
173 197 0
177 199 0
174 197 0
175 198 0
174 197 0
173 196 0
171 194 0
172 196 0
172 196 0
169 193 0
173 196 0
171 194 0
172 195 0
172 195 0
172 195 0
174 197 0
174 197 0
170 193 0
170 192 0
171 194 0
174 196 0
173 195 0
173 195 0
175 197 0
170 192 0
174 197 0
171 194 0
173 195 0
171 194 0
172 194 0
169 191 0
175 198 0
171 193 0
172 194 0
174 196 0
174 196 0
169 192 0
168 190 0
171 193 0
171 193 0
170 193 0
169 193 0
167 189 0
167 190 0
168 190 0
173 195 0
170 192 0
166 189 0
168 191 0
170 193 0
166 190 0
163 187 0
168 192 0
169 192 0
171 194 0
165 188 0
167 191 0
169 192 0
167 191 0
166 189 0
167 191 0
169 193 0
167 190 0
169 192 0
166 189 0
169 192 0
167 190 0
171 194 0
165 190 0
170 193 0
168 192 0
170 194 0
165 189 0
166 190 0
172 194 0
170 192 0
168 191 0
172 195 0
169 192 0
167 190 0
168 192 0
171 194 0
170 194 0
170 195 0
170 194 0
170 193 0
169 193 0
168 191 0
170 192 0
172 194 0
172 194 0
173 196 0
172 194 0
170 193 0
172 195 0
172 196 0
171 195 0
174 197 0
170 193 0
172 195 0
171 193 0
172 195 0
173 196 0
172 196 0
172 195 0
173 195 0
171 195 0
171 195 0
173 195 0
171 194 0
174 196 0
170 193 0
173 197 0
174 196 0
170 194 0
169 193 0
171 194 0
175 198 0
173 196 0
173 196 0
172 196 0
173 196 0
174 197 0
174 197 0
173 196 0
173 196 0
171 195 0
173 197 0
173 197 0
174 197 0
173 197 0
172 197 0
174 197 0
175 198 0
173 196 0
173 196 0
176 199 0
172 195 0
172 195 0
174 197 0
173 196 0
173 197 0
173 197 0
174 197 0
174 198 0
172 196 0
173 197 0
173 197 0
172 196 0
174 197 0
175 197 0
174 197 0
171 195 0
175 198 0
173 197 0
174 197 0
172 195 0
173 197 0
172 196 0
175 198 0
173 195 0
174 197 0
175 197 0
175 198 0
169 193 0
175 198 0
175 198 0
174 198 0
174 197 0
173 197 0
174 197 0
173 197 0
174 197 0
174 197 0
174 197 0
174 197 0
175 198 0
175 198 0
175 198 0
174 197 0
174 197 0
174 197 0
174 197 0
174 197 0
172 197 0
172 196 0
174 198 0
176 199 0
174 197 0
174 197 0
172 196 0
174 197 0
174 198 0
174 197 0
175 198 0
175 198 0
175 198 0
175 198 0
174 197 0
173 197 0
173 197 0
175 198 0
174 197 0
175 198 0
175 198 0
174 198 0
173 196 0
173 197 0
174 198 0
173 197 0
174 198 0
174 198 0
174 198 0
175 198 0
175 198 0
175 198 0
172 196 0
174 198 0
174 198 0
176 199 0
174 197 0
175 198 0
174 198 0
174 198 0
174 198 0
175 198 0
174 197 0
175 197 0
171 196 0
174 198 0
175 198 0
173 197 0
173 196 0
175 198 0
175 198 0
176 199 0
174 197 0
175 198 0
174 198 0
175 198 0
174 198 0
175 198 0
175 198 0
173 197 0
174 198 0
174 197 0
174 197 0
175 198 0
173 197 0
175 198 0
175 198 0
174 198 0
174 198 0
174 198 0
173 197 0
174 198 0
175 198 0
172 197 0
173 197 0
175 198 0
175 198 0
174 197 0
175 198 0
175 198 0
174 197 0
175 198 0
175 198 0
174 197 0
175 198 0
176 198 0
174 198 0
174 198 0
175 198 0
175 198 0
173 197 0
175 198 0
174 198 0
172 196 0
173 197 0
174 197 0
174 198 0
175 198 0
175 198 0
176 199 0
174 197 0
174 198 0
174 197 0
174 197 0
175 198 0
175 198 0
173 197 0
175 198 0
173 197 0
173 197 0
175 198 0
175 198 0
175 198 0
172 197 0
177 199 0
174 198 0
174 197 0
174 197 0
175 198 0
174 198 0
172 196 0
175 198 0
174 198 0
174 197 0
174 197 0
176 198 0
173 197 0
175 198 0
175 198 0
175 198 0
174 197 0
173 197 0
176 199 0
173 197 0
175 198 0
174 197 0
173 197 0
172 196 0
175 198 0
174 197 0
174 198 0
175 198 0
174 198 0
174 198 0
175 198 0
174 197 0
172 196 0
173 197 0
175 198 0
173 196 0
174 198 0
175 198 0
174 198 0
175 198 0
174 198 0
175 198 0
174 198 0
175 198 0
174 197 0
175 198 0
175 198 0
174 198 0
175 198 0
176 198 0
175 197 0
174 198 0
174 198 0
175 197 0
175 198 0
174 198 0
174 197 0
174 198 0
172 195 0
174 198 0
174 198 0
174 197 0
172 196 0
173 197 0
172 196 0
172 196 0
173 197 0
172 195 0
174 197 0
174 198 0
172 196 0
174 198 0
174 197 0
174 197 0
174 197 0
173 197 0
176 198 0
171 195 0
174 197 0
174 197 0
173 197 0
174 197 0
175 198 0
175 198 0
172 196 0
173 197 0
174 197 0
173 197 0
171 196 0
173 196 0
174 198 0
174 198 0
171 195 0
174 197 0
173 197 0
175 198 0
174 197 0
172 196 0
175 198 0
173 197 0
171 193 0
172 196 0
176 199 0
174 197 0
174 197 0
174 197 0
173 196 0
174 197 0
174 197 0
174 196 0
172 195 0
174 196 0
174 197 0
172 196 0
173 197 0
173 196 0
175 198 0
176 198 0
173 196 0
172 195 0
172 194 0
174 197 0
171 193 0
172 195 0
174 196 0
172 195 0
173 196 0
172 194 0
173 196 0
172 194 0
172 195 0
172 194 0
171 194 0
169 192 0
169 191 0
169 191 0
172 194 0
174 197 0
173 196 0
165 187 0
168 191 0
173 196 0
170 193 0
169 192 0
172 195 0
167 191 0
171 194 0
169 193 0
170 193 0
166 189 0
171 193 0
169 194 0
170 193 0
171 194 0
167 190 0
165 188 0
172 196 0
168 191 0
169 192 0
165 188 0
170 193 0
169 192 0
168 191 0
169 192 0
169 192 0
168 192 0
169 192 0
167 190 0
168 191 0
173 196 0
168 191 0
170 194 0
169 192 0
174 197 0
169 193 0
170 193 0
169 192 0
170 193 0
168 191 0
171 194 0
171 195 0
170 193 0
167 191 0
171 194 0
169 192 0
167 191 0
170 194 0
170 194 0
175 198 0
170 193 0
173 195 0
172 196 0
171 194 0
171 194 0
171 195 0
171 194 0
172 195 0
171 195 0
169 193 0
172 194 0
173 197 0
173 196 0
172 195 0
172 194 0
171 195 0
170 194 0
173 197 0
172 195 0
174 197 0
171 195 0
173 196 0
172 196 0
173 196 0
171 194 0
173 196 0
172 195 0
173 196 0
172 195 0
172 196 0
173 196 0
169 193 0
171 194 0
171 195 0
171 195 0
173 196 0
173 196 0
174 198 0
174 197 0
175 197 0
172 196 0
173 196 0
172 195 0
173 196 0
172 195 0
174 198 0
173 197 0
172 196 0
174 197 0
173 197 0
173 197 0
173 197 0
173 196 0
174 197 0
174 197 0
174 196 0
175 198 0
173 196 0
173 197 0
175 198 0
172 196 0
174 197 0
174 197 0
175 198 0
174 198 0
175 198 0
174 197 0
173 197 0
174 197 0
176 198 0
172 196 0
173 197 0
174 198 0
175 198 0
174 197 0
174 197 0
175 198 0
175 198 0
173 196 0
174 198 0
170 193 0
174 198 0
175 198 0
174 196 0
173 196 0
174 198 0
174 197 0
174 198 0
174 197 0
174 198 0
176 198 0
173 197 0
174 197 0
176 198 0
174 197 0
173 197 0
174 198 0
174 198 0
175 198 0
175 198 0
173 197 0
173 197 0
174 197 0
174 197 0
174 198 0
173 197 0
174 198 0
175 198 0
175 198 0
174 198 0
174 197 0
174 198 0
173 197 0
175 198 0
173 197 0
173 196 0
175 198 0
174 198 0
174 197 0
173 197 0
174 198 0
174 198 0
174 198 0
174 198 0
173 197 0
175 198 0
173 197 0
173 197 0
173 197 0
176 199 0
177 199 0
175 198 0
174 198 0
174 198 0
175 198 0
175 198 0
174 198 0
174 198 0
173 197 0
173 197 0
174 198 0
175 198 0
175 198 0
174 197 0
175 198 0
173 197 0
174 198 0
173 197 0
174 198 0
175 198 0
175 198 0
172 196 0
175 198 0
174 198 0
175 198 0
178 199 0
173 197 0
175 198 0
174 197 0
174 197 0
174 198 0
177 199 0
175 198 0
174 197 0
175 198 0
174 198 0
174 198 0
174 198 0
174 197 0
175 198 0
175 198 0
176 199 0
175 198 0
175 198 0
175 198 0
172 197 0
176 199 0
173 197 0
174 198 0
174 198 0
175 198 0
173 197 0
174 198 0
176 199 0
175 198 0
174 198 0
174 197 0
175 198 0
174 198 0
173 196 0
174 198 0
175 198 0
175 198 0
174 197 0
175 198 0
175 198 0
174 197 0
173 197 0
174 198 0
174 198 0
173 197 0
174 197 0
174 197 0
176 199 0
174 197 0
173 197 0
175 198 0
173 197 0
174 197 0
174 198 0
175 198 0
176 199 0
174 197 0
174 198 0
173 197 0
175 198 0
174 198 0
174 198 0
174 197 0
173 197 0
174 198 0
173 196 0
171 196 0
175 198 0
172 196 0
175 198 0
175 198 0
174 198 0
174 198 0
173 197 0
174 198 0
174 197 0
174 198 0
173 197 0
176 199 0
173 197 0
175 198 0
172 196 0
174 197 0
175 198 0
175 198 0
174 197 0
175 198 0
175 198 0
174 198 0
174 197 0
174 198 0
174 198 0
174 198 0
172 196 0
171 196 0
172 196 0
174 198 0
173 197 0
173 197 0
173 197 0
175 198 0
175 198 0
174 197 0
175 198 0
176 198 0
173 197 0
173 197 0
174 198 0
176 198 0
174 197 0
174 198 0
175 198 0
173 196 0
174 198 0
171 195 0
174 198 0
175 198 0
174 197 0
174 198 0
175 198 0
173 197 0
173 197 0
174 198 0
174 197 0
171 195 0
174 197 0
172 196 0
174 198 0
173 197 0
173 197 0
175 198 0
174 197 0
173 197 0
174 197 0
172 196 0
174 198 0
175 198 0
174 197 0
174 197 0
175 198 0
174 197 0
173 197 0
169 193 0
174 197 0
173 197 0
174 197 0
174 197 0
172 196 0
172 195 0
170 193 0
174 197 0
172 197 0
173 197 0
172 196 0
174 197 0
172 196 0
172 196 0
173 196 0
174 197 0
173 197 0
170 194 0
172 195 0
174 197 0
173 196 0
173 197 0
171 195 0
174 197 0
174 197 0
171 194 0
171 195 0
172 196 0
173 197 0
174 196 0
171 194 0
172 195 0
174 197 0
175 197 0
174 197 0
172 195 0
174 197 0
173 196 0
172 194 0
174 197 0
173 196 0
172 195 0
172 194 0
173 196 0
173 196 0
172 195 0
169 193 0
170 193 0
172 195 0
171 195 0
173 196 0
169 192 0
171 193 0
172 194 0
168 192 0
172 194 0
169 191 0
168 191 0
169 192 0
166 189 0
169 192 0
170 194 0
166 190 0
168 191 0
171 194 0
167 190 0
171 195 0
169 193 0
168 192 0
171 194 0
167 190 0
167 190 0
168 191 0
168 192 0
167 192 0
170 193 0
171 194 0
168 192 0
168 191 0
171 195 0
172 195 0
162 186 0
169 193 0
169 193 0
169 192 0
172 195 0
171 195 0
168 192 0
168 191 0
171 194 0
169 192 0
171 194 0
167 190 0
172 195 0
171 195 0
172 195 0
168 192 0
173 197 0
170 194 0
172 195 0
169 193 0
169 193 0
171 193 0
169 193 0
170 193 0
169 193 0
171 194 0
171 195 0
171 194 0
172 196 0
171 193 0
171 195 0
172 194 0
170 193 0
173 196 0
172 195 0
172 196 0
174 197 0
173 195 0
173 196 0
171 195 0
172 197 0
172 195 0
172 196 0
173 196 0
174 197 0
172 195 0
171 194 0
170 194 0
173 196 0
174 197 0
172 195 0
172 196 0
172 195 0
175 197 0
173 197 0
173 196 0
173 195 0
174 197 0
171 195 0
175 198 0
172 195 0
174 197 0
174 197 0
174 198 0
171 195 0
173 197 0
173 196 0
173 196 0
175 198 0
173 197 0
174 197 0
173 197 0
174 197 0
172 195 0
172 195 0
174 197 0
173 197 0
173 197 0
174 197 0
174 197 0
174 198 0
174 197 0
174 197 0
173 197 0
173 197 0
174 198 0
175 198 0
175 198 0
172 196 0
173 197 0
173 197 0
175 198 0
174 198 0
174 197 0
174 197 0
173 197 0
174 197 0
174 197 0
175 198 0
174 197 0
175 198 0
175 198 0
172 197 0
173 196 0
173 197 0
173 197 0
173 197 0
175 198 0
174 197 0
174 197 0
175 198 0
173 196 0
174 197 0
173 196 0
174 198 0
174 198 0
174 197 0
176 198 0
174 197 0
174 197 0
175 198 0
174 198 0
175 198 0
175 198 0
174 197 0
174 197 0
176 198 0
174 197 0
174 198 0
174 198 0
175 198 0
174 197 0
173 197 0
174 197 0
174 197 0
175 198 0
174 197 0
175 198 0
174 198 0
174 197 0
173 197 0
174 198 0
173 197 0
175 198 0
174 198 0
173 197 0
176 199 0
175 198 0
176 198 0
174 197 0
174 197 0
174 197 0
174 198 0
176 199 0
173 197 0
174 197 0
173 197 0
174 198 0
174 198 0
175 198 0
173 197 0
173 197 0
176 199 0
174 197 0
173 197 0
173 197 0
174 197 0
175 198 0
176 199 0
174 198 0
173 197 0
176 199 0
175 198 0
176 199 0
175 198 0
173 197 0
174 198 0
174 197 0
173 197 0
174 198 0
174 198 0
174 198 0
175 198 0
175 198 0
174 197 0
173 197 0
172 196 0
174 198 0
174 198 0
176 199 0
174 197 0
175 198 0
175 198 0
175 198 0
175 198 0
175 198 0
174 198 0
172 196 0
174 197 0
174 197 0
174 198 0
174 198 0
175 198 0
177 199 0
175 198 0
173 197 0
175 198 0
175 198 0
175 198 0
176 198 0
172 197 0
174 198 0
173 197 0
175 198 0
175 198 0
174 198 0
175 198 0
175 198 0
174 198 0
176 198 0
175 198 0
174 198 0
174 198 0
173 197 0
175 198 0
175 198 0
173 197 0
174 197 0
174 197 0
174 198 0
174 198 0
175 198 0
175 198 0
174 198 0
172 197 0
175 198 0
174 198 0
174 197 0
174 198 0
176 199 0
173 197 0
175 198 0
175 198 0
174 197 0
174 197 0
174 198 0
174 197 0
176 198 0
175 198 0
174 198 0
174 197 0
174 197 0
172 196 0
174 197 0
173 197 0
174 198 0
175 198 0
173 197 0
173 197 0
176 199 0
175 198 0
173 197 0
174 197 0
174 198 0
174 198 0
174 198 0
175 198 0
173 197 0
176 199 0
173 197 0
174 197 0
174 198 0
174 198 0
172 196 0
175 197 0
174 198 0
172 196 0
176 199 0
173 197 0
174 198 0
173 197 0
174 197 0
175 198 0
173 197 0
172 196 0
175 198 0
174 197 0
174 198 0
173 197 0
174 198 0
173 197 0
173 197 0
174 198 0
172 196 0
174 198 0
175 198 0
175 198 0
175 198 0
173 197 0
171 196 0
174 197 0
172 197 0
173 196 0
175 198 0
174 197 0
174 197 0
174 198 0
173 197 0
171 195 0
175 198 0
173 197 0
174 197 0
173 197 0
176 199 0
173 197 0
174 197 0
171 195 0
171 195 0
175 198 0
172 196 0
173 196 0
173 197 0
174 197 0
173 197 0
172 196 0
172 196 0
174 197 0
173 196 0
174 197 0
168 191 0
173 196 0
174 197 0
173 196 0
173 197 0
171 195 0
170 194 0
170 194 0
172 196 0
173 196 0
172 196 0
173 197 0
172 195 0
173 197 0
172 195 0
171 193 0
175 197 0
173 196 0
172 195 0
168 191 0
172 195 0
172 195 0
172 195 0
173 196 0
172 195 0
174 196 0
172 195 0
174 196 0
172 195 0
174 197 0
173 196 0
173 195 0
174 196 0
169 193 0
174 196 0
172 195 0
170 193 0
171 194 0
170 193 0
169 192 0
170 193 0
172 195 0
169 193 0
174 197 0
170 192 0
169 193 0
170 194 0
171 194 0
170 193 0
165 189 0
171 193 0
170 192 0
168 191 0
167 190 0
167 190 0
168 191 0
170 194 0
170 193 0
171 194 0
168 192 0
170 193 0
167 190 0
169 193 0
170 193 0
169 192 0
165 189 0
165 188 0
170 194 0
170 194 0
168 192 0
168 192 0
171 194 0
165 189 0
170 193 0
172 196 0
165 189 0
167 190 0
173 196 0
170 194 0
172 195 0
171 195 0
171 194 0
170 194 0
169 192 0
173 197 0
170 193 0
172 195 0
166 189 0
171 195 0
171 194 0
168 192 0
171 195 0
171 194 0
169 192 0
171 195 0
170 193 0
169 192 0
170 193 0
174 197 0
169 194 0
171 195 0
172 195 0
170 193 0
172 195 0
172 194 0
172 196 0
173 197 0
170 194 0
171 195 0
170 194 0
172 195 0
171 195 0
172 195 0
172 195 0
172 196 0
171 195 0
172 196 0
173 196 0
173 197 0
171 195 0
170 193 0
172 195 0
173 196 0
170 193 0
173 197 0
172 196 0
174 197 0
173 197 0
173 196 0
172 195 0
174 197 0
173 197 0
173 197 0
173 196 0
172 195 0
173 196 0
174 198 0
171 194 0
174 196 0
175 197 0
173 197 0
174 197 0
172 195 0
174 197 0
174 198 0
174 197 0
172 196 0
173 196 0
175 197 0
174 198 0
173 196 0
173 196 0
173 197 0
174 196 0
173 197 0
172 195 0
174 197 0
173 197 0
175 198 0
174 197 0
172 196 0
174 197 0
174 198 0
172 196 0
174 197 0
175 198 0
174 197 0
174 197 0
175 198 0
174 198 0
175 198 0
174 198 0
173 197 0
174 198 0
173 196 0
174 197 0
174 197 0
172 196 0
173 197 0
174 197 0
176 199 0
174 198 0
174 197 0
174 197 0
175 198 0
171 195 0
173 197 0
174 198 0
173 197 0
174 197 0
174 198 0
175 197 0
176 199 0
173 196 0
175 198 0
174 198 0
176 198 0
174 197 0
175 198 0
174 197 0
173 196 0
174 198 0
175 198 0
173 197 0
174 198 0
175 198 0
174 198 0
174 197 0
173 197 0
174 198 0
174 198 0
173 197 0
174 198 0
175 198 0
175 198 0
173 196 0
174 198 0
174 198 0
174 197 0
176 198 0
174 197 0
175 198 0
174 197 0
174 198 0
173 197 0
175 198 0
173 197 0
174 197 0
175 198 0
173 197 0
175 198 0
175 198 0
174 197 0
175 198 0
172 195 0
173 197 0
174 198 0
173 197 0
173 197 0
175 198 0
173 197 0
176 199 0
174 198 0
174 198 0
176 199 0
175 198 0
175 198 0
175 198 0
174 198 0
174 197 0
174 198 0
174 198 0
174 198 0
175 198 0
174 198 0
175 198 0
175 198 0
174 197 0
176 199 0
176 199 0
172 196 0
175 198 0
176 199 0
176 199 0
175 198 0
174 198 0
175 198 0
175 198 0
173 197 0
174 198 0
174 198 0
173 197 0
172 196 0
173 197 0
174 198 0
175 198 0
173 197 0
174 198 0
173 197 0
175 198 0
173 197 0
174 198 0
174 197 0
174 198 0
175 198 0
174 198 0
175 198 0
173 197 0
174 198 0
176 199 0
172 197 0
173 196 0
175 198 0
175 198 0
174 197 0
174 198 0
175 198 0
173 197 0
174 198 0
176 199 0
174 198 0
176 199 0
175 198 0
174 198 0
174 197 0
175 198 0
174 198 0
174 198 0
175 198 0
175 198 0
174 198 0
174 198 0
174 197 0
175 198 0
172 196 0
175 198 0
174 198 0
175 198 0
173 197 0
175 198 0
174 197 0
174 197 0
174 198 0
174 197 0
175 198 0
174 197 0
176 199 0
175 198 0
174 197 0
172 196 0
173 196 0
174 197 0
175 198 0
174 198 0
175 198 0
173 197 0
175 198 0
174 198 0
174 197 0
175 198 0
174 198 0
174 198 0
174 198 0
175 198 0
175 198 0
171 194 0
175 198 0
173 196 0
175 198 0
175 198 0
171 196 0
174 197 0
174 197 0
174 197 0
173 197 0
175 198 0
174 198 0
175 198 0
174 197 0
174 198 0
173 197 0
174 197 0
174 198 0
175 198 0
172 196 0
175 198 0
174 198 0
176 198 0
172 196 0
174 197 0
174 197 0
175 198 0
173 197 0
173 197 0
174 198 0
174 197 0
175 198 0
174 197 0
174 197 0
173 197 0
173 197 0
175 198 0
173 197 0
175 198 0
175 198 0
173 196 0
173 197 0
173 196 0
174 198 0
172 196 0
173 197 0
173 197 0
173 197 0
174 197 0
173 196 0
173 196 0
174 197 0
173 197 0
172 195 0
170 194 0
172 196 0
173 196 0
172 196 0
173 196 0
175 197 0
173 197 0
173 196 0
172 195 0
170 194 0
175 198 0
172 195 0
172 196 0
173 197 0
173 196 0
171 195 0
172 196 0
169 193 0
171 194 0
176 198 0
172 195 0
172 195 0
172 195 0
172 195 0
174 195 0
173 196 0
172 195 0
174 197 0
170 193 0
169 193 0
174 197 0
175 197 0
172 195 0
171 194 0
173 195 0
171 194 0
173 196 0
170 193 0
170 193 0
168 192 0
172 195 0
170 193 0
173 197 0
168 192 0
173 196 0
172 195 0
169 193 0
173 196 0
167 191 0
171 194 0
170 194 0
167 190 0
168 192 0
167 190 0
171 194 0
167 191 0
169 193 0
170 194 0
170 193 0
171 194 0
169 192 0
171 195 0
166 191 0
171 194 0
168 191 0
170 193 0
170 193 0
169 192 0
170 194 0
170 193 0
171 195 0
170 194 0
165 189 0
166 190 0
170 194 0
172 195 0
175 197 0
170 192 0
168 191 0
168 190 0
171 194 0
173 196 0
172 195 0
168 191 0
172 195 0
171 194 0
169 191 0
169 193 0
171 195 0
169 193 0
173 196 0
171 194 0
169 193 0
171 195 0
172 195 0
172 194 0
169 193 0
170 193 0
171 195 0
172 195 0
172 195 0
172 194 0
171 194 0
172 195 0
171 195 0
172 195 0
173 195 0
171 194 0
171 194 0
172 195 0
168 192 0
170 193 0
171 195 0
172 195 0
172 196 0
171 194 0
172 196 0
171 195 0
172 196 0
173 196 0
174 197 0
173 196 0
171 195 0
175 198 0
173 196 0
175 198 0
174 198 0
173 197 0
173 197 0
174 197 0
172 196 0
172 194 0
172 196 0
172 195 0
172 196 0
174 197 0
174 198 0
173 197 0
175 198 0
171 195 0
174 197 0
173 196 0
174 197 0
175 198 0
174 197 0
173 196 0
172 195 0
174 197 0
173 197 0
174 197 0
173 196 0
175 198 0
174 197 0
173 196 0
172 196 0
175 198 0
175 198 0
174 198 0
174 197 0
174 198 0
173 197 0
173 196 0
175 198 0
174 198 0
174 197 0
172 196 0
172 197 0
173 196 0
172 195 0
172 196 0
174 197 0
173 197 0
174 198 0
175 198 0
172 197 0
174 197 0
172 196 0
175 198 0
174 197 0
172 196 0
173 196 0
174 198 0
173 197 0
174 197 0
174 198 0
173 197 0
174 198 0
172 196 0
172 196 0
173 197 0
174 197 0
175 198 0
175 198 0
175 198 0
175 198 0
174 198 0
172 196 0
174 198 0
174 197 0
174 198 0
173 197 0
176 199 0
174 197 0
175 198 0
173 197 0
173 197 0
174 198 0
175 198 0
174 198 0
172 196 0
174 198 0
176 199 0
174 197 0
173 197 0
175 198 0
175 198 0
176 199 0
174 198 0
175 198 0
175 198 0
173 197 0
172 196 0
175 198 0
175 198 0
174 197 0
174 198 0
174 198 0
173 197 0
176 198 0
176 199 0
174 197 0
175 198 0
174 198 0
175 198 0
174 197 0
173 197 0
175 198 0
174 197 0
174 198 0
175 198 0
172 197 0
173 197 0
174 198 0
175 198 0
175 198 0
174 198 0
173 197 0
175 198 0
172 197 0
174 197 0
175 198 0
174 197 0
173 197 0
176 199 0
176 199 0
175 198 0
172 197 0
175 198 0
175 198 0
175 198 0
175 198 0
175 198 0
175 198 0
172 197 0
176 198 0
175 198 0
173 197 0
173 197 0
174 198 0
175 198 0
173 197 0
175 198 0
175 198 0
174 197 0
175 198 0
174 197 0
175 198 0
173 196 0
174 198 0
175 198 0
173 197 0
174 198 0
174 197 0
173 197 0
174 197 0
175 198 0
175 198 0
175 198 0
175 198 0
174 198 0
173 197 0
175 198 0
176 198 0
174 198 0
174 197 0
174 198 0
175 198 0
175 198 0
174 198 0
173 197 0
174 197 0
174 198 0
174 198 0
175 198 0
175 198 0
173 197 0
174 198 0
176 199 0
176 199 0
174 198 0
175 198 0
173 197 0
174 197 0
174 198 0
175 198 0
174 197 0
176 198 0
174 198 0
174 197 0
174 197 0
174 197 0
174 198 0
176 198 0
174 197 0
175 198 0
176 199 0
174 198 0
173 197 0
174 198 0
173 197 0
175 198 0
175 198 0
174 198 0
174 197 0
173 197 0
173 197 0
175 198 0
174 198 0
172 197 0
173 197 0
172 197 0
173 197 0
174 198 0
174 197 0
175 198 0
173 197 0
174 198 0
175 198 0
176 198 0
176 198 0
174 198 0
173 197 0
175 198 0
173 197 0
175 198 0
174 197 0
176 199 0
174 198 0
174 197 0
172 195 0
174 197 0
174 198 0
174 198 0
175 198 0
173 197 0
176 198 0
175 198 0
173 197 0
172 197 0
173 197 0
171 195 0
173 197 0
173 197 0
173 197 0
173 197 0
175 198 0
172 196 0
174 198 0
174 197 0
173 197 0
172 196 0
175 198 0
176 198 0
173 197 0
174 197 0
175 198 0
174 197 0
175 198 0
172 196 0
173 196 0
170 194 0
174 197 0
174 197 0
173 197 0
174 197 0
174 198 0
171 195 0
174 197 0
170 194 0
172 195 0
172 196 0
171 195 0
171 195 0
171 195 0
171 195 0
175 198 0
170 193 0
172 195 0
173 196 0
172 195 0
175 198 0
174 197 0
173 196 0
172 194 0
172 195 0
173 195 0
171 195 0
172 196 0
173 196 0
170 193 0
172 195 0
173 196 0
174 196 0
172 195 0
175 198 0
171 194 0
174 197 0
173 196 0
173 196 0
173 196 0
172 195 0
171 194 0
173 196 0
172 195 0
173 197 0
172 195 0
172 195 0
172 195 0
171 194 0
173 195 0
169 192 0
166 190 0
174 196 0
169 193 0
170 193 0
171 194 0
166 190 0
171 195 0
168 193 0
167 190 0
168 192 0
169 192 0
168 191 0
169 193 0
170 193 0
170 193 0
170 194 0
171 194 0
167 191 0
166 189 0
173 197 0
170 194 0
167 190 0
170 193 0
170 193 0
169 193 0
171 194 0
172 195 0
169 193 0
169 192 0
171 194 0
170 193 0
169 192 0
171 196 0
167 191 0
171 195 0
166 190 0
170 193 0
170 194 0
170 194 0
170 193 0
170 194 0
172 195 0
170 193 0
171 195 0
170 194 0
171 194 0
171 194 0
171 194 0
171 195 0
171 194 0
169 193 0
170 193 0
171 195 0
171 194 0
172 194 0
171 195 0
169 192 0
172 195 0
172 195 0
171 193 0
170 194 0
172 195 0
171 194 0
174 197 0
171 195 0
172 195 0
173 196 0
172 196 0
171 195 0
170 193 0
173 195 0
171 194 0
174 197 0
170 194 0
173 196 0
174 197 0
174 196 0
170 193 0
171 195 0
174 197 0
172 196 0
170 193 0
172 195 0
172 195 0
175 198 0
172 195 0
172 196 0
173 195 0
173 196 0
174 197 0
173 196 0
172 195 0
172 195 0
174 197 0
172 195 0
173 196 0
173 197 0
172 196 0
173 196 0
173 196 0
172 197 0
175 198 0
172 195 0
175 197 0
174 197 0
175 197 0
175 197 0
172 197 0
174 198 0
173 197 0
171 194 0
172 195 0
173 197 0
175 198 0
174 197 0
172 195 0
174 197 0
173 197 0
174 197 0
171 194 0
174 198 0
174 197 0
175 198 0
171 195 0
174 197 0
174 197 0
174 197 0
175 198 0
175 198 0
175 198 0
174 197 0
175 198 0
174 197 0
171 195 0
175 198 0
172 196 0
173 196 0
174 197 0
174 198 0
174 198 0
174 198 0
174 198 0
175 198 0
173 197 0
175 198 0
173 197 0
174 198 0
175 197 0
173 197 0
174 197 0
173 196 0
173 196 0
174 198 0
175 198 0
173 196 0
174 197 0
175 198 0
174 197 0
175 198 0
173 197 0
173 197 0
175 198 0
176 199 0
175 198 0
174 197 0
173 197 0
175 198 0
174 197 0
174 197 0
174 197 0
175 198 0
174 197 0
173 197 0
174 198 0
174 198 0
176 199 0
175 198 0
176 199 0
175 198 0
174 198 0
173 197 0
175 198 0
174 198 0
174 197 0
173 197 0
175 198 0
173 197 0
172 197 0
174 197 0
174 198 0
176 198 0
176 199 0
175 198 0
176 198 0
174 197 0
174 198 0
175 198 0
173 197 0
174 197 0
176 199 0
173 197 0
172 196 0
176 198 0
175 198 0
176 199 0
174 198 0
176 198 0
176 198 0
174 197 0
172 197 0
174 198 0
175 198 0
176 199 0
174 197 0
173 197 0
175 198 0
174 198 0
174 197 0
173 197 0
175 198 0
175 198 0
175 198 0
174 198 0
174 197 0
175 198 0
175 198 0
175 198 0
174 197 0
173 197 0
173 197 0
175 198 0
173 197 0
173 197 0
174 198 0
175 198 0
175 198 0
174 198 0
174 198 0
173 197 0
173 197 0
174 198 0
174 198 0
174 197 0
174 198 0
173 196 0
176 198 0
174 198 0
173 197 0
175 198 0
176 199 0
172 197 0
176 199 0
174 198 0
176 199 0
176 198 0
174 198 0
174 198 0
174 197 0
175 198 0
174 198 0
173 197 0
172 196 0
174 197 0
174 198 0
174 197 0
172 197 0
173 197 0
175 198 0
175 198 0
175 198 0
174 198 0
176 199 0
174 198 0
173 197 0
174 197 0
174 198 0
173 197 0
174 198 0
175 198 0
176 199 0
174 198 0
174 197 0
173 197 0
174 198 0
175 198 0
175 198 0
174 197 0
173 197 0
174 198 0
174 198 0
175 198 0
173 197 0
175 198 0
174 198 0
174 198 0
173 197 0
175 198 0
173 197 0
173 197 0
175 198 0
174 197 0
174 198 0
175 198 0
175 198 0
173 197 0
174 198 0
175 198 0
175 198 0
175 198 0
175 198 0
175 198 0
173 197 0
175 198 0
172 196 0
173 197 0
174 198 0
174 197 0
173 197 0
173 197 0
176 198 0
174 197 0
175 198 0
173 196 0
172 196 0
173 197 0
174 198 0
173 197 0
173 197 0
173 197 0
174 197 0
174 197 0
172 197 0
173 197 0
175 198 0
174 198 0
173 196 0
174 197 0
172 196 0
172 195 0
172 196 0
173 197 0
173 197 0
172 196 0
175 198 0
172 196 0
175 198 0
176 198 0
173 197 0
174 197 0
173 197 0
173 197 0
173 197 0
172 196 0
173 197 0
173 197 0
172 195 0
174 198 0
175 198 0
173 197 0
171 196 0
172 196 0
176 199 0
173 196 0
174 197 0
172 196 0
175 197 0
172 196 0
173 196 0
173 196 0
173 196 0
173 196 0
174 197 0
172 195 0
174 197 0
172 196 0
172 195 0
172 195 0
172 196 0
173 196 0
172 195 0
174 197 0
172 196 0
173 196 0
172 195 0
169 191 0
175 197 0
174 197 0
171 195 0
172 195 0
174 197 0
174 197 0
173 196 0
173 197 0
171 194 0
173 195 0
172 194 0
174 196 0
170 193 0
174 197 0
169 193 0
174 196 0
174 196 0
171 193 0
168 192 0
171 194 0
170 194 0
166 190 0
168 191 0
169 192 0
170 193 0
171 194 0
170 194 0
169 193 0
170 194 0
173 196 0
171 195 0
172 195 0
171 194 0
169 192 0
166 190 0
171 195 0
172 196 0
168 192 0
172 194 0
168 191 0
171 195 0
171 195 0
168 192 0
173 196 0
172 195 0
169 193 0
171 195 0
168 191 0
169 193 0
170 193 0
168 191 0
171 194 0
169 192 0
173 195 0
171 194 0
174 197 0
170 193 0
172 194 0
172 195 0
173 196 0
174 197 0
170 193 0
172 195 0
169 193 0
171 194 0
170 194 0
171 194 0
169 193 0
172 195 0
170 193 0
173 197 0
172 196 0
174 197 0
171 195 0
170 194 0
171 194 0
174 197 0
171 194 0
169 192 0
172 196 0
174 197 0
172 196 0
171 195 0
174 197 0
171 194 0
173 196 0
173 197 0
172 195 0
171 194 0
169 193 0
174 197 0
174 197 0
173 196 0
173 197 0
172 196 0
170 194 0
173 196 0
170 194 0
174 197 0
172 196 0
174 197 0
172 196 0
175 198 0
174 198 0
174 197 0
173 196 0
171 194 0
174 197 0
174 197 0
174 197 0
175 198 0
174 197 0
172 196 0
172 196 0
174 197 0
174 197 0
174 198 0
173 197 0
172 196 0
173 196 0
174 197 0
173 197 0
174 197 0
174 197 0
173 197 0
171 195 0
173 196 0
174 197 0
174 197 0
173 196 0
173 197 0
172 196 0
171 196 0
173 197 0
172 196 0
172 196 0
174 198 0
173 197 0
174 198 0
174 197 0
172 196 0
173 197 0
172 195 0
175 198 0
173 197 0
175 198 0
174 197 0
171 195 0
175 198 0
175 198 0
174 197 0
174 198 0
174 197 0
174 198 0
174 198 0
173 196 0
174 198 0
175 198 0
175 198 0
175 198 0
175 198 0
175 198 0
175 198 0
174 198 0
175 198 0
173 197 0
174 197 0
176 198 0
174 197 0
174 197 0
174 197 0
173 197 0
173 197 0
174 198 0
175 198 0
174 197 0
175 198 0
174 198 0
172 197 0
175 198 0
174 198 0
174 197 0
174 197 0
175 198 0
174 197 0
173 197 0
175 198 0
175 198 0
175 198 0
175 198 0
175 198 0
173 197 0
176 199 0
175 198 0
173 197 0
176 198 0
175 198 0
176 198 0
175 198 0
175 198 0
173 197 0
175 198 0
173 197 0
174 197 0
174 198 0
176 199 0
174 198 0
174 197 0
174 197 0
174 198 0
174 198 0
175 198 0
174 197 0
174 198 0
176 199 0
175 198 0
173 197 0
173 197 0
175 198 0
174 198 0
175 198 0
172 196 0
174 198 0
173 197 0
174 197 0
175 198 0
175 198 0
177 199 0
173 197 0
173 196 0
175 198 0
175 198 0
174 197 0
176 199 0
173 197 0
175 198 0
175 198 0
175 198 0
173 197 0
175 198 0
174 198 0
177 199 0
175 198 0
175 198 0
175 198 0
177 199 0
175 198 0
173 197 0
176 198 0
174 198 0
174 198 0
176 199 0
174 198 0
174 198 0
172 197 0
174 197 0
175 198 0
174 198 0
173 196 0
173 197 0
174 198 0
174 197 0
173 196 0
175 198 0
174 198 0
173 197 0
174 198 0
174 198 0
174 198 0
175 198 0
175 198 0
174 198 0
174 197 0
175 198 0
174 198 0
174 198 0
174 198 0
174 197 0
177 199 0
175 198 0
176 199 0
175 198 0
175 198 0
172 196 0
173 197 0
175 198 0
173 197 0
175 198 0
173 197 0
173 197 0
173 196 0
175 198 0
174 197 0
172 196 0
175 198 0
176 198 0
175 198 0
173 197 0
175 198 0
173 197 0
174 197 0
175 198 0
174 198 0
174 197 0
173 197 0
174 198 0
176 198 0
175 198 0
174 197 0
175 198 0
175 198 0
174 198 0
174 197 0
173 197 0
175 198 0
174 198 0
174 197 0
174 198 0
175 198 0
174 198 0
175 198 0
173 197 0
172 196 0
174 198 0
174 198 0
175 198 0
174 197 0
174 198 0
172 196 0
175 198 0
174 197 0
173 197 0
174 197 0
173 197 0
174 198 0
174 198 0
174 198 0
174 197 0
173 197 0
174 197 0
174 198 0
173 197 0
175 198 0
175 198 0
173 197 0
172 197 0
174 197 0
173 196 0
175 198 0
173 197 0
175 198 0
172 196 0
173 197 0
173 196 0
174 197 0
175 198 0
173 197 0
175 198 0
176 199 0
174 197 0
174 198 0
173 197 0
174 198 0
173 197 0
171 196 0
173 197 0
174 197 0
172 195 0
173 196 0
172 195 0
173 197 0
173 196 0
172 196 0
173 197 0
175 198 0
172 195 0
173 197 0
170 194 0
171 195 0
173 197 0
173 197 0
172 196 0
173 196 0
172 196 0
172 196 0
175 197 0
173 197 0
175 198 0
172 195 0
171 195 0
175 198 0
170 194 0
172 196 0
174 197 0
173 197 0
172 195 0
174 197 0
171 194 0
173 197 0
173 197 0
171 194 0
173 196 0
172 195 0
172 195 0
174 197 0
172 195 0
175 197 0
171 194 0
172 195 0
172 195 0
174 196 0
173 195 0
174 197 0
171 195 0
172 194 0
169 192 0
170 194 0
167 190 0
169 192 0
172 195 0
171 194 0
172 195 0
171 194 0
170 193 0
171 193 0
169 193 0
170 193 0
168 191 0
168 191 0
169 193 0
168 192 0
168 192 0
171 194 0
169 192 0
165 189 0
167 190 0
171 194 0
170 194 0
170 194 0
171 195 0
166 189 0
169 192 0
171 195 0
173 196 0
169 193 0
169 192 0
173 196 0
169 192 0
168 191 0
171 194 0
173 197 0
172 195 0
170 194 0
172 195 0
169 192 0
171 195 0
169 192 0
172 195 0
170 193 0
172 196 0
168 192 0
172 195 0
171 195 0
170 194 0
172 196 0
171 195 0
174 198 0
171 194 0
173 197 0
171 194 0
173 196 0
173 196 0
172 195 0
172 195 0
172 195 0
173 197 0
174 198 0
172 195 0
170 194 0
171 195 0
168 191 0
169 193 0
173 196 0
171 194 0
173 196 0
171 194 0
172 196 0
173 197 0
172 195 0
170 194 0
172 195 0
172 195 0
173 196 0
175 198 0
173 196 0
173 197 0
174 197 0
173 196 0
174 198 0
175 198 0
174 198 0
174 197 0
173 195 0
173 196 0
174 197 0
173 197 0
173 197 0
172 196 0
174 197 0
174 197 0
174 197 0
174 197 0
172 196 0
174 197 0
175 198 0
172 196 0
172 196 0
175 198 0
173 197 0
174 197 0
174 197 0
173 197 0
172 195 0
174 197 0
173 197 0
173 197 0
175 197 0
175 198 0
174 197 0
173 197 0
175 198 0
173 197 0
173 196 0
174 197 0
173 197 0
173 196 0
174 198 0
175 197 0
173 197 0
173 197 0
174 197 0
172 196 0
175 198 0
172 196 0
175 198 0
174 198 0
174 197 0
174 197 0
174 197 0
173 196 0
175 198 0
174 198 0
172 196 0
175 198 0
174 197 0
173 196 0
174 198 0
175 198 0
174 198 0
173 196 0
174 197 0
173 196 0
174 197 0
175 198 0
172 197 0
175 198 0
174 198 0
174 197 0
174 197 0
175 198 0
175 198 0
175 198 0
173 196 0
175 198 0
175 198 0
172 197 0
176 199 0
175 198 0
173 197 0
173 197 0
174 198 0
174 197 0
175 198 0
174 197 0
173 196 0
174 197 0
173 197 0
174 198 0
175 198 0
175 198 0
176 198 0
173 197 0
175 198 0
174 197 0
174 198 0
175 198 0
176 199 0
174 197 0
175 198 0
176 199 0
173 197 0
174 198 0
173 197 0
174 197 0
175 198 0
173 197 0
172 196 0
173 197 0
175 198 0
174 198 0
173 197 0
174 198 0
175 198 0
174 198 0
173 197 0
174 197 0
173 197 0
175 198 0
174 198 0
173 197 0
175 198 0
174 197 0
174 198 0
175 198 0
175 198 0
172 196 0
174 198 0
174 198 0
173 197 0
175 198 0
174 198 0
174 197 0
174 197 0
173 197 0
172 196 0
173 197 0
174 197 0
175 198 0
174 197 0
176 198 0
176 198 0
176 198 0
175 198 0
174 197 0
174 197 0
173 197 0
173 197 0
174 197 0
175 198 0
174 198 0
175 198 0
174 198 0
175 198 0
175 198 0
174 198 0
174 197 0
176 199 0
174 197 0
174 198 0
174 198 0
175 198 0
176 198 0
174 198 0
175 198 0
175 198 0
176 198 0
174 197 0
172 196 0
174 198 0
174 197 0
174 198 0
173 196 0
175 198 0
174 198 0
175 198 0
174 198 0
175 198 0
175 198 0
174 197 0
175 198 0
174 198 0
174 198 0
173 197 0
176 198 0
174 197 0
174 198 0
175 198 0
174 198 0
174 198 0
173 197 0
173 197 0
174 197 0
175 198 0
174 197 0
174 197 0
174 197 0
175 198 0
175 198 0
175 198 0
175 198 0
173 197 0
173 197 0
174 198 0
174 197 0
173 197 0
174 197 0
175 198 0
174 198 0
173 197 0
173 197 0
173 196 0
175 198 0
175 198 0
175 198 0
174 197 0
174 197 0
173 197 0
174 198 0
174 198 0
175 198 0
175 198 0
174 198 0
174 198 0
175 198 0
174 197 0
174 198 0
174 197 0
173 197 0
172 196 0
173 197 0
174 198 0
174 198 0
176 198 0
174 198 0
174 198 0
173 197 0
174 198 0
175 198 0
175 198 0
174 197 0
171 195 0
172 196 0
173 197 0
175 198 0
173 197 0
171 196 0
176 198 0
174 198 0
172 196 0
176 199 0
176 198 0
174 198 0
173 197 0
173 197 0
174 197 0
173 196 0
174 197 0
174 198 0
174 198 0
174 197 0
174 197 0
172 196 0
173 196 0
172 196 0
173 196 0
174 197 0
171 195 0
173 196 0
173 197 0
175 198 0
174 197 0
173 197 0
174 197 0
172 196 0
173 197 0
172 196 0
174 197 0
172 196 0
173 196 0
170 195 0
171 195 0
173 196 0
174 198 0
171 194 0
174 197 0
174 197 0
170 193 0
175 198 0
171 195 0
175 198 0
174 197 0
174 197 0
172 195 0
172 196 0
175 198 0
175 197 0
171 194 0
170 194 0
174 196 0
174 197 0
175 198 0
173 196 0
175 198 0
174 198 0
172 196 0
174 197 0
171 194 0
173 196 0
172 195 0
174 197 0
171 194 0
173 197 0
170 194 0
174 197 0
175 198 0
170 193 0
170 192 0
173 196 0
170 193 0
171 195 0
170 192 0
172 195 0
171 194 0
170 193 0
169 192 0
166 190 0
171 194 0
170 193 0
168 191 0
171 194 0
172 195 0
170 194 0
171 195 0
172 196 0
167 191 0
167 191 0
170 194 0
173 196 0
171 194 0
170 193 0
170 194 0
168 192 0
170 192 0
169 193 0
167 192 0
173 196 0
171 195 0
171 194 0
173 196 0
171 195 0
173 195 0
171 194 0
174 196 0
171 195 0
168 192 0
171 194 0
172 196 0
176 198 0
169 193 0
172 196 0
172 195 0
173 196 0
169 193 0
169 193 0
171 195 0
174 197 0
171 195 0
173 197 0
174 197 0
175 198 0
171 194 0
172 195 0
170 194 0
173 196 0
170 194 0
171 193 0
174 197 0
171 195 0
173 196 0
168 192 0
173 197 0
173 196 0
173 196 0
171 194 0
172 196 0
173 196 0
173 197 0
172 195 0
174 198 0
173 196 0
171 194 0
173 196 0
173 197 0
174 197 0
172 196 0
174 196 0
172 196 0
172 196 0
172 195 0
174 197 0
171 194 0
171 194 0
174 198 0
173 196 0
173 196 0
173 197 0
174 197 0
172 195 0
168 193 0
176 199 0
172 196 0
174 198 0
173 197 0
173 196 0
174 197 0
172 196 0
174 198 0
175 197 0
171 195 0
174 197 0
174 197 0
172 195 0
171 195 0
175 198 0
173 197 0
173 197 0
172 195 0
175 198 0
170 194 0
174 197 0
174 197 0
175 198 0
174 198 0
173 197 0
174 196 0
172 196 0
175 198 0
173 196 0
172 196 0
175 197 0
173 196 0
172 195 0
175 198 0
174 197 0
173 197 0
174 198 0
174 198 0
175 198 0
175 198 0
175 198 0
176 198 0
175 198 0
175 198 0
174 197 0
175 198 0
174 198 0
174 197 0
174 198 0
174 197 0
174 197 0
173 197 0
175 198 0
173 197 0
173 196 0
173 197 0
174 197 0
175 198 0
174 198 0
174 197 0
174 198 0
173 196 0
174 197 0
174 198 0
171 194 0
174 198 0
173 196 0
174 198 0
173 197 0
174 197 0
174 198 0
172 196 0
174 197 0
174 198 0
175 198 0
173 197 0
173 197 0
175 198 0
174 197 0
174 197 0
174 197 0
174 198 0
175 198 0
175 198 0
175 198 0
173 197 0
174 197 0
175 198 0
175 198 0
174 197 0
175 198 0
173 197 0
172 197 0
174 197 0
174 197 0
174 198 0
174 198 0
176 199 0
175 198 0
173 197 0
173 197 0
176 199 0
173 197 0
173 197 0
174 198 0
173 197 0
176 199 0
176 199 0
176 199 0
172 196 0
175 198 0
174 197 0
175 198 0
175 198 0
174 197 0
174 198 0
175 198 0
175 198 0
173 197 0
175 198 0
176 199 0
175 198 0
174 198 0
174 198 0
173 197 0
172 196 0
176 199 0
173 197 0
175 198 0
176 198 0
174 197 0
173 197 0
176 199 0
175 198 0
175 198 0
174 198 0
175 198 0
174 198 0
174 197 0
174 198 0
175 198 0
175 198 0
175 198 0
176 198 0
174 197 0
174 197 0
175 198 0
173 197 0
174 197 0
175 198 0
174 198 0
175 198 0
175 198 0
175 198 0
175 198 0
174 197 0
174 197 0
174 198 0
176 199 0
175 198 0
174 198 0
173 197 0
174 197 0
175 198 0
176 199 0
175 198 0
175 198 0
174 197 0
174 198 0
174 198 0
177 199 0
174 198 0
174 198 0
175 198 0
172 196 0
173 197 0
174 198 0
173 197 0
175 198 0
175 198 0
174 198 0
172 197 0
174 197 0
175 198 0
174 197 0
173 197 0
174 197 0
174 197 0
176 199 0
173 197 0
174 197 0
174 197 0
173 196 0
175 198 0
176 199 0
175 198 0
175 198 0
174 198 0
173 196 0
176 198 0
174 197 0
173 197 0
173 197 0
174 198 0
175 198 0
175 198 0
174 197 0
173 197 0
175 198 0
174 198 0
174 198 0
174 198 0
173 197 0
174 198 0
175 198 0
174 197 0
175 198 0
173 197 0
175 198 0
174 198 0
175 198 0
175 198 0
175 198 0
173 197 0
176 199 0
174 198 0
175 198 0
174 197 0
175 198 0
172 197 0
174 198 0
173 197 0
175 197 0
174 198 0
175 198 0
174 197 0
173 197 0
173 197 0
174 198 0
175 198 0
174 198 0
172 196 0
175 198 0
173 197 0
173 196 0
174 197 0
174 197 0
174 197 0
174 197 0
174 197 0
174 197 0
176 199 0
174 198 0
172 196 0
173 197 0
174 197 0
174 197 0
173 196 0
174 197 0
174 197 0
173 197 0
171 194 0
173 197 0
174 198 0
172 196 0
172 196 0
173 197 0
173 196 0
172 196 0
173 196 0
174 198 0
172 195 0
171 195 0
173 196 0
174 197 0
172 195 0
174 198 0
173 197 0
174 197 0
174 197 0
174 197 0
173 196 0
171 195 0
175 198 0
173 196 0
173 196 0
172 196 0
173 197 0
172 195 0
173 196 0
174 196 0
172 196 0
172 195 0
171 195 0
174 197 0
172 195 0
174 197 0
172 196 0
175 198 0
172 196 0
173 196 0
173 196 0
173 196 0
174 197 0
172 195 0
173 196 0
171 194 0
170 194 0
170 194 0
172 195 0
169 192 0
172 196 0
171 194 0
170 194 0
170 193 0
167 192 0
169 193 0
169 193 0
173 196 0
170 194 0
168 192 0
173 195 0
173 196 0
172 195 0
169 191 0
171 194 0
173 196 0
173 195 0
170 193 0
171 195 0
171 195 0
171 195 0
170 194 0
169 192 0
169 193 0
170 194 0
171 195 0
166 191 0
165 190 0
173 196 0
171 194 0
167 191 0
171 194 0
174 197 0
169 193 0
172 195 0
172 196 0
173 196 0
169 192 0
170 195 0
171 194 0
170 194 0
173 196 0
169 192 0
170 193 0
171 194 0
170 194 0
173 196 0
172 195 0
172 195 0
169 193 0
171 194 0
171 196 0
174 197 0
172 195 0
168 191 0
169 193 0
170 194 0
173 196 0
172 195 0
174 196 0
173 196 0
173 196 0
173 196 0
167 191 0
174 198 0
173 196 0
172 196 0
172 196 0
170 194 0
172 195 0
170 194 0
174 198 0
173 196 0
173 197 0
172 196 0
175 197 0
172 196 0
174 198 0
173 196 0
174 197 0
174 197 0
171 195 0
173 196 0
174 198 0
174 198 0
172 196 0
175 198 0
175 198 0
174 198 0
173 196 0
174 198 0
175 197 0
173 196 0
174 197 0
173 197 0
171 194 0
172 196 0
174 197 0
172 196 0
173 197 0
174 197 0
174 197 0
174 196 0
173 197 0
172 196 0
174 197 0
174 197 0
175 198 0
173 196 0
172 196 0
172 196 0
175 198 0
172 197 0
174 197 0
172 195 0
174 197 0
172 196 0
175 198 0
172 196 0
173 197 0
173 197 0
174 197 0
174 197 0
174 197 0
174 197 0
174 198 0
174 197 0
174 197 0
175 198 0
174 197 0
172 195 0
174 197 0
173 197 0
175 198 0
174 197 0
174 197 0
175 198 0
173 197 0
174 197 0
174 197 0
175 198 0
173 197 0
174 198 0
174 198 0
174 197 0
172 196 0
174 198 0
175 198 0
174 197 0
175 198 0
175 198 0
176 199 0
174 197 0
173 197 0
175 198 0
174 198 0
175 198 0
176 198 0
174 197 0
173 197 0
174 197 0
174 197 0
174 198 0
173 197 0
175 198 0
174 198 0
174 198 0
176 199 0
173 197 0
172 196 0
175 198 0
174 197 0
174 198 0
173 197 0
174 197 0
175 198 0
176 198 0
174 198 0
175 198 0
174 197 0
173 197 0
173 197 0
173 197 0
174 197 0
174 198 0
175 198 0
175 198 0
176 199 0
176 198 0
174 198 0
175 198 0
176 199 0
174 197 0
174 198 0
175 198 0
175 198 0
173 197 0
173 197 0
174 197 0
172 196 0
173 197 0
174 198 0
174 197 0
173 197 0
174 198 0
174 198 0
174 198 0
171 196 0
177 199 0
176 198 0
177 199 0
177 199 0
174 198 0
175 198 0
173 197 0
175 198 0
174 198 0
176 198 0
174 198 0
175 198 0
173 197 0
173 197 0
173 197 0
173 197 0
174 197 0
175 198 0
175 198 0
174 198 0
174 197 0
172 196 0
174 197 0
174 197 0
176 198 0
175 198 0
175 198 0
174 197 0
175 198 0
175 198 0
174 198 0
172 197 0
175 198 0
174 197 0
174 197 0
174 198 0
176 199 0
173 197 0
174 198 0
174 198 0
175 198 0
174 198 0
174 197 0
174 198 0
174 198 0
176 199 0
173 197 0
174 198 0
174 198 0
173 197 0
174 198 0
173 197 0
174 198 0
173 197 0
175 198 0
175 198 0
175 198 0
175 198 0
176 198 0
176 199 0
174 198 0
175 198 0
175 198 0
174 197 0
173 197 0
174 198 0
174 198 0
174 198 0
174 198 0
174 197 0
174 198 0
175 198 0
175 198 0
175 198 0
175 198 0
175 198 0
172 197 0
174 197 0
175 198 0
175 198 0
174 198 0
175 198 0
174 197 0
175 198 0
174 197 0
174 197 0
174 197 0
174 197 0
175 198 0
174 198 0
174 198 0
173 197 0
175 198 0
174 197 0
174 198 0
172 197 0
174 198 0
174 197 0
173 197 0
172 196 0
175 198 0
174 197 0
175 198 0
173 197 0
175 198 0
173 197 0
173 197 0
174 198 0
173 197 0
176 198 0
172 196 0
172 197 0
173 197 0
173 197 0
174 198 0
174 198 0
173 197 0
175 198 0
173 197 0
174 198 0
174 197 0
174 197 0
174 197 0
173 197 0
173 197 0
172 197 0
174 198 0
174 197 0
173 196 0
175 198 0
172 196 0
175 198 0
176 198 0
174 198 0
175 198 0
174 197 0
172 197 0
174 197 0
170 194 0
175 198 0
172 196 0
174 198 0
173 197 0
172 197 0
173 197 0
175 198 0
171 195 0
173 197 0
175 198 0
172 195 0
172 196 0
171 196 0
174 197 0
173 197 0
173 196 0
172 196 0
173 197 0
173 197 0
172 196 0
173 197 0
171 194 0
174 198 0
174 197 0
168 191 0
172 196 0
170 193 0
173 196 0
173 197 0
174 197 0
174 197 0
172 195 0
172 195 0
174 197 0
174 197 0
171 195 0
174 197 0
174 197 0
171 194 0
173 196 0
174 197 0
173 196 0
173 196 0
171 194 0
173 196 0
173 197 0
170 193 0
175 198 0
173 196 0
173 196 0
168 192 0
170 194 0
171 194 0
169 193 0
167 191 0
172 195 0
171 194 0
170 194 0
172 196 0
170 193 0
172 195 0
169 193 0
167 191 0
171 194 0
169 193 0
168 192 0
170 193 0
170 193 0
169 193 0
171 194 0
169 193 0
170 194 0
172 195 0
166 190 0
171 195 0
173 196 0
172 195 0
172 195 0
171 195 0
171 194 0
168 192 0
169 193 0
168 191 0
170 193 0
172 194 0
168 192 0
172 196 0
170 193 0
169 192 0
170 193 0
171 194 0
169 192 0
171 194 0
174 197 0
172 195 0
172 195 0
171 194 0
169 192 0
170 194 0
172 195 0
172 196 0
172 195 0
171 195 0
172 195 0
174 197 0
171 195 0
172 196 0
171 193 0
171 195 0
173 197 0
171 194 0
173 196 0
176 199 0
173 197 0
171 195 0
173 197 0
172 195 0
173 197 0
172 195 0
172 195 0
173 196 0
171 194 0
173 197 0
172 196 0
173 196 0
174 197 0
173 197 0
173 197 0
170 194 0
174 197 0
171 195 0
173 196 0
175 197 0
174 197 0
171 195 0
173 197 0
174 197 0
172 195 0
173 195 0
174 197 0
172 196 0
176 198 0
173 197 0
173 197 0
173 196 0
170 195 0
171 195 0
174 197 0
172 196 0
174 197 0
175 198 0
174 198 0
175 198 0
174 198 0
172 195 0
173 197 0
174 197 0
174 197 0
175 198 0
174 198 0
174 197 0
173 195 0
174 197 0
173 196 0
172 196 0
175 198 0
174 197 0
172 195 0
174 197 0
175 198 0
175 198 0
174 197 0
171 196 0
173 196 0
173 196 0
176 199 0
174 198 0
174 197 0
175 198 0
175 198 0
174 198 0
173 196 0
172 196 0
174 197 0
174 197 0
172 195 0
174 198 0
173 197 0
175 198 0
174 197 0
174 197 0
172 197 0
174 198 0
175 198 0
175 198 0
173 197 0
174 197 0
174 198 0
175 198 0
175 198 0
176 198 0
175 198 0
175 198 0
174 198 0
174 198 0
175 198 0
174 198 0
174 198 0
176 198 0
173 197 0
174 197 0
174 198 0
174 197 0
175 198 0
174 197 0
174 198 0
173 197 0
174 198 0
174 198 0
173 197 0
175 198 0
174 197 0
173 197 0
175 198 0
174 197 0
175 198 0
175 198 0
175 198 0
173 197 0
174 198 0
174 198 0
173 196 0
175 198 0
175 198 0
174 198 0
173 197 0
175 198 0
173 197 0
173 197 0
174 198 0
173 197 0
174 198 0
174 198 0
176 198 0
174 197 0
174 198 0
175 198 0
174 197 0
176 198 0
174 198 0
175 198 0
175 198 0
174 198 0
173 197 0
175 198 0
174 197 0
175 198 0
173 197 0
175 198 0
175 198 0
175 198 0
175 198 0
175 198 0
175 198 0
174 197 0
172 196 0
175 198 0
173 197 0
174 198 0
176 199 0
174 198 0
174 198 0
174 197 0
175 198 0
173 197 0
173 197 0
175 198 0
174 197 0
174 198 0
175 198 0
177 199 0
175 198 0
174 197 0
173 197 0
173 197 0
175 198 0
173 197 0
176 199 0
173 197 0
176 199 0
173 197 0
174 198 0
174 198 0
174 198 0
176 199 0
173 197 0
173 196 0
176 199 0
175 198 0
175 198 0
174 197 0
175 198 0
175 198 0
176 199 0
174 198 0
174 198 0
173 197 0
175 198 0
174 197 0
175 198 0
175 198 0
174 198 0
174 198 0
174 198 0
175 198 0
175 198 0
174 198 0
175 198 0
174 198 0
175 198 0
174 198 0
175 198 0
175 198 0
175 198 0
174 198 0
174 197 0
173 197 0
175 198 0
173 197 0
173 197 0
175 198 0
174 198 0
174 197 0
175 198 0
176 198 0
176 198 0
175 198 0
173 197 0
173 197 0
175 198 0
173 197 0
175 198 0
174 198 0
174 198 0
174 198 0
173 197 0
174 198 0
174 197 0
174 198 0
174 197 0
175 198 0
174 198 0
174 197 0
174 197 0
174 197 0
171 194 0
173 197 0
174 198 0
173 197 0
175 198 0
175 198 0
173 197 0
174 197 0
174 197 0
173 197 0
174 198 0
175 198 0
174 198 0
174 198 0
175 198 0
174 197 0
175 197 0
174 198 0
173 197 0
172 196 0
174 198 0
175 198 0
173 197 0
172 196 0
175 198 0
176 198 0
172 196 0
172 196 0
173 197 0
176 198 0
171 195 0
174 198 0
171 195 0
173 197 0
174 197 0
174 197 0
174 198 0
174 197 0
173 197 0
173 197 0
173 196 0
174 197 0
172 196 0
174 197 0
173 196 0
174 197 0
175 198 0
172 196 0
174 197 0
174 197 0
173 196 0
173 196 0
172 195 0
174 197 0
173 197 0
173 196 0
176 198 0
173 196 0
173 197 0
172 195 0
174 197 0
172 195 0
171 194 0
171 195 0
172 196 0
175 198 0
170 193 0
171 195 0
172 196 0
174 198 0
168 192 0
173 196 0
172 194 0
172 194 0
173 196 0
174 197 0
173 196 0
169 193 0
170 194 0
174 197 0
172 196 0
171 194 0
171 194 0
173 196 0
172 195 0
171 194 0
173 196 0
172 194 0
174 197 0
171 195 0
170 194 0
172 195 0
173 196 0
175 198 0
170 194 0
170 194 0
170 194 0
169 193 0
174 196 0
172 195 0
171 195 0
171 195 0
169 193 0
168 191 0
172 196 0
169 193 0
171 195 0
170 193 0
172 195 0
171 195 0
170 194 0
168 192 0
172 196 0
167 191 0
174 197 0
171 195 0
168 192 0
172 196 0
173 196 0
172 195 0
171 195 0
168 192 0
170 194 0
169 192 0
175 198 0
172 196 0
172 196 0
170 193 0
169 192 0
172 196 0
172 195 0
173 196 0
171 193 0
170 193 0
171 194 0
171 195 0
173 195 0
171 194 0
172 195 0
170 194 0
172 196 0
171 195 0
169 192 0
173 196 0
171 194 0
172 195 0
170 193 0
170 194 0
171 195 0
172 194 0
172 195 0
171 194 0
172 195 0
172 196 0
171 195 0
171 195 0
173 196 0
172 195 0
171 194 0
171 195 0
173 196 0
175 197 0
171 195 0
175 197 0
175 198 0
173 196 0
172 196 0
173 197 0
173 196 0
172 195 0
174 197 0
172 195 0
171 194 0
173 196 0
167 191 0
172 196 0
173 196 0
172 195 0
173 197 0
172 195 0
174 197 0
172 196 0
171 195 0
173 197 0
172 195 0
174 197 0
172 196 0
171 195 0
173 197 0
173 196 0
173 196 0
175 198 0
173 196 0
172 196 0
173 197 0
175 198 0
174 197 0
172 196 0
173 197 0
174 197 0
173 197 0
173 196 0
174 197 0
175 198 0
174 197 0
175 198 0
173 197 0
173 196 0
174 197 0
174 198 0
174 197 0
173 197 0
172 196 0
175 198 0
172 196 0
174 198 0
177 199 0
176 199 0
173 197 0
174 197 0
175 198 0
173 196 0
175 198 0
175 198 0
175 198 0
173 197 0
173 196 0
173 197 0
173 196 0
175 198 0
175 198 0
172 196 0
174 197 0
174 197 0
172 197 0
174 198 0
174 198 0
172 197 0
174 198 0
174 197 0
174 197 0
175 198 0
175 198 0
175 198 0
173 197 0
172 196 0
175 198 0
175 198 0
174 197 0
173 196 0
174 197 0
177 199 0
175 198 0
174 198 0
171 195 0
176 198 0
173 196 0
173 197 0
175 198 0
174 198 0
173 197 0
173 197 0
174 197 0
174 197 0
175 198 0
172 196 0
173 197 0
173 196 0
175 198 0
173 197 0
174 198 0
174 197 0
174 198 0
174 198 0
173 197 0
175 198 0
174 197 0
175 198 0
174 197 0
175 198 0
174 198 0
174 198 0
173 196 0
176 198 0
176 198 0
173 197 0
172 196 0
173 197 0
173 197 0
173 197 0
172 196 0
175 198 0
174 198 0
173 196 0
174 198 0
175 198 0
173 197 0
173 197 0
173 197 0
175 198 0
173 197 0
174 198 0
174 198 0
173 197 0
174 197 0
176 199 0
175 198 0
174 198 0
174 198 0
172 196 0
175 198 0
173 197 0
174 198 0
174 198 0
175 198 0
174 198 0
176 199 0
173 197 0
175 198 0
175 198 0
176 199 0
174 197 0
174 197 0
176 199 0
174 197 0
176 199 0
176 199 0
175 198 0
176 199 0
174 198 0
173 197 0
174 197 0
174 197 0
175 198 0
173 197 0
175 198 0
174 198 0
174 197 0
173 197 0
174 197 0
172 196 0
172 196 0
176 199 0
176 199 0
174 198 0
174 198 0
173 197 0
174 198 0
174 197 0
175 198 0
177 199 0
174 198 0
174 197 0
173 197 0
174 198 0
174 197 0
175 198 0
173 197 0
175 198 0
172 197 0
176 199 0
174 198 0
174 198 0
174 198 0
173 197 0
172 197 0
175 197 0
174 198 0
174 197 0
175 198 0
174 198 0
173 197 0
175 198 0
174 197 0
174 198 0
173 197 0
174 197 0
176 198 0
174 198 0
175 198 0
173 197 0
175 198 0
174 197 0
176 198 0
173 197 0
174 198 0
174 197 0
174 197 0
173 197 0
174 196 0
174 197 0
173 197 0
174 198 0
173 197 0
174 197 0
172 197 0
175 198 0
176 199 0
173 197 0
174 198 0
173 197 0
174 198 0
174 198 0
175 198 0
173 197 0
171 195 0
173 197 0
173 196 0
173 197 0
174 197 0
173 197 0
174 197 0
174 197 0
172 196 0
172 196 0
175 198 0
175 198 0
173 197 0
174 198 0
172 196 0
174 197 0
176 198 0
175 198 0
174 197 0
174 198 0
172 196 0
172 196 0
174 198 0
174 198 0
174 197 0
173 197 0
172 196 0
175 198 0
176 198 0
172 195 0
174 197 0
175 198 0
175 198 0
175 198 0
174 198 0
173 196 0
173 196 0
172 196 0
172 195 0
171 195 0
174 198 0
173 196 0
173 196 0
173 196 0
175 198 0
175 198 0
171 195 0
173 197 0
173 197 0
174 198 0
174 197 0
174 197 0
174 197 0
174 197 0
175 198 0
172 196 0
172 196 0
173 196 0
175 198 0
174 197 0
172 196 0
174 197 0
172 196 0
171 194 0
173 196 0
173 196 0
171 194 0
172 195 0
174 197 0
171 194 0
173 197 0
172 195 0
171 195 0
173 196 0
172 195 0
174 197 0
174 197 0
174 197 0
173 196 0
172 195 0
174 197 0
172 196 0
173 196 0
173 196 0
172 195 0
171 194 0
170 194 0
171 195 0
170 194 0
170 193 0
171 195 0
166 190 0
173 195 0
171 194 0
174 197 0
172 195 0
169 192 0
170 194 0
172 195 0
170 194 0
172 195 0
173 196 0
170 194 0
172 195 0
171 193 0
172 195 0
169 193 0
172 195 0
169 193 0
171 195 0
169 193 0
173 196 0
169 192 0
170 194 0
172 196 0
171 194 0
170 193 0
169 192 0
173 196 0
174 197 0
172 196 0
171 194 0
169 191 0
173 196 0
170 193 0
171 195 0
173 197 0
172 195 0
171 195 0
171 195 0
174 197 0
172 195 0
171 194 0
171 194 0
174 198 0
168 192 0
170 193 0
174 197 0
172 196 0
171 195 0
171 194 0
172 195 0
171 195 0
171 194 0
174 197 0
172 195 0
173 197 0
173 196 0
174 196 0
170 193 0
173 196 0
173 196 0
172 196 0
171 195 0
172 196 0
173 196 0
169 193 0
173 197 0
171 195 0
172 195 0
171 195 0
172 195 0
173 196 0
174 197 0
170 194 0
174 198 0
172 196 0
174 197 0
175 197 0
171 195 0
173 196 0
174 197 0
173 197 0
173 196 0
174 197 0
175 198 0
173 196 0
174 198 0
173 196 0
174 197 0
174 197 0
172 196 0
174 196 0
174 198 0
173 197 0
175 198 0
173 197 0
174 197 0
174 197 0
174 197 0
173 197 0
173 197 0
175 198 0
174 197 0
173 196 0
174 197 0
174 197 0
172 196 0
174 197 0
174 198 0
175 198 0
172 195 0
174 198 0
174 197 0
175 198 0
174 197 0
174 197 0
174 198 0
174 198 0
173 196 0
175 198 0
174 197 0
173 196 0
172 196 0
174 198 0
172 196 0
172 195 0
174 197 0
174 197 0
175 198 0
173 196 0
173 197 0
172 197 0
174 198 0
173 197 0
172 196 0
175 198 0
175 198 0
175 198 0
174 197 0
173 197 0
174 197 0
173 197 0
175 197 0
174 197 0
174 197 0
174 198 0
174 197 0
174 198 0
174 198 0
172 196 0
173 197 0
175 198 0
174 197 0
175 198 0
174 198 0
176 198 0
173 196 0
174 198 0
174 197 0
175 198 0
174 198 0
174 198 0
174 197 0
174 198 0
175 198 0
175 198 0
174 197 0
173 197 0
174 198 0
174 198 0
175 198 0
173 196 0
175 198 0
173 197 0
174 197 0
175 198 0
174 197 0
175 198 0
172 196 0
174 197 0
173 197 0
175 198 0
175 198 0
175 198 0
173 197 0
174 198 0
174 197 0
175 198 0
174 197 0
174 197 0
174 198 0
175 198 0
172 196 0
175 198 0
174 197 0
174 197 0
174 197 0
174 198 0
174 198 0
174 197 0
176 198 0
175 198 0
174 198 0
174 198 0
174 198 0
173 197 0
174 197 0
174 198 0
175 198 0
173 197 0
173 197 0
175 198 0
176 198 0
174 198 0
177 199 0
174 198 0
173 197 0
175 198 0
175 198 0
175 198 0
173 197 0
175 198 0
175 198 0
174 198 0
174 198 0
176 199 0
174 198 0
174 198 0
175 198 0
174 198 0
174 197 0
174 197 0
173 197 0
174 198 0
175 198 0
174 197 0
174 198 0
173 197 0
175 198 0
175 198 0
174 197 0
175 198 0
175 198 0
175 198 0
175 198 0
174 197 0
176 198 0
175 198 0
174 197 0
173 197 0
176 199 0
175 198 0
176 199 0
175 198 0
173 197 0
175 198 0
175 198 0
174 198 0
174 198 0
175 198 0
174 197 0
174 198 0
174 198 0
176 199 0
176 198 0
176 199 0
174 198 0
174 197 0
174 198 0
176 199 0
175 198 0
174 198 0
176 198 0
175 198 0
175 198 0
174 197 0
174 198 0
175 198 0
174 198 0
174 197 0
174 198 0
174 198 0
175 198 0
173 197 0
175 198 0
173 197 0
174 198 0
175 198 0
174 197 0
173 197 0
173 197 0
173 197 0
172 196 0
172 196 0
175 198 0
175 198 0
176 199 0
174 197 0
175 198 0
176 199 0
176 198 0
174 198 0
176 199 0
174 197 0
175 198 0
175 198 0
173 197 0
174 197 0
174 197 0
175 198 0
173 197 0
173 197 0
174 197 0
177 199 0
176 199 0
175 197 0
174 198 0
174 198 0
173 197 0
174 198 0
175 198 0
172 196 0
172 196 0
174 197 0
174 196 0
174 198 0
175 198 0
174 198 0
174 198 0
172 196 0
174 197 0
174 197 0
174 197 0
174 197 0
174 198 0
175 198 0
174 198 0
174 197 0
172 196 0
175 198 0
174 197 0
173 196 0
175 197 0
174 198 0
174 198 0
175 198 0
175 198 0
173 197 0
172 195 0
171 194 0
173 197 0
173 196 0
173 196 0
175 198 0
174 198 0
174 197 0
172 196 0
174 197 0
171 194 0
174 197 0
176 198 0
174 197 0
173 197 0
174 197 0
174 197 0
175 198 0
172 196 0
172 196 0
172 196 0
173 196 0
174 197 0
173 196 0
172 195 0
172 195 0
175 198 0
174 197 0
173 197 0
174 197 0
172 196 0
171 194 0
170 193 0
170 194 0
172 196 0
170 194 0
175 198 0
173 196 0
173 197 0
174 197 0
172 195 0
171 195 0
173 197 0
170 193 0
173 197 0
174 197 0
174 197 0
173 196 0
167 191 0
172 196 0
172 196 0
171 195 0
171 194 0
172 195 0
170 193 0
170 194 0
173 196 0
172 195 0
174 196 0
172 195 0
169 192 0
171 194 0
172 195 0
168 192 0
169 193 0
172 195 0
172 195 0
168 191 0
170 194 0
173 196 0
174 197 0
172 196 0
170 193 0
172 195 0
169 193 0
167 191 0
170 193 0
172 196 0
168 192 0
173 196 0
174 197 0
173 195 0
171 194 0
171 194 0
172 196 0
172 196 0
172 196 0
169 193 0
170 194 0
167 192 0
173 196 0
172 195 0
166 189 0
173 196 0
169 193 0
172 194 0
173 197 0
174 197 0
173 196 0
172 195 0
174 196 0
173 197 0
169 193 0
174 197 0
172 195 0
174 197 0
171 194 0
171 195 0
171 195 0
174 197 0
173 197 0
174 197 0
174 197 0
169 192 0
172 196 0
172 196 0
174 197 0
171 194 0
170 195 0
172 196 0
173 197 0
174 198 0
171 195 0
173 197 0
174 197 0
173 196 0
172 196 0
174 197 0
170 193 0
174 197 0
172 195 0
173 197 0
174 197 0
172 196 0
172 195 0
174 198 0
170 194 0
172 196 0
174 197 0
173 196 0
173 196 0
173 196 0
174 197 0
175 198 0
172 196 0
173 197 0
173 196 0
172 195 0
174 197 0
173 196 0
171 194 0
174 198 0
172 196 0
174 197 0
173 197 0
175 198 0
173 197 0
173 197 0
175 198 0
172 196 0
173 196 0
172 196 0
176 199 0
171 195 0
173 197 0
172 195 0
172 196 0
174 197 0
173 196 0
175 198 0
175 198 0
173 197 0
174 198 0
174 198 0
174 197 0
174 198 0
173 197 0
174 198 0
173 197 0
172 196 0
172 195 0
172 196 0
173 197 0
174 197 0
174 197 0
174 197 0
174 197 0
174 198 0
175 198 0
175 198 0
172 196 0
173 197 0
173 197 0
174 197 0
174 197 0
174 197 0
174 198 0
174 198 0
173 196 0
175 198 0
176 198 0
174 198 0
174 198 0
173 197 0
173 197 0
175 198 0
174 197 0
174 197 0
175 198 0
175 198 0
175 198 0
174 197 0
174 198 0
174 198 0
174 197 0
175 198 0
174 197 0
174 198 0
174 198 0
175 198 0
173 197 0
174 197 0
173 197 0
175 198 0
173 197 0
174 198 0
175 198 0
173 197 0
175 198 0
176 198 0
176 198 0
174 198 0
173 197 0
173 197 0
175 198 0
172 196 0
175 198 0
174 197 0
174 198 0
174 198 0
175 198 0
176 199 0
175 198 0
174 198 0
173 197 0
176 198 0
174 198 0
173 197 0
173 197 0
173 197 0
174 197 0
174 197 0
174 198 0
172 197 0
174 198 0
173 197 0
174 198 0
173 197 0
175 198 0
174 197 0
176 198 0
174 198 0
174 198 0
173 197 0
174 197 0
173 197 0
173 197 0
174 198 0
174 197 0
176 199 0
174 198 0
174 198 0
175 198 0
174 197 0
174 197 0
175 198 0
174 197 0
176 199 0
174 197 0
176 198 0
174 198 0
174 197 0
173 197 0
172 197 0
174 198 0
176 199 0
175 198 0
175 198 0
175 198 0
173 197 0
174 198 0
173 197 0
175 198 0
175 198 0
173 197 0
173 197 0
173 197 0
175 198 0
174 198 0
175 198 0
176 198 0
175 198 0
175 198 0
175 198 0
172 196 0
174 198 0
173 197 0
175 198 0
173 197 0
175 198 0
174 198 0
174 198 0
174 198 0
175 198 0
174 198 0
172 196 0
173 197 0
173 197 0
175 198 0
175 198 0
175 198 0
174 197 0
174 197 0
174 197 0
173 197 0
176 199 0
173 197 0
174 198 0
175 198 0
176 199 0
174 198 0
175 198 0
173 197 0
173 197 0
173 197 0
174 198 0
174 198 0
175 198 0
175 197 0
174 198 0
174 198 0
172 196 0
174 198 0
173 196 0
174 198 0
172 197 0
175 198 0
173 197 0
175 198 0
173 197 0
174 198 0
174 198 0
173 197 0
175 198 0
174 198 0
173 196 0
174 197 0
174 198 0
173 197 0
172 196 0
173 197 0
175 198 0
173 197 0
172 196 0
173 197 0
174 198 0
174 197 0
174 198 0
174 197 0
175 197 0
174 198 0
174 198 0
176 199 0
174 197 0
176 199 0
173 197 0
174 197 0
173 196 0
173 197 0
175 198 0
174 198 0
174 197 0
172 196 0
175 198 0
174 197 0
173 196 0
173 197 0
175 198 0
174 198 0
175 198 0
173 197 0
174 197 0
174 197 0
175 198 0
172 196 0
176 198 0
172 196 0
174 197 0
172 196 0
174 197 0
174 197 0
174 198 0
174 197 0
174 197 0
172 196 0
174 197 0
172 196 0
172 195 0
175 198 0
173 197 0
171 195 0
173 196 0
171 194 0
174 197 0
174 197 0
171 195 0
176 198 0
173 196 0
173 196 0
174 197 0
171 195 0
172 196 0
172 196 0
173 196 0
175 198 0
172 196 0
175 198 0
172 196 0
174 197 0
172 195 0
173 196 0
174 197 0
171 194 0
172 196 0
173 196 0
171 195 0
173 196 0
175 198 0
174 197 0
173 197 0
174 197 0
173 196 0
172 196 0
171 194 0
172 196 0
173 196 0
172 195 0
172 195 0
175 197 0
174 198 0
175 197 0
171 194 0
172 195 0
170 194 0
173 196 0
172 195 0
169 192 0
172 196 0
175 198 0
170 193 0
171 195 0
174 196 0
171 195 0
171 195 0
169 192 0
170 194 0
170 193 0
172 194 0
173 196 0
169 192 0
172 194 0
169 193 0
172 195 0
171 193 0
173 196 0
174 197 0
172 196 0
169 192 0
167 190 0
170 193 0
171 195 0
171 194 0
169 192 0
170 194 0
169 192 0
170 193 0
171 194 0
171 195 0
170 193 0
171 194 0
172 195 0
173 196 0
174 197 0
171 195 0
171 194 0
170 193 0
172 196 0
170 194 0
171 195 0
173 196 0
173 196 0
171 194 0
171 195 0
171 195 0
169 193 0
172 196 0
173 196 0
171 195 0
171 195 0
173 197 0
171 195 0
172 195 0
172 196 0
172 196 0
172 195 0
174 197 0
172 196 0
173 197 0
172 195 0
174 198 0
171 195 0
175 198 0
172 196 0
172 195 0
172 195 0
174 197 0
172 196 0
172 196 0
172 196 0
174 197 0
172 196 0
174 197 0
173 197 0
173 197 0
174 197 0
173 197 0
174 197 0
171 194 0
173 196 0
173 196 0
173 196 0
172 196 0
173 196 0
174 197 0
173 197 0
175 198 0
171 195 0
172 195 0
173 196 0
173 196 0
173 197 0
172 195 0
175 198 0
174 196 0
173 196 0
173 196 0
174 197 0
177 199 0
174 198 0
174 197 0
175 198 0
173 197 0
175 198 0
174 197 0
170 195 0
174 198 0
172 196 0
175 198 0
173 197 0
173 196 0
174 198 0
173 197 0
175 198 0
172 197 0
172 196 0
175 198 0
174 197 0
175 198 0
175 198 0
173 196 0
175 198 0
173 197 0
173 197 0
172 197 0
173 197 0
172 196 0
174 198 0
174 198 0
171 195 0
175 198 0
174 198 0
174 198 0
174 197 0
174 197 0
173 197 0
172 194 0
175 198 0
173 197 0
174 198 0
173 196 0
174 197 0
175 198 0
173 196 0
175 198 0
174 197 0
176 198 0
174 198 0
173 197 0
174 197 0
174 198 0
174 197 0
174 198 0
174 197 0
172 197 0
174 198 0
175 198 0
177 199 0
175 198 0
174 198 0
173 197 0
175 198 0
175 198 0
176 198 0
175 198 0
176 198 0
175 198 0
175 198 0
176 198 0
175 198 0
175 198 0
175 198 0
174 197 0
175 198 0
174 198 0
174 198 0
173 197 0
175 198 0
175 198 0
173 197 0
173 197 0
176 199 0
175 198 0
174 197 0
176 199 0
175 198 0
176 198 0
174 197 0
176 199 0
173 197 0
175 198 0
174 198 0
173 197 0
176 199 0
175 198 0
174 198 0
173 197 0
173 197 0
173 197 0
172 196 0
175 198 0
174 198 0
173 197 0
175 198 0
176 199 0
173 197 0
175 198 0
174 197 0
174 197 0
174 197 0
174 198 0
175 198 0
176 199 0
175 198 0
174 198 0
174 198 0
173 197 0
175 198 0
175 198 0
174 198 0
175 198 0
174 198 0
174 197 0
173 197 0
174 198 0
175 198 0
174 198 0
173 197 0
175 198 0
175 198 0
174 198 0
176 198 0
174 198 0
174 198 0
173 197 0
174 198 0
174 197 0
173 197 0
175 198 0
173 197 0
174 198 0
175 198 0
175 198 0
174 197 0
174 198 0
174 198 0
176 199 0
174 198 0
176 198 0
174 198 0
175 198 0
173 197 0
174 198 0
175 198 0
175 198 0
173 197 0
174 198 0
176 199 0
175 198 0
174 198 0
175 198 0
174 198 0
173 197 0
174 197 0
173 197 0
175 198 0
173 197 0
174 197 0
175 198 0
174 198 0
174 198 0
174 197 0
176 199 0
173 197 0
176 198 0
173 197 0
175 198 0
174 197 0
174 198 0
172 196 0
174 197 0
175 198 0
173 197 0
174 197 0
173 197 0
173 197 0
174 197 0
175 198 0
172 196 0
175 198 0
173 197 0
174 197 0
174 197 0
173 197 0
175 198 0
173 197 0
175 198 0
173 197 0
173 196 0
175 198 0
175 198 0
174 197 0
174 198 0
175 198 0
174 197 0
174 197 0
175 198 0
174 197 0
175 198 0
175 198 0
175 198 0
175 198 0
174 197 0
175 198 0
173 197 0
174 197 0
173 197 0
174 197 0
174 197 0
173 196 0
173 197 0
173 197 0
173 196 0
174 198 0
175 198 0
172 196 0
173 197 0
173 197 0
173 196 0
173 197 0
171 196 0
173 196 0
173 197 0
173 197 0
175 198 0
175 197 0
175 198 0
174 198 0
173 197 0
173 196 0
174 198 0
173 196 0
172 196 0
174 197 0
172 196 0
174 198 0
175 198 0
169 193 0
172 196 0
174 198 0
173 197 0
171 195 0
173 197 0
173 196 0
171 194 0
174 197 0
172 196 0
170 195 0
177 199 0
173 197 0
173 197 0
173 197 0
172 195 0
172 195 0
173 196 0
175 198 0
172 196 0
172 195 0
171 195 0
169 194 0
173 197 0
174 197 0
175 198 0
171 194 0
173 196 0
172 196 0
172 195 0
173 197 0
173 196 0
172 196 0
171 194 0
174 197 0
173 196 0
174 197 0
172 196 0
171 195 0
169 192 0
173 195 0
174 197 0
171 194 0
173 196 0
171 194 0
171 195 0
174 197 0
175 198 0
171 194 0
171 193 0
173 196 0
170 194 0
172 195 0
172 196 0
172 196 0
171 195 0
171 195 0
174 197 0
172 195 0
170 194 0
172 195 0
173 197 0
166 189 0
174 197 0
170 193 0
172 195 0
172 196 0
171 195 0
172 196 0
173 196 0
171 195 0
173 196 0
168 191 0
167 191 0
167 191 0
173 196 0
171 195 0
170 193 0
167 191 0
173 196 0
170 194 0
174 197 0
169 193 0
171 195 0
172 196 0
171 194 0
171 195 0
172 196 0
174 197 0
172 195 0
171 195 0
170 194 0
172 196 0
172 195 0
174 197 0
172 196 0
172 195 0
172 195 0
172 194 0
172 195 0
172 195 0
170 195 0
174 197 0
173 196 0
168 192 0
174 197 0
172 195 0
174 198 0
171 195 0
174 197 0
173 196 0
173 196 0
174 196 0
169 192 0
174 198 0
174 197 0
171 193 0
175 198 0
172 196 0
175 198 0
175 198 0
173 197 0
172 195 0
172 195 0
174 197 0
172 196 0
173 196 0
173 197 0
174 197 0
175 198 0
173 196 0
174 197 0
176 198 0
172 195 0
172 196 0
175 197 0
171 195 0
173 196 0
171 195 0
173 196 0
171 195 0
175 197 0
174 197 0
175 198 0
175 198 0
175 197 0
174 196 0
173 197 0
173 196 0
174 197 0
174 198 0
173 196 0
173 197 0
174 198 0
173 197 0
170 194 0
173 197 0
171 195 0
172 196 0
173 197 0
174 197 0
174 197 0
174 198 0
174 197 0
173 197 0
174 197 0
174 197 0
176 199 0
172 196 0
175 197 0
172 196 0
174 197 0
174 198 0
175 198 0
173 197 0
172 196 0
174 197 0
173 197 0
173 197 0
175 198 0
174 197 0
174 197 0
175 198 0
175 197 0
174 197 0
176 198 0
175 198 0
173 197 0
173 196 0
175 198 0
173 197 0
174 197 0
174 197 0
175 198 0
173 197 0
172 197 0
172 196 0
174 197 0
173 197 0
173 197 0
175 198 0
175 197 0
175 198 0
174 198 0
174 197 0
174 198 0
175 198 0
169 193 0
174 198 0
173 197 0
173 197 0
174 197 0
174 198 0
174 197 0
174 198 0
173 197 0
173 197 0
174 198 0
177 199 0
174 198 0
173 197 0
175 198 0
175 198 0
174 198 0
174 197 0
175 198 0
173 197 0
173 197 0
174 198 0
173 197 0
173 197 0
174 197 0
175 198 0
174 198 0
172 196 0
176 198 0
175 198 0
175 198 0
175 198 0
174 198 0
177 199 0
174 198 0
173 197 0
174 197 0
175 198 0
175 198 0
174 198 0
175 198 0
173 197 0
174 198 0
174 198 0
174 197 0
175 198 0
174 197 0
175 198 0
173 196 0
174 198 0
175 198 0
176 198 0
173 197 0
174 197 0
175 198 0
174 198 0
174 197 0
174 198 0
175 198 0
172 197 0
176 199 0
173 197 0
173 197 0
174 197 0
176 198 0
174 198 0
173 197 0
174 198 0
174 197 0
175 198 0
174 198 0
177 199 0
175 198 0
174 198 0
174 198 0
173 197 0
174 197 0
175 198 0
176 199 0
174 197 0
174 198 0
174 198 0
174 198 0
174 197 0
174 197 0
175 198 0
174 197 0
175 198 0
173 197 0
175 198 0
175 198 0
173 197 0
173 197 0
174 197 0
173 197 0
174 197 0
175 198 0
175 198 0
173 197 0
175 198 0
175 198 0
174 198 0
173 197 0
176 199 0
173 197 0
173 197 0
173 197 0
175 198 0
173 197 0
173 197 0
174 197 0
175 198 0
173 197 0
175 198 0
173 197 0
172 196 0
174 198 0
173 197 0
174 198 0
175 198 0
174 197 0
172 196 0
173 197 0
176 199 0
174 198 0
174 197 0
174 198 0
174 197 0
174 198 0
173 197 0
174 198 0
176 199 0
176 199 0
174 197 0
173 197 0
175 198 0
174 197 0
173 197 0
174 197 0
174 197 0
172 196 0
174 197 0
173 197 0
173 197 0
174 198 0
174 197 0
174 197 0
174 197 0
175 198 0
174 197 0
175 198 0
173 196 0
173 197 0
174 198 0
172 196 0
173 197 0
174 197 0
174 197 0
175 198 0
173 197 0
172 196 0
173 197 0
173 197 0
175 198 0
174 198 0
174 198 0
175 198 0
175 198 0
175 198 0
174 197 0
175 198 0
175 198 0
173 196 0
174 197 0
173 197 0
172 196 0
173 197 0
173 197 0
171 196 0
176 199 0
173 196 0
174 197 0
174 198 0
173 196 0
174 197 0
174 197 0
174 197 0
174 197 0
174 197 0
172 196 0
174 198 0
174 197 0
173 197 0
173 197 0
171 195 0
172 196 0
175 198 0
174 197 0
173 197 0
169 193 0
172 196 0
173 196 0
173 197 0
172 196 0
173 196 0
174 197 0
174 197 0
174 197 0
171 195 0
173 197 0
173 196 0
169 194 0
176 199 0
172 196 0
174 197 0
173 196 0
169 193 0
170 193 0
173 196 0
173 197 0
175 198 0
170 194 0
171 194 0
174 197 0
172 195 0
172 195 0
172 195 0
171 194 0
173 196 0
174 197 0
171 194 0
174 197 0
173 196 0
170 193 0
170 193 0
173 196 0
172 195 0
174 197 0
173 196 0
172 195 0
170 193 0
168 192 0
170 194 0
170 193 0
172 195 0
173 196 0
170 193 0
172 195 0
172 195 0
171 194 0
172 196 0
170 194 0
170 194 0
170 194 0
173 196 0
172 194 0
171 194 0
172 196 0
171 194 0
171 194 0
172 196 0
170 193 0
172 196 0
172 196 0
171 194 0
171 195 0
171 194 0
172 196 0
173 196 0
171 195 0
172 196 0
169 192 0
170 194 0
172 196 0
171 195 0
170 195 0
173 196 0
168 191 0
170 194 0
172 195 0
173 195 0
174 196 0
172 195 0
171 195 0
171 195 0
172 196 0
172 196 0
170 194 0
174 198 0
173 197 0
173 196 0
172 195 0
173 196 0
171 194 0
173 196 0
171 194 0
175 198 0
172 196 0
170 194 0
173 197 0
170 195 0
173 196 0
172 195 0
173 196 0
174 197 0
173 196 0
172 197 0
172 196 0
171 196 0
175 197 0
173 196 0
172 195 0
173 196 0
174 197 0
172 195 0
174 198 0
174 197 0
171 194 0
173 196 0
172 195 0
174 197 0
173 197 0
173 197 0
173 196 0
173 195 0
174 197 0
172 195 0
171 195 0
174 197 0
174 196 0
172 195 0
174 197 0
172 196 0
175 198 0
175 198 0
173 196 0
175 198 0
175 198 0
173 196 0
174 197 0
174 197 0
176 199 0
173 197 0
173 196 0
172 195 0
174 197 0
175 198 0
172 196 0
174 197 0
175 198 0
175 198 0
175 198 0
174 197 0
175 198 0
175 198 0
173 197 0
174 198 0
173 197 0
174 197 0
172 196 0
174 197 0
173 197 0
174 198 0
172 196 0
175 198 0
174 197 0
174 197 0
173 197 0
173 197 0
175 198 0
174 198 0
173 197 0
175 198 0
175 198 0
174 197 0
174 197 0
173 196 0
175 198 0
174 197 0
174 197 0
174 197 0
175 198 0
174 198 0
174 197 0
173 197 0
175 198 0
175 198 0
175 198 0
174 197 0
174 197 0
174 198 0
175 198 0
172 196 0
176 198 0
175 198 0
173 197 0
174 198 0
174 197 0
175 198 0
174 197 0
174 198 0
174 197 0
175 198 0
174 198 0
174 197 0
174 198 0
174 198 0
176 198 0
174 198 0
175 198 0
173 196 0
175 198 0
174 197 0
173 197 0
175 198 0
174 197 0
175 198 0
171 195 0
174 197 0
174 198 0
174 198 0
173 197 0
173 197 0
177 199 0
175 198 0
174 197 0
175 198 0
175 198 0
174 198 0
174 197 0
173 197 0
175 198 0
175 198 0
173 197 0
174 198 0
173 197 0
175 198 0
175 198 0
174 198 0
173 197 0
174 197 0
175 198 0
173 197 0
174 197 0
174 197 0
174 198 0
173 197 0
174 197 0
176 198 0
175 198 0
174 198 0
176 199 0
173 197 0
174 198 0
176 199 0
174 197 0
175 198 0
174 198 0
175 198 0
174 198 0
175 198 0
174 198 0
176 199 0
174 198 0
174 197 0
175 198 0
174 198 0
177 199 0
175 198 0
175 198 0
175 198 0
174 198 0
175 198 0
175 198 0
173 197 0
173 197 0
175 198 0
175 198 0
175 198 0
176 198 0
175 198 0
173 197 0
176 198 0
174 197 0
173 197 0
173 197 0
173 197 0
173 197 0
175 198 0
176 198 0
175 198 0
175 198 0
173 197 0
173 197 0
173 197 0
175 198 0
174 198 0
173 197 0
175 198 0
174 198 0
176 199 0
174 197 0
174 198 0
175 198 0
172 196 0
174 198 0
174 198 0
174 198 0
173 197 0
175 198 0
174 198 0
175 198 0
174 197 0
173 197 0
175 198 0
174 197 0
174 197 0
176 199 0
174 198 0
174 197 0
175 198 0
173 197 0
175 198 0
175 197 0
174 197 0
173 197 0
175 198 0
174 198 0
173 197 0
173 197 0
174 197 0
174 198 0
174 198 0
175 198 0
174 198 0
173 197 0
176 198 0
174 197 0
173 196 0
172 196 0
174 197 0
174 198 0
174 198 0
173 197 0
174 198 0
173 197 0
173 197 0
173 197 0
176 198 0
173 197 0
173 197 0
173 197 0
175 198 0
175 198 0
172 197 0
170 194 0
175 198 0
173 197 0
172 196 0
173 196 0
173 197 0
174 197 0
175 198 0
173 197 0
175 198 0
176 199 0
173 196 0
174 197 0
172 196 0
174 197 0
175 198 0
174 198 0
173 196 0
175 198 0
173 197 0
173 197 0
173 196 0
172 196 0
175 198 0
175 198 0
175 198 0
173 197 0
172 196 0
173 197 0
173 197 0
171 195 0
175 198 0
173 196 0
173 196 0
172 196 0
174 197 0
172 196 0
176 198 0
173 196 0
175 198 0
173 197 0
172 196 0
174 197 0
173 196 0
174 198 0
174 197 0
173 197 0
175 198 0
169 193 0
173 197 0
175 198 0
173 197 0
171 195 0
172 196 0
173 196 0
172 196 0
174 197 0
174 197 0
173 196 0
172 196 0
173 197 0
174 197 0
173 197 0
174 197 0
174 197 0
172 195 0
175 198 0
172 195 0
172 195 0
172 195 0
173 196 0
173 197 0
173 196 0
172 196 0
173 197 0
171 194 0
175 198 0
172 195 0
172 195 0
174 197 0
172 195 0
173 196 0
171 194 0
171 195 0
172 196 0
171 195 0
173 196 0
172 196 0
171 194 0
173 196 0
174 197 0
171 195 0
175 198 0
173 196 0
169 192 0
168 191 0
173 196 0
172 196 0
171 195 0
173 196 0
172 195 0
174 197 0
170 194 0
170 193 0
174 197 0
172 196 0
172 195 0
173 196 0
173 196 0
171 195 0
170 193 0
173 196 0
170 193 0
168 193 0
170 194 0
171 195 0
171 195 0
171 195 0
171 194 0
173 195 0
170 195 0
174 197 0
170 194 0
173 197 0
175 197 0
171 195 0
172 196 0
173 196 0
173 197 0
174 197 0
172 196 0
170 194 0
170 193 0
168 191 0
174 197 0
173 196 0
173 196 0
172 196 0
172 196 0
172 195 0
173 195 0
172 195 0
174 197 0
174 197 0
174 197 0
170 194 0
171 194 0
174 196 0
173 196 0
174 197 0
173 196 0
173 197 0
173 197 0
173 197 0
171 195 0
175 198 0
171 194 0
173 196 0
172 195 0
172 195 0
174 197 0
172 196 0
173 196 0
174 197 0
171 195 0
174 196 0
175 197 0
172 195 0
174 197 0
174 197 0
175 198 0
173 196 0
173 197 0
175 198 0
173 197 0
174 197 0
173 196 0
172 196 0
176 198 0
174 197 0
174 197 0
174 197 0
175 197 0
174 197 0
172 196 0
173 196 0
173 196 0
173 197 0
174 198 0
174 198 0
170 193 0
174 197 0
173 196 0
173 197 0
175 198 0
174 197 0
175 198 0
173 197 0
172 195 0
174 198 0
172 196 0
174 197 0
172 196 0
173 197 0
173 196 0
174 197 0
174 197 0
172 196 0
175 198 0
172 196 0
173 196 0
175 198 0
176 198 0
174 197 0
173 197 0
174 197 0
173 197 0
174 197 0
174 197 0
176 199 0
174 196 0
174 197 0
171 196 0
176 198 0
174 198 0
175 198 0
174 198 0
174 198 0
174 198 0
175 198 0
172 196 0
175 198 0
173 197 0
176 198 0
174 197 0
173 197 0
173 196 0
173 197 0
175 198 0
174 198 0
173 197 0
175 198 0
173 197 0
172 196 0
172 196 0
174 198 0
175 198 0
175 198 0
174 198 0
173 197 0
174 197 0
173 197 0
175 198 0
173 197 0
173 197 0
175 198 0
175 198 0
175 198 0
173 197 0
175 198 0
175 198 0
175 198 0
173 196 0
173 197 0
176 199 0
173 196 0
174 198 0
173 197 0
175 198 0
176 199 0
176 198 0
175 198 0
173 197 0
174 198 0
176 198 0
173 197 0
173 197 0
176 199 0
172 196 0
176 198 0
174 198 0
174 197 0
173 197 0
172 197 0
176 199 0
173 197 0
174 198 0
176 199 0
174 198 0
174 198 0
175 198 0
175 198 0
174 198 0
174 197 0
175 198 0
174 198 0
174 198 0
173 197 0
175 198 0
174 198 0
174 198 0
175 198 0
174 198 0
175 198 0
176 199 0
174 198 0
174 197 0
175 198 0
172 196 0
174 198 0
175 198 0
174 198 0
175 198 0
173 197 0
174 198 0
173 197 0
174 198 0
176 198 0
173 197 0
175 198 0
175 198 0
174 198 0
174 198 0
176 199 0
174 198 0
173 197 0
174 198 0
175 198 0
173 197 0
174 197 0
174 197 0
174 197 0
172 196 0
174 198 0
173 197 0
175 198 0
173 197 0
175 198 0
174 198 0
175 198 0
175 198 0
175 198 0
173 196 0
175 198 0
175 198 0
174 197 0
175 198 0
175 198 0
175 198 0
174 197 0
174 197 0
174 198 0
175 198 0
175 198 0
175 198 0
174 198 0
173 197 0
175 198 0
175 198 0
175 198 0
174 198 0
175 198 0
175 198 0
174 198 0
172 196 0
174 197 0
174 197 0
175 198 0
174 198 0
174 197 0
173 197 0
174 198 0
175 198 0
173 197 0
174 197 0
175 198 0
173 197 0
173 197 0
173 197 0
174 198 0
174 197 0
173 197 0
174 198 0
173 197 0
173 197 0
174 198 0
175 198 0
174 198 0
175 198 0
174 198 0
174 197 0
173 197 0
175 198 0
174 197 0
174 198 0
174 197 0
173 196 0
173 197 0
173 197 0
174 197 0
173 196 0
173 197 0
172 196 0
176 198 0
174 197 0
174 197 0
173 197 0
174 198 0
175 198 0
172 195 0
174 197 0
172 196 0
172 196 0
173 196 0
174 197 0
173 196 0
173 197 0
172 195 0
173 197 0
172 196 0
173 197 0
173 197 0
174 198 0
175 198 0
175 198 0
174 198 0
174 198 0
173 197 0
174 197 0
173 197 0
173 196 0
173 196 0
172 195 0
175 198 0
175 198 0
172 196 0
175 198 0
173 196 0
174 197 0
174 197 0
174 197 0
171 195 0
173 196 0
174 197 0
174 197 0
173 197 0
174 197 0
173 197 0
174 197 0
173 197 0
173 197 0
173 197 0
171 195 0
173 196 0
173 196 0
176 198 0
174 197 0
176 198 0
173 196 0
174 197 0
174 197 0
172 195 0
175 197 0
173 196 0
173 197 0
175 198 0
174 197 0
174 197 0
173 196 0
173 196 0
172 196 0
171 195 0
172 196 0
174 198 0
171 194 0
172 196 0
174 197 0
172 196 0
173 196 0
173 196 0
173 196 0
172 195 0
170 194 0
170 194 0
173 196 0
173 196 0
168 192 0
173 196 0
172 196 0
170 194 0
171 194 0
172 196 0
172 196 0
172 195 0
172 195 0
172 196 0
171 195 0
173 196 0
174 197 0
173 197 0
170 193 0
171 194 0
173 196 0
172 195 0
170 194 0
170 194 0
172 196 0
170 194 0
170 193 0
171 195 0
170 194 0
171 194 0
173 195 0
174 197 0
172 195 0
172 195 0
172 195 0
169 193 0
175 198 0
175 197 0
173 197 0
169 192 0
170 194 0
171 195 0
173 196 0
172 196 0
174 197 0
172 195 0
173 196 0
172 196 0
174 197 0
170 194 0
169 193 0
170 194 0
173 197 0
173 196 0
172 196 0
175 198 0
172 195 0
173 196 0
174 197 0
170 193 0
172 195 0
173 196 0
172 196 0
170 193 0
173 197 0
172 195 0
172 196 0
174 198 0
173 197 0
171 195 0
172 195 0
171 195 0
173 197 0
175 197 0
174 196 0
171 195 0
173 197 0
174 197 0
173 197 0
174 197 0
174 197 0
175 198 0
171 195 0
175 197 0
174 197 0
171 195 0
174 196 0
173 196 0
172 195 0
174 197 0
174 197 0
175 198 0
175 198 0
175 198 0
175 198 0
173 197 0
175 198 0
174 197 0
170 194 0
173 197 0
172 196 0
174 197 0
173 196 0
174 197 0
173 197 0
173 196 0
174 196 0
173 196 0
173 196 0
173 197 0
174 197 0
174 198 0
172 196 0
172 196 0
173 196 0
175 197 0
174 197 0
173 197 0
174 197 0
174 197 0
172 196 0
172 196 0
175 198 0
174 197 0
174 198 0
173 197 0
173 196 0
175 198 0
173 197 0
173 197 0
174 197 0
173 197 0
173 197 0
174 197 0
175 198 0
174 198 0
173 197 0
174 197 0
174 197 0
175 198 0
174 197 0
176 198 0
173 196 0
173 197 0
173 197 0
175 198 0
174 197 0
175 198 0
174 198 0
173 197 0
175 198 0
174 198 0
175 198 0
173 197 0
175 198 0
173 197 0
175 198 0
173 197 0
177 199 0
174 197 0
174 198 0
173 197 0
174 196 0
174 197 0
174 198 0
173 197 0
174 197 0
173 197 0
173 197 0
175 198 0
173 197 0
174 197 0
174 198 0
174 198 0
174 197 0
175 198 0
174 198 0
173 197 0
174 198 0
174 197 0
175 198 0
174 198 0
173 197 0
174 198 0
175 198 0
174 197 0
174 197 0
174 198 0
175 198 0
176 198 0
175 198 0
174 198 0
174 198 0
173 197 0
174 197 0
174 198 0
175 198 0
176 199 0
174 198 0
173 197 0
174 198 0
174 198 0
174 198 0
174 198 0
175 198 0
174 198 0
175 198 0
173 197 0
175 198 0
174 198 0
174 198 0
175 198 0
172 196 0
174 198 0
175 198 0
175 198 0
175 198 0
173 197 0
174 198 0
176 199 0
174 198 0
174 197 0
173 197 0
175 198 0
175 198 0
175 198 0
174 198 0
173 197 0
173 197 0
174 198 0
174 198 0
175 198 0
174 197 0
174 197 0
175 198 0
174 198 0
174 198 0
175 198 0
173 197 0
175 198 0
174 197 0
173 196 0
176 198 0
173 197 0
176 198 0
173 197 0
174 198 0
175 198 0
174 198 0
174 197 0
175 198 0
175 198 0
173 197 0
174 198 0
173 197 0
175 198 0
172 196 0
174 198 0
173 196 0
174 197 0
172 197 0
173 196 0
173 197 0
174 198 0
175 198 0
175 198 0
175 198 0
174 198 0
174 198 0
175 198 0
173 197 0
175 198 0
175 198 0
174 197 0
173 197 0
175 198 0
174 197 0
173 197 0
173 196 0
175 198 0
175 198 0
174 197 0
173 196 0
175 198 0
174 197 0
174 197 0
175 198 0
173 196 0
174 197 0
176 198 0
174 198 0
174 197 0
174 198 0
173 197 0
174 198 0
173 197 0
173 197 0
174 198 0
174 197 0
175 198 0
172 197 0
174 197 0
173 197 0
175 198 0
174 198 0
176 199 0
172 197 0
176 198 0
174 197 0
174 198 0
174 198 0
173 196 0
173 196 0
174 197 0
175 198 0
173 197 0
174 198 0
172 196 0
175 198 0
175 198 0
175 198 0
174 198 0
175 198 0
172 196 0
172 197 0
174 198 0
176 199 0
177 199 0
174 197 0
173 196 0
172 196 0
173 197 0
174 198 0
174 198 0
174 198 0
176 198 0
172 196 0
176 199 0
173 197 0
173 196 0
175 198 0
174 197 0
174 197 0
175 198 0
175 198 0
174 197 0
175 198 0
174 197 0
174 197 0
173 197 0
173 197 0
174 197 0
174 198 0
173 197 0
173 197 0
171 195 0
172 197 0
174 197 0
173 196 0
172 195 0
174 197 0
174 198 0
173 197 0
174 197 0
171 195 0
173 196 0
174 197 0
173 196 0
174 197 0
174 197 0
173 197 0
173 197 0
172 196 0
171 194 0
173 196 0
174 197 0
173 197 0
173 197 0
173 197 0
174 197 0
173 196 0
174 197 0
174 198 0
173 196 0
174 197 0
176 198 0
171 195 0
171 194 0
172 195 0
173 196 0
173 197 0
172 196 0
171 196 0
174 197 0
172 195 0
173 197 0
172 196 0
171 196 0
174 197 0
172 196 0
169 193 0
170 194 0
171 194 0
174 197 0
172 196 0
173 197 0
171 195 0
172 195 0
171 195 0
173 196 0
171 194 0
171 195 0
173 196 0
172 195 0
171 196 0
171 194 0
170 193 0
169 193 0
172 195 0
171 195 0
173 197 0
169 193 0
172 196 0
170 193 0
172 195 0
173 197 0
172 195 0
168 192 0
173 197 0
172 195 0
171 195 0
172 195 0
170 194 0
172 196 0
172 195 0
172 195 0
172 194 0
173 196 0
173 196 0
172 195 0
170 194 0
172 195 0
172 195 0
173 196 0
173 196 0
173 195 0
170 193 0
169 193 0
171 194 0
173 197 0
171 195 0
169 193 0
172 196 0
170 194 0
171 195 0
172 196 0
171 195 0
171 194 0
172 195 0
171 195 0
173 196 0
174 197 0
173 196 0
173 197 0
172 196 0
171 194 0
174 197 0
172 195 0
170 194 0
172 195 0
173 196 0
173 195 0
173 196 0
174 197 0
174 197 0
172 196 0
175 198 0
173 196 0
172 195 0
172 195 0
173 196 0
173 197 0
174 197 0
174 197 0
173 197 0
173 196 0
173 196 0
172 196 0
174 197 0
173 197 0
173 196 0
173 197 0
172 196 0
174 197 0
175 198 0
175 198 0
174 197 0
174 197 0
171 195 0
172 196 0
175 198 0
173 197 0
173 197 0
173 196 0
173 197 0
176 198 0
175 198 0
173 196 0
174 197 0
173 197 0
174 197 0
174 198 0
175 198 0
173 197 0
173 197 0
174 198 0
174 197 0
173 196 0
173 197 0
174 197 0
174 197 0
172 196 0
174 198 0
172 196 0
174 198 0
175 197 0
173 196 0
173 197 0
172 195 0
173 196 0
173 197 0
174 197 0
173 197 0
174 197 0
174 197 0
175 198 0
175 198 0
174 197 0
174 197 0
175 198 0
173 197 0
175 198 0
173 197 0
174 197 0
173 197 0
175 198 0
173 197 0
172 197 0
174 197 0
173 197 0
174 198 0
175 198 0
176 198 0
173 197 0
175 198 0
173 197 0
173 197 0
175 197 0
174 198 0
175 198 0
175 198 0
175 198 0
173 197 0
174 197 0
175 198 0
174 198 0
175 198 0
174 198 0
172 196 0
175 198 0
176 198 0
175 198 0
173 197 0
172 196 0
174 198 0
175 198 0
175 198 0
175 198 0
175 198 0
174 197 0
174 197 0
174 197 0
173 197 0
174 197 0
173 197 0
175 198 0
174 198 0
176 198 0
175 198 0
174 197 0
176 199 0
172 196 0
175 198 0
176 199 0
174 197 0
175 198 0
173 197 0
175 198 0
173 197 0
174 198 0
174 197 0
173 197 0
174 198 0
175 198 0
174 198 0
175 198 0
174 197 0
173 197 0
175 198 0
174 198 0
174 198 0
174 198 0
173 197 0
174 198 0
173 197 0
173 197 0
175 198 0
174 197 0
176 198 0
175 198 0
173 197 0
176 199 0
174 197 0
174 198 0
175 198 0
175 198 0
175 198 0
174 197 0
173 197 0
174 197 0
173 196 0
173 197 0
174 198 0
175 198 0
174 198 0
174 198 0
175 198 0
175 198 0
176 199 0
175 198 0
175 198 0
174 197 0
174 198 0
174 197 0
174 198 0
173 197 0
175 198 0
173 196 0
173 197 0
174 197 0
174 197 0
174 197 0
173 197 0
174 198 0
175 198 0
174 197 0
174 198 0
174 197 0
174 198 0
174 198 0
172 197 0
173 197 0
174 198 0
173 197 0
177 199 0
173 197 0
175 198 0
175 198 0
176 198 0
174 197 0
174 197 0
174 197 0
172 196 0
174 198 0
174 197 0
173 197 0
174 198 0
175 197 0
175 198 0
175 198 0
174 197 0
173 197 0
175 198 0
174 198 0
175 198 0
173 197 0
173 197 0
172 196 0
173 197 0
175 198 0
176 198 0
175 198 0
173 197 0
174 198 0
175 198 0
174 198 0
174 198 0
173 197 0
174 198 0
175 198 0
173 197 0
172 197 0
175 198 0
174 197 0
175 198 0
174 198 0
174 198 0
173 197 0
174 198 0
173 196 0
174 198 0
173 196 0
174 197 0
173 197 0
174 197 0
174 197 0
172 196 0
172 196 0
175 198 0
174 198 0
176 198 0
173 197 0
175 198 0
174 197 0
173 197 0
172 196 0
174 198 0
173 197 0
174 197 0
172 196 0
175 198 0
172 196 0
175 198 0
175 198 0
174 197 0
174 198 0
175 198 0
174 197 0
172 196 0
173 196 0
174 197 0
175 198 0
174 198 0
173 197 0
175 198 0
173 197 0
173 197 0
173 197 0
174 198 0
171 195 0
174 197 0
173 197 0
174 198 0
174 198 0
174 197 0
173 197 0
173 197 0
173 197 0
173 197 0
173 197 0
171 195 0
173 197 0
172 196 0
174 197 0
170 194 0
176 198 0
172 196 0
174 198 0
174 197 0
172 195 0
172 196 0
171 195 0
174 197 0
174 197 0
172 195 0
173 196 0
173 197 0
173 196 0
174 197 0
175 198 0
174 197 0
175 198 0
175 198 0
173 197 0
176 198 0
174 197 0
173 197 0
174 198 0
174 197 0
173 197 0
171 194 0
173 196 0
174 197 0
170 193 0
173 197 0
173 197 0
172 196 0
173 196 0
173 197 0
173 196 0
173 196 0
170 194 0
173 197 0
172 196 0
173 196 0
172 195 0
170 194 0
175 198 0
170 193 0
172 196 0
174 198 0
173 196 0
170 194 0
172 196 0
171 194 0
172 195 0
171 195 0
172 195 0
173 197 0
171 194 0
175 197 0
173 196 0
173 196 0
171 195 0
174 196 0
173 197 0
173 195 0
170 194 0
168 192 0
172 195 0
168 192 0
172 196 0
169 193 0
173 197 0
171 196 0
170 194 0
168 192 0
174 197 0
173 195 0
172 195 0
174 197 0
172 195 0
170 194 0
174 198 0
170 193 0
171 194 0
173 196 0
174 197 0
170 194 0
174 197 0
174 197 0
171 194 0
172 196 0
172 196 0
172 196 0
172 195 0
172 196 0
173 196 0
173 197 0
174 197 0
172 195 0
172 196 0
174 197 0
173 197 0
172 195 0
174 198 0
173 197 0
174 198 0
172 195 0
171 195 0
170 193 0
170 195 0
173 197 0
173 197 0
174 197 0
174 197 0
173 196 0
173 197 0
172 196 0
172 195 0
171 195 0
171 195 0
172 196 0
173 196 0
174 197 0
172 196 0
173 195 0
171 195 0
173 195 0
172 195 0
173 197 0
174 197 0
172 194 0
172 196 0
175 198 0
174 197 0
175 198 0
175 198 0
173 197 0
175 198 0
172 195 0
173 197 0
175 198 0
173 196 0
175 198 0
173 197 0
174 197 0
173 197 0
172 196 0
174 198 0
174 197 0
174 197 0
175 198 0
173 196 0
173 197 0
173 196 0
174 198 0
175 198 0
175 198 0
173 196 0
175 198 0
176 199 0
175 198 0
175 198 0
174 197 0
174 197 0
175 197 0
173 196 0
176 199 0
172 195 0
173 196 0
175 198 0
173 197 0
175 198 0
174 198 0
174 197 0
174 198 0
173 197 0
174 197 0
173 196 0
176 198 0
174 197 0
175 198 0
175 198 0
174 197 0
173 197 0
174 198 0
173 197 0
173 197 0
174 198 0
175 198 0
176 198 0
174 198 0
173 197 0
176 199 0
175 198 0
171 195 0
172 196 0
173 196 0
174 197 0
174 197 0
173 197 0
174 198 0
175 198 0
174 198 0
172 196 0
174 197 0
175 198 0
174 198 0
173 197 0
174 197 0
174 197 0
174 197 0
174 197 0
173 197 0
174 197 0
174 197 0
174 198 0
174 197 0
174 197 0
173 197 0
174 198 0
172 196 0
174 197 0
174 198 0
173 197 0
174 198 0
175 198 0
175 198 0
174 198 0
173 197 0
173 197 0
174 197 0
174 198 0
173 197 0
175 198 0
174 197 0
174 198 0
174 198 0
174 197 0
174 197 0
175 198 0
174 197 0
175 198 0
174 197 0
174 198 0
174 198 0
173 197 0
176 199 0
175 198 0
174 198 0
175 198 0
174 198 0
172 197 0
173 197 0
173 197 0
173 197 0
173 197 0
174 198 0
175 198 0
174 197 0
173 197 0
174 197 0
174 198 0
175 198 0
174 198 0
172 197 0
173 197 0
174 197 0
175 198 0
174 197 0
173 197 0
175 198 0
173 196 0
175 198 0
174 197 0
173 197 0
173 197 0
175 198 0
174 198 0
175 198 0
174 198 0
175 198 0
174 197 0
174 197 0
172 197 0
174 198 0
173 197 0
173 197 0
175 198 0
176 199 0
174 198 0
175 198 0
176 198 0
175 198 0
174 198 0
173 197 0
173 197 0
175 198 0
174 198 0
173 197 0
173 197 0
176 199 0
176 199 0
176 199 0
175 198 0
176 199 0
175 198 0
174 198 0
175 198 0
174 198 0
173 197 0
175 198 0
173 197 0
175 198 0
173 197 0
174 198 0
175 198 0
174 198 0
176 199 0
174 197 0
173 197 0
177 199 0
174 198 0
175 198 0
172 196 0
174 197 0
175 198 0
173 196 0
174 198 0
174 198 0
175 198 0
175 198 0
174 197 0
176 198 0
174 197 0
175 198 0
175 198 0
174 198 0
176 198 0
173 197 0
171 195 0
174 198 0
176 198 0
174 198 0
173 197 0
174 198 0
175 198 0
174 197 0
174 198 0
174 197 0
174 198 0
174 198 0
175 198 0
172 196 0
175 198 0
175 198 0
172 196 0
174 198 0
173 197 0
176 199 0
172 196 0
173 197 0
174 198 0
174 197 0
174 197 0
175 198 0
174 197 0
174 197 0
173 197 0
175 198 0
174 198 0
173 196 0
173 197 0
170 194 0
173 196 0
174 197 0
174 198 0
174 198 0
172 196 0
173 197 0
174 198 0
175 198 0
172 196 0
173 197 0
172 197 0
172 196 0
174 197 0
174 197 0
173 196 0
173 197 0
174 198 0
174 197 0
172 196 0
173 197 0
175 198 0
174 197 0
175 198 0
174 198 0
175 198 0
173 196 0
174 197 0
172 196 0
172 197 0
174 197 0
174 197 0
174 197 0
173 197 0
173 196 0
175 197 0
174 197 0
174 198 0
173 196 0
172 196 0
173 197 0
174 197 0
171 195 0
171 196 0
174 197 0
173 196 0
175 198 0
174 197 0
174 197 0
175 198 0
170 194 0
171 195 0
174 197 0
172 196 0
172 195 0
173 197 0
171 194 0
173 196 0
172 195 0
173 196 0
173 197 0
170 192 0
171 196 0
172 195 0
174 197 0
171 194 0
174 196 0
173 196 0
173 197 0
170 194 0
173 196 0
170 194 0
172 196 0
171 195 0
174 197 0
171 195 0
165 189 0
170 193 0
173 197 0
170 194 0
174 196 0
170 194 0
175 198 0
172 196 0
173 197 0
174 197 0
173 197 0
170 193 0
170 194 0
171 195 0
174 198 0
173 196 0
172 195 0
171 195 0
172 195 0
173 196 0
173 196 0
172 195 0
174 198 0
174 197 0
173 197 0
171 195 0
173 196 0
170 194 0
172 195 0
175 198 0
170 193 0
170 194 0
170 194 0
173 196 0
173 196 0
174 197 0
171 196 0
173 197 0
172 196 0
173 196 0
171 194 0
173 196 0
172 195 0
175 197 0
173 197 0
172 196 0
174 197 0
172 196 0
171 194 0
173 196 0
171 195 0
175 198 0
174 197 0
171 195 0
173 197 0
172 195 0
174 197 0
174 197 0
174 197 0
172 196 0
173 196 0
173 196 0
174 197 0
172 196 0
171 195 0
171 195 0
174 198 0
172 196 0
172 196 0
173 196 0
173 196 0
174 197 0
172 196 0
173 197 0
172 196 0
175 197 0
174 197 0
172 196 0
175 198 0
172 197 0
171 195 0
174 197 0
174 198 0
173 196 0
173 197 0
174 197 0
173 197 0
172 196 0
175 198 0
173 196 0
172 196 0
172 196 0
174 198 0
172 196 0
174 197 0
175 197 0
173 197 0
172 196 0
174 197 0
174 198 0
173 196 0
174 197 0
175 198 0
175 198 0
175 198 0
175 197 0
175 198 0
175 198 0
175 198 0
171 195 0
175 198 0
173 197 0
172 196 0
173 197 0
173 196 0
174 197 0
173 197 0
174 197 0
174 198 0
174 197 0
175 198 0
174 198 0
172 196 0
172 196 0
174 197 0
174 198 0
172 196 0
175 198 0
173 196 0
176 198 0
174 198 0
174 197 0
174 198 0
172 196 0
173 196 0
173 197 0
175 198 0
174 197 0
174 198 0
173 196 0
173 197 0
174 198 0
174 197 0
174 197 0
173 197 0
173 197 0
172 196 0
174 198 0
173 197 0
173 197 0
171 196 0
172 196 0
176 199 0
174 197 0
173 197 0
174 197 0
174 197 0
174 197 0
175 198 0
173 197 0
175 198 0
175 198 0
175 198 0
175 198 0
174 198 0
175 198 0
175 198 0
175 198 0
175 198 0
175 198 0
175 198 0
175 198 0
175 198 0
173 197 0
174 196 0
173 197 0
174 197 0
174 198 0
173 197 0
175 198 0
174 198 0
174 198 0
174 198 0
174 198 0
174 197 0
173 197 0
174 198 0
174 198 0
174 198 0
174 198 0
173 197 0
175 198 0
174 198 0
174 198 0
176 198 0
174 197 0
175 198 0
174 197 0
173 197 0
175 198 0
175 198 0
173 197 0
174 198 0
175 198 0
174 198 0
175 198 0
174 197 0
176 198 0
174 197 0
174 197 0
174 197 0
174 197 0
174 197 0
174 197 0
174 198 0
175 198 0
175 198 0
174 198 0
172 197 0
173 197 0
173 197 0
174 198 0
175 198 0
175 198 0
176 199 0
174 197 0
173 197 0
175 198 0
174 197 0
174 197 0
174 198 0
174 198 0
175 198 0
176 198 0
175 198 0
175 198 0
174 197 0
173 197 0
173 197 0
174 198 0
174 197 0
174 198 0
172 197 0
175 198 0
176 199 0
173 197 0
175 198 0
174 197 0
174 198 0
173 197 0
175 198 0
175 198 0
173 197 0
174 197 0
174 197 0
174 197 0
173 197 0
174 197 0
174 198 0
175 198 0
176 199 0
174 198 0
175 198 0
175 198 0
174 198 0
174 198 0
173 197 0
174 197 0
175 198 0
175 198 0
175 198 0
174 198 0
175 198 0
176 199 0
173 196 0
174 198 0
172 197 0
174 197 0
175 198 0
174 197 0
175 198 0
175 198 0
175 198 0
175 198 0
173 197 0
174 197 0
173 196 0
175 198 0
175 198 0
176 199 0
173 197 0
176 198 0
174 198 0
175 198 0
172 196 0
174 198 0
174 197 0
174 197 0
173 196 0
173 197 0
175 198 0
174 197 0
174 198 0
173 197 0
175 198 0
174 197 0
174 197 0
174 197 0
174 197 0
172 196 0
174 198 0
172 196 0
173 197 0
174 198 0
174 197 0
175 198 0
173 197 0
173 197 0
174 198 0
176 199 0
174 198 0
173 196 0
173 197 0
173 197 0
172 196 0
175 198 0
173 197 0
175 198 0
173 197 0
174 197 0
173 196 0
172 196 0
173 197 0
172 197 0
173 197 0
173 197 0
173 196 0
174 197 0
173 197 0
173 197 0
172 195 0
174 198 0
173 197 0
173 197 0
174 197 0
174 197 0
174 198 0
174 197 0
172 196 0
172 196 0
176 199 0
174 198 0
173 196 0
174 198 0
172 195 0
173 197 0
174 197 0
173 196 0
174 197 0
172 196 0
175 198 0
172 195 0
173 197 0
176 198 0
173 197 0
173 196 0
172 195 0
172 197 0
174 197 0
174 197 0
171 196 0
175 198 0
173 196 0
174 197 0
173 196 0
173 197 0
174 197 0
173 197 0
173 197 0
174 197 0
172 195 0
171 195 0
173 197 0
174 197 0
173 196 0
174 197 0
174 197 0
172 195 0
170 194 0
173 197 0
171 194 0
173 196 0
173 196 0
172 195 0
172 195 0
173 196 0
174 197 0
173 197 0
170 194 0
172 195 0
173 196 0
174 197 0
172 195 0
172 195 0
173 197 0
173 196 0
169 192 0
171 194 0
171 195 0
172 195 0
172 195 0
172 196 0
174 197 0
169 193 0
170 194 0
173 197 0
170 194 0
172 195 0
173 196 0
173 197 0
172 195 0
175 198 0
174 197 0
174 197 0
174 197 0
173 196 0
172 196 0
173 196 0
174 198 0
173 196 0
171 195 0
171 195 0
174 197 0
172 195 0
174 198 0
171 194 0
170 193 0
171 195 0
173 197 0
173 197 0
172 195 0
169 194 0
174 197 0
173 196 0
172 195 0
169 192 0
173 197 0
174 197 0
171 195 0
172 194 0
175 198 0
170 194 0
172 195 0
172 195 0
175 198 0
174 197 0
171 195 0
172 195 0
173 196 0
174 197 0
174 197 0
172 196 0
174 197 0
173 197 0
172 196 0
173 196 0
173 196 0
172 196 0
173 196 0
172 196 0
172 195 0
173 197 0
173 196 0
174 197 0
174 198 0
174 198 0
174 197 0
174 198 0
174 197 0
172 195 0
172 195 0
170 194 0
174 197 0
172 195 0
174 197 0
174 198 0
174 196 0
174 197 0
175 198 0
172 196 0
172 197 0
174 197 0
172 195 0
172 195 0
173 196 0
174 197 0
175 198 0
173 197 0
172 196 0
176 199 0
173 197 0
173 197 0
173 197 0
173 197 0
172 195 0
175 198 0
172 196 0
174 197 0
173 197 0
173 196 0
173 197 0
174 197 0
174 197 0
174 197 0
173 197 0
173 197 0
173 197 0
174 197 0
176 198 0
172 196 0
175 198 0
174 198 0
174 197 0
172 196 0
175 198 0
175 198 0
173 196 0
173 197 0
176 198 0
175 198 0
172 196 0
176 199 0
174 197 0
174 197 0
173 197 0
174 197 0
175 198 0
173 196 0
176 199 0
171 195 0
174 197 0
175 198 0
173 197 0
176 199 0
174 198 0
174 197 0
174 197 0
173 197 0
174 198 0
175 198 0
175 198 0
174 197 0
174 198 0
176 198 0
174 198 0
173 197 0
174 197 0
173 197 0
173 197 0
173 197 0
175 198 0
173 196 0
174 197 0
173 197 0
176 198 0
175 198 0
174 197 0
174 198 0
174 198 0
174 197 0
173 197 0
174 198 0
174 198 0
173 197 0
176 199 0
174 198 0
173 197 0
173 197 0
173 197 0
175 198 0
172 197 0
173 197 0
174 197 0
174 197 0
175 198 0
174 198 0
174 198 0
175 198 0
173 197 0
174 197 0
174 197 0
174 197 0
175 198 0
175 198 0
175 198 0
174 198 0
176 198 0
173 197 0
175 198 0
174 198 0
176 199 0
174 198 0
175 198 0
173 197 0
175 198 0
174 197 0
175 198 0
173 197 0
174 197 0
173 197 0
174 198 0
172 196 0
175 198 0
173 197 0
175 198 0
175 198 0
173 197 0
175 198 0
173 197 0
176 199 0
173 197 0
173 197 0
174 198 0
175 198 0
174 197 0
175 198 0
175 198 0
175 198 0
174 198 0
174 197 0
175 198 0
174 198 0
173 197 0
174 197 0
173 197 0
174 198 0
173 197 0
175 198 0
175 198 0
175 198 0
174 198 0
174 197 0
175 198 0
174 198 0
175 198 0
174 198 0
175 198 0
174 197 0
176 199 0
175 198 0
175 198 0
174 197 0
173 197 0
174 197 0
175 198 0
175 198 0
173 197 0
173 197 0
174 197 0
173 197 0
174 198 0
173 197 0
174 197 0
174 197 0
174 198 0
176 199 0
174 198 0
174 197 0
174 197 0
175 198 0
173 197 0
174 198 0
175 198 0
175 198 0
173 197 0
174 198 0
173 197 0
176 198 0
173 197 0
173 197 0
174 198 0
175 198 0
176 199 0
174 198 0
175 198 0
172 197 0
174 197 0
173 197 0
174 197 0
174 198 0
174 197 0
174 198 0
171 195 0
173 197 0
175 198 0
175 198 0
174 197 0
173 197 0
173 196 0
174 197 0
174 197 0
176 199 0
175 198 0
174 197 0
174 197 0
175 198 0
174 197 0
175 198 0
174 198 0
173 197 0
173 197 0
172 196 0
172 196 0
174 197 0
175 198 0
174 198 0
175 198 0
174 198 0
173 197 0
173 197 0
173 197 0
176 198 0
175 198 0
175 198 0
174 197 0
176 199 0
174 198 0
173 197 0
174 197 0
174 198 0
171 195 0
173 197 0
174 197 0
174 198 0
172 196 0
172 196 0
173 197 0
174 197 0
172 196 0
176 198 0
174 198 0
175 198 0
173 196 0
174 197 0
171 195 0
173 197 0
174 198 0
175 198 0
173 197 0
173 196 0
174 197 0
176 199 0
172 195 0
174 197 0
175 198 0
173 197 0
174 197 0
173 196 0
172 195 0
176 198 0
173 197 0
172 196 0
173 197 0
174 197 0
173 197 0
172 196 0
173 196 0
172 195 0
174 197 0
172 196 0
172 195 0
174 196 0
170 193 0
173 196 0
171 195 0
176 198 0
173 196 0
174 197 0
173 196 0
169 193 0
171 195 0
171 195 0
174 197 0
169 194 0
169 193 0
172 196 0
173 196 0
171 195 0
170 193 0
172 195 0
172 196 0
173 197 0
173 197 0
174 197 0
173 196 0
170 194 0
173 196 0
173 197 0
170 193 0
173 197 0
169 192 0
171 196 0
172 195 0
174 197 0
169 193 0
172 196 0
173 197 0
173 197 0
172 195 0
174 198 0
171 195 0
172 196 0
173 196 0
172 196 0
173 197 0
172 196 0
170 193 0
169 193 0
173 196 0
171 195 0
172 196 0
173 197 0
174 197 0
173 197 0
174 197 0
172 196 0
171 195 0
171 195 0
172 195 0
172 196 0
173 197 0
171 195 0
173 196 0
171 194 0
173 197 0
172 195 0
175 198 0
171 194 0
172 195 0
170 194 0
172 195 0
168 192 0
173 196 0
167 191 0
172 196 0
173 196 0
173 197 0
170 193 0
173 197 0
172 196 0
173 197 0
171 195 0
173 197 0
172 197 0
172 195 0
172 195 0
174 197 0
172 196 0
174 197 0
172 196 0
170 194 0
170 194 0
174 198 0
175 198 0
172 195 0
174 197 0
173 196 0
174 197 0
174 197 0
170 194 0
173 197 0
174 197 0
174 196 0
174 197 0
173 197 0
174 197 0
174 197 0
174 196 0
174 198 0
171 195 0
169 193 0
172 195 0
172 196 0
173 197 0
171 195 0
175 198 0
173 197 0
172 196 0
173 197 0
174 197 0
175 198 0
172 196 0
170 193 0
173 197 0
172 196 0
174 197 0
173 197 0
173 197 0
175 197 0
173 196 0
173 197 0
175 198 0
175 197 0
174 197 0
174 198 0
173 197 0
175 198 0
174 197 0
172 196 0
175 198 0
171 195 0
175 197 0
175 198 0
175 198 0
173 196 0
173 196 0
174 197 0
175 198 0
174 197 0
175 198 0
173 197 0
174 197 0
173 197 0
174 197 0
173 197 0
175 198 0
172 196 0
173 197 0
174 198 0
174 197 0
175 198 0
173 196 0
174 198 0
174 198 0
175 198 0
174 197 0
172 196 0
175 198 0
173 197 0
175 198 0
173 197 0
175 198 0
174 198 0
174 197 0
174 197 0
174 197 0
175 198 0
173 197 0
173 197 0
174 198 0
174 197 0
174 197 0
175 198 0
175 197 0
174 198 0
175 198 0
174 197 0
175 198 0
174 197 0
174 198 0
176 199 0
173 197 0
172 196 0
173 197 0
174 198 0
174 198 0
174 198 0
175 198 0
174 197 0
173 196 0
175 198 0
174 198 0
173 197 0
175 198 0
173 197 0
172 196 0
175 197 0
175 198 0
176 199 0
174 198 0
176 199 0
175 198 0
173 197 0
173 197 0
174 198 0
175 198 0
174 198 0
174 198 0
175 198 0
175 198 0
174 197 0
176 199 0
175 198 0
175 198 0
173 197 0
174 198 0
174 197 0
174 197 0
173 197 0
173 197 0
174 198 0
175 198 0
175 198 0
174 198 0
174 197 0
176 199 0
175 198 0
176 198 0
175 198 0
174 198 0
175 198 0
175 198 0
175 198 0
174 197 0
176 198 0
174 198 0
174 197 0
173 197 0
175 198 0
173 197 0
174 198 0
175 198 0
175 198 0
173 197 0
174 197 0
175 198 0
174 198 0
176 199 0
175 198 0
174 198 0
174 198 0
174 198 0
174 198 0
175 198 0
175 198 0
175 198 0
174 198 0
174 198 0
174 198 0
174 197 0
174 197 0
174 198 0
174 197 0
172 196 0
176 199 0
173 197 0
176 198 0
175 198 0
174 197 0
175 198 0
174 198 0
174 198 0
176 198 0
174 198 0
173 197 0
174 198 0
176 199 0
174 198 0
175 198 0
175 198 0
175 198 0
175 198 0
173 197 0
174 197 0
174 197 0
174 198 0
174 198 0
173 197 0
174 197 0
176 199 0
175 198 0
175 198 0
174 198 0
175 198 0
176 199 0
175 198 0
174 198 0
173 197 0
172 196 0
174 198 0
173 197 0
173 197 0
174 197 0
175 198 0
175 198 0
174 198 0
172 197 0
174 198 0
175 198 0
173 197 0
173 197 0
174 198 0
174 198 0
175 198 0
174 197 0
174 198 0
175 198 0
174 197 0
173 197 0
174 198 0
172 197 0
173 197 0
172 197 0
175 198 0
174 198 0
173 197 0
173 197 0
175 198 0
174 198 0
173 197 0
174 197 0
174 198 0
174 197 0
173 196 0
174 198 0
173 196 0
175 198 0
174 198 0
174 198 0
173 197 0
174 198 0
175 198 0
174 197 0
173 196 0
173 197 0
173 197 0
173 197 0
174 197 0
171 195 0
173 197 0
174 197 0
173 196 0
174 197 0
173 195 0
175 198 0
173 197 0
173 197 0
173 197 0
174 197 0
173 196 0
173 197 0
172 196 0
174 197 0
173 196 0
173 197 0
174 197 0
175 198 0
172 196 0
174 197 0
174 197 0
173 196 0
172 196 0
174 197 0
173 197 0
174 197 0
174 198 0
174 198 0
174 197 0
175 198 0
173 196 0
174 197 0
173 197 0
173 197 0
174 197 0
173 197 0
170 194 0
174 197 0
173 197 0
174 197 0
174 197 0
177 199 0
174 197 0
174 197 0
171 196 0
173 196 0
173 196 0
175 197 0
172 195 0
172 197 0
173 196 0
175 198 0
173 196 0
172 196 0
170 194 0
174 197 0
173 197 0
173 196 0
172 194 0
171 194 0
172 195 0
173 196 0
174 197 0
170 194 0
170 193 0
171 195 0
173 195 0
173 197 0
170 194 0
171 194 0
172 196 0
175 197 0
172 197 0
173 197 0
168 192 0
174 198 0
172 196 0
172 196 0
173 196 0
172 196 0
173 196 0
175 198 0
170 194 0
172 197 0
172 195 0
172 196 0
172 196 0
172 195 0
173 197 0
175 198 0
170 193 0
174 197 0
172 195 0
172 196 0
170 194 0
171 194 0
172 196 0
174 197 0
174 197 0
172 196 0
171 194 0
169 193 0
171 194 0
172 195 0
171 195 0
173 197 0
170 193 0
173 197 0
171 195 0
171 195 0
174 197 0
170 193 0
172 196 0
174 197 0
173 196 0
174 198 0
172 196 0
171 195 0
173 196 0
173 196 0
172 196 0
170 194 0
173 197 0
172 195 0
174 197 0
174 196 0
173 197 0
173 197 0
172 196 0
175 198 0
171 195 0
172 195 0
174 197 0
171 195 0
175 198 0
171 195 0
171 195 0
172 196 0
170 195 0
173 197 0
174 197 0
172 196 0
173 197 0
172 196 0
170 194 0
174 197 0
172 195 0
172 196 0
173 197 0
174 197 0
171 194 0
172 196 0
173 197 0
171 194 0
172 195 0
174 198 0
173 196 0
172 196 0
174 197 0
174 197 0
174 197 0
176 198 0
174 198 0
176 198 0
174 197 0
173 196 0
174 197 0
171 195 0
173 195 0
174 197 0
173 196 0
173 196 0
175 198 0
174 198 0
174 198 0
175 198 0
173 197 0
173 197 0
174 197 0
173 196 0
175 198 0
175 198 0
175 198 0
175 197 0
174 197 0
173 197 0
175 198 0
173 196 0
175 198 0
175 198 0
175 198 0
175 198 0
173 196 0
175 198 0
171 195 0
175 198 0
174 197 0
174 197 0
174 198 0
174 198 0
174 197 0
173 197 0
175 198 0
173 197 0
174 197 0
175 198 0
174 197 0
173 197 0
175 198 0
173 196 0
175 198 0
174 197 0
175 198 0
173 196 0
175 198 0
174 198 0
174 197 0
174 197 0
173 197 0
173 197 0
175 198 0
176 199 0
174 198 0
174 197 0
175 198 0
174 198 0
173 197 0
174 197 0
174 198 0
174 197 0
174 198 0
174 198 0
175 198 0
173 197 0
174 197 0
173 197 0
174 197 0
176 199 0
174 197 0
175 198 0
173 197 0
175 198 0
175 198 0
175 198 0
175 198 0
173 197 0
173 197 0
175 198 0
173 197 0
173 196 0
174 198 0
174 198 0
174 198 0
175 197 0
175 198 0
175 198 0
174 197 0
175 198 0
172 196 0
175 198 0
173 197 0
174 198 0
174 197 0
177 199 0
175 198 0
174 198 0
174 197 0
174 198 0
173 197 0
175 198 0
174 198 0
174 197 0
175 198 0
175 198 0
173 197 0
175 198 0
175 198 0
175 198 0
173 197 0
175 198 0
175 198 0
172 197 0
173 197 0
175 198 0
174 198 0
174 198 0
173 197 0
175 198 0
175 198 0
174 197 0
174 198 0
174 197 0
174 198 0
175 198 0
174 197 0
175 198 0
174 197 0
176 199 0
174 197 0
175 198 0
177 199 0
174 198 0
174 198 0
175 198 0
175 198 0
173 197 0
174 198 0
174 198 0
175 198 0
174 197 0
176 199 0
172 196 0
175 198 0
173 197 0
174 198 0
173 197 0
174 197 0
175 198 0
175 198 0
175 198 0
175 198 0
174 197 0
174 197 0
175 198 0
175 198 0
175 198 0
174 198 0
176 199 0
173 197 0
175 198 0
176 198 0
173 197 0
175 198 0
173 197 0
175 198 0
173 197 0
173 197 0
174 197 0
175 198 0
175 198 0
172 196 0
172 196 0
174 198 0
174 198 0
174 197 0
174 198 0
176 199 0
175 198 0
176 198 0
172 197 0
174 198 0
173 197 0
177 199 0
174 198 0
173 197 0
175 198 0
175 198 0
175 198 0
175 198 0
174 198 0
175 198 0
175 198 0
173 197 0
174 197 0
174 198 0
173 197 0
173 197 0
174 198 0
173 196 0
175 198 0
177 199 0
174 197 0
175 198 0
175 198 0
174 197 0
175 198 0
174 198 0
174 198 0
174 198 0
173 197 0
173 197 0
174 198 0
175 198 0
176 198 0
175 198 0
177 199 0
174 197 0
173 196 0
172 196 0
172 196 0
173 197 0
174 197 0
176 199 0
173 197 0
172 196 0
174 197 0
172 196 0
174 198 0
174 197 0
174 197 0
174 198 0
174 197 0
174 197 0
173 197 0
175 198 0
173 196 0
174 197 0
172 196 0
174 197 0
174 198 0
172 196 0
172 196 0
174 197 0
173 197 0
175 198 0
173 197 0
174 197 0
173 197 0
173 196 0
172 196 0
175 198 0
171 195 0
175 198 0
173 197 0
174 197 0
173 196 0
173 197 0
173 196 0
175 198 0
172 197 0
173 197 0
174 198 0
173 197 0
173 196 0
173 197 0
172 195 0
171 196 0
174 197 0
175 198 0
174 198 0
174 197 0
172 196 0
173 196 0
174 198 0
174 198 0
170 194 0
172 195 0
174 197 0
174 197 0
174 197 0
171 195 0
172 196 0
171 194 0
172 195 0
171 195 0
173 196 0
173 197 0
173 196 0
171 194 0
173 197 0
174 198 0
175 198 0
173 197 0
170 194 0
173 196 0
172 196 0
173 197 0
173 196 0
172 195 0
173 197 0
174 198 0
173 197 0
173 196 0
172 196 0
172 195 0
170 194 0
176 198 0
173 196 0
172 196 0
171 194 0
172 195 0
173 196 0
172 196 0
173 196 0
173 197 0
169 193 0
172 196 0
174 197 0
171 195 0
173 195 0
173 197 0
169 192 0
173 197 0
170 195 0
173 196 0
171 195 0
172 195 0
170 195 0
171 195 0
169 192 0
175 197 0
172 196 0
171 195 0
173 196 0
173 197 0
171 195 0
173 197 0
174 197 0
173 197 0
171 195 0
172 196 0
175 197 0
171 195 0
171 194 0
174 197 0
171 195 0
173 196 0
173 197 0
170 194 0
170 193 0
171 194 0
173 197 0
170 194 0
174 197 0
175 197 0
171 195 0
172 196 0
173 196 0
174 197 0
174 197 0
176 199 0
172 195 0
171 195 0
173 197 0
172 196 0
171 195 0
174 198 0
172 196 0
172 195 0
173 197 0
174 198 0
174 197 0
173 197 0
175 198 0
171 195 0
172 195 0
172 196 0
173 197 0
174 197 0
174 197 0
174 197 0
175 198 0
173 197 0
174 197 0
176 198 0
173 196 0
173 196 0
173 197 0
174 197 0
174 198 0
175 198 0
173 196 0
173 197 0
171 196 0
174 198 0
175 198 0
174 197 0
175 198 0
174 198 0
174 197 0
174 197 0
174 197 0
174 198 0
174 196 0
173 197 0
173 196 0
174 197 0
173 196 0
175 198 0
174 197 0
173 197 0
175 198 0
174 197 0
174 198 0
175 198 0
175 197 0
172 196 0
172 196 0
175 198 0
173 197 0
174 197 0
173 196 0
175 198 0
173 196 0
176 198 0
175 198 0
172 196 0
174 198 0
175 198 0
175 198 0
172 196 0
174 198 0
173 197 0
174 197 0
173 197 0
173 197 0
174 197 0
174 198 0
174 198 0
174 198 0
174 197 0
174 197 0
175 198 0
173 197 0
174 198 0
175 198 0
175 198 0
175 198 0
173 196 0
175 198 0
174 197 0
172 197 0
174 198 0
173 197 0
173 196 0
172 196 0
171 195 0
175 198 0
176 198 0
172 196 0
176 199 0
172 196 0
176 198 0
172 196 0
175 198 0
175 198 0
173 197 0
174 198 0
176 198 0
175 198 0
176 199 0
175 198 0
175 198 0
174 198 0
173 197 0
174 198 0
175 198 0
174 197 0
172 196 0
173 197 0
173 197 0
175 198 0
174 197 0
174 197 0
175 198 0
175 198 0
174 198 0
175 198 0
175 198 0
175 198 0
173 196 0
174 198 0
176 198 0
176 198 0
174 198 0
173 197 0
175 198 0
174 198 0
173 197 0
174 198 0
175 198 0
174 198 0
175 198 0
174 197 0
175 198 0
175 198 0
175 198 0
174 198 0
175 197 0
173 196 0
174 197 0
175 198 0
175 198 0
174 198 0
175 198 0
174 198 0
173 197 0
174 198 0
174 198 0
175 198 0
172 197 0
175 198 0
173 197 0
175 198 0
174 198 0
175 198 0
174 198 0
174 198 0
174 198 0
174 198 0
175 198 0
173 197 0
173 197 0
176 198 0
173 197 0
172 197 0
174 198 0
175 198 0
174 197 0
176 199 0
175 198 0
175 198 0
174 197 0
175 198 0
176 199 0
173 197 0
176 199 0
175 198 0
173 197 0
173 197 0
174 197 0
173 197 0
174 198 0
172 196 0
175 198 0
175 198 0
174 198 0
174 198 0
174 198 0
173 197 0
174 197 0
173 197 0
175 198 0
174 197 0
175 198 0
175 198 0
174 198 0
174 197 0
175 198 0
173 197 0
173 197 0
175 198 0
172 197 0
174 198 0
175 198 0
175 198 0
173 197 0
175 198 0
173 197 0
175 198 0
176 199 0
173 197 0
173 197 0
174 197 0
174 198 0
174 198 0
173 197 0
173 197 0
175 198 0
175 198 0
175 198 0
172 196 0
174 197 0
173 197 0
174 197 0
173 197 0
172 195 0
173 197 0
175 198 0
175 198 0
176 198 0
173 197 0
172 197 0
173 197 0
174 198 0
175 198 0
174 198 0
174 197 0
175 198 0
172 196 0
173 196 0
174 198 0
176 198 0
175 198 0
172 196 0
173 197 0
175 198 0
172 196 0
172 197 0
176 198 0
175 198 0
174 197 0
173 197 0
175 198 0
173 196 0
173 197 0
174 198 0
174 197 0
174 198 0
175 198 0
172 196 0
174 197 0
173 197 0
176 199 0
173 197 0
173 197 0
172 196 0
174 198 0
173 197 0
172 196 0
174 197 0
174 197 0
174 198 0
174 197 0
174 197 0
171 195 0
173 197 0
174 197 0
174 197 0
171 195 0
175 198 0
173 197 0
174 198 0
174 197 0
174 197 0
174 197 0
173 197 0
172 195 0
173 197 0
174 198 0
174 197 0
176 198 0
174 197 0
173 195 0
173 197 0
173 197 0
171 194 0
174 198 0
173 197 0
174 197 0
172 196 0
174 197 0
172 196 0
171 195 0
174 196 0
173 196 0
171 195 0
171 195 0
173 196 0
173 196 0
173 197 0
175 198 0
173 197 0
174 197 0
171 195 0
169 193 0
173 196 0
174 197 0
172 195 0
172 196 0
173 196 0
170 194 0
173 197 0
167 191 0
173 196 0
172 195 0
173 196 0
173 196 0
169 192 0
173 196 0
171 195 0
171 195 0
169 193 0
173 196 0
172 196 0
170 195 0
174 198 0
172 195 0
172 196 0
170 194 0
172 196 0
171 195 0
173 197 0
175 198 0
171 194 0
173 197 0
174 197 0
171 195 0
174 197 0
173 197 0
172 195 0
171 195 0
173 196 0
172 195 0
174 197 0
171 195 0
172 196 0
173 196 0
174 196 0
173 196 0
173 196 0
174 198 0
170 194 0
172 196 0
172 195 0
172 195 0
174 198 0
170 193 0
172 195 0
171 195 0
173 196 0
173 196 0
170 193 0
173 196 0
172 196 0
174 198 0
174 196 0
175 198 0
174 197 0
174 197 0
174 198 0
173 197 0
172 196 0
171 195 0
173 196 0
171 195 0
172 196 0
172 195 0
175 198 0
174 198 0
172 196 0
174 198 0
171 194 0
171 194 0
174 197 0
172 196 0
172 196 0
174 197 0
174 197 0
170 193 0
176 198 0
173 197 0
174 197 0
174 197 0
175 198 0
172 195 0
173 197 0
175 198 0
174 197 0
174 197 0
173 196 0
171 195 0
172 196 0
173 197 0
172 196 0
174 197 0
175 198 0
173 197 0
174 197 0
174 197 0
174 197 0
174 198 0
175 198 0
175 198 0
174 197 0
173 197 0
173 197 0
175 198 0
171 195 0
173 196 0
174 197 0
173 197 0
173 196 0
175 198 0
174 197 0
174 198 0
173 196 0
174 198 0
175 198 0
173 197 0
174 197 0
174 198 0
173 197 0
174 198 0
173 197 0
174 197 0
172 196 0
174 198 0
175 198 0
174 198 0
174 197 0
174 197 0
174 198 0
173 196 0
176 199 0
175 198 0
176 199 0
174 198 0
174 197 0
175 198 0
172 196 0
176 199 0
175 198 0
171 196 0
173 197 0
175 198 0
173 197 0
173 197 0
174 197 0
176 198 0
175 198 0
174 197 0
174 198 0
175 198 0
175 198 0
174 198 0
175 198 0
173 197 0
175 198 0
172 196 0
174 198 0
174 198 0
173 196 0
174 198 0
174 197 0
175 198 0
176 198 0
173 196 0
174 198 0
174 198 0
175 198 0
175 198 0
174 197 0
173 196 0
173 197 0
175 198 0
175 198 0
174 197 0
175 198 0
173 197 0
175 198 0
173 197 0
175 198 0
175 198 0
173 197 0
174 198 0
175 198 0
175 198 0
173 197 0
176 199 0
174 198 0
172 197 0
175 198 0
175 198 0
175 198 0
175 198 0
174 198 0
175 198 0
173 197 0
174 197 0
172 196 0
175 198 0
174 197 0
172 197 0
175 198 0
173 197 0
173 196 0
174 197 0
176 199 0
175 198 0
175 198 0
172 196 0
175 198 0
175 198 0
173 197 0
173 197 0
174 198 0
175 198 0
175 198 0
175 198 0
175 198 0
174 198 0
174 198 0
175 198 0
174 198 0
174 198 0
174 198 0
174 197 0
174 198 0
176 198 0
176 199 0
175 198 0
174 198 0
173 197 0
174 198 0
176 199 0
175 198 0
173 197 0
173 197 0
174 198 0
175 198 0
174 197 0
175 198 0
174 198 0
174 197 0
176 199 0
176 199 0
176 199 0
174 198 0
174 198 0
175 198 0
175 198 0
174 198 0
174 198 0
174 198 0
176 198 0
175 198 0
174 198 0
172 196 0
173 197 0
174 198 0
174 198 0
173 197 0
171 196 0
174 197 0
175 198 0
172 196 0
173 197 0
174 197 0
175 198 0
173 197 0
174 198 0
174 198 0
175 197 0
173 197 0
173 197 0
175 198 0
175 198 0
174 197 0
174 198 0
173 197 0
176 198 0
173 197 0
173 197 0
174 198 0
175 198 0
175 198 0
174 197 0
174 198 0
174 198 0
173 197 0
176 199 0
175 198 0
174 197 0
174 198 0
175 198 0
174 197 0
175 198 0
174 197 0
176 199 0
174 198 0
176 199 0
174 198 0
174 197 0
174 197 0
174 198 0
174 198 0
174 198 0
175 198 0
174 197 0
175 198 0
174 197 0
174 198 0
175 198 0
174 198 0
173 197 0
175 198 0
175 198 0
174 198 0
173 197 0
174 198 0
174 197 0
173 197 0
172 196 0
174 197 0
174 197 0
174 197 0
175 198 0
173 197 0
173 197 0
172 196 0
173 197 0
173 196 0
173 197 0
173 197 0
173 197 0
172 196 0
174 198 0
174 197 0
173 197 0
174 197 0
175 198 0
174 197 0
172 196 0
175 198 0
175 198 0
173 197 0
173 197 0
172 197 0
172 197 0
174 197 0
175 198 0
173 197 0
175 198 0
175 198 0
174 198 0
173 197 0
176 199 0
172 197 0
174 197 0
176 199 0
173 197 0
174 197 0
172 196 0
175 198 0
174 197 0
173 196 0
173 197 0
174 197 0
172 197 0
171 195 0
171 195 0
174 197 0
175 198 0
173 196 0
174 197 0
174 197 0
173 197 0
174 197 0
171 195 0
174 198 0
174 198 0
174 198 0
174 197 0
172 196 0
173 197 0
172 196 0
175 198 0
174 197 0
174 197 0
173 197 0
173 197 0
174 197 0
173 197 0
172 195 0
171 194 0
174 197 0
173 197 0
173 197 0
172 196 0
173 196 0
173 196 0
173 196 0
172 196 0
171 195 0
170 194 0
167 192 0
170 194 0
173 196 0
172 195 0
173 196 0
170 194 0
174 196 0
173 197 0
174 198 0
172 196 0
171 194 0
172 195 0
174 197 0
173 196 0
172 196 0
171 194 0
172 196 0
170 194 0
172 196 0
173 197 0
171 194 0
173 196 0
173 196 0
171 194 0
173 196 0
174 197 0
172 195 0
168 192 0
169 193 0
171 195 0
171 194 0
174 197 0
173 196 0
174 197 0
168 192 0
173 195 0
174 198 0
174 198 0
171 194 0
173 196 0
173 196 0
172 196 0
173 197 0
174 196 0
173 196 0
175 198 0
172 196 0
172 196 0
173 196 0
172 196 0
173 197 0
172 195 0
173 196 0
174 197 0
174 197 0
175 198 0
172 195 0
170 194 0
171 195 0
172 195 0
171 195 0
172 195 0
173 196 0
173 196 0
172 195 0
171 196 0
172 196 0
172 196 0
174 197 0
171 195 0
174 197 0
173 196 0
174 198 0
174 197 0
172 196 0
174 197 0
172 196 0
173 196 0
174 198 0
174 197 0
173 197 0
170 194 0
172 196 0
172 196 0
173 196 0
173 196 0
171 195 0
173 196 0
170 194 0
174 197 0
173 197 0
173 197 0
174 197 0
173 196 0
172 196 0
174 198 0
172 196 0
173 197 0
174 198 0
173 197 0
174 198 0
172 194 0
174 197 0
170 194 0
172 195 0
173 197 0
174 197 0
174 198 0
173 197 0
175 198 0
174 197 0
174 197 0
174 198 0
174 197 0
175 198 0
174 197 0
173 197 0
175 198 0
174 198 0
172 196 0
174 198 0
174 198 0
174 197 0
173 197 0
176 198 0
175 198 0
174 197 0
174 198 0
176 198 0
174 197 0
174 197 0
174 198 0
173 196 0
173 196 0
174 197 0
175 198 0
173 197 0
172 195 0
173 197 0
174 198 0
172 196 0
173 197 0
173 196 0
174 197 0
174 197 0
175 198 0
175 198 0
175 198 0
173 196 0
172 196 0
172 197 0
172 196 0
174 198 0
175 198 0
174 197 0
174 197 0
174 198 0
175 198 0
172 196 0
174 198 0
174 197 0
174 198 0
173 197 0
174 198 0
173 197 0
174 198 0
175 198 0
175 198 0
174 198 0
176 199 0
174 198 0
173 196 0
173 197 0
173 197 0
175 198 0
175 198 0
174 197 0
175 198 0
175 198 0
174 197 0
174 198 0
173 196 0
175 198 0
173 197 0
174 198 0
174 198 0
174 197 0
174 198 0
173 197 0
174 198 0
174 197 0
174 197 0
175 198 0
175 198 0
175 198 0
174 197 0
173 197 0
175 198 0
174 198 0
173 197 0
174 198 0
174 197 0
175 198 0
174 197 0
175 198 0
174 197 0
173 197 0
175 198 0
174 198 0
174 198 0
172 196 0
174 198 0
173 197 0
174 198 0
175 198 0
174 198 0
174 198 0
175 198 0
173 197 0
174 197 0
176 198 0
175 198 0
173 197 0
175 198 0
174 197 0
175 198 0
174 197 0
175 198 0
174 198 0
174 198 0
173 197 0
175 198 0
175 198 0
174 197 0
175 198 0
175 198 0
175 198 0
175 198 0
174 198 0
172 197 0
174 197 0
175 198 0
174 198 0
174 198 0
174 197 0
175 198 0
174 197 0
173 197 0
176 198 0
174 198 0
174 198 0
175 198 0
174 197 0
174 198 0
174 197 0
173 197 0
173 197 0
174 198 0
176 198 0
175 198 0
174 197 0
174 198 0
176 198 0
176 199 0
175 198 0
175 198 0
173 197 0
174 197 0
172 197 0
176 199 0
174 198 0
173 197 0
174 197 0
176 198 0
175 198 0
173 197 0
175 198 0
175 198 0
174 198 0
175 198 0
174 197 0
173 197 0
174 197 0
171 195 0
175 198 0
175 198 0
173 197 0
174 198 0
174 198 0
174 198 0
174 197 0
174 198 0
175 198 0
173 197 0
174 198 0
174 198 0
174 198 0
175 198 0
174 197 0
172 196 0
175 198 0
174 198 0
173 196 0
175 197 0
174 197 0
176 199 0
174 197 0
172 196 0
175 198 0
175 198 0
174 197 0
174 198 0
175 198 0
173 197 0
174 197 0
174 198 0
172 197 0
173 197 0
174 198 0
173 197 0
176 199 0
173 197 0
172 196 0
174 197 0
174 197 0
173 197 0
175 198 0
174 197 0
173 197 0
174 198 0
173 197 0
174 197 0
173 197 0
174 197 0
174 198 0
173 197 0
173 197 0
176 198 0
173 196 0
174 197 0
175 198 0
174 197 0
174 197 0
175 198 0
174 198 0
172 197 0
174 197 0
175 198 0
174 197 0
174 198 0
173 197 0
173 197 0
170 195 0
175 198 0
174 197 0
175 198 0
176 198 0
176 198 0
171 194 0
174 197 0
173 197 0
172 196 0
174 198 0
173 197 0
175 197 0
174 198 0
172 195 0
173 197 0
174 197 0
173 196 0
174 197 0
173 196 0
170 195 0
173 197 0
174 197 0
173 196 0
171 195 0
173 196 0
171 195 0
172 196 0
175 197 0
173 197 0
171 195 0
172 196 0
172 195 0
173 197 0
173 196 0
174 197 0
175 198 0
172 196 0
172 196 0
171 195 0
171 196 0
172 196 0
173 196 0
174 197 0
170 194 0
172 196 0
174 197 0
169 192 0
171 194 0
171 195 0
173 196 0
172 196 0
169 192 0
169 193 0
171 195 0
174 198 0
173 195 0
173 196 0
173 196 0
173 196 0
173 196 0
171 195 0
171 195 0
174 197 0
173 197 0
173 196 0
174 197 0
173 196 0
173 196 0
175 198 0
171 194 0
173 197 0
170 195 0
172 196 0
172 195 0
172 196 0
173 196 0
171 195 0
172 195 0
173 196 0
172 196 0
171 194 0
172 195 0
173 197 0
173 196 0
173 197 0
172 195 0
173 197 0
172 195 0
174 196 0
170 194 0
172 196 0
173 196 0
173 196 0
176 198 0
172 196 0
174 197 0
173 196 0
174 197 0
171 195 0
174 198 0
173 196 0
170 193 0
172 195 0
175 198 0
172 196 0
170 193 0
172 196 0
175 198 0
170 192 0
174 197 0
173 196 0
173 197 0
172 196 0
172 196 0
175 198 0
173 197 0
174 198 0
173 197 0
173 197 0
174 197 0
173 196 0
174 197 0
173 197 0
173 196 0
174 198 0
175 198 0
174 197 0
173 196 0
172 196 0
174 197 0
174 198 0
174 196 0
172 196 0
174 198 0
173 196 0
174 198 0
176 198 0
174 197 0
174 197 0
174 197 0
174 198 0
174 198 0
176 199 0
174 197 0
172 196 0
175 198 0
175 198 0
175 198 0
174 196 0
173 196 0
173 197 0
172 196 0
174 198 0
173 196 0
175 197 0
175 198 0
175 198 0
173 197 0
174 198 0
174 197 0
175 198 0
174 197 0
175 198 0
173 197 0
172 196 0
173 197 0
171 195 0
172 196 0
173 196 0
175 198 0
175 198 0
173 197 0
173 196 0
174 198 0
172 196 0
173 196 0
172 195 0
172 196 0
174 196 0
174 198 0
174 198 0
173 196 0
173 197 0
172 196 0
172 196 0
175 198 0
174 197 0
173 197 0
173 197 0
174 198 0
173 197 0
176 198 0
175 198 0
173 196 0
174 197 0
173 197 0
174 198 0
173 197 0
175 198 0
171 195 0
174 197 0
173 197 0
172 195 0
174 197 0
175 198 0
172 196 0
173 197 0
174 197 0
175 198 0
174 197 0
174 197 0
173 196 0
174 198 0
173 197 0
174 197 0
173 197 0
175 198 0
173 197 0
177 199 0
175 198 0
173 197 0
173 197 0
174 197 0
176 198 0
175 198 0
172 195 0
175 198 0
173 196 0
174 198 0
173 197 0
174 198 0
174 197 0
173 197 0
174 198 0
174 198 0
176 199 0
176 198 0
175 198 0
175 198 0
175 198 0
173 197 0
175 198 0
174 197 0
173 197 0
174 198 0
176 198 0
174 198 0
174 198 0
175 198 0
174 197 0
176 199 0
175 198 0
175 198 0
174 198 0
174 197 0
173 197 0
174 198 0
174 198 0
175 198 0
174 197 0
175 198 0
173 197 0
174 197 0
174 198 0
173 197 0
175 198 0
175 198 0
174 198 0
175 198 0
173 197 0
174 197 0
174 197 0
174 198 0
175 198 0
174 198 0
175 198 0
174 198 0
174 198 0
174 198 0
174 197 0
174 198 0
174 198 0
176 199 0
173 197 0
174 198 0
175 198 0
174 197 0
174 198 0
174 197 0
174 198 0
173 197 0
172 196 0
174 198 0
174 197 0
176 199 0
174 197 0
174 197 0
174 197 0
174 198 0
174 198 0
174 197 0
176 198 0
172 196 0
173 197 0
174 197 0
175 198 0
175 198 0
174 197 0
174 198 0
173 196 0
175 198 0
175 198 0
173 197 0
175 198 0
173 197 0
174 197 0
174 198 0
174 197 0
174 197 0
175 198 0
174 198 0
175 198 0
174 198 0
174 198 0
175 198 0
173 197 0
176 199 0
173 197 0
174 197 0
174 198 0
175 198 0
174 197 0
175 198 0
175 198 0
175 198 0
174 198 0
176 199 0
174 198 0
174 198 0
176 198 0
175 198 0
176 198 0
176 198 0
175 198 0
175 198 0
175 198 0
173 197 0
174 198 0
175 198 0
173 197 0
173 197 0
174 198 0
176 199 0
176 199 0
172 197 0
175 198 0
172 195 0
173 197 0
174 198 0
176 199 0
174 197 0
172 197 0
174 198 0
175 198 0
174 197 0
173 197 0
174 197 0
174 198 0
174 197 0
175 198 0
175 198 0
174 198 0
175 198 0
174 198 0
173 196 0
174 198 0
173 196 0
174 197 0
172 197 0
174 198 0
175 198 0
174 198 0
174 198 0
175 198 0
174 198 0
175 198 0
174 198 0
173 197 0
174 198 0
174 198 0
174 197 0
175 198 0
174 198 0
175 198 0
173 197 0
174 197 0
175 198 0
173 197 0
171 195 0
174 198 0
174 197 0
172 196 0
172 196 0
174 197 0
173 196 0
172 196 0
171 195 0
173 197 0
172 196 0
173 197 0
172 195 0
175 198 0
171 195 0
174 198 0
174 197 0
172 195 0
174 197 0
173 196 0
173 196 0
175 198 0
173 196 0
172 196 0
173 197 0
172 196 0
172 196 0
172 196 0
171 195 0
174 197 0
173 197 0
173 196 0
174 197 0
172 196 0
173 196 0
171 195 0
174 198 0
176 198 0
175 198 0
174 197 0
175 198 0
174 198 0
172 196 0
172 196 0
170 193 0
171 195 0
173 196 0
171 194 0
173 197 0
173 197 0
172 195 0
171 195 0
173 196 0
173 196 0
171 193 0
172 195 0
173 196 0
173 196 0
173 196 0
173 196 0
173 196 0
169 193 0
172 196 0
173 197 0
171 195 0
173 197 0
172 195 0
172 195 0
174 197 0
172 196 0
172 195 0
172 196 0
173 196 0
171 196 0
171 195 0
174 197 0
173 196 0
173 197 0
172 195 0
170 194 0
174 198 0
173 196 0
170 194 0
174 197 0
174 197 0
174 197 0
174 197 0
174 197 0
172 195 0
173 195 0
173 197 0
170 193 0
170 194 0
173 196 0
170 194 0
173 196 0
173 197 0
173 196 0
172 195 0
171 195 0
170 194 0
174 197 0
174 197 0
173 197 0
171 195 0
171 194 0
173 196 0
172 196 0
169 194 0
171 195 0
175 198 0
169 193 0
173 196 0
173 196 0
173 196 0
172 195 0
171 195 0
174 196 0
173 197 0
174 197 0
174 197 0
173 196 0
172 195 0
175 198 0
171 195 0
172 196 0
172 196 0
174 197 0
173 196 0
172 196 0
174 197 0
174 197 0
173 196 0
175 198 0
173 196 0
173 196 0
173 196 0
172 196 0
175 197 0
174 197 0
172 196 0
172 196 0
174 198 0
173 197 0
175 198 0
172 195 0
172 196 0
174 198 0
173 196 0
173 196 0
173 196 0
174 198 0
175 198 0
174 197 0
172 196 0
174 198 0
175 198 0
172 196 0
175 197 0
173 197 0
174 198 0
173 197 0
173 196 0
173 197 0
175 198 0
175 198 0
174 197 0
175 198 0
174 198 0
175 198 0
172 195 0
173 196 0
172 196 0
175 198 0
173 196 0
172 196 0
173 197 0
174 196 0
174 198 0
174 198 0
174 198 0
174 197 0
173 196 0
174 197 0
174 197 0
174 198 0
174 198 0
174 197 0
172 195 0
173 197 0
173 197 0
173 196 0
173 197 0
173 197 0
173 197 0
174 198 0
175 198 0
175 198 0
174 198 0
174 197 0
175 198 0
173 197 0
175 198 0
172 197 0
174 198 0
174 198 0
172 195 0
175 198 0
175 198 0
174 198 0
174 198 0
175 198 0
175 198 0
174 197 0
174 198 0
175 198 0
175 198 0
173 196 0
173 197 0
174 198 0
172 196 0
175 198 0
174 198 0
175 198 0
173 197 0
174 197 0
176 199 0
176 199 0
176 198 0
175 198 0
175 198 0
175 198 0
176 199 0
175 198 0
174 198 0
177 199 0
175 198 0
175 198 0
173 197 0
174 198 0
175 198 0
174 197 0
175 198 0
175 198 0
172 196 0
176 198 0
174 197 0
173 196 0
174 198 0
174 198 0
175 198 0
174 198 0
174 197 0
174 198 0
174 198 0
176 198 0
175 198 0
173 197 0
175 198 0
174 198 0
175 198 0
173 197 0
174 198 0
176 199 0
173 197 0
175 198 0
172 196 0
177 199 0
174 198 0
174 198 0
173 197 0
174 198 0
175 198 0
174 198 0
175 198 0
175 198 0
175 198 0
176 199 0
173 197 0
173 197 0
174 197 0
174 198 0
175 198 0
174 198 0
174 198 0
175 198 0
175 198 0
173 197 0
174 197 0
173 197 0
175 198 0
175 198 0
175 198 0
175 198 0
174 198 0
175 198 0
173 197 0
174 198 0
173 196 0
174 198 0
175 198 0
174 198 0
176 198 0
173 197 0
176 199 0
176 199 0
176 198 0
174 198 0
173 197 0
176 199 0
175 198 0
174 198 0
173 197 0
175 198 0
174 197 0
172 197 0
173 197 0
174 198 0
175 198 0
173 197 0
173 197 0
175 198 0
173 197 0
173 196 0
173 197 0
175 198 0
175 198 0
172 196 0
174 198 0
174 198 0
174 197 0
174 197 0
174 198 0
174 197 0
175 198 0
175 198 0
175 198 0
174 198 0
173 197 0
176 199 0
176 198 0
174 198 0
174 197 0
173 197 0
175 198 0
173 197 0
174 198 0
174 198 0
174 197 0
175 198 0
174 197 0
174 198 0
173 197 0
176 199 0
174 198 0
175 198 0
175 198 0
175 198 0
174 198 0
175 198 0
173 197 0
175 198 0
175 198 0
174 197 0
174 198 0
174 198 0
175 198 0
175 198 0
173 196 0
174 197 0
175 198 0
172 196 0
173 197 0
172 196 0
175 198 0
172 197 0
173 197 0
172 196 0
172 196 0
173 196 0
174 197 0
174 198 0
175 198 0
175 198 0
173 196 0
175 198 0
174 197 0
174 197 0
173 197 0
174 198 0
174 197 0
171 195 0
174 197 0
174 197 0
171 196 0
175 198 0
172 196 0
173 197 0
174 197 0
172 196 0
173 196 0
175 198 0
172 196 0
172 196 0
176 198 0
174 197 0
174 197 0
172 196 0
172 196 0
172 195 0
172 196 0
171 194 0
175 198 0
174 197 0
171 195 0
174 198 0
173 197 0
174 197 0
172 195 0
172 195 0
175 198 0
174 197 0
174 197 0
172 197 0
172 195 0
173 197 0
172 195 0
174 197 0
172 194 0
174 197 0
171 195 0
172 196 0
170 194 0
173 197 0
171 195 0
171 195 0
173 197 0
173 197 0
172 195 0
171 195 0
172 195 0
171 195 0
173 197 0
172 196 0
172 196 0
173 197 0
172 196 0
173 196 0
173 196 0
174 198 0
173 196 0
175 197 0
173 197 0
171 195 0
172 195 0
174 197 0
173 196 0
172 196 0
172 195 0
171 194 0
171 195 0
174 197 0
171 195 0
172 196 0
173 196 0
172 196 0
171 195 0
173 196 0
172 195 0
171 196 0
173 196 0
173 196 0
173 196 0
174 198 0
173 196 0
171 195 0
172 196 0
172 196 0
172 195 0
172 195 0
171 194 0
172 195 0
174 198 0
173 197 0
173 197 0
172 195 0
173 196 0
171 195 0
173 197 0
170 194 0
172 195 0
171 194 0
175 198 0
172 196 0
173 197 0
174 197 0
173 196 0
171 193 0
173 197 0
172 196 0
174 198 0
172 196 0
173 197 0
170 193 0
173 197 0
173 196 0
171 195 0
172 195 0
173 196 0
174 197 0
174 198 0
173 196 0
171 195 0
174 197 0
175 198 0
174 198 0
171 194 0
175 198 0
172 196 0
174 197 0
172 196 0
173 196 0
174 197 0
173 197 0
175 198 0
172 196 0
174 197 0
175 198 0
174 197 0
171 194 0
173 196 0
173 197 0
174 197 0
175 198 0
174 196 0
176 198 0
175 198 0
173 197 0
174 197 0
175 198 0
172 196 0
173 197 0
176 199 0
174 198 0
173 196 0
172 195 0
174 197 0
172 196 0
173 197 0
175 198 0
172 196 0
174 197 0
174 197 0
174 197 0
175 198 0
173 197 0
172 196 0
173 196 0
172 196 0
173 197 0
173 196 0
174 197 0
173 197 0
175 197 0
174 197 0
172 196 0
175 198 0
174 197 0
174 198 0
174 197 0
173 197 0
174 197 0
175 198 0
174 197 0
173 197 0
174 198 0
173 196 0
177 199 0
174 197 0
173 197 0
172 196 0
174 197 0
174 197 0
173 197 0
174 198 0
174 198 0
175 197 0
175 198 0
174 197 0
174 198 0
175 198 0
174 198 0
175 198 0
173 197 0
173 197 0
174 197 0
175 198 0
177 199 0
173 197 0
172 196 0
175 197 0
174 197 0
175 198 0
173 196 0
173 197 0
175 198 0
173 197 0
174 197 0
175 198 0
173 196 0
176 198 0
173 196 0
176 198 0
175 198 0
173 197 0
174 197 0
175 198 0
174 197 0
173 197 0
174 197 0
174 198 0
175 198 0
173 197 0
173 197 0
174 197 0
173 197 0
174 197 0
173 197 0
173 197 0
174 197 0
172 196 0
173 197 0
173 197 0
176 199 0
175 198 0
175 198 0
173 197 0
173 197 0
174 197 0
174 197 0
175 198 0
174 197 0
175 198 0
175 198 0
174 197 0
175 198 0
175 198 0
175 198 0
173 197 0
174 197 0
173 197 0
175 198 0
174 198 0
176 199 0
175 198 0
175 198 0
175 198 0
175 198 0
174 197 0
175 198 0
174 197 0
174 198 0
174 197 0
175 198 0
174 197 0
173 197 0
174 197 0
175 198 0
176 199 0
173 197 0
175 198 0
175 198 0
175 198 0
172 196 0
174 198 0
174 198 0
173 197 0
175 198 0
174 198 0
173 197 0
173 197 0
175 198 0
175 198 0
176 198 0
175 198 0
175 198 0
174 197 0
174 198 0
175 198 0
174 197 0
174 197 0
174 198 0
174 198 0
174 198 0
175 198 0
174 198 0
176 199 0
174 198 0
173 197 0
175 198 0
175 198 0
175 198 0
173 197 0
174 198 0
174 197 0
173 197 0
175 198 0
174 198 0
174 198 0
175 198 0
175 197 0
175 198 0
175 198 0
175 198 0
176 199 0
176 199 0
174 197 0
174 198 0
175 198 0
173 197 0
174 198 0
174 198 0
172 197 0
174 198 0
176 198 0
175 198 0
176 199 0
173 196 0
174 197 0
176 199 0
174 198 0
175 198 0
175 198 0
174 197 0
176 198 0
174 197 0
174 198 0
175 198 0
176 198 0
175 198 0
172 197 0
174 198 0
174 197 0
175 198 0
174 198 0
173 196 0
175 198 0
175 198 0
174 198 0
173 197 0
173 197 0
174 198 0
175 198 0
174 198 0
172 196 0
175 198 0
172 197 0
176 199 0
175 198 0
173 197 0
174 198 0
173 197 0
174 198 0
174 197 0
173 197 0
173 197 0
173 197 0
173 197 0
174 197 0
175 198 0
174 197 0
174 198 0
174 197 0
173 197 0
176 199 0
173 197 0
174 197 0
175 198 0
173 197 0
173 196 0
170 194 0
174 198 0
173 197 0
173 196 0
171 196 0
174 198 0
173 197 0
174 198 0
174 198 0
174 198 0
172 195 0
173 197 0
174 198 0
175 198 0
172 196 0
173 197 0
174 197 0
174 197 0
175 198 0
173 197 0
174 197 0
174 197 0
175 197 0
174 197 0
174 198 0
171 195 0
174 197 0
175 198 0
173 196 0
171 195 0
176 199 0
173 197 0
173 197 0
174 197 0
174 197 0
172 196 0
174 198 0
173 197 0
176 198 0
173 197 0
173 197 0
174 197 0
174 198 0
171 194 0
171 195 0
172 196 0
172 196 0
174 198 0
170 194 0
172 196 0
172 196 0
172 196 0
173 197 0
175 198 0
173 197 0
173 196 0
173 197 0
172 196 0
173 196 0
172 195 0
174 197 0
174 197 0
174 197 0
172 195 0
172 196 0
171 195 0
173 197 0
171 195 0
171 195 0
173 197 0
174 198 0
175 198 0
172 196 0
174 198 0
172 195 0
175 197 0
171 195 0
172 196 0
172 196 0
174 197 0
171 194 0
171 194 0
168 192 0
172 195 0
174 197 0
172 196 0
170 193 0
171 194 0
172 196 0
171 194 0
171 194 0
172 196 0
172 196 0
172 195 0
171 195 0
174 197 0
171 195 0
171 195 0
174 196 0
173 196 0
172 195 0
175 198 0
172 196 0
172 195 0
172 196 0
174 197 0
173 197 0
172 196 0
174 197 0
174 198 0
174 197 0
170 195 0
172 195 0
172 196 0
173 197 0
174 196 0
173 197 0
171 196 0
174 198 0
172 196 0
173 196 0
174 197 0
171 195 0
172 196 0
172 196 0
171 195 0
172 196 0
173 197 0
172 195 0
172 196 0
172 195 0
173 196 0
174 197 0
175 198 0
176 198 0
172 195 0
173 196 0
173 196 0
171 195 0
173 197 0
174 198 0
172 196 0
170 194 0
172 195 0
173 196 0
173 196 0
172 195 0
173 196 0
174 198 0
174 197 0
172 196 0
174 197 0
174 197 0
175 198 0
174 197 0
172 196 0
173 196 0
174 198 0
173 197 0
174 197 0
175 198 0
173 196 0
173 195 0
174 198 0
175 198 0
172 196 0
174 198 0
173 196 0
175 198 0
173 197 0
175 198 0
173 197 0
172 196 0
175 198 0
174 197 0
174 197 0
171 194 0
174 197 0
174 198 0
173 197 0
173 196 0
174 197 0
174 198 0
174 196 0
175 198 0
174 197 0
174 197 0
173 197 0
174 198 0
174 198 0
175 198 0
174 197 0
173 196 0
174 197 0
172 196 0
174 197 0
173 196 0
174 198 0
174 197 0
172 196 0
172 196 0
175 198 0
172 195 0
174 197 0
174 198 0
175 198 0
174 197 0
174 197 0
173 197 0
176 199 0
174 197 0
173 196 0
176 199 0
174 197 0
174 197 0
173 197 0
175 198 0
174 197 0
175 198 0
175 198 0
174 197 0
174 198 0
175 198 0
175 198 0
174 197 0
174 198 0
174 198 0
174 198 0
175 198 0
174 198 0
174 197 0
173 197 0
173 197 0
174 197 0
174 198 0
172 197 0
174 197 0
171 195 0
174 198 0
173 197 0
175 198 0
176 198 0
174 198 0
174 197 0
173 197 0
175 198 0
175 198 0
174 197 0
174 197 0
174 197 0
176 198 0
175 198 0
175 198 0
174 198 0
174 197 0
176 199 0
176 199 0
174 197 0
173 197 0
175 198 0
173 197 0
176 198 0
174 198 0
172 197 0
173 197 0
173 197 0
174 197 0
172 196 0
174 197 0
174 197 0
173 197 0
174 198 0
174 197 0
174 198 0
174 198 0
173 197 0
174 197 0
173 197 0
174 198 0
175 198 0
174 198 0
173 197 0
176 199 0
174 198 0
172 196 0
174 197 0
174 198 0
174 197 0
173 197 0
174 197 0
173 197 0
175 198 0
173 197 0
174 198 0
176 198 0
174 198 0
174 197 0
175 198 0
175 198 0
174 197 0
173 197 0
174 197 0
174 198 0
174 197 0
175 198 0
174 198 0
173 197 0
174 198 0
175 198 0
173 197 0
173 197 0
174 197 0
174 198 0
175 198 0
173 197 0
174 198 0
175 198 0
176 198 0
174 197 0
172 197 0
174 197 0
176 198 0
174 197 0
175 198 0
173 197 0
173 197 0
174 198 0
174 197 0
176 199 0
174 198 0
174 198 0
175 198 0
173 197 0
174 198 0
173 197 0
172 196 0
172 196 0
174 198 0
175 198 0
176 198 0
176 199 0
173 196 0
173 197 0
174 198 0
176 199 0
175 198 0
173 197 0
173 197 0
175 198 0
175 198 0
173 197 0
174 198 0
174 198 0
174 198 0
174 198 0
174 198 0
173 197 0
175 198 0
175 198 0
174 198 0
175 198 0
174 198 0
175 198 0
173 197 0
173 197 0
176 198 0
172 197 0
174 198 0
174 197 0
173 197 0
175 198 0
176 198 0
172 196 0
175 198 0
174 197 0
174 198 0
174 198 0
177 199 0
174 198 0
174 197 0
174 198 0
172 196 0
172 195 0
174 197 0
174 197 0
171 196 0
175 198 0
173 197 0
176 199 0
174 197 0
174 198 0
174 198 0
171 196 0
175 197 0
175 198 0
174 198 0
172 196 0
172 196 0
172 196 0
175 198 0
174 197 0
177 199 0
175 198 0
173 197 0
174 198 0
174 197 0
175 198 0
174 197 0
175 198 0
172 196 0
172 196 0
175 198 0
174 197 0
174 198 0
175 198 0
173 196 0
173 197 0
173 197 0
173 197 0
174 198 0
174 198 0
174 198 0
173 196 0
173 197 0
175 198 0
174 196 0
172 196 0
173 196 0
175 198 0
173 197 0
172 196 0
174 198 0
175 197 0
172 196 0
173 197 0
173 196 0
174 197 0
174 197 0
176 198 0
174 197 0
173 197 0
174 197 0
172 195 0
173 196 0
174 197 0
173 197 0
174 198 0
174 197 0
173 197 0
173 197 0
170 194 0
175 198 0
173 196 0
176 199 0
174 197 0
171 196 0
173 196 0
173 196 0
172 195 0
175 198 0
173 197 0
173 196 0
174 197 0
173 197 0
174 197 0
173 197 0
172 196 0
173 196 0
172 195 0
173 196 0
172 196 0
174 197 0
173 196 0
172 196 0
176 199 0
171 195 0
174 198 0
173 196 0
173 197 0
172 196 0
173 196 0
171 195 0
170 194 0
172 196 0
171 195 0
174 197 0
171 194 0
173 197 0
170 194 0
173 197 0
172 196 0
173 196 0
173 197 0
172 196 0
173 196 0
172 196 0
173 197 0
171 195 0
171 195 0
170 194 0
173 196 0
174 197 0
171 195 0
173 196 0
174 197 0
172 195 0
172 195 0
174 197 0
176 198 0
172 195 0
171 195 0
174 198 0
173 197 0
173 197 0
171 195 0
174 197 0
175 198 0
172 195 0
172 196 0
173 196 0
172 196 0
173 197 0
173 196 0
173 197 0
170 194 0
173 196 0
172 196 0
171 195 0
175 198 0
171 195 0
172 196 0
172 196 0
175 198 0
173 196 0
172 196 0
173 196 0
173 197 0
173 197 0
175 198 0
172 196 0
173 197 0
173 197 0
171 196 0
174 197 0
173 197 0
174 197 0
174 197 0
172 196 0
175 198 0
171 195 0
174 198 0
172 196 0
174 198 0
174 197 0
174 197 0
174 197 0
172 196 0
173 196 0
173 196 0
174 197 0
172 196 0
175 198 0
174 197 0
173 197 0
175 198 0
175 198 0
173 196 0
175 198 0
173 197 0
173 196 0
171 195 0
172 195 0
173 196 0
175 198 0
172 196 0
173 197 0
172 196 0
175 198 0
174 197 0
176 198 0
175 198 0
175 198 0
173 196 0
174 197 0
173 196 0
173 197 0
171 196 0
174 197 0
172 196 0
174 197 0
174 197 0
174 197 0
173 196 0
173 197 0
175 198 0
174 197 0
172 196 0
173 197 0
174 197 0
174 197 0
172 195 0
174 198 0
174 197 0
174 197 0
173 196 0
173 197 0
174 198 0
173 197 0
175 198 0
174 198 0
174 197 0
173 196 0
174 197 0
173 197 0
173 197 0
174 197 0
174 197 0
174 197 0
173 197 0
174 198 0
174 197 0
173 197 0
173 197 0
172 196 0
174 197 0
173 197 0
176 198 0
173 196 0
174 198 0
175 198 0
174 197 0
175 198 0
173 197 0
174 198 0
173 196 0
174 197 0
174 197 0
172 197 0
174 197 0
172 196 0
173 197 0
174 198 0
175 198 0
174 198 0
174 198 0
175 198 0
174 197 0
174 197 0
174 197 0
174 197 0
173 197 0
175 198 0
176 199 0
176 199 0
173 197 0
174 197 0
174 197 0
175 198 0
174 198 0
174 197 0
174 198 0
173 197 0
174 197 0
174 198 0
172 196 0
173 196 0
174 197 0
174 197 0
174 197 0
173 197 0
172 196 0
175 198 0
176 199 0
175 198 0
177 199 0
174 198 0
175 198 0
172 196 0
175 198 0
173 197 0
176 198 0
175 198 0
173 197 0
174 198 0
173 197 0
175 198 0
175 198 0
175 198 0
174 197 0
175 198 0
176 199 0
174 197 0
175 198 0
173 197 0
174 197 0
173 197 0
174 197 0
172 196 0
175 198 0
174 198 0
176 198 0
174 198 0
174 197 0
174 198 0
173 197 0
173 197 0
174 198 0
174 197 0
176 198 0
175 198 0
174 197 0
173 197 0
174 197 0
174 198 0
173 197 0
174 198 0
174 197 0
176 199 0
174 198 0
173 196 0
174 198 0
175 198 0
174 198 0
175 198 0
174 197 0
173 197 0
173 197 0
174 198 0
173 197 0
174 198 0
174 198 0
174 198 0
176 198 0
175 198 0
174 198 0
174 198 0
175 198 0
175 198 0
175 198 0
172 196 0
174 198 0
174 198 0
173 197 0
173 197 0
174 197 0
173 197 0
173 197 0
174 198 0
175 198 0
175 198 0
172 197 0
176 198 0
173 197 0
175 198 0
175 198 0
174 198 0
173 197 0
172 197 0
174 198 0
173 197 0
174 198 0
175 198 0
174 198 0
172 197 0
172 196 0
174 198 0
175 198 0
174 198 0
174 198 0
174 198 0
173 196 0
174 198 0
174 197 0
176 198 0
173 197 0
174 197 0
173 196 0
174 197 0
174 197 0
173 197 0
174 198 0
175 198 0
174 198 0
173 197 0
173 197 0
174 198 0
175 198 0
173 196 0
173 197 0
174 198 0
174 198 0
174 198 0
174 198 0
174 197 0
172 196 0
174 198 0
174 197 0
174 197 0
174 197 0
173 197 0
176 199 0
174 197 0
174 198 0
175 197 0
175 198 0
173 196 0
175 198 0
173 197 0
174 198 0
176 198 0
172 196 0
173 196 0
173 197 0
174 198 0
174 198 0
175 198 0
174 197 0
173 197 0
174 197 0
174 198 0
173 197 0
174 197 0
173 197 0
172 196 0
173 196 0
172 196 0
173 197 0
174 197 0
173 197 0
173 197 0
172 196 0
172 196 0
171 195 0
174 197 0
173 197 0
173 197 0
172 196 0
171 195 0
173 196 0
175 198 0
173 197 0
173 196 0
175 198 0
173 197 0
173 196 0
171 196 0
173 196 0
172 196 0
173 196 0
173 197 0
174 197 0
175 197 0
174 198 0
172 195 0
174 197 0
171 195 0
172 196 0
175 198 0
174 198 0
174 197 0
172 196 0
171 195 0
173 197 0
171 195 0
173 196 0
174 196 0
174 197 0
174 197 0
173 196 0
173 196 0
172 196 0
173 196 0
172 196 0
173 197 0
174 197 0
170 193 0
173 197 0
169 193 0
171 195 0
171 195 0
172 195 0
173 196 0
171 194 0
171 195 0
173 196 0
170 194 0
174 197 0
171 195 0
173 197 0
173 196 0
172 196 0
173 197 0
173 196 0
173 196 0
173 197 0
174 197 0
173 197 0
176 198 0
172 195 0
173 196 0
173 197 0
175 198 0
172 195 0
173 197 0
174 197 0
174 197 0
174 197 0
172 196 0
172 196 0
175 198 0
172 196 0
174 197 0
172 195 0
173 196 0
173 196 0
174 198 0
172 196 0
172 196 0
171 195 0
174 197 0
172 196 0
173 196 0
174 197 0
173 196 0
173 197 0
172 195 0
173 197 0
172 196 0
172 196 0
173 196 0
173 197 0
173 196 0
169 193 0
173 197 0
173 196 0
173 196 0
174 197 0
173 197 0
173 196 0
172 196 0
173 196 0
174 197 0
171 195 0
172 196 0
173 196 0
171 195 0
173 197 0
174 197 0
173 197 0
172 196 0
174 197 0
172 195 0
171 195 0
174 198 0
173 196 0
173 197 0
173 196 0
174 198 0
172 196 0
173 197 0
173 196 0
174 197 0
173 197 0
174 197 0
174 197 0
175 198 0
173 197 0
174 198 0
174 198 0
174 197 0
172 197 0
174 197 0
175 198 0
174 197 0
174 197 0
172 197 0
173 197 0
175 198 0
174 197 0
174 197 0
173 196 0
172 196 0
173 197 0
173 197 0
175 198 0
172 196 0
172 196 0
171 194 0
172 195 0
175 198 0
174 197 0
174 198 0
175 198 0
173 197 0
173 196 0
174 198 0
174 197 0
171 196 0
175 198 0
175 198 0
174 198 0
173 197 0
173 197 0
174 197 0
174 197 0
174 198 0
175 198 0
174 198 0
174 197 0
172 196 0
174 198 0
174 198 0
174 197 0
174 197 0
174 198 0
174 198 0
174 197 0
176 199 0
174 197 0
175 198 0
174 198 0
172 196 0
173 197 0
174 197 0
174 198 0
174 198 0
174 197 0
174 198 0
172 197 0
174 197 0
173 197 0
174 198 0
175 198 0
174 198 0
174 198 0
174 198 0
175 198 0
173 197 0
173 197 0
175 198 0
174 197 0
173 197 0
175 198 0
174 198 0
174 198 0
175 198 0
174 198 0
176 198 0
174 198 0
177 199 0
172 196 0
174 198 0
174 197 0
175 198 0
175 198 0
173 197 0
175 198 0
173 197 0
175 198 0
175 198 0
175 198 0
172 196 0
176 198 0
175 198 0
172 196 0
173 197 0
175 198 0
174 198 0
174 198 0
175 198 0
176 198 0
175 198 0
177 199 0
174 197 0
174 198 0
174 198 0
173 197 0
173 197 0
173 197 0
172 196 0
175 198 0
173 197 0
176 198 0
174 198 0
176 198 0
173 197 0
175 198 0
173 197 0
174 198 0
176 198 0
175 198 0
175 198 0
173 197 0
173 197 0
175 198 0
175 198 0
174 198 0
174 197 0
175 198 0
174 198 0
174 197 0
174 198 0
174 197 0
175 198 0
175 198 0
175 198 0
173 197 0
176 198 0
174 197 0
176 199 0
174 197 0
175 198 0
172 197 0
176 199 0
176 198 0
175 198 0
175 198 0
176 198 0
173 197 0
176 199 0
174 197 0
175 198 0
175 198 0
174 197 0
175 198 0
175 198 0
174 198 0
175 198 0
176 199 0
174 198 0
174 197 0
172 197 0
175 198 0
174 198 0
174 198 0
173 197 0
173 197 0
173 197 0
175 198 0
173 197 0
174 198 0
176 199 0
173 197 0
173 197 0
174 198 0
173 197 0
174 197 0
174 198 0
175 198 0
174 197 0
175 198 0
173 196 0
174 198 0
174 197 0
174 197 0
174 198 0
174 198 0
174 198 0
174 197 0
174 198 0
175 198 0
173 197 0
175 198 0
174 197 0
175 198 0
175 198 0
175 198 0
174 198 0
175 198 0
174 198 0
176 199 0
174 198 0
175 198 0
173 197 0
175 198 0
174 197 0
174 198 0
174 197 0
175 198 0
172 196 0
174 198 0
175 198 0
174 198 0
174 198 0
173 197 0
173 197 0
175 198 0
174 198 0
174 197 0
172 197 0
173 197 0
175 198 0
175 198 0
170 195 0
175 198 0
175 198 0
175 198 0
173 196 0
174 197 0
174 197 0
174 198 0
171 195 0
172 196 0
174 197 0
175 198 0
172 196 0
175 198 0
175 198 0
175 198 0
171 195 0
175 198 0
174 198 0
173 197 0
172 196 0
173 197 0
173 197 0
174 198 0
173 197 0
170 194 0
175 198 0
173 196 0
173 196 0
174 197 0
175 198 0
174 197 0
174 198 0
175 198 0
174 197 0
174 197 0
173 197 0
172 196 0
175 198 0
174 197 0
171 195 0
173 197 0
174 198 0
174 198 0
174 197 0
171 195 0
174 197 0
172 196 0
173 197 0
173 196 0
173 196 0
173 197 0
174 197 0
173 197 0
174 198 0
174 197 0
173 196 0
173 197 0
172 196 0
172 195 0
175 198 0
173 196 0
172 196 0
174 197 0
172 195 0
173 197 0
174 197 0
173 197 0
172 196 0
171 194 0
173 195 0
172 196 0
173 197 0
174 198 0
175 198 0
173 197 0
172 195 0
174 197 0
170 193 0
173 196 0
172 195 0
170 194 0
173 197 0
174 197 0
172 196 0
172 195 0
172 196 0
171 196 0
173 197 0
172 196 0
173 196 0
174 198 0
175 198 0
170 194 0
174 197 0
174 197 0
170 195 0
172 195 0
174 197 0
174 197 0
174 197 0
173 197 0
173 196 0
172 196 0
172 196 0
175 198 0
173 197 0
175 198 0
173 197 0
170 193 0
173 197 0
173 196 0
171 195 0
173 197 0
172 196 0
171 194 0
174 197 0
173 196 0
173 196 0
174 197 0
173 197 0
174 197 0
173 196 0
172 196 0
173 197 0
173 196 0
167 191 0
172 196 0
174 197 0
170 194 0
174 197 0
173 197 0
171 195 0
172 196 0
174 197 0
174 197 0
175 198 0
175 198 0
172 196 0
172 196 0
173 196 0
174 197 0
175 198 0
174 197 0
173 196 0
175 198 0
174 197 0
175 198 0
172 196 0
173 196 0
174 197 0
171 195 0
174 197 0
173 197 0
172 196 0
174 197 0
174 197 0
175 198 0
175 198 0
173 197 0
171 195 0
172 196 0
173 197 0
173 197 0
174 197 0
172 195 0
175 198 0
174 197 0
173 196 0
173 197 0
174 197 0
175 198 0
174 198 0
172 195 0
174 198 0
174 197 0
174 197 0
174 198 0
173 197 0
174 197 0
172 195 0
175 198 0
172 196 0
175 198 0
174 197 0
174 197 0
174 198 0
172 196 0
174 197 0
172 196 0
171 194 0
175 198 0
173 197 0
173 197 0
173 196 0
174 197 0
174 198 0
175 198 0
174 197 0
174 198 0
172 196 0
173 197 0
174 198 0
173 196 0
173 196 0
175 198 0
174 198 0
174 197 0
174 197 0
174 198 0
175 198 0
174 197 0
174 197 0
174 198 0
172 196 0
173 197 0
173 196 0
174 198 0
173 196 0
175 198 0
175 198 0
172 196 0
172 196 0
174 198 0
175 198 0
173 197 0
175 198 0
175 198 0
175 198 0
174 197 0
172 196 0
173 196 0
173 197 0
173 196 0
175 198 0
173 197 0
173 197 0
174 198 0
174 198 0
175 197 0
174 198 0
175 198 0
173 197 0
174 197 0
174 197 0
174 198 0
174 197 0
174 197 0
175 198 0
173 197 0
172 196 0
175 198 0
175 198 0
173 197 0
176 199 0
175 198 0
174 198 0
174 198 0
174 197 0
175 198 0
173 197 0
174 197 0
175 198 0
174 197 0
173 197 0
175 198 0
173 197 0
175 198 0
174 198 0
174 198 0
176 198 0
174 198 0
175 198 0
175 198 0
172 196 0
173 197 0
174 198 0
175 198 0
173 197 0
174 198 0
175 198 0
174 198 0
174 198 0
174 197 0
175 198 0
173 197 0
173 197 0
174 197 0
175 198 0
173 197 0
175 198 0
173 197 0
174 197 0
176 198 0
175 198 0
175 198 0
174 197 0
174 198 0
176 198 0
174 198 0
174 198 0
175 198 0
174 198 0
172 196 0
175 198 0
173 197 0
173 197 0
175 198 0
173 196 0
175 198 0
174 198 0
174 198 0
174 198 0
174 197 0
171 195 0
173 197 0
174 197 0
173 197 0
175 198 0
176 199 0
176 199 0
175 198 0
175 198 0
174 197 0
174 198 0
174 198 0
174 197 0
175 198 0
175 198 0
174 197 0
173 197 0
173 197 0
175 198 0
174 198 0
174 198 0
173 197 0
174 198 0
175 198 0
173 197 0
173 197 0
173 197 0
175 198 0
175 198 0
174 198 0
175 198 0
175 198 0
175 198 0
173 197 0
174 198 0
175 198 0
176 199 0
173 197 0
174 198 0
173 197 0
172 197 0
174 197 0
173 197 0
174 198 0
173 197 0
174 198 0
174 198 0
173 197 0
174 197 0
174 198 0
175 198 0
175 198 0
175 198 0
174 197 0
173 197 0
175 198 0
175 198 0
173 197 0
174 198 0
174 198 0
174 197 0
174 197 0
173 197 0
173 197 0
174 198 0
176 199 0
175 198 0
174 198 0
174 197 0
174 197 0
175 198 0
174 197 0
173 197 0
175 198 0
175 198 0
175 198 0
175 198 0
173 197 0
174 198 0
176 198 0
174 198 0
174 198 0
173 197 0
173 196 0
174 197 0
172 196 0
173 197 0
174 197 0
175 198 0
174 197 0
172 197 0
175 198 0
173 197 0
174 197 0
174 197 0
174 198 0
174 198 0
175 198 0
174 198 0
174 197 0
172 196 0
174 198 0
174 197 0
175 198 0
174 198 0
174 198 0
173 196 0
172 195 0
174 198 0
173 196 0
174 197 0
175 198 0
175 198 0
175 198 0
174 197 0
175 198 0
174 197 0
173 197 0
173 196 0
173 196 0
173 197 0
175 197 0
172 196 0
173 197 0
172 195 0
175 198 0
173 197 0
172 197 0
173 197 0
176 198 0
175 198 0
173 197 0
173 197 0
175 198 0
172 195 0
169 193 0
175 198 0
175 198 0
175 198 0
174 198 0
175 198 0
174 198 0
172 196 0
172 196 0
174 197 0
172 195 0
173 196 0
174 197 0
175 198 0
175 197 0
172 196 0
175 198 0
174 197 0
173 196 0
171 195 0
172 196 0
176 199 0
173 197 0
173 197 0
172 196 0
172 195 0
172 196 0
173 197 0
172 195 0
173 196 0
173 197 0
174 197 0
173 197 0
172 196 0
172 196 0
172 196 0
172 196 0
171 194 0
171 195 0
173 197 0
172 196 0
172 196 0
174 197 0
173 197 0
174 196 0
173 196 0
173 196 0
172 196 0
174 198 0
172 196 0
172 195 0
173 197 0
172 196 0
173 197 0
175 198 0
172 196 0
172 195 0
170 195 0
175 198 0
173 197 0
174 198 0
175 197 0
172 196 0
174 197 0
173 196 0
172 196 0
173 197 0
169 193 0
172 196 0
170 195 0
174 197 0
170 193 0
172 195 0
171 195 0
172 196 0
171 194 0
172 196 0
173 195 0
175 198 0
172 196 0
174 198 0
173 196 0
172 195 0
173 196 0
172 197 0
173 197 0
174 198 0
173 197 0
172 195 0
173 197 0
173 196 0
173 197 0
175 198 0
174 197 0
171 195 0
173 197 0
173 196 0
172 196 0
173 197 0
171 195 0
173 197 0
171 195 0
173 197 0
171 194 0
174 197 0
174 198 0
173 196 0
173 196 0
173 197 0
173 197 0
172 195 0
175 198 0
175 198 0
174 197 0
174 198 0
173 197 0
174 198 0
175 198 0
172 196 0
173 196 0
175 198 0
173 197 0
174 197 0
172 196 0
175 198 0
174 197 0
175 198 0
174 197 0
174 197 0
172 196 0
175 197 0
173 197 0
173 197 0
173 197 0
174 198 0
175 198 0
171 196 0
175 198 0
174 198 0
174 197 0
172 196 0
174 197 0
173 197 0
170 195 0
175 198 0
174 198 0
172 196 0
173 196 0
174 197 0
174 198 0
175 198 0
174 197 0
172 196 0
173 197 0
173 197 0
175 198 0
174 198 0
171 195 0
175 198 0
173 197 0
175 198 0
174 198 0
175 197 0
173 196 0
174 197 0
174 198 0
174 197 0
174 198 0
174 197 0
174 197 0
175 198 0
174 197 0
175 198 0
174 197 0
176 199 0
173 197 0
175 198 0
173 197 0
175 198 0
173 197 0
171 194 0
174 198 0
175 198 0
173 197 0
174 198 0
176 199 0
174 198 0
174 198 0
172 196 0
173 197 0
173 197 0
173 197 0
175 198 0
174 198 0
174 198 0
171 196 0
175 198 0
174 198 0
174 197 0
174 197 0
174 197 0
176 199 0
174 198 0
175 198 0
175 198 0
176 198 0
174 197 0
174 197 0
174 197 0
174 198 0
176 199 0
172 197 0
174 198 0
174 197 0
174 197 0
173 197 0
176 198 0
175 198 0
175 198 0
174 198 0
173 197 0
174 198 0
173 197 0
174 198 0
174 198 0
173 197 0
174 198 0
174 198 0
175 198 0
173 197 0
175 198 0
176 198 0
173 197 0
174 197 0
174 198 0
174 197 0
175 197 0
175 198 0
175 198 0
175 198 0
175 198 0
175 198 0
176 198 0
174 198 0
175 198 0
175 198 0
175 198 0
173 197 0
174 198 0
173 197 0
175 198 0
173 197 0
173 197 0
175 198 0
174 198 0
175 198 0
177 199 0
175 198 0
173 197 0
174 198 0
174 198 0
174 198 0
175 198 0
173 197 0
176 198 0
175 198 0
175 198 0
174 198 0
175 198 0
173 197 0
172 196 0
174 198 0
173 197 0
175 198 0
175 198 0
173 197 0
175 198 0
175 198 0
174 197 0
174 198 0
174 198 0
174 198 0
174 198 0
174 197 0
174 198 0
174 198 0
174 197 0
174 197 0
174 197 0
174 197 0
174 198 0
174 198 0
175 198 0
173 197 0
175 198 0
175 198 0
174 197 0
174 198 0
174 197 0
174 198 0
174 197 0
174 197 0
174 198 0
175 198 0
176 199 0
175 198 0
174 197 0
173 197 0
175 198 0
175 198 0
175 198 0
174 198 0
175 198 0
175 198 0
174 198 0
175 198 0
174 197 0
174 198 0
172 196 0
173 197 0
173 197 0
173 197 0
175 198 0
174 197 0
175 198 0
176 199 0
174 198 0
175 198 0
177 199 0
175 198 0
176 198 0
175 198 0
174 197 0
174 198 0
173 197 0
174 197 0
174 198 0
174 197 0
174 198 0
173 197 0
174 197 0
174 198 0
172 196 0
174 197 0
174 198 0
174 197 0
173 196 0
173 197 0
173 197 0
174 197 0
175 198 0
175 197 0
172 196 0
174 197 0
174 198 0
174 198 0
173 196 0
172 196 0
174 198 0
175 198 0
175 198 0
174 197 0
174 198 0
172 196 0
175 198 0
173 197 0
174 197 0
174 198 0
174 198 0
175 198 0
175 198 0
173 197 0
172 196 0
174 198 0
173 197 0
175 198 0
174 198 0
174 197 0
174 198 0
175 197 0
174 198 0
174 197 0
173 196 0
174 198 0
173 197 0
174 198 0
174 198 0
173 196 0
173 196 0
173 196 0
173 196 0
173 197 0
173 196 0
170 195 0
173 197 0
173 197 0
174 197 0
176 199 0
173 197 0
173 197 0
171 195 0
172 196 0
174 197 0
173 196 0
174 197 0
173 197 0
175 198 0
171 195 0
169 193 0
174 197 0
174 197 0
174 197 0
171 195 0
175 198 0
174 197 0
174 197 0
171 194 0
170 194 0
172 195 0
175 198 0
171 194 0
173 196 0
171 195 0
174 197 0
171 195 0
173 197 0
173 196 0
174 197 0
174 197 0
172 196 0
172 196 0
172 196 0
174 197 0
170 194 0
173 197 0
174 197 0
174 197 0
173 196 0
172 196 0
173 196 0
173 197 0
174 197 0
173 197 0
170 193 0
171 194 0
171 194 0
172 196 0
172 195 0
170 193 0
174 197 0
175 198 0
175 198 0
173 197 0
173 196 0
170 194 0
172 196 0
174 197 0
172 195 0
172 196 0
170 193 0
173 197 0
172 196 0
173 196 0
170 195 0
170 193 0
174 198 0
172 195 0
171 194 0
171 195 0
174 197 0
174 197 0
171 195 0
173 196 0
173 196 0
171 193 0
174 198 0
172 196 0
173 196 0
172 195 0
174 196 0
174 197 0
173 197 0
173 197 0
172 195 0
174 197 0
171 194 0
173 197 0
173 196 0
171 195 0
171 195 0
173 196 0
172 195 0
171 195 0
174 197 0
174 198 0
172 196 0
175 198 0
172 195 0
173 196 0
174 197 0
174 197 0
172 196 0
174 198 0
173 196 0
172 196 0
175 197 0
175 198 0
175 198 0
175 198 0
175 198 0
174 196 0
171 195 0
173 196 0
174 197 0
175 198 0
174 197 0
172 195 0
173 197 0
174 197 0
173 197 0
174 198 0
173 197 0
174 198 0
173 197 0
173 197 0
173 196 0
174 198 0
173 197 0
174 197 0
173 197 0
175 198 0
174 197 0
172 196 0
173 197 0
174 197 0
173 197 0
174 196 0
173 197 0
173 197 0
172 196 0
174 197 0
173 196 0
175 198 0
175 198 0
173 196 0
172 196 0
174 198 0
174 198 0
175 198 0
175 198 0
174 197 0
173 196 0
175 198 0
172 195 0
174 197 0
173 197 0
174 198 0
174 198 0
174 197 0
174 197 0
175 197 0
174 198 0
176 198 0
176 198 0
174 198 0
173 197 0
174 198 0
175 198 0
174 197 0
172 197 0
174 198 0
175 198 0
175 198 0
174 198 0
175 198 0
172 196 0
172 196 0
174 197 0
174 198 0
175 198 0
173 197 0
174 197 0
174 197 0
174 197 0
175 198 0
174 198 0
175 198 0
174 198 0
175 198 0
174 198 0
175 198 0
173 197 0
174 198 0
174 197 0
174 198 0
172 196 0
173 197 0
176 198 0
175 198 0
174 197 0
174 198 0
173 197 0
174 197 0
176 199 0
175 198 0
176 198 0
175 198 0
174 197 0
175 198 0
174 197 0
174 198 0
174 197 0
175 198 0
174 197 0
176 198 0
175 198 0
173 197 0
175 198 0
174 198 0
173 197 0
175 198 0
174 198 0
172 197 0
175 198 0
174 198 0
175 198 0
176 199 0
174 197 0
174 197 0
175 198 0
171 196 0
174 198 0
174 198 0
174 198 0
173 197 0
176 199 0
174 198 0
175 198 0
172 196 0
174 197 0
173 197 0
175 198 0
176 198 0
175 198 0
174 197 0
173 197 0
175 198 0
175 198 0
174 197 0
173 197 0
173 197 0
174 197 0
174 198 0
175 198 0
176 199 0
174 198 0
173 197 0
176 199 0
174 198 0
175 198 0
173 197 0
173 197 0
175 198 0
175 198 0
175 198 0
174 197 0
175 198 0
175 198 0
174 197 0
173 197 0
173 197 0
176 199 0
174 198 0
174 198 0
173 197 0
173 197 0
174 198 0
174 197 0
174 198 0
175 198 0
175 198 0
174 197 0
175 198 0
174 198 0
174 197 0
173 197 0
174 198 0
173 197 0
175 198 0
175 198 0
175 198 0
174 198 0
175 198 0
173 197 0
173 197 0
174 198 0
174 198 0
175 198 0
177 199 0
173 197 0
176 198 0
173 197 0
173 197 0
175 198 0
175 198 0
174 198 0
174 198 0
175 198 0
174 198 0
175 198 0
175 198 0
176 199 0
174 197 0
173 197 0
171 195 0
174 198 0
174 198 0
174 197 0
173 197 0
174 198 0
175 198 0
173 197 0
173 197 0
175 198 0
173 196 0
174 197 0
174 197 0
173 197 0
173 197 0
173 197 0
174 198 0
175 198 0
177 199 0
172 196 0
174 198 0
172 196 0
174 198 0
174 197 0
174 197 0
174 198 0
175 198 0
174 197 0
174 197 0
173 197 0
174 198 0
174 197 0
173 196 0
174 198 0
174 197 0
175 198 0
176 198 0
172 197 0
176 199 0
174 197 0
173 197 0
173 197 0
175 198 0
174 197 0
174 198 0
172 196 0
174 198 0
175 198 0
173 197 0
175 198 0
172 197 0
171 195 0
171 195 0
173 196 0
176 198 0
173 196 0
175 198 0
174 198 0
173 197 0
175 197 0
173 196 0
174 198 0
175 198 0
174 198 0
173 197 0
173 196 0
174 198 0
173 197 0
172 197 0
173 197 0
172 196 0
175 198 0
174 198 0
172 197 0
175 197 0
172 196 0
173 196 0
173 197 0
171 195 0
174 197 0
175 198 0
173 196 0
174 197 0
171 195 0
174 197 0
173 197 0
172 195 0
174 197 0
173 197 0
172 197 0
172 197 0
173 197 0
174 198 0
173 197 0
172 195 0
173 197 0
171 195 0
172 196 0
174 197 0
172 196 0
174 197 0
174 197 0
174 197 0
173 197 0
171 195 0
172 196 0
172 196 0
174 197 0
174 197 0
175 198 0
174 197 0
173 197 0
173 197 0
171 195 0
174 197 0
173 197 0
173 196 0
174 197 0
174 197 0
171 195 0
171 195 0
172 196 0
171 195 0
171 196 0
173 197 0
174 198 0
172 196 0
171 195 0
172 195 0
173 197 0
174 197 0
172 196 0
174 197 0
172 195 0
172 196 0
173 196 0
173 197 0
172 196 0
173 196 0
174 197 0
174 197 0
176 198 0
172 196 0
171 194 0
173 196 0
175 198 0
173 197 0
171 195 0
173 197 0
173 196 0
172 195 0
174 197 0
172 196 0
172 196 0
174 197 0
173 196 0
173 197 0
173 196 0
174 198 0
175 198 0
174 197 0
172 196 0
173 197 0
172 195 0
170 194 0
172 195 0
175 198 0
171 194 0
174 197 0
172 196 0
174 197 0
174 197 0
172 195 0
172 195 0
173 197 0
172 196 0
174 197 0
173 196 0
174 197 0
175 197 0
171 194 0
173 197 0
173 196 0
171 196 0
173 197 0
174 197 0
174 197 0
174 197 0
173 197 0
171 195 0
174 196 0
173 197 0
175 198 0
173 196 0
173 195 0
174 198 0
173 197 0
172 196 0
171 195 0
172 196 0
175 198 0
174 197 0
173 196 0
171 195 0
172 196 0
173 196 0
173 197 0
174 198 0
173 197 0
173 197 0
176 199 0
173 197 0
173 196 0
175 198 0
173 197 0
172 196 0
171 195 0
175 198 0
175 198 0
174 196 0
173 197 0
174 197 0
174 198 0
171 195 0
171 195 0
174 197 0
172 197 0
175 198 0
175 198 0
174 197 0
174 198 0
174 197 0
175 198 0
174 197 0
174 197 0
175 198 0
173 196 0
175 198 0
173 197 0
173 197 0
175 198 0
174 197 0
176 199 0
173 197 0
174 197 0
172 196 0
174 197 0
174 198 0
173 197 0
173 197 0
174 197 0
175 198 0
175 198 0
173 197 0
173 196 0
175 198 0
174 197 0
174 197 0
174 198 0
175 198 0
173 197 0
175 198 0
175 198 0
175 198 0
173 197 0
176 198 0
175 198 0
175 198 0
174 198 0
174 198 0
175 198 0
173 197 0
174 197 0
175 198 0
173 197 0
175 198 0
176 198 0
174 198 0
175 198 0
174 198 0
174 198 0
173 197 0
175 198 0
175 198 0
174 197 0
172 197 0
174 197 0
172 197 0
173 197 0
174 198 0
175 198 0
174 198 0
175 198 0
174 198 0
173 197 0
175 198 0
173 197 0
173 197 0
173 197 0
175 198 0
174 198 0
174 198 0
174 197 0
174 197 0
174 197 0
173 197 0
174 197 0
173 197 0
174 198 0
173 197 0
175 198 0
174 198 0
175 197 0
173 197 0
175 198 0
176 199 0
173 197 0
174 198 0
174 198 0
173 197 0
175 198 0
173 197 0
174 197 0
174 198 0
173 197 0
175 198 0
174 198 0
176 198 0
175 198 0
174 198 0
174 197 0
174 197 0
176 199 0
175 198 0
174 197 0
175 198 0
175 198 0
175 198 0
172 197 0
174 198 0
174 198 0
175 198 0
175 198 0
175 198 0
174 197 0
173 197 0
174 198 0
172 196 0
175 198 0
174 198 0
173 197 0
174 197 0
173 197 0
174 198 0
176 198 0
175 198 0
175 198 0
173 197 0
175 198 0
176 198 0
174 197 0
175 198 0
172 196 0
174 198 0
174 197 0
176 199 0
175 198 0
175 198 0
175 198 0
173 197 0
172 196 0
173 197 0
173 197 0
174 198 0
175 198 0
174 197 0
175 198 0
174 198 0
174 197 0
174 198 0
175 198 0
175 198 0
176 199 0
172 197 0
174 197 0
174 197 0
173 197 0
175 198 0
175 198 0
176 198 0
174 197 0
173 197 0
175 198 0
175 198 0
174 197 0
174 198 0
175 198 0
174 197 0
175 198 0
175 198 0
175 198 0
173 197 0
173 197 0
175 198 0
174 198 0
173 197 0
174 198 0
173 197 0
174 198 0
174 198 0
174 197 0
173 197 0
174 197 0
174 197 0
174 198 0
172 196 0
175 198 0
175 198 0
174 198 0
172 196 0
174 198 0
173 197 0
171 195 0
173 197 0
175 198 0
173 197 0
173 197 0
173 197 0
175 198 0
174 198 0
173 197 0
174 197 0
174 197 0
174 197 0
174 197 0
171 194 0
176 199 0
173 197 0
174 197 0
174 198 0
173 197 0
174 198 0
174 198 0
174 197 0
173 196 0
173 197 0
174 197 0
173 196 0
173 197 0
173 197 0
174 198 0
174 198 0
174 197 0
172 196 0
174 197 0
173 197 0
171 195 0
174 197 0
173 197 0
175 198 0
173 197 0
173 197 0
174 198 0
174 198 0
173 197 0
175 198 0
173 197 0
174 197 0
174 197 0
175 198 0
173 196 0
172 195 0
173 197 0
174 197 0
174 197 0
173 197 0
172 197 0
173 197 0
172 196 0
173 197 0
174 198 0
173 197 0
172 196 0
173 197 0
173 197 0
176 199 0
173 197 0
171 196 0
174 197 0
175 198 0
173 196 0
174 197 0
173 197 0
174 197 0
172 196 0
174 198 0
175 198 0
173 196 0
173 196 0
175 198 0
175 198 0
174 198 0
173 197 0
174 198 0
171 195 0
172 196 0
175 198 0
174 197 0
173 196 0
174 197 0
173 196 0
174 197 0
173 196 0
173 196 0
175 198 0
171 195 0
172 196 0
174 197 0
175 198 0
173 196 0
172 196 0
171 195 0
173 197 0
173 196 0
171 195 0
172 196 0
170 194 0
175 197 0
172 196 0
174 197 0
174 197 0
172 196 0
174 197 0
172 196 0
173 197 0
171 195 0
171 194 0
173 196 0
173 197 0
175 198 0
174 197 0
173 196 0
173 197 0
174 198 0
172 196 0
172 196 0
172 196 0
174 197 0
172 196 0
173 197 0
175 197 0
172 196 0
172 196 0
172 196 0
174 197 0
171 195 0
174 198 0
172 196 0
169 192 0
174 197 0
173 196 0
173 196 0
172 195 0
173 197 0
173 197 0
173 196 0
172 196 0
171 195 0
173 196 0
173 196 0
172 196 0
172 195 0
175 198 0
172 195 0
175 198 0
174 198 0
174 198 0
173 197 0
175 198 0
173 196 0
174 197 0
174 197 0
173 196 0
174 197 0
173 196 0
174 197 0
174 197 0
172 196 0
171 194 0
173 197 0
173 196 0
173 197 0
175 198 0
172 196 0
171 196 0
174 196 0
174 198 0
175 198 0
173 196 0
173 197 0
174 197 0
172 196 0
173 197 0
171 195 0
173 196 0
173 196 0
174 197 0
173 197 0
174 197 0
175 198 0
174 197 0
174 197 0
173 197 0
176 198 0
175 198 0
175 198 0
173 197 0
175 198 0
173 196 0
173 197 0
173 197 0
174 197 0
173 197 0
174 198 0
173 197 0
175 197 0
173 197 0
173 197 0
174 197 0
173 197 0
173 197 0
174 197 0
173 197 0
173 197 0
173 197 0
175 198 0
176 198 0
175 198 0
174 197 0
173 196 0
172 196 0
173 197 0
173 197 0
174 198 0
172 196 0
175 198 0
173 197 0
174 197 0
171 194 0
173 197 0
175 198 0
175 198 0
174 197 0
175 198 0
173 197 0
175 198 0
174 197 0
173 197 0
176 198 0
174 197 0
173 197 0
175 198 0
173 197 0
175 198 0
175 198 0
175 198 0
173 197 0
174 197 0
172 196 0
174 198 0
175 198 0
174 198 0
174 198 0
174 197 0
175 198 0
174 198 0
172 196 0
174 197 0
174 198 0
175 198 0
176 198 0
172 196 0
175 198 0
175 198 0
173 197 0
175 198 0
174 197 0
176 199 0
174 198 0
175 198 0
173 197 0
173 197 0
174 197 0
173 197 0
174 197 0
175 198 0
172 196 0
175 198 0
175 198 0
175 198 0
176 198 0
175 198 0
174 198 0
172 196 0
176 199 0
174 198 0
173 197 0
172 196 0
174 197 0
175 198 0
175 198 0
174 197 0
175 198 0
174 197 0
174 198 0
175 198 0
174 198 0
174 198 0
174 198 0
175 198 0
174 198 0
175 198 0
175 198 0
175 198 0
174 198 0
175 198 0
173 197 0
174 198 0
173 197 0
174 198 0
175 198 0
173 197 0
174 198 0
173 197 0
174 198 0
174 197 0
172 196 0
174 197 0
174 197 0
176 198 0
174 197 0
175 198 0
175 198 0
174 198 0
174 197 0
174 197 0
173 197 0
175 198 0
174 198 0
174 197 0
175 198 0
176 199 0
173 197 0
174 197 0
174 198 0
175 198 0
176 199 0
173 197 0
175 198 0
174 198 0
175 198 0
175 198 0
175 198 0
175 198 0
175 198 0
172 196 0
172 196 0
175 198 0
173 197 0
173 197 0
175 198 0
174 198 0
173 197 0
174 198 0
173 197 0
173 197 0
173 196 0
173 197 0
173 197 0
173 196 0
174 198 0
172 196 0
174 198 0
174 197 0
174 198 0
173 197 0
175 198 0
174 197 0
173 197 0
174 198 0
175 198 0
174 197 0
174 197 0
172 197 0
174 197 0
174 198 0
174 198 0
175 198 0
174 197 0
175 198 0
175 198 0
174 197 0
175 198 0
174 197 0
173 197 0
174 197 0
174 197 0
173 197 0
175 198 0
174 197 0
175 198 0
174 197 0
173 197 0
175 198 0
175 198 0
174 198 0
174 197 0
174 198 0
172 196 0
173 197 0
174 198 0
175 198 0
174 197 0
176 199 0
174 197 0
172 196 0
175 198 0
175 198 0
174 197 0
175 198 0
173 197 0
174 197 0
175 198 0
174 197 0
175 198 0
174 198 0
174 197 0
172 196 0
173 197 0
174 198 0
175 198 0
174 197 0
174 197 0
173 197 0
175 198 0
177 199 0
174 198 0
173 197 0
175 198 0
175 198 0
172 196 0
172 196 0
175 198 0
174 197 0
173 197 0
173 197 0
172 196 0
175 198 0
175 198 0
172 195 0
173 197 0
175 198 0
175 198 0
173 197 0
173 196 0
173 197 0
174 198 0
175 198 0
174 197 0
173 197 0
174 197 0
175 197 0
173 197 0
174 197 0
174 197 0
170 194 0
172 195 0
174 198 0
173 197 0
174 198 0
175 198 0
175 198 0
174 197 0
173 197 0
173 196 0
174 198 0
174 198 0
172 196 0
174 197 0
173 197 0
174 198 0
172 196 0
172 195 0
174 197 0
175 198 0
173 197 0
173 197 0
173 197 0
175 198 0
172 196 0
172 196 0
174 197 0
174 197 0
172 195 0
170 193 0
173 196 0
173 196 0
172 195 0
173 197 0
173 197 0
173 197 0
170 194 0
171 194 0
174 197 0
173 196 0
174 197 0
173 197 0
173 196 0
172 195 0
174 197 0
171 195 0
173 196 0
175 198 0
173 196 0
173 197 0
175 198 0
171 195 0
171 195 0
173 196 0
173 196 0
170 193 0
173 196 0
173 196 0
173 196 0
175 198 0
173 196 0
175 198 0
174 197 0
173 197 0
171 194 0
173 197 0
170 194 0
170 194 0
174 197 0
173 197 0
172 196 0
174 197 0
174 197 0
172 195 0
172 196 0
176 199 0
170 195 0
174 197 0
171 194 0
173 197 0
173 197 0
173 196 0
175 197 0
174 197 0
172 196 0
173 196 0
176 198 0
174 197 0
173 197 0
173 197 0
173 197 0
173 197 0
172 195 0
172 196 0
174 198 0
174 197 0
172 195 0
175 198 0
174 198 0
173 196 0
175 198 0
174 197 0
174 197 0
173 196 0
174 198 0
173 196 0
170 194 0
172 195 0
173 197 0
174 196 0
175 198 0
175 198 0
172 196 0
175 197 0
173 196 0
175 198 0
174 196 0
173 196 0
170 194 0
172 195 0
174 198 0
172 196 0
173 197 0
174 198 0
173 197 0
174 197 0
174 198 0
174 197 0
174 197 0
174 197 0
175 198 0
173 196 0
173 197 0
172 196 0
174 197 0
173 197 0
173 197 0
174 198 0
174 197 0
174 197 0
175 198 0
174 197 0
174 197 0
174 197 0
175 198 0
174 197 0
175 198 0
174 197 0
173 197 0
174 197 0
174 197 0
173 196 0
175 198 0
174 197 0
174 197 0
172 195 0
175 198 0
175 197 0
173 196 0
174 198 0
173 197 0
174 198 0
173 196 0
175 198 0
175 198 0
176 199 0
173 197 0
172 196 0
172 195 0
174 197 0
173 197 0
174 197 0
175 198 0
174 198 0
175 198 0
174 198 0
176 198 0
172 196 0
174 198 0
173 197 0
175 198 0
172 196 0
173 196 0
173 197 0
174 198 0
174 197 0
173 197 0
175 198 0
174 198 0
176 199 0
174 198 0
175 198 0
174 197 0
174 198 0
172 196 0
174 198 0
174 197 0
175 198 0
174 198 0
174 198 0
174 197 0
174 198 0
174 198 0
173 196 0
174 198 0
174 197 0
174 198 0
174 197 0
173 197 0
174 197 0
174 196 0
175 198 0
174 198 0
173 197 0
174 198 0
174 197 0
174 197 0
174 198 0
173 197 0
174 198 0
174 197 0
173 197 0
175 198 0
173 197 0
176 198 0
175 198 0
174 197 0
173 197 0
175 197 0
174 198 0
174 197 0
174 198 0
176 198 0
173 197 0
174 198 0
174 197 0
173 197 0
173 196 0
173 197 0
175 198 0
174 197 0
174 198 0
174 197 0
175 198 0
174 197 0
174 198 0
175 197 0
175 198 0
175 198 0
176 199 0
174 198 0
174 197 0
173 197 0
175 198 0
174 197 0
174 198 0
174 198 0
176 198 0
174 198 0
173 197 0
175 198 0
175 198 0
174 198 0
174 198 0
173 197 0
174 198 0
176 199 0
175 198 0
174 198 0
175 198 0
174 198 0
172 196 0
174 198 0
175 198 0
176 199 0
175 198 0
173 197 0
173 197 0
174 197 0
175 198 0
173 197 0
175 198 0
173 196 0
175 198 0
174 197 0
174 197 0
174 198 0
173 197 0
174 197 0
173 197 0
173 197 0
175 198 0
173 197 0
173 197 0
175 198 0
174 198 0
174 198 0
174 197 0
174 198 0
174 198 0
174 198 0
175 198 0
174 197 0
173 197 0
175 198 0
175 198 0
174 197 0
173 197 0
173 197 0
174 198 0
176 199 0
174 197 0
173 197 0
175 198 0
175 198 0
176 198 0
173 197 0
174 197 0
174 197 0
174 197 0
173 197 0
171 195 0
175 198 0
175 198 0
175 198 0
173 197 0
175 198 0
176 198 0
175 198 0
175 198 0
172 196 0
174 198 0
173 197 0
174 198 0
171 195 0
174 198 0
174 198 0
177 199 0
175 198 0
174 197 0
174 198 0
174 198 0
175 198 0
174 198 0
176 199 0
171 195 0
175 198 0
175 198 0
174 197 0
174 198 0
175 198 0
174 197 0
173 197 0
176 198 0
173 197 0
172 197 0
174 197 0
173 197 0
173 197 0
173 197 0
173 197 0
175 198 0
173 197 0
173 197 0
173 197 0
173 196 0
173 197 0
174 197 0
175 198 0
173 197 0
174 197 0
174 197 0
173 196 0
173 196 0
174 197 0
175 198 0
173 197 0
175 198 0
173 197 0
173 197 0
174 197 0
172 197 0
176 198 0
174 197 0
175 198 0
173 197 0
173 197 0
174 197 0
173 197 0
174 197 0
173 196 0
175 198 0
174 196 0
174 198 0
173 197 0
173 197 0
173 197 0
171 196 0
175 198 0
176 199 0
173 197 0
173 197 0
172 195 0
175 198 0
174 197 0
173 196 0
172 196 0
173 197 0
174 197 0
174 197 0
174 197 0
173 197 0
175 198 0
174 197 0
174 197 0
174 198 0
174 197 0
175 198 0
174 197 0
173 197 0
174 197 0
174 198 0
174 197 0
175 198 0
170 194 0
173 197 0
173 196 0
172 196 0
173 197 0
174 197 0
175 198 0
173 196 0
172 195 0
171 194 0
172 196 0
172 196 0
173 197 0
174 197 0
172 196 0
172 196 0
174 197 0
173 197 0
174 197 0
172 197 0
175 198 0
173 197 0
173 197 0
173 196 0
173 197 0
175 198 0
172 196 0
170 194 0
174 198 0
171 194 0
175 197 0
172 195 0
173 197 0
173 196 0
169 193 0
173 197 0
173 197 0
170 193 0
173 197 0
172 196 0
171 195 0
175 198 0
174 197 0
174 198 0
173 196 0
172 196 0
172 196 0
174 198 0
173 196 0
172 196 0
175 198 0
174 197 0
173 197 0
172 196 0
171 195 0
173 196 0
173 196 0
175 198 0
172 196 0
171 195 0
173 197 0
173 197 0
174 197 0
171 195 0
174 197 0
172 196 0
173 196 0
174 197 0
175 198 0
174 197 0
176 198 0
174 197 0
173 196 0
173 196 0
172 195 0
173 197 0
176 199 0
172 195 0
174 197 0
172 195 0
173 197 0
172 196 0
173 197 0
174 196 0
174 198 0
174 197 0
173 196 0
173 197 0
175 198 0
175 197 0
173 197 0
174 197 0
175 198 0
171 194 0
175 198 0
174 197 0
173 196 0
173 197 0
172 196 0
173 197 0
172 196 0
174 197 0
173 197 0
174 197 0
172 196 0
174 197 0
172 196 0
174 197 0
173 196 0
172 197 0
174 197 0
175 198 0
174 197 0
173 197 0
175 198 0
174 197 0
174 197 0
174 197 0
172 196 0
173 196 0
174 198 0
173 196 0
174 198 0
172 196 0
174 198 0
173 197 0
173 196 0
173 196 0
174 197 0
174 198 0
175 198 0
175 198 0
175 198 0
174 197 0
174 197 0
174 197 0
176 198 0
173 196 0
175 198 0
173 197 0
174 198 0
173 197 0
174 197 0
174 197 0
173 197 0
174 198 0
174 197 0
175 198 0
173 196 0
176 199 0
174 198 0
174 197 0
175 198 0
173 197 0
173 197 0
175 198 0
175 198 0
174 197 0
175 198 0
174 197 0
174 198 0
174 198 0
173 197 0
175 198 0
174 198 0
173 197 0
175 198 0
173 197 0
174 197 0
175 198 0
174 197 0
173 197 0
174 197 0
175 198 0
173 197 0
175 198 0
175 198 0
175 198 0
175 198 0
175 198 0
172 196 0
173 197 0
174 197 0
175 198 0
172 197 0
174 198 0
175 198 0
176 198 0
174 197 0
173 197 0
175 198 0
174 197 0
175 198 0
174 198 0
174 198 0
173 196 0
174 198 0
174 197 0
175 198 0
175 198 0
175 198 0
175 198 0
174 198 0
173 197 0
173 197 0
175 198 0
175 198 0
174 197 0
173 197 0
175 198 0
174 198 0
173 197 0
173 197 0
176 198 0
174 198 0
174 197 0
174 198 0
174 197 0
174 197 0
173 197 0
173 197 0
175 198 0
174 197 0
176 199 0
174 198 0
174 197 0
174 197 0
175 198 0
174 198 0
175 198 0
174 197 0
174 197 0
175 198 0
175 198 0
174 198 0
175 198 0
173 197 0
176 198 0
173 197 0
174 198 0
174 198 0
175 198 0
174 198 0
174 197 0
175 198 0
174 197 0
174 197 0
175 198 0
173 197 0
176 199 0
175 198 0
173 197 0
173 197 0
176 198 0
173 197 0
174 197 0
174 197 0
176 198 0
175 198 0
174 197 0
173 197 0
175 198 0
175 198 0
175 198 0
174 198 0
173 197 0
174 198 0
173 197 0
175 198 0
175 198 0
174 198 0
174 198 0
173 197 0
174 197 0
173 197 0
174 198 0
174 198 0
174 198 0
175 198 0
174 198 0
175 198 0
175 198 0
174 197 0
176 199 0
175 198 0
174 198 0
175 198 0
173 197 0
174 197 0
173 197 0
176 198 0
174 197 0
175 198 0
174 198 0
174 197 0
174 197 0
174 197 0
175 198 0
175 198 0
175 198 0
173 197 0
175 198 0
174 197 0
175 198 0
174 197 0
176 199 0
173 197 0
174 198 0
175 198 0
173 197 0
173 197 0
175 198 0
173 197 0
175 198 0
176 198 0
175 198 0
174 197 0
173 196 0
175 198 0
174 198 0
174 197 0
174 197 0
172 196 0
174 198 0
174 198 0
174 198 0
174 197 0
174 197 0
173 197 0
172 195 0
174 198 0
174 198 0
174 197 0
173 197 0
174 197 0
174 197 0
173 196 0
174 197 0
175 198 0
174 198 0
174 198 0
174 198 0
174 198 0
174 197 0
175 198 0
175 198 0
174 198 0
175 198 0
173 196 0
174 197 0
175 198 0
174 197 0
175 198 0
174 197 0
173 197 0
173 196 0
172 196 0
173 196 0
173 197 0
174 198 0
172 196 0
175 198 0
174 197 0
173 197 0
175 198 0
174 197 0
174 198 0
174 197 0
176 198 0
174 198 0
176 199 0
170 195 0
175 198 0
173 196 0
171 195 0
173 197 0
173 197 0
172 196 0
175 198 0
172 196 0
173 196 0
172 196 0
175 198 0
173 197 0
174 197 0
174 198 0
172 196 0
174 197 0
173 197 0
173 196 0
174 197 0
176 198 0
175 198 0
173 197 0
172 196 0
173 197 0
172 196 0
174 198 0
173 196 0
173 197 0
174 198 0
174 197 0
174 197 0
174 197 0
174 198 0
172 196 0
173 197 0
173 196 0
171 194 0
174 198 0
174 197 0
172 196 0
173 196 0
175 198 0
174 198 0
173 197 0
172 195 0
173 196 0
170 194 0
174 197 0
173 197 0
174 197 0
174 197 0
174 196 0
173 197 0
175 198 0
174 198 0
173 196 0
173 197 0
172 196 0
172 196 0
174 197 0
173 197 0
175 198 0
172 196 0
175 198 0
173 196 0
174 198 0
173 197 0
173 196 0
173 196 0
172 196 0
173 197 0
172 195 0
172 196 0
172 195 0
174 197 0
173 196 0
173 197 0
172 196 0
174 197 0
172 195 0
173 197 0
173 197 0
173 197 0
172 196 0
172 195 0
174 197 0
174 197 0
174 197 0
173 196 0
172 197 0
172 196 0
171 195 0
174 197 0
172 196 0
172 196 0
174 197 0
172 196 0
174 197 0
173 196 0
172 196 0
174 197 0
174 198 0
173 196 0
171 195 0
175 198 0
174 198 0
172 196 0
173 197 0
173 197 0
171 195 0
173 196 0
175 198 0
171 195 0
174 197 0
171 194 0
174 197 0
174 197 0
173 196 0
174 197 0
175 198 0
174 197 0
174 198 0
174 197 0
174 197 0
172 196 0
175 198 0
173 197 0
175 197 0
176 198 0
173 197 0
172 195 0
171 194 0
175 198 0
172 195 0
175 198 0
173 197 0
173 196 0
173 196 0
175 198 0
171 196 0
172 196 0
175 198 0
172 196 0
173 197 0
175 198 0
174 197 0
173 197 0
174 198 0
174 197 0
172 196 0
171 194 0
173 197 0
174 197 0
174 197 0
172 195 0
173 197 0
174 198 0
175 197 0
174 197 0
175 197 0
174 197 0
174 197 0
173 197 0
173 197 0
172 195 0
174 197 0
173 197 0
175 198 0
173 197 0
173 197 0
174 197 0
175 198 0
176 198 0
174 197 0
174 198 0
174 198 0
172 196 0
174 198 0
173 197 0
173 197 0
174 197 0
175 198 0
173 197 0
174 198 0
174 197 0
173 197 0
174 198 0
174 198 0
174 198 0
174 197 0
172 196 0
174 198 0
175 198 0
174 197 0
174 197 0
173 197 0
174 197 0
175 198 0
174 198 0
174 198 0
174 198 0
174 198 0
174 197 0
175 198 0
174 197 0
173 196 0
172 196 0
175 198 0
174 198 0
174 198 0
174 197 0
175 198 0
175 198 0
176 198 0
174 197 0
174 198 0
176 199 0
174 198 0
174 198 0
174 198 0
176 198 0
174 197 0
175 198 0
175 198 0
175 198 0
176 198 0
173 197 0
175 198 0
174 198 0
174 198 0
172 195 0
175 198 0
174 198 0
173 197 0
174 198 0
175 198 0
175 198 0
174 197 0
171 195 0
174 197 0
174 198 0
175 198 0
174 197 0
174 197 0
174 198 0
176 198 0
173 197 0
176 199 0
173 197 0
175 198 0
175 198 0
174 197 0
175 198 0
173 197 0
175 198 0
175 198 0
173 197 0
174 198 0
175 198 0
173 197 0
174 197 0
173 197 0
174 198 0
174 197 0
174 198 0
175 198 0
174 197 0
173 197 0
173 197 0
175 198 0
175 198 0
174 198 0
173 197 0
175 198 0
175 198 0
175 198 0
175 198 0
176 198 0
175 198 0
175 198 0
175 198 0
174 198 0
173 197 0
175 198 0
173 197 0
174 198 0
174 197 0
175 198 0
175 198 0
173 196 0
174 198 0
175 198 0
174 198 0
175 198 0
175 198 0
174 198 0
173 197 0
174 197 0
175 198 0
174 197 0
175 198 0
175 198 0
175 198 0
174 198 0
173 197 0
174 198 0
173 197 0
174 198 0
174 198 0
175 198 0
175 198 0
175 198 0
174 197 0
174 197 0
174 198 0
174 197 0
175 198 0
173 197 0
173 197 0
173 197 0
176 198 0
172 196 0
174 197 0
174 197 0
173 197 0
175 198 0
174 198 0
175 198 0
175 198 0
174 197 0
173 197 0
173 197 0
174 197 0
174 197 0
174 198 0
173 196 0
175 198 0
174 198 0
174 198 0
174 197 0
174 198 0
174 198 0
173 197 0
175 198 0
174 198 0
172 196 0
174 197 0
174 197 0
176 198 0
174 196 0
174 197 0
174 197 0
174 197 0
173 197 0
175 198 0
175 198 0
174 197 0
175 198 0
175 198 0
173 197 0
172 196 0
174 197 0
173 197 0
173 197 0
173 197 0
174 198 0
174 197 0
174 197 0
175 198 0
175 198 0
172 196 0
175 198 0
173 197 0
173 196 0
172 196 0
175 198 0
173 197 0
175 198 0
175 198 0
175 198 0
174 197 0
172 196 0
174 198 0
171 195 0
173 197 0
170 194 0
174 197 0
173 197 0
174 198 0
175 198 0
173 197 0
174 196 0
173 197 0
172 195 0
173 197 0
175 198 0
174 198 0
174 198 0
175 198 0
174 197 0
171 196 0
173 197 0
172 196 0
171 195 0
173 197 0
173 196 0
173 197 0
172 196 0
174 198 0
172 196 0
174 197 0
173 196 0
172 195 0
174 198 0
175 198 0
173 197 0
173 197 0
172 196 0
172 196 0
174 198 0
174 197 0
172 196 0
174 197 0
173 197 0
175 198 0
176 198 0
173 197 0
174 198 0
173 197 0
172 196 0
172 195 0
173 196 0
172 195 0
175 198 0
172 196 0
175 197 0
169 193 0
174 198 0
172 196 0
173 197 0
174 197 0
173 197 0
172 195 0
173 196 0
173 197 0
173 197 0
170 193 0
174 197 0
174 197 0
173 197 0
172 196 0
174 197 0
172 195 0
170 194 0
173 197 0
173 197 0
174 197 0
173 196 0
172 196 0
172 195 0
175 198 0
174 197 0
174 197 0
174 197 0
175 197 0
173 197 0
170 193 0
175 198 0
174 197 0
172 196 0
172 196 0
174 197 0
175 197 0
172 195 0
172 195 0
174 196 0
174 197 0
173 196 0
173 197 0
174 197 0
173 197 0
172 195 0
172 196 0
173 197 0
174 198 0
170 195 0
173 196 0
173 197 0
172 196 0
172 195 0
174 198 0
173 196 0
171 195 0
174 197 0
174 197 0
173 196 0
173 197 0
174 198 0
173 197 0
173 196 0
172 196 0
174 197 0
175 197 0
173 197 0
173 196 0
174 197 0
174 198 0
172 196 0
173 197 0
175 198 0
173 195 0
172 196 0
174 197 0
174 197 0
172 196 0
173 197 0
171 195 0
174 197 0
173 196 0
173 197 0
174 196 0
173 196 0
174 197 0
172 196 0
174 197 0
175 198 0
173 197 0
171 195 0
173 196 0
175 198 0
173 197 0
173 197 0
174 197 0
173 197 0
172 195 0
175 198 0
173 197 0
173 196 0
173 197 0
172 196 0
174 197 0
174 197 0
174 197 0
174 197 0
170 194 0
174 197 0
174 197 0
172 197 0
174 198 0
175 198 0
174 197 0
172 196 0
174 198 0
175 198 0
176 198 0
174 198 0
175 198 0
173 197 0
174 198 0
174 197 0
173 197 0
174 197 0
175 198 0
174 197 0
174 197 0
171 194 0
174 198 0
173 197 0
174 197 0
173 197 0
172 196 0
175 198 0
175 198 0
173 197 0
174 197 0
174 197 0
174 198 0
174 197 0
175 198 0
174 197 0
174 197 0
176 199 0
175 198 0
175 198 0
173 197 0
174 197 0
173 197 0
173 197 0
174 197 0
173 197 0
176 199 0
173 196 0
175 198 0
173 197 0
175 198 0
173 196 0
174 198 0
175 198 0
173 197 0
175 198 0
173 196 0
175 198 0
173 197 0
173 197 0
173 197 0
173 197 0
175 198 0
174 197 0
174 198 0
176 199 0
173 196 0
173 197 0
174 198 0
172 196 0
175 198 0
176 199 0
173 196 0
174 198 0
172 197 0
173 197 0
175 198 0
174 197 0
174 197 0
175 198 0
173 197 0
174 197 0
176 198 0
173 197 0
174 198 0
174 197 0
175 198 0
175 198 0
173 196 0
174 197 0
173 197 0
175 198 0
175 198 0
173 197 0
174 198 0
176 199 0
173 197 0
175 198 0
174 198 0
175 198 0
174 198 0
174 198 0
172 197 0
176 198 0
175 198 0
175 198 0
176 199 0
173 197 0
174 198 0
173 197 0
174 197 0
175 198 0
175 198 0
176 198 0
173 197 0
174 198 0
176 198 0
173 197 0
174 198 0
176 199 0
174 198 0
175 198 0
174 198 0
175 198 0
174 197 0
173 197 0
173 197 0
174 197 0
175 198 0
174 198 0
175 198 0
173 197 0
173 197 0
174 197 0
174 198 0
174 198 0
175 198 0
175 198 0
174 197 0
172 196 0
175 198 0
174 198 0
173 197 0
174 198 0
175 198 0
173 196 0
175 198 0
174 197 0
174 198 0
174 197 0
175 198 0
175 198 0
173 197 0
174 197 0
174 197 0
174 198 0
174 198 0
173 197 0
176 198 0
174 198 0
172 196 0
173 197 0
174 198 0
172 196 0
175 198 0
173 197 0
175 198 0
172 196 0
176 198 0
176 199 0
174 198 0
174 197 0
175 198 0
176 198 0
174 198 0
174 198 0
173 197 0
174 197 0
174 198 0
174 198 0
175 198 0
174 198 0
175 198 0
175 198 0
176 198 0
174 197 0
175 198 0
174 198 0
174 198 0
171 196 0
172 196 0
175 198 0
174 198 0
173 197 0
176 199 0
174 198 0
175 198 0
174 198 0
173 197 0
173 197 0
174 197 0
176 199 0
173 197 0
176 198 0
174 198 0
176 199 0
175 198 0
176 199 0
173 197 0
174 198 0
174 197 0
175 198 0
173 197 0
174 197 0
173 197 0
173 197 0
173 197 0
173 197 0
174 198 0
173 197 0
174 198 0
173 197 0
174 198 0
175 198 0
173 197 0
174 198 0
174 198 0
173 197 0
173 197 0
174 198 0
175 198 0
175 198 0
175 197 0
174 198 0
173 197 0
175 197 0
175 198 0
174 197 0
174 198 0
176 199 0
175 198 0
174 197 0
174 198 0
176 199 0
172 196 0
174 198 0
172 195 0
175 198 0
175 198 0
173 197 0
173 196 0
174 197 0
172 196 0
173 197 0
174 198 0
175 198 0
173 197 0
174 198 0
176 199 0
175 198 0
172 196 0
173 197 0
174 197 0
174 198 0
173 197 0
173 197 0
173 197 0
174 198 0
173 197 0
175 198 0
175 198 0
174 197 0
172 195 0
173 197 0
171 194 0
175 198 0
174 197 0
171 195 0
172 196 0
172 196 0
173 196 0
173 196 0
173 197 0
172 195 0
173 197 0
176 198 0
171 194 0
175 198 0
175 198 0
172 196 0
173 197 0
172 195 0
173 196 0
174 197 0
173 197 0
173 197 0
174 197 0
173 196 0
174 197 0
175 197 0
175 198 0
173 197 0
175 198 0
173 197 0
174 197 0
173 197 0
174 197 0
171 195 0
174 198 0
174 197 0
174 197 0
173 197 0
174 198 0
174 198 0
172 196 0
173 197 0
174 198 0
174 197 0
170 193 0
170 194 0
172 195 0
172 195 0
174 198 0
172 196 0
174 198 0
172 196 0
172 195 0
172 195 0
173 196 0
173 197 0
172 196 0
172 196 0
171 196 0
168 192 0
173 196 0
174 198 0
172 196 0
174 198 0
173 197 0
174 197 0
173 196 0
174 198 0
175 197 0
173 196 0
174 197 0
171 195 0
172 196 0
173 196 0
172 196 0
172 195 0
173 197 0
171 195 0
173 197 0
173 196 0
174 197 0
172 196 0
171 195 0
175 198 0
174 197 0
172 195 0
171 194 0
172 196 0
173 197 0
172 196 0
172 195 0
173 197 0
174 197 0
172 196 0
172 195 0
174 198 0
175 198 0
174 197 0
174 197 0
174 198 0
173 196 0
171 195 0
175 198 0
174 198 0
175 198 0
174 197 0
173 196 0
175 198 0
174 198 0
173 196 0
174 197 0
174 198 0
173 196 0
174 197 0
171 195 0
174 197 0
175 198 0
176 198 0
172 196 0
173 196 0
174 197 0
175 197 0
173 197 0
173 197 0
173 197 0
173 197 0
172 197 0
172 196 0
176 199 0
174 197 0
175 198 0
174 197 0
173 197 0
173 197 0
172 196 0
174 197 0
174 198 0
175 198 0
173 196 0
173 196 0
174 197 0
175 198 0
174 197 0
174 197 0
172 195 0
174 197 0
173 196 0
174 197 0
173 197 0
172 195 0
172 196 0
173 197 0
173 197 0
175 198 0
175 198 0
174 198 0
175 197 0
176 199 0
174 197 0
175 198 0
174 197 0
173 196 0
173 197 0
175 198 0
175 198 0
175 198 0
173 197 0
174 197 0
174 198 0
174 197 0
174 197 0
173 197 0
174 198 0
174 197 0
174 198 0
173 197 0
174 197 0
173 197 0
174 197 0
172 195 0
175 198 0
175 198 0
173 197 0
174 197 0
171 195 0
173 197 0
175 198 0
174 197 0
173 197 0
173 196 0
175 198 0
176 199 0
175 198 0
175 198 0
174 198 0
174 198 0
174 197 0
174 198 0
175 198 0
173 197 0
174 197 0
173 196 0
174 197 0
176 199 0
173 197 0
175 198 0
174 198 0
173 197 0
176 199 0
174 197 0
175 198 0
174 197 0
173 197 0
174 197 0
174 198 0
172 196 0
175 198 0
174 197 0
174 198 0
175 198 0
176 199 0
174 198 0
174 198 0
174 197 0
172 196 0
175 198 0
174 198 0
175 198 0
174 197 0
174 198 0
174 198 0
173 197 0
175 198 0
173 197 0
176 199 0
174 198 0
175 198 0
175 198 0
175 198 0
175 198 0
173 197 0
174 198 0
175 198 0
175 198 0
175 198 0
174 198 0
176 198 0
174 197 0
173 197 0
174 198 0
175 198 0
174 198 0
175 198 0
174 198 0
175 198 0
173 196 0
172 196 0
175 198 0
176 199 0
172 196 0
173 197 0
175 198 0
174 198 0
175 198 0
175 198 0
175 198 0
174 197 0
174 197 0
175 198 0
176 198 0
173 197 0
173 197 0
172 197 0
174 198 0
174 198 0
176 198 0
174 198 0
174 197 0
174 197 0
175 198 0
174 198 0
174 197 0
174 198 0
175 198 0
174 198 0
173 197 0
174 198 0
175 198 0
174 198 0
174 198 0
173 197 0
175 198 0
176 199 0
174 197 0
173 197 0
176 199 0
175 198 0
175 198 0
172 197 0
174 198 0
176 199 0
174 198 0
174 197 0
172 195 0
174 197 0
173 197 0
175 198 0
175 198 0
174 198 0
173 197 0
173 196 0
176 199 0
175 198 0
176 198 0
175 198 0
173 197 0
174 197 0
172 196 0
175 198 0
174 198 0
173 197 0
174 198 0
174 197 0
175 198 0
173 196 0
173 197 0
174 198 0
172 196 0
173 197 0
174 198 0
174 198 0
174 198 0
175 198 0
175 198 0
175 198 0
175 198 0
173 197 0
175 198 0
175 198 0
173 197 0
176 199 0
175 198 0
175 198 0
173 197 0
174 198 0
175 198 0
173 197 0
174 198 0
173 197 0
175 198 0
174 198 0
174 198 0
173 196 0
172 196 0
174 198 0
173 197 0
175 198 0
172 197 0
173 196 0
173 197 0
175 198 0
173 196 0
174 197 0
173 197 0
173 197 0
174 197 0
174 197 0
174 197 0
173 197 0
175 198 0
173 196 0
173 197 0
173 197 0
174 197 0
173 197 0
175 198 0
172 196 0
173 197 0
173 197 0
174 198 0
172 197 0
174 197 0
174 198 0
173 197 0
174 197 0
172 196 0
172 195 0
174 198 0
173 196 0
175 198 0
171 195 0
174 197 0
174 197 0
172 197 0
174 197 0
173 197 0
173 197 0
173 196 0
173 197 0
173 196 0
173 197 0
173 196 0
174 198 0
175 198 0
172 195 0
171 194 0
172 195 0
174 197 0
175 198 0
172 196 0
173 196 0
175 198 0
173 197 0
174 197 0
173 197 0
174 197 0
174 197 0
174 197 0
173 197 0
171 195 0
175 198 0
174 197 0
173 197 0
171 195 0
173 196 0
172 196 0
174 197 0
174 197 0
172 196 0
172 195 0
172 196 0
171 194 0
172 196 0
173 197 0
174 197 0
171 195 0
170 194 0
173 197 0
173 197 0
174 198 0
170 194 0
172 196 0
173 197 0
172 195 0
173 196 0
174 197 0
173 195 0
173 197 0
171 195 0
174 197 0
173 196 0
176 199 0
173 196 0
172 196 0
170 194 0
171 195 0
174 197 0
174 197 0
174 197 0
173 196 0
171 194 0
174 197 0
173 197 0
174 198 0
174 197 0
174 197 0
174 196 0
172 196 0
173 196 0
174 197 0
171 195 0
175 197 0
173 197 0
171 195 0
175 198 0
172 195 0
175 198 0
174 197 0
173 197 0
173 197 0
173 197 0
171 195 0
173 197 0
173 197 0
172 196 0
171 194 0
174 197 0
175 198 0
173 197 0
171 195 0
174 197 0
170 194 0
174 197 0
174 198 0
170 193 0
173 196 0
174 197 0
173 196 0
173 197 0
173 196 0
175 198 0
173 197 0
173 197 0
174 198 0
174 197 0
173 196 0
175 198 0
173 197 0
173 197 0
173 197 0
175 198 0
173 195 0
172 196 0
174 197 0
175 198 0
174 197 0
171 195 0
174 197 0
175 198 0
174 198 0
172 195 0
174 197 0
173 196 0
178 199 0
173 197 0
174 198 0
174 198 0
173 196 0
174 197 0
174 197 0
174 197 0
174 198 0
174 197 0
172 196 0
173 197 0
174 197 0
174 197 0
173 196 0
174 197 0
172 196 0
173 197 0
174 197 0
173 197 0
174 197 0
175 198 0
173 197 0
174 197 0
173 197 0
174 197 0
174 198 0
175 198 0
173 197 0
174 197 0
174 197 0
174 198 0
174 197 0
173 196 0
174 197 0
173 197 0
175 198 0
173 196 0
175 198 0
175 198 0
176 199 0
171 195 0
174 198 0
174 197 0
173 196 0
175 198 0
174 197 0
176 198 0
173 197 0
174 197 0
174 198 0
174 197 0
173 197 0
173 196 0
173 197 0
174 198 0
175 198 0
174 197 0
175 198 0
174 197 0
174 198 0
174 198 0
174 197 0
175 198 0
174 197 0
173 197 0
175 198 0
175 198 0
174 197 0
176 199 0
174 197 0
175 198 0
175 198 0
174 197 0
174 197 0
175 198 0
176 198 0
175 198 0
174 197 0
175 198 0
174 197 0
175 198 0
174 197 0
175 198 0
174 198 0
173 197 0
174 197 0
173 197 0
171 195 0
175 198 0
177 199 0
174 197 0
173 197 0
174 198 0
174 198 0
174 197 0
176 199 0
173 197 0
176 198 0
174 198 0
176 199 0
176 199 0
176 199 0
172 196 0
176 198 0
175 198 0
173 197 0
174 198 0
175 198 0
174 198 0
174 198 0
174 197 0
176 199 0
175 198 0
174 198 0
174 198 0
176 199 0
173 197 0
174 198 0
174 198 0
173 197 0
176 198 0
173 197 0
173 197 0
172 197 0
174 197 0
176 198 0
174 198 0
175 198 0
174 197 0
174 198 0
175 198 0
174 197 0
174 198 0
174 197 0
174 198 0
173 197 0
173 197 0
174 197 0
173 197 0
175 198 0
173 197 0
176 199 0
174 197 0
174 197 0
174 197 0
174 197 0
173 197 0
174 198 0
175 198 0
175 198 0
173 197 0
173 197 0
174 197 0
175 198 0
174 197 0
174 197 0
175 198 0
174 198 0
174 198 0
175 198 0
173 197 0
175 198 0
175 198 0
175 198 0
174 198 0
174 198 0
174 198 0
175 198 0
174 197 0
175 198 0
174 197 0
174 198 0
174 198 0
175 198 0
175 198 0
174 198 0
175 198 0
174 198 0
174 197 0
174 198 0
173 197 0
173 197 0
175 198 0
175 198 0
173 197 0
174 198 0
174 197 0
173 197 0
174 198 0
174 198 0
174 198 0
176 199 0
173 197 0
175 198 0
174 198 0
174 197 0
175 198 0
176 198 0
174 197 0
173 197 0
175 198 0
173 197 0
174 198 0
175 198 0
175 197 0
174 198 0
173 197 0
173 197 0
173 197 0
175 198 0
175 198 0
175 198 0
173 197 0
173 197 0
172 196 0
174 198 0
174 198 0
172 196 0
174 197 0
174 198 0
173 197 0
173 197 0
173 197 0
173 197 0
174 198 0
176 198 0
174 197 0
174 198 0
175 198 0
173 197 0
174 197 0
173 197 0
174 198 0
175 198 0
174 197 0
174 197 0
174 197 0
173 197 0
174 197 0
175 197 0
173 196 0
175 198 0
172 197 0
173 197 0
174 198 0
173 197 0
173 196 0
173 197 0
173 197 0
175 198 0
174 197 0
175 198 0
174 198 0
172 196 0
173 197 0
174 198 0
174 197 0
174 197 0
172 196 0
173 197 0
173 196 0
172 196 0
175 198 0
174 197 0
172 196 0
176 198 0
173 197 0
173 197 0
174 197 0
174 197 0
173 196 0
174 198 0
172 196 0
174 198 0
174 197 0
174 197 0
171 196 0
172 195 0
173 197 0
173 196 0
172 196 0
174 197 0
175 198 0
173 197 0
172 196 0
174 198 0
174 197 0
174 198 0
170 193 0
172 196 0
175 198 0
173 197 0
173 197 0
175 198 0
174 198 0
174 198 0
173 197 0
172 195 0
173 197 0
173 196 0
172 196 0
174 197 0
173 196 0
172 196 0
174 197 0
173 197 0
174 197 0
175 198 0
174 197 0
174 197 0
175 198 0
174 198 0
175 197 0
172 196 0
173 196 0
172 196 0
172 196 0
174 198 0
175 198 0
176 199 0
172 196 0
173 196 0
172 196 0
172 195 0
172 196 0
175 197 0
169 193 0
174 198 0
174 197 0
174 197 0
175 198 0
173 197 0
175 198 0
174 197 0
171 196 0
172 196 0
174 197 0
173 196 0
173 197 0
172 196 0
172 195 0
173 196 0
175 198 0
174 197 0
174 198 0
174 198 0
173 197 0
173 197 0
172 195 0
173 196 0
170 194 0
172 196 0
171 195 0
173 196 0
174 198 0
171 195 0
174 198 0
174 197 0
173 196 0
172 196 0
172 196 0
175 198 0
173 196 0
173 197 0
173 196 0
172 196 0
173 197 0
171 195 0
173 197 0
175 198 0
173 196 0
173 196 0
174 197 0
174 197 0
173 197 0
173 197 0
173 197 0
172 195 0
174 197 0
175 198 0
173 197 0
175 198 0
172 196 0
174 197 0
174 197 0
171 195 0
171 195 0
174 197 0
171 195 0
174 197 0
175 197 0
173 196 0
175 198 0
174 198 0
174 197 0
173 196 0
175 198 0
174 197 0
176 199 0
172 196 0
172 196 0
172 196 0
173 197 0
173 197 0
175 198 0
173 197 0
174 198 0
174 198 0
173 196 0
174 198 0
174 198 0
174 198 0
173 196 0
174 197 0
174 197 0
173 197 0
176 198 0
174 197 0
174 198 0
174 197 0
172 196 0
173 196 0
173 196 0
174 197 0
173 196 0
174 198 0
173 197 0
174 198 0
173 197 0
177 199 0
175 198 0
174 198 0
174 197 0
175 198 0
174 198 0
173 196 0
173 197 0
173 196 0
173 196 0
174 197 0
175 198 0
173 197 0
173 197 0
174 198 0
174 197 0
174 198 0
174 197 0
175 198 0
175 198 0
174 197 0
174 197 0
175 198 0
175 198 0
174 197 0
173 197 0
173 197 0
174 198 0
175 198 0
175 198 0
174 197 0
174 198 0
175 198 0
174 198 0
174 197 0
174 198 0
174 197 0
174 197 0
173 196 0
173 197 0
174 197 0
175 198 0
174 198 0
176 198 0
174 198 0
175 198 0
175 198 0
174 197 0
175 198 0
173 197 0
174 197 0
173 197 0
173 197 0
172 196 0
173 197 0
173 197 0
175 198 0
174 197 0
173 196 0
172 195 0
175 198 0
175 198 0
175 198 0
171 196 0
173 197 0
174 198 0
174 197 0
174 197 0
172 196 0
176 199 0
175 198 0
175 198 0
173 197 0
174 197 0
174 198 0
175 198 0
174 198 0
175 198 0
174 198 0
175 198 0
174 198 0
174 197 0
174 198 0
175 198 0
174 198 0
173 197 0
175 198 0
172 197 0
174 198 0
174 197 0
174 197 0
173 197 0
174 197 0
175 198 0
174 198 0
175 198 0
173 197 0
174 197 0
174 198 0
176 199 0
173 197 0
174 198 0
174 197 0
174 198 0
174 198 0
176 198 0
174 198 0
174 198 0
173 197 0
176 199 0
174 197 0
174 198 0
174 197 0
174 198 0
174 197 0
174 197 0
174 198 0
174 198 0
175 198 0
173 197 0
173 197 0
175 198 0
173 197 0
174 198 0
174 198 0
174 198 0
175 198 0
177 199 0
174 197 0
173 197 0
175 198 0
172 196 0
174 198 0
176 199 0
175 198 0
175 198 0
174 197 0
173 197 0
174 197 0
174 198 0
175 198 0
173 197 0
175 198 0
175 198 0
174 197 0
174 198 0
172 197 0
175 198 0
175 198 0
172 196 0
174 198 0
174 197 0
174 198 0
173 197 0
176 199 0
174 197 0
172 196 0
174 198 0
174 197 0
173 197 0
174 198 0
173 197 0
175 198 0
174 198 0
175 198 0
174 198 0
174 197 0
173 197 0
174 198 0
174 198 0
175 198 0
175 198 0
174 197 0
172 196 0
173 197 0
175 198 0
174 197 0
173 197 0
174 198 0
173 197 0
174 197 0
175 198 0
173 197 0
174 198 0
175 198 0
173 197 0
173 197 0
176 199 0
174 198 0
173 197 0
174 198 0
175 198 0
173 197 0
175 198 0
174 197 0
173 197 0
174 198 0
173 196 0
175 198 0
174 198 0
174 198 0
173 197 0
174 198 0
175 198 0
175 198 0
174 198 0
174 197 0
173 197 0
174 198 0
175 198 0
172 196 0
172 196 0
176 198 0
176 199 0
172 196 0
175 198 0
172 196 0
172 196 0
174 198 0
174 197 0
174 198 0
171 195 0
175 198 0
176 199 0
176 198 0
174 198 0
173 197 0
173 197 0
173 197 0
174 197 0
174 198 0
174 197 0
174 197 0
173 197 0
176 198 0
174 198 0
175 198 0
174 197 0
174 197 0
174 197 0
174 198 0
175 198 0
174 197 0
171 195 0
173 196 0
173 196 0
175 198 0
175 198 0
172 196 0
174 198 0
173 197 0
175 198 0
173 196 0
174 198 0
172 196 0
173 196 0
174 197 0
173 197 0
172 196 0
174 198 0
172 196 0
173 197 0
174 197 0
173 196 0
173 196 0
172 196 0
173 196 0
174 197 0
173 197 0
171 195 0
173 196 0
175 198 0
173 196 0
171 195 0
174 197 0
173 196 0
173 196 0
173 196 0
175 198 0
171 196 0
172 195 0
175 198 0
172 195 0
175 198 0
172 195 0
172 195 0
172 196 0
175 198 0
172 196 0
172 195 0
175 198 0
174 197 0
174 198 0
174 197 0
173 197 0
175 197 0
171 195 0
174 197 0
174 197 0
172 196 0
174 198 0
174 197 0
171 195 0
174 198 0
173 196 0
173 197 0
174 197 0
171 194 0
172 196 0
171 194 0
174 198 0
172 196 0
174 198 0
175 198 0
173 197 0
174 196 0
173 197 0
174 197 0
175 198 0
172 196 0
173 197 0
173 196 0
173 197 0
173 197 0
176 199 0
174 197 0
173 197 0
175 198 0
173 196 0
175 198 0
174 197 0
173 197 0
172 196 0
173 197 0
173 196 0
173 197 0
173 197 0
176 198 0
172 196 0
173 197 0
174 197 0
172 196 0
172 196 0
173 197 0
173 197 0
173 196 0
174 197 0
172 196 0
174 197 0
175 198 0
173 196 0
173 197 0
175 198 0
174 197 0
174 197 0
176 198 0
174 198 0
174 198 0
174 197 0
174 196 0
171 194 0
174 198 0
175 198 0
173 196 0
175 197 0
173 197 0
173 197 0
173 197 0
173 197 0
171 195 0
176 199 0
174 197 0
174 198 0
173 197 0
175 198 0
172 196 0
174 197 0
173 197 0
172 196 0
176 198 0
172 196 0
174 198 0
173 197 0
172 195 0
173 196 0
173 197 0
174 197 0
172 196 0
174 197 0
176 198 0
174 197 0
174 197 0
171 195 0
175 198 0
174 198 0
175 198 0
176 199 0
173 196 0
175 198 0
173 197 0
174 197 0
174 197 0
173 197 0
175 198 0
173 197 0
175 198 0
173 197 0
173 197 0
174 197 0
174 197 0
174 197 0
174 198 0
174 197 0
174 197 0
174 197 0
172 196 0
175 198 0
173 197 0
175 198 0
175 198 0
175 198 0
174 198 0
174 197 0
175 198 0
174 197 0
174 197 0
173 197 0
173 197 0
176 198 0
174 197 0
173 197 0
175 198 0
174 198 0
175 198 0
174 197 0
175 198 0
170 195 0
174 197 0
174 197 0
175 198 0
175 198 0
176 199 0
174 198 0
174 197 0
173 197 0
173 197 0
174 197 0
174 198 0
175 198 0
174 198 0
174 198 0
176 198 0
175 198 0
173 197 0
173 197 0
173 197 0
172 196 0
175 198 0
174 198 0
173 197 0
175 198 0
176 198 0
174 198 0
173 197 0
175 198 0
175 198 0
174 198 0
174 198 0
175 198 0
173 197 0
174 198 0
176 198 0
174 198 0
175 198 0
174 197 0
174 198 0
175 198 0
175 198 0
173 197 0
175 198 0
174 198 0
173 197 0
175 198 0
173 197 0
174 197 0
174 198 0
174 197 0
174 198 0
173 197 0
173 197 0
175 198 0
173 197 0
174 198 0
173 197 0
174 198 0
174 197 0
175 198 0
173 197 0
174 197 0
175 198 0
174 197 0
174 198 0
174 198 0
173 197 0
175 198 0
173 196 0
174 198 0
174 198 0
173 197 0
174 198 0
173 197 0
173 197 0
174 198 0
176 198 0
173 196 0
175 198 0
174 198 0
174 198 0
174 198 0
173 197 0
174 198 0
174 198 0
175 198 0
174 198 0
175 198 0
174 198 0
174 197 0
175 198 0
173 196 0
176 199 0
174 198 0
174 198 0
174 197 0
174 197 0
175 198 0
171 195 0
175 198 0
174 198 0
174 197 0
173 197 0
173 197 0
173 197 0
174 197 0
173 197 0
175 198 0
174 198 0
174 197 0
174 198 0
174 198 0
173 197 0
175 198 0
175 198 0
175 198 0
172 196 0
174 198 0
173 196 0
174 198 0
173 197 0
174 198 0
174 197 0
172 197 0
174 198 0
175 198 0
174 198 0
174 198 0
174 197 0
175 198 0
175 198 0
173 197 0
173 196 0
174 198 0
174 198 0
174 197 0
173 197 0
175 198 0
175 198 0
174 198 0
176 198 0
173 197 0
174 197 0
174 197 0
173 197 0
175 198 0
174 197 0
173 196 0
175 198 0
174 198 0
175 198 0
175 198 0
174 197 0
175 198 0
173 196 0
174 198 0
173 197 0
176 198 0
173 197 0
174 198 0
175 198 0
174 198 0
174 197 0
174 197 0
173 197 0
173 197 0
173 196 0
173 197 0
173 196 0
174 198 0
172 196 0
175 198 0
175 198 0
175 197 0
172 196 0
174 198 0
175 198 0
173 196 0
173 197 0
176 198 0
175 198 0
173 197 0
173 197 0
173 197 0
173 197 0
174 197 0
173 196 0
174 197 0
174 198 0
175 198 0
173 197 0
173 197 0
174 198 0
174 197 0
171 195 0
176 199 0
175 198 0
173 197 0
173 196 0
174 197 0
174 198 0
172 196 0
174 197 0
174 197 0
172 196 0
174 198 0
172 196 0
176 199 0
172 196 0
174 197 0
173 196 0
172 196 0
174 198 0
172 195 0
176 198 0
175 198 0
169 193 0
173 197 0
173 196 0
173 197 0
175 198 0
172 196 0
173 197 0
175 198 0
174 197 0
174 198 0
174 197 0
173 197 0
174 197 0
174 198 0
173 196 0
169 193 0
168 192 0
174 197 0
172 196 0
173 197 0
173 196 0
174 197 0
174 198 0
174 197 0
173 196 0
173 197 0
173 196 0
172 196 0
173 197 0
173 197 0
173 197 0
171 195 0
172 196 0
173 196 0
174 197 0
172 195 0
173 196 0
174 197 0
170 195 0
174 198 0
173 196 0
172 196 0
172 196 0
171 194 0
173 196 0
173 197 0
172 196 0
173 197 0
175 198 0
176 198 0
174 197 0
171 195 0
172 196 0
173 197 0
176 199 0
172 196 0
174 197 0
174 198 0
174 197 0
172 196 0
174 197 0
172 196 0
173 197 0
175 198 0
173 197 0
173 196 0
173 197 0
174 198 0
173 197 0
172 196 0
174 197 0
173 197 0
171 194 0
171 194 0
172 196 0
174 197 0
174 197 0
173 197 0
171 194 0
172 196 0
172 196 0
174 197 0
173 196 0
174 198 0
173 197 0
174 198 0
175 198 0
175 198 0
173 197 0
172 196 0
175 198 0
172 196 0
172 196 0
173 197 0
170 195 0
174 197 0
172 196 0
172 195 0
173 197 0
173 197 0
174 196 0
175 198 0
174 198 0
175 198 0
173 197 0
173 197 0
174 197 0
172 196 0
173 197 0
173 196 0
175 198 0
174 197 0
173 197 0
173 197 0
173 196 0
172 195 0
174 197 0
174 198 0
175 198 0
175 198 0
175 198 0
172 195 0
174 197 0
174 197 0
176 198 0
174 197 0
175 198 0
172 196 0
173 197 0
172 196 0
170 194 0
173 196 0
176 199 0
173 197 0
175 198 0
174 197 0
173 197 0
174 197 0
175 198 0
172 196 0
173 197 0
173 196 0
175 198 0
175 198 0
175 198 0
173 197 0
173 197 0
174 198 0
175 197 0
173 197 0
174 197 0
174 197 0
175 198 0
174 197 0
173 197 0
173 197 0
174 196 0
175 198 0
175 198 0
176 199 0
175 198 0
175 198 0
175 198 0
175 198 0
174 198 0
176 199 0
172 196 0
175 198 0
173 196 0
175 198 0
174 197 0
174 197 0
175 198 0
173 197 0
172 196 0
174 197 0
174 198 0
175 198 0
174 198 0
174 198 0
172 196 0
175 198 0
173 196 0
174 197 0
173 197 0
175 198 0
175 198 0
173 197 0
177 199 0
174 198 0
173 197 0
173 196 0
174 197 0
173 197 0
174 197 0
174 197 0
174 198 0
173 197 0
174 197 0
174 198 0
174 198 0
174 197 0
175 198 0
173 197 0
175 198 0
174 197 0
176 199 0
173 197 0
175 198 0
173 197 0
174 197 0
176 199 0
175 198 0
174 198 0
174 198 0
175 198 0
175 198 0
173 197 0
172 196 0
175 198 0
174 198 0
174 197 0
175 198 0
175 198 0
174 197 0
175 198 0
174 197 0
176 198 0
173 197 0
173 197 0
174 197 0
175 198 0
176 199 0
174 197 0
173 197 0
176 199 0
174 198 0
174 198 0
174 197 0
172 197 0
175 198 0
175 198 0
176 199 0
175 198 0
172 197 0
174 198 0
173 196 0
174 198 0
172 197 0
173 197 0
176 199 0
175 198 0
175 198 0
173 197 0
173 197 0
174 198 0
174 198 0
173 197 0
175 198 0
173 197 0
175 198 0
174 198 0
173 197 0
173 196 0
175 198 0
173 197 0
176 199 0
174 198 0
174 198 0
173 197 0
175 198 0
172 197 0
175 198 0
173 197 0
173 197 0
175 198 0
174 198 0
174 198 0
173 197 0
174 198 0
175 198 0
174 197 0
175 198 0
174 198 0
174 198 0
174 198 0
172 196 0
173 197 0
174 197 0
175 198 0
173 197 0
174 197 0
175 198 0
174 197 0
174 197 0
174 198 0
175 198 0
175 198 0
174 198 0
173 197 0
175 198 0
173 197 0
174 198 0
174 198 0
175 198 0
175 198 0
175 198 0
174 197 0
175 198 0
174 198 0
173 197 0
174 198 0
175 198 0
174 198 0
175 198 0
175 198 0
174 197 0
175 198 0
174 198 0
172 196 0
175 198 0
174 198 0
174 198 0
173 197 0
174 198 0
174 197 0
171 195 0
174 197 0
174 198 0
174 197 0
174 197 0
172 197 0
174 197 0
173 197 0
174 197 0
174 197 0
171 196 0
174 197 0
173 197 0
175 198 0
175 198 0
175 198 0
175 198 0
173 197 0
173 197 0
173 197 0
175 198 0
176 199 0
173 197 0
176 198 0
175 198 0
174 198 0
173 196 0
172 196 0
175 198 0
174 197 0
174 197 0
174 197 0
174 198 0
174 198 0
172 196 0
173 197 0
174 197 0
174 197 0
174 197 0
175 198 0
173 197 0
174 198 0
173 197 0
175 198 0
174 197 0
174 198 0
172 196 0
174 198 0
175 198 0
173 197 0
175 198 0
173 196 0
174 198 0
174 197 0
173 196 0
173 197 0
172 196 0
175 198 0
174 197 0
174 197 0
172 196 0
176 199 0
175 198 0
174 197 0
173 197 0
174 197 0
174 197 0
172 196 0
174 197 0
173 197 0
174 198 0
174 197 0
173 197 0
174 197 0
175 197 0
174 197 0
175 198 0
173 196 0
174 197 0
173 197 0
174 197 0
173 196 0
174 197 0
172 196 0
173 197 0
171 195 0
174 197 0
174 198 0
173 196 0
172 195 0
175 198 0
173 196 0
174 197 0
173 196 0
173 197 0
173 197 0
174 197 0
171 195 0
174 198 0
174 197 0
173 197 0
175 198 0
173 196 0
173 197 0
174 197 0
173 196 0
170 194 0
171 194 0
174 197 0
172 196 0
171 195 0
173 197 0
172 196 0
171 195 0
175 198 0
172 196 0
175 198 0
172 196 0
173 197 0
174 197 0
173 197 0
170 195 0
172 196 0
173 197 0
174 197 0
172 196 0
172 195 0
172 195 0
173 196 0
172 196 0
172 196 0
173 197 0
173 196 0
174 198 0
172 196 0
173 196 0
172 196 0
175 198 0
171 195 0
175 198 0
172 196 0
173 196 0
173 197 0
173 196 0
173 197 0
173 197 0
172 195 0
174 197 0
175 198 0
174 197 0
174 197 0
174 198 0
173 196 0
175 198 0
175 198 0
173 197 0
175 198 0
171 196 0
173 196 0
174 197 0
173 197 0
175 198 0
174 197 0
174 197 0
171 194 0
175 198 0
170 193 0
175 198 0
173 196 0
174 197 0
175 198 0
172 195 0
175 198 0
172 196 0
176 198 0
173 197 0
173 196 0
173 196 0
173 196 0
173 197 0
174 198 0
174 197 0
172 196 0
173 197 0
173 196 0
173 197 0
172 195 0
173 196 0
174 197 0
174 198 0
172 196 0
172 196 0
174 198 0
174 198 0
171 195 0
174 197 0
175 198 0
172 196 0
174 198 0
175 198 0
175 198 0
174 198 0
173 195 0
174 197 0
175 198 0
174 197 0
174 197 0
175 198 0
175 198 0
174 197 0
174 197 0
175 198 0
175 198 0
175 198 0
174 197 0
174 197 0
171 195 0
174 197 0
174 197 0
175 198 0
174 197 0
174 198 0
173 197 0
172 196 0
173 197 0
174 197 0
174 198 0
176 199 0
175 198 0
175 198 0
174 197 0
174 198 0
172 196 0
173 197 0
173 197 0
174 197 0
173 197 0
174 198 0
174 198 0
172 196 0
176 198 0
175 198 0
175 198 0
174 197 0
174 198 0
175 198 0
173 196 0
174 197 0
174 198 0
175 198 0
176 198 0
172 197 0
175 198 0
173 197 0
174 198 0
174 197 0
174 197 0
175 198 0
176 198 0
173 197 0
175 198 0
174 197 0
173 197 0
174 197 0
173 197 0
175 198 0
173 197 0
174 198 0
174 198 0
175 198 0
175 198 0
175 198 0
175 198 0
174 198 0
174 197 0
174 198 0
172 196 0
174 198 0
174 197 0
173 196 0
173 197 0
174 198 0
175 198 0
173 197 0
173 197 0
175 198 0
172 195 0
174 197 0
175 198 0
173 197 0
174 198 0
174 198 0
175 198 0
176 199 0
174 197 0
174 197 0
175 198 0
175 198 0
174 198 0
174 198 0
174 198 0
174 198 0
174 198 0
175 198 0
174 197 0
173 197 0
174 198 0
175 198 0
175 198 0
174 198 0
175 198 0
173 197 0
174 198 0
175 198 0
176 198 0
175 198 0
175 198 0
175 198 0
173 196 0
173 196 0
175 198 0
175 198 0
174 198 0
173 196 0
176 198 0
175 198 0
175 198 0
176 198 0
174 198 0
175 198 0
175 198 0
175 198 0
174 197 0
176 199 0
176 198 0
175 198 0
173 197 0
175 198 0
174 197 0
173 197 0
175 198 0
175 198 0
175 198 0
173 197 0
174 198 0
173 197 0
174 198 0
173 197 0
174 198 0
173 197 0
174 198 0
173 197 0
174 198 0
173 197 0
175 198 0
174 198 0
175 198 0
176 198 0
174 198 0
174 197 0
174 197 0
173 197 0
173 197 0
175 198 0
176 198 0
173 197 0
174 198 0
174 198 0
177 199 0
175 198 0
173 197 0
174 198 0
172 196 0
174 197 0
174 198 0
176 199 0
175 198 0
171 195 0
175 198 0
174 197 0
176 198 0
175 198 0
173 197 0
174 198 0
175 198 0
173 197 0
174 197 0
173 197 0
172 196 0
174 198 0
176 198 0
173 197 0
173 197 0
173 197 0
175 198 0
172 196 0
175 198 0
174 197 0
174 197 0
174 198 0
172 196 0
175 198 0
176 198 0
173 197 0
174 197 0
175 198 0
174 198 0
173 197 0
173 197 0
173 197 0
174 197 0
172 196 0
171 196 0
174 198 0
174 198 0
175 198 0
173 197 0
175 198 0
173 197 0
174 197 0
175 198 0
174 197 0
177 199 0
173 197 0
175 198 0
174 198 0
175 198 0
174 197 0
174 198 0
173 197 0
176 199 0
173 197 0
175 198 0
174 197 0
173 197 0
174 197 0
175 198 0
175 198 0
173 197 0
173 197 0
173 197 0
173 196 0
173 197 0
173 197 0
174 198 0
174 198 0
174 198 0
174 197 0
173 197 0
174 197 0
175 198 0
175 198 0
175 198 0
175 198 0
172 196 0
173 197 0
175 198 0
174 197 0
174 197 0
173 197 0
173 197 0
174 197 0
173 196 0
173 196 0
173 197 0
174 197 0
174 198 0
173 197 0
174 197 0
174 197 0
172 197 0
173 197 0
172 196 0
172 196 0
175 198 0
175 198 0
173 196 0
171 195 0
175 198 0
172 196 0
174 197 0
172 196 0
175 198 0
174 197 0
176 198 0
170 193 0
173 197 0
173 196 0
172 195 0
173 197 0
174 197 0
173 197 0
172 196 0
171 196 0
173 197 0
173 196 0
174 198 0
173 197 0
173 196 0
173 197 0
173 196 0
173 197 0
175 198 0
172 196 0
173 196 0
175 197 0
173 196 0
174 197 0
172 196 0
171 195 0
173 196 0
172 196 0
174 198 0
174 197 0
173 196 0
172 195 0
171 194 0
173 196 0
173 197 0
172 195 0
173 197 0
170 194 0
172 195 0
172 196 0
172 196 0
172 195 0
172 195 0
173 197 0
175 198 0
172 195 0
173 196 0
172 196 0
174 197 0
173 195 0
172 196 0
173 197 0
173 197 0
174 197 0
173 197 0
173 197 0
174 196 0
173 196 0
172 197 0
173 197 0
174 197 0
171 194 0
172 196 0
175 197 0
174 197 0
172 197 0
175 198 0
175 197 0
173 197 0
174 197 0
172 195 0
174 197 0
173 196 0
175 198 0
173 197 0
173 197 0
172 196 0
173 197 0
174 197 0
174 198 0
173 197 0
173 196 0
173 196 0
174 197 0
174 198 0
173 197 0
175 198 0
174 197 0
175 198 0
173 197 0
174 197 0
172 196 0
173 197 0
175 198 0
175 197 0
172 195 0
175 198 0
173 196 0
175 198 0
173 197 0
173 197 0
173 196 0
174 197 0
173 197 0
173 197 0
173 196 0
176 198 0
175 198 0
173 197 0
176 198 0
173 197 0
174 198 0
173 196 0
174 198 0
175 198 0
174 198 0
173 196 0
175 198 0
176 198 0
175 198 0
172 195 0
174 198 0
172 196 0
174 198 0
174 197 0
174 197 0
175 198 0
172 197 0
173 197 0
174 197 0
176 199 0
173 197 0
176 198 0
173 197 0
174 198 0
173 197 0
176 198 0
173 197 0
176 199 0
176 199 0
174 197 0
174 198 0
174 197 0
175 198 0
173 197 0
172 196 0
175 198 0
173 197 0
174 197 0
174 197 0
174 198 0
173 197 0
173 197 0
173 197 0
174 197 0
174 197 0
172 196 0
174 197 0
175 198 0
172 196 0
173 197 0
174 198 0
174 198 0
174 197 0
175 198 0
175 198 0
174 197 0
174 198 0
176 198 0
175 198 0
173 197 0
175 198 0
175 198 0
175 198 0
175 198 0
175 198 0
173 196 0
175 198 0
174 198 0
174 198 0
175 198 0
173 197 0
175 198 0
174 197 0
176 199 0
173 197 0
174 198 0
175 198 0
173 197 0
176 198 0
175 197 0
175 198 0
173 197 0
175 198 0
175 198 0
172 196 0
173 197 0
175 198 0
174 197 0
172 197 0
174 198 0
174 198 0
175 198 0
173 197 0
176 198 0
175 198 0
175 198 0
174 197 0
174 198 0
173 197 0
172 197 0
173 197 0
174 198 0
173 197 0
175 198 0
175 198 0
175 198 0
173 197 0
174 198 0
175 198 0
175 198 0
174 197 0
173 197 0
174 198 0
173 197 0
174 198 0
175 198 0
174 198 0
175 198 0
175 198 0
173 197 0
176 198 0
175 198 0
174 197 0
174 197 0
174 198 0
174 198 0
174 198 0
174 198 0
175 198 0
174 198 0
176 199 0
175 198 0
174 198 0
175 198 0
173 197 0
172 196 0
175 198 0
173 197 0
174 198 0
174 198 0
173 197 0
174 198 0
174 198 0
173 197 0
174 197 0
175 198 0
173 197 0
176 198 0
173 197 0
175 198 0
174 197 0
174 198 0
175 198 0
173 197 0
174 197 0
174 197 0
174 198 0
175 198 0
176 199 0
175 198 0
175 198 0
174 197 0
175 198 0
174 197 0
175 198 0
174 198 0
174 198 0
175 198 0
173 197 0
175 198 0
174 198 0
174 197 0
174 198 0
175 198 0
174 198 0
174 197 0
174 197 0
174 198 0
174 197 0
175 198 0
175 198 0
174 198 0
173 197 0
175 198 0
173 197 0
175 198 0
174 198 0
173 197 0
173 196 0
174 197 0
175 198 0
173 197 0
175 198 0
175 198 0
173 197 0
173 197 0
175 198 0
174 198 0
173 197 0
173 197 0
173 197 0
174 198 0
173 197 0
175 198 0
173 197 0
172 196 0
175 198 0
175 198 0
172 196 0
175 198 0
175 198 0
174 198 0
175 198 0
175 198 0
174 197 0
174 198 0
176 198 0
174 198 0
173 197 0
173 197 0
174 197 0
176 198 0
175 198 0
173 197 0
173 197 0
174 197 0
174 198 0
174 198 0
174 197 0
172 196 0
175 198 0
173 197 0
174 198 0
174 197 0
173 197 0
174 197 0
173 196 0
174 197 0
174 197 0
174 198 0
172 196 0
172 196 0
174 198 0
174 197 0
174 197 0
172 196 0
174 197 0
173 197 0
174 198 0
174 198 0
173 197 0
176 198 0
173 197 0
174 197 0
173 197 0
175 198 0
174 197 0
174 197 0
173 197 0
174 197 0
175 198 0
171 195 0
172 196 0
174 198 0
174 198 0
171 195 0
174 198 0
173 196 0
175 198 0
172 196 0
175 198 0
175 198 0
173 196 0
175 198 0
174 197 0
174 197 0
173 197 0
172 195 0
175 198 0
173 196 0
172 196 0
173 197 0
175 198 0
174 197 0
175 198 0
175 197 0
172 196 0
175 198 0
174 198 0
172 196 0
173 197 0
173 197 0
173 197 0
172 196 0
173 197 0
172 195 0
174 197 0
173 197 0
173 195 0
175 198 0
173 197 0
173 196 0
176 199 0
172 195 0
173 197 0
173 196 0
169 193 0
173 197 0
172 196 0
174 198 0
174 198 0
173 196 0
170 194 0
174 197 0
172 195 0
175 198 0
172 196 0
173 197 0
173 197 0
172 196 0
173 197 0
172 196 0
173 196 0
173 196 0
172 196 0
173 196 0
174 197 0
172 196 0
174 197 0
174 197 0
173 197 0
172 195 0
173 197 0
174 197 0
171 195 0
172 196 0
174 196 0
174 196 0
171 195 0
172 196 0
176 199 0
174 197 0
176 199 0
174 197 0
174 197 0
175 197 0
175 198 0
174 198 0
171 195 0
174 197 0
172 195 0
173 197 0
173 196 0
173 197 0
173 196 0
172 196 0
174 197 0
173 196 0
175 198 0
175 198 0
170 194 0
175 198 0
176 199 0
174 197 0
173 196 0
173 197 0
175 198 0
173 196 0
175 198 0
174 197 0
174 197 0
173 196 0
174 197 0
175 197 0
172 196 0
173 197 0
175 198 0
175 198 0
172 195 0
174 197 0
172 195 0
173 196 0
172 195 0
173 197 0
173 196 0
174 198 0
172 195 0
174 197 0
174 197 0
171 195 0
175 198 0
174 197 0
173 197 0
174 198 0
175 198 0
173 196 0
174 198 0
175 198 0
174 197 0
174 197 0
176 198 0
174 197 0
174 197 0
174 197 0
173 197 0
173 196 0
173 197 0
173 197 0
174 197 0
173 197 0
174 197 0
172 196 0
173 196 0
173 197 0
173 197 0
173 197 0
174 197 0
174 197 0
174 197 0
176 199 0
173 197 0
175 198 0
173 197 0
173 196 0
175 197 0
172 196 0
173 196 0
174 198 0
174 197 0
176 198 0
174 198 0
177 199 0
174 197 0
174 198 0
173 197 0
174 197 0
173 196 0
175 198 0
174 197 0
172 195 0
175 198 0
175 198 0
174 197 0
175 198 0
173 197 0
177 199 0
171 195 0
175 198 0
175 198 0
175 198 0
175 198 0
175 198 0
173 197 0
172 197 0
174 198 0
174 198 0
174 197 0
173 197 0
174 197 0
173 196 0
174 197 0
174 197 0
174 198 0
175 198 0
174 198 0
174 197 0
173 197 0
174 197 0
174 197 0
174 197 0
175 198 0
174 197 0
171 196 0
173 197 0
176 199 0
175 198 0
175 198 0
175 197 0
175 198 0
173 197 0
173 197 0
176 199 0
175 198 0
175 198 0
174 197 0
174 197 0
175 198 0
174 197 0
175 198 0
176 199 0
173 197 0
174 197 0
176 198 0
175 198 0
175 198 0
175 198 0
175 198 0
173 196 0
174 198 0
172 196 0
175 198 0
176 199 0
174 198 0
176 198 0
173 197 0
173 197 0
174 197 0
173 197 0
175 198 0
174 198 0
173 197 0
175 198 0
173 197 0
175 198 0
174 197 0
174 197 0
175 198 0
175 198 0
173 196 0
174 198 0
174 198 0
173 197 0
173 197 0
174 198 0
173 197 0
174 198 0
174 198 0
176 199 0
172 197 0
174 198 0
175 198 0
174 197 0
176 199 0
173 197 0
174 198 0
172 197 0
175 198 0
173 197 0
173 197 0
174 198 0
174 198 0
174 198 0
174 197 0
174 197 0
174 198 0
175 198 0
174 198 0
174 198 0
174 198 0
175 198 0
175 198 0
174 198 0
175 198 0
174 198 0
174 198 0
174 197 0
173 197 0
175 198 0
173 197 0
174 198 0
175 198 0
174 197 0
175 197 0
175 198 0
176 199 0
175 198 0
172 197 0
174 198 0
175 198 0
174 198 0
175 198 0
175 198 0
175 198 0
174 198 0
174 197 0
176 199 0
175 198 0
175 198 0
175 198 0
175 198 0
172 196 0
173 197 0
174 197 0
175 198 0
174 198 0
173 197 0
174 197 0
174 197 0
173 197 0
173 197 0
176 199 0
174 198 0
173 197 0
173 197 0
174 197 0
173 197 0
174 198 0
174 197 0
175 198 0
175 198 0
175 198 0
175 198 0
174 197 0
175 198 0
174 197 0
173 196 0
173 197 0
173 197 0
174 198 0
175 198 0
174 197 0
174 197 0
175 198 0
174 197 0
174 198 0
174 198 0
174 198 0
173 197 0
172 197 0
174 197 0
174 198 0
173 197 0
175 198 0
175 198 0
175 198 0
172 197 0
175 198 0
174 198 0
175 198 0
173 197 0
174 198 0
174 197 0
173 197 0
174 197 0
174 197 0
172 196 0
173 196 0
175 198 0
174 197 0
173 197 0
174 197 0
172 197 0
175 197 0
174 197 0
172 195 0
173 197 0
174 197 0
174 197 0
174 197 0
172 197 0
175 198 0
173 197 0
172 196 0
174 198 0
174 197 0
174 198 0
174 198 0
175 198 0
173 197 0
174 197 0
174 198 0
175 197 0
177 199 0
174 197 0
175 198 0
174 197 0
175 198 0
173 197 0
173 196 0
175 198 0
175 198 0
174 197 0
174 197 0
174 197 0
172 196 0
174 198 0
173 197 0
174 198 0
174 197 0
173 197 0
173 197 0
173 197 0
175 198 0
173 197 0
171 195 0
172 196 0
171 195 0
172 196 0
173 197 0
173 196 0
172 196 0
172 197 0
173 197 0
173 196 0
173 197 0
174 197 0
172 195 0
174 197 0
174 197 0
174 198 0
173 196 0
173 197 0
175 198 0
172 195 0
174 198 0
175 198 0
175 198 0
171 194 0
173 197 0
175 198 0
174 196 0
174 198 0
173 197 0
174 198 0
173 196 0
174 198 0
174 198 0
173 196 0
173 197 0
173 197 0
174 197 0
172 196 0
174 197 0
174 196 0
174 197 0
173 196 0
175 197 0
173 197 0
174 198 0
174 197 0
173 197 0
172 196 0
174 197 0
173 196 0
172 196 0
173 197 0
171 195 0
173 197 0
173 197 0
174 198 0
173 197 0
174 197 0
174 197 0
171 195 0
173 197 0
174 197 0
176 198 0
172 196 0
173 197 0
174 197 0
174 198 0
174 197 0
173 197 0
172 196 0
174 198 0
176 198 0
173 197 0
174 197 0
172 196 0
171 195 0
175 198 0
171 195 0
174 197 0
174 197 0
175 198 0
174 197 0
172 196 0
172 196 0
174 197 0
174 197 0
172 196 0
172 196 0
174 197 0
174 196 0
174 197 0
174 197 0
174 196 0
173 196 0
174 198 0
175 197 0
172 196 0
174 197 0
174 197 0
174 197 0
176 198 0
175 198 0
173 197 0
174 197 0
174 198 0
172 196 0
174 197 0
172 196 0
176 198 0
174 197 0
173 197 0
175 198 0
174 197 0
174 198 0
174 198 0
172 196 0
175 198 0
174 197 0
176 199 0
174 197 0
174 198 0
172 195 0
175 198 0
174 197 0
173 196 0
173 197 0
174 198 0
171 195 0
174 198 0
174 198 0
174 197 0
174 197 0
174 197 0
174 197 0
175 198 0
173 196 0
173 197 0
173 197 0
174 198 0
175 198 0
174 198 0
174 197 0
172 197 0
174 197 0
175 198 0
173 197 0
175 198 0
175 198 0
172 196 0
174 198 0
175 198 0
175 198 0
172 196 0
173 197 0
175 198 0
174 198 0
175 198 0
174 198 0
173 197 0
174 198 0
174 198 0
172 196 0
175 198 0
172 196 0
175 198 0
174 197 0
172 196 0
174 197 0
175 198 0
172 196 0
175 198 0
174 197 0
175 198 0
176 198 0
174 197 0
175 198 0
175 198 0
172 197 0
175 198 0
173 197 0
173 197 0
174 198 0
175 198 0
176 199 0
175 198 0
172 196 0
174 198 0
174 197 0
174 198 0
174 198 0
173 197 0
173 197 0
174 197 0
175 198 0
175 198 0
174 198 0
175 198 0
175 198 0
175 198 0
174 198 0
173 196 0
174 197 0
175 198 0
175 198 0
174 197 0
174 197 0
173 197 0
174 197 0
174 198 0
175 198 0
173 196 0
176 199 0
175 198 0
176 199 0
176 198 0
173 197 0
174 198 0
172 196 0
174 198 0
173 196 0
175 198 0
173 197 0
174 198 0
173 196 0
174 198 0
175 198 0
172 197 0
174 197 0
174 197 0
172 196 0
176 199 0
175 198 0
174 198 0
175 198 0
174 197 0
174 198 0
176 198 0
176 199 0
174 198 0
175 198 0
175 198 0
173 197 0
175 198 0
175 198 0
175 198 0
173 197 0
174 198 0
175 198 0
174 197 0
174 198 0
174 198 0
174 197 0
174 197 0
172 196 0
175 198 0
173 197 0
173 197 0
175 198 0
176 198 0
173 197 0
175 198 0
174 198 0
174 198 0
173 197 0
175 198 0
176 198 0
175 198 0
175 198 0
175 198 0
175 198 0
175 198 0
174 197 0
176 199 0
173 197 0
174 198 0
175 198 0
173 197 0
173 197 0
174 198 0
174 197 0
174 197 0
174 198 0
174 198 0
173 197 0
176 199 0
173 196 0
173 196 0
174 197 0
174 198 0
173 197 0
172 196 0
174 197 0
175 198 0
175 198 0
175 198 0
173 197 0
176 198 0
174 197 0
173 197 0
172 196 0
173 197 0
175 198 0
175 198 0
173 197 0
173 197 0
175 198 0
173 197 0
174 197 0
173 197 0
174 197 0
174 198 0
173 197 0
174 198 0
176 199 0
173 196 0
173 196 0
174 197 0
173 197 0
175 198 0
175 198 0
171 195 0
174 198 0
175 198 0
173 197 0
173 197 0
174 198 0
174 198 0
175 198 0
176 198 0
173 197 0
175 198 0
174 197 0
174 198 0
174 198 0
175 198 0
175 198 0
175 198 0
174 198 0
173 197 0
172 196 0
174 198 0
174 198 0
175 198 0
173 196 0
176 198 0
174 198 0
173 197 0
173 197 0
175 198 0
173 196 0
174 198 0
174 198 0
174 198 0
173 197 0
175 198 0
175 198 0
176 199 0
175 198 0
175 198 0
174 198 0
176 198 0
174 198 0
172 195 0
173 197 0
174 198 0
175 198 0
173 197 0
173 196 0
173 196 0
173 197 0
175 198 0
172 195 0
175 198 0
173 196 0
174 198 0
174 198 0
174 198 0
173 197 0
172 196 0
173 197 0
173 197 0
174 197 0
174 198 0
173 197 0
175 198 0
174 197 0
173 196 0
173 195 0
171 195 0
173 196 0
173 196 0
173 197 0
172 196 0
175 198 0
173 196 0
172 196 0
175 198 0
172 196 0
174 198 0
174 198 0
175 198 0
173 197 0
175 198 0
174 197 0
171 195 0
174 197 0
173 196 0
174 198 0
175 198 0
174 197 0
175 198 0
173 196 0
171 196 0
173 197 0
176 198 0
175 198 0
175 198 0
171 195 0
172 196 0
171 195 0
174 198 0
171 194 0
175 197 0
168 192 0
173 197 0
175 198 0
173 197 0
172 195 0
171 195 0
176 198 0
172 196 0
174 197 0
175 198 0
173 197 0
173 197 0
174 197 0
174 197 0
174 197 0
172 196 0
173 196 0
173 197 0
172 196 0
174 197 0
173 196 0
173 197 0
174 198 0
173 197 0
174 197 0
172 196 0
174 197 0
175 198 0
172 196 0
172 196 0
174 197 0
173 197 0
173 196 0
174 197 0
172 195 0
173 197 0
174 197 0
171 195 0
175 198 0
172 195 0
174 197 0
173 195 0
174 197 0
176 198 0
173 197 0
175 198 0
173 196 0
174 198 0
170 193 0
176 198 0
174 197 0
171 195 0
174 197 0
176 198 0
174 197 0
172 196 0
175 198 0
172 196 0
174 197 0
174 197 0
173 197 0
175 198 0
174 197 0
174 197 0
173 195 0
169 194 0
172 195 0
175 197 0
176 198 0
175 198 0
174 197 0
175 198 0
173 197 0
175 198 0
174 197 0
174 197 0
175 198 0
174 197 0
172 196 0
173 197 0
173 197 0
174 197 0
173 197 0
173 197 0
175 198 0
175 198 0
174 197 0
173 197 0
175 198 0
173 196 0
174 198 0
175 198 0
174 197 0
173 196 0
173 196 0
173 197 0
174 198 0
174 198 0
173 196 0
174 198 0
172 196 0
173 197 0
174 198 0
174 198 0
174 198 0
175 198 0
175 197 0
176 199 0
174 197 0
175 198 0
175 198 0
175 198 0
174 198 0
174 197 0
174 197 0
174 198 0
175 198 0
175 198 0
175 198 0
174 197 0
173 197 0
175 198 0
171 196 0
173 196 0
173 197 0
176 198 0
173 197 0
174 197 0
174 198 0
176 198 0
173 197 0
175 198 0
174 197 0
173 197 0
173 197 0
174 198 0
174 197 0
174 197 0
174 197 0
175 198 0
174 197 0
174 198 0
174 198 0
176 199 0
175 198 0
173 197 0
173 197 0
175 198 0
174 198 0
175 198 0
175 198 0
174 197 0
173 197 0
175 198 0
172 196 0
174 197 0
172 196 0
173 197 0
175 197 0
174 198 0
174 197 0
174 198 0
175 198 0
175 198 0
174 197 0
173 197 0
173 197 0
173 197 0
174 197 0
174 198 0
175 198 0
175 198 0
176 198 0
174 197 0
174 198 0
175 198 0
173 197 0
173 197 0
173 197 0
175 198 0
173 196 0
174 198 0
175 198 0
173 197 0
174 198 0
175 198 0
174 197 0
176 199 0
174 198 0
174 198 0
173 197 0
174 197 0
175 198 0
174 198 0
175 198 0
173 197 0
175 198 0
174 198 0
174 197 0
175 198 0
174 197 0
175 198 0
175 198 0
174 197 0
175 198 0
173 197 0
173 197 0
175 198 0
174 198 0
174 197 0
174 197 0
174 198 0
175 198 0
174 198 0
174 198 0
175 197 0
174 197 0
173 197 0
175 198 0
175 198 0
175 198 0
174 198 0
174 197 0
174 198 0
173 197 0
174 198 0
174 197 0
175 198 0
174 198 0
174 198 0
173 197 0
174 197 0
173 197 0
174 198 0
175 198 0
174 198 0
175 198 0
173 197 0
174 198 0
176 198 0
175 198 0
176 199 0
173 197 0
175 198 0
173 197 0
174 197 0
175 198 0
172 196 0
175 198 0
175 198 0
174 198 0
174 198 0
173 197 0
174 197 0
176 199 0
175 198 0
176 199 0
174 197 0
176 199 0
174 197 0
175 198 0
173 197 0
174 198 0
174 198 0
173 197 0
175 198 0
174 198 0
175 198 0
175 198 0
174 198 0
174 197 0
174 198 0
175 198 0
174 197 0
174 197 0
177 199 0
174 198 0
173 197 0
174 198 0
175 198 0
173 197 0
173 197 0
175 198 0
173 197 0
175 198 0
174 198 0
174 198 0
174 198 0
174 198 0
175 198 0
173 197 0
174 197 0
173 197 0
174 198 0
173 197 0
173 196 0
174 198 0
175 198 0
174 198 0
176 199 0
174 198 0
174 198 0
176 199 0
175 198 0
175 198 0
173 197 0
174 198 0
174 198 0
173 197 0
175 198 0
172 197 0
174 197 0
175 198 0
174 197 0
174 198 0
174 197 0
175 198 0
174 198 0
173 197 0
175 198 0
172 197 0
174 197 0
175 198 0
173 196 0
174 197 0
175 197 0
174 198 0
174 198 0
174 198 0
174 197 0
174 198 0
175 198 0
173 196 0
174 198 0
175 198 0
174 197 0
173 197 0
175 198 0
175 198 0
174 197 0
174 197 0
174 197 0
174 197 0
173 197 0
173 197 0
173 197 0
174 197 0
174 197 0
174 198 0
175 198 0
174 198 0
173 197 0
174 198 0
174 197 0
173 197 0
175 198 0
174 197 0
175 198 0
175 198 0
174 197 0
174 197 0
174 197 0
174 198 0
172 196 0
171 195 0
172 196 0
174 197 0
174 198 0
173 197 0
174 197 0
174 197 0
174 197 0
172 196 0
174 198 0
172 196 0
171 195 0
173 197 0
173 196 0
174 198 0
173 197 0
172 196 0
174 197 0
173 197 0
173 197 0
173 196 0
174 197 0
174 197 0
172 196 0
172 196 0
172 195 0
175 198 0
171 195 0
175 198 0
173 197 0
174 197 0
171 196 0
174 197 0
171 195 0
173 196 0
173 196 0
172 195 0
176 199 0
174 197 0
172 196 0
174 197 0
174 197 0
171 195 0
173 197 0
174 197 0
175 198 0
176 199 0
173 196 0
173 196 0
170 194 0
173 197 0
174 197 0
173 197 0
173 196 0
174 197 0
172 196 0
173 197 0
174 197 0
174 197 0
175 198 0
171 195 0
174 196 0
174 197 0
172 196 0
172 196 0
174 197 0
174 196 0
173 197 0
171 196 0
173 196 0
176 198 0
173 197 0
173 197 0
175 198 0
172 195 0
173 196 0
173 196 0
173 197 0
171 195 0
174 197 0
174 197 0
173 197 0
173 197 0
175 198 0
170 194 0
175 198 0
173 197 0
173 196 0
171 195 0
172 196 0
173 196 0
173 197 0
174 197 0
176 198 0
173 197 0
172 196 0
174 197 0
174 197 0
174 197 0
174 198 0
174 197 0
175 198 0
173 196 0
174 197 0
173 197 0
172 195 0
172 196 0
175 198 0
174 198 0
174 197 0
172 195 0
175 198 0
174 197 0
173 196 0
173 197 0
173 197 0
175 198 0
173 196 0
174 198 0
173 197 0
173 197 0
173 197 0
171 195 0
170 194 0
175 198 0
175 198 0
175 197 0
173 197 0
174 197 0
175 198 0
174 197 0
175 198 0
173 196 0
174 197 0
174 197 0
174 197 0
172 196 0
172 196 0
173 197 0
174 197 0
174 198 0
174 198 0
174 198 0
174 197 0
174 197 0
173 197 0
175 198 0
173 197 0
172 196 0
174 197 0
175 198 0
175 198 0
174 198 0
174 197 0
174 198 0
174 197 0
174 197 0
174 197 0
173 197 0
174 197 0
174 197 0
174 198 0
174 198 0
172 196 0
174 197 0
175 198 0
175 198 0
176 199 0
174 198 0
174 197 0
173 197 0
173 197 0
175 198 0
172 196 0
175 198 0
173 197 0
175 198 0
174 197 0
173 197 0
174 197 0
174 197 0
172 196 0
176 199 0
175 198 0
174 198 0
173 196 0
173 197 0
176 199 0
175 198 0
174 197 0
174 198 0
174 198 0
173 197 0
174 198 0
173 197 0
176 199 0
174 197 0
174 198 0
174 198 0
173 197 0
174 198 0
174 197 0
172 197 0
175 198 0
173 197 0
174 197 0
174 198 0
174 198 0
174 198 0
173 196 0
175 198 0
175 198 0
173 196 0
174 197 0
175 198 0
174 198 0
174 197 0
175 198 0
173 197 0
173 197 0
175 198 0
173 197 0
174 197 0
175 198 0
175 198 0
175 198 0
174 198 0
174 198 0
173 197 0
174 196 0
174 198 0
174 198 0
175 198 0
174 197 0
174 197 0
174 197 0
173 197 0
175 198 0
175 198 0
173 197 0
173 197 0
176 199 0
174 198 0
174 197 0
175 198 0
174 198 0
175 198 0
176 198 0
175 198 0
174 197 0
176 199 0
173 197 0
175 198 0
174 198 0
175 198 0
174 198 0
174 198 0
175 198 0
174 198 0
174 198 0
174 198 0
174 198 0
174 197 0
175 198 0
176 198 0
174 198 0
175 198 0
175 198 0
172 196 0
174 198 0
174 197 0
175 198 0
173 197 0
173 197 0
175 198 0
175 198 0
176 199 0
173 196 0
175 198 0
175 198 0
174 198 0
174 197 0
174 197 0
174 198 0
174 197 0
175 198 0
172 197 0
175 198 0
174 198 0
173 197 0
174 198 0
174 198 0
175 198 0
174 198 0
176 198 0
174 198 0
175 198 0
173 197 0
174 198 0
173 196 0
174 198 0
175 198 0
175 198 0
174 198 0
174 198 0
174 198 0
174 198 0
174 198 0
173 197 0
174 197 0
174 198 0
174 198 0
174 197 0
174 197 0
175 198 0
174 198 0
173 197 0
175 198 0
175 198 0
174 198 0
175 198 0
174 198 0
175 198 0
174 198 0
174 198 0
175 198 0
174 197 0
173 197 0
175 198 0
176 199 0
175 198 0
174 198 0
174 198 0
173 197 0
174 197 0
175 198 0
174 197 0
173 197 0
174 198 0
174 198 0
172 196 0
174 197 0
175 198 0
175 198 0
174 198 0
176 199 0
174 197 0
174 197 0
174 197 0
176 199 0
175 198 0
173 197 0
175 198 0
177 199 0
175 198 0
173 197 0
176 199 0
175 198 0
175 198 0
173 197 0
173 197 0
175 198 0
175 198 0
174 198 0
174 198 0
173 196 0
174 198 0
174 198 0
175 198 0
173 196 0
174 197 0
173 197 0
176 199 0
172 196 0
175 198 0
174 197 0
174 197 0
173 197 0
173 196 0
172 196 0
175 198 0
174 198 0
173 197 0
174 197 0
174 197 0
174 198 0
174 198 0
172 196 0
174 197 0
173 196 0
175 198 0
174 198 0
174 197 0
175 197 0
174 198 0
172 196 0
174 197 0
172 196 0
172 195 0
175 198 0
174 198 0
174 198 0
175 198 0
174 197 0
173 197 0
174 197 0
174 197 0
175 198 0
174 197 0
172 196 0
173 196 0
174 198 0
173 197 0
175 198 0
175 198 0
173 196 0
170 194 0
174 197 0
173 197 0
171 195 0
175 198 0
174 198 0
173 196 0
174 198 0
173 196 0
173 197 0
173 197 0
173 196 0
174 197 0
174 197 0
173 196 0
174 197 0
174 198 0
173 196 0
173 197 0
173 197 0
174 198 0
175 198 0
172 196 0
174 198 0
174 197 0
173 197 0
173 196 0
174 197 0
173 196 0
174 197 0
173 197 0
174 197 0
173 196 0
174 197 0
174 197 0
172 195 0
174 198 0
173 197 0
174 197 0
172 195 0
172 195 0
172 196 0
172 196 0
172 196 0
175 198 0
173 197 0
172 196 0
173 196 0
173 196 0
174 197 0
173 197 0
173 197 0
171 194 0
173 197 0
170 194 0
173 197 0
173 197 0
172 196 0
171 195 0
173 197 0
173 196 0
173 197 0
172 195 0
173 196 0
176 198 0
174 198 0
173 197 0
174 198 0
174 198 0
173 197 0
172 196 0
173 197 0
174 197 0
174 197 0
171 195 0
172 196 0
175 198 0
174 197 0
172 195 0
174 197 0
173 197 0
172 196 0
172 196 0
171 194 0
174 197 0
174 198 0
173 196 0
174 197 0
173 197 0
174 197 0
172 195 0
174 198 0
170 194 0
173 196 0
173 197 0
175 198 0
171 195 0
174 197 0
172 196 0
173 197 0
174 198 0
173 197 0
174 197 0
174 197 0
175 198 0
173 197 0
175 198 0
174 198 0
177 199 0
173 197 0
174 197 0
172 196 0
174 198 0
173 197 0
173 197 0
172 196 0
173 197 0
173 197 0
173 196 0
172 197 0
174 197 0
175 198 0
173 197 0
174 197 0
175 198 0
173 197 0
175 198 0
174 197 0
172 196 0
174 197 0
176 198 0
175 198 0
173 197 0
174 198 0
174 198 0
173 197 0
175 198 0
174 197 0
175 198 0
176 199 0
174 197 0
176 199 0
172 196 0
174 197 0
174 197 0
174 197 0
174 197 0
174 198 0
175 198 0
175 198 0
175 198 0
175 198 0
175 198 0
175 198 0
174 198 0
174 198 0
173 196 0
175 198 0
174 197 0
174 197 0
173 197 0
173 197 0
174 197 0
172 196 0
174 197 0
173 197 0
175 198 0
175 198 0
173 197 0
174 198 0
176 198 0
173 197 0
174 197 0
175 198 0
174 197 0
174 197 0
176 199 0
175 198 0
174 197 0
174 198 0
175 198 0
174 198 0
174 198 0
175 198 0
173 197 0
174 197 0
175 198 0
175 198 0
171 196 0
176 199 0
175 198 0
173 197 0
175 198 0
175 198 0
174 198 0
175 198 0
173 197 0
173 196 0
174 197 0
174 198 0
174 197 0
175 198 0
174 198 0
174 198 0
175 198 0
174 197 0
174 197 0
176 199 0
174 198 0
174 197 0
176 199 0
174 197 0
174 197 0
176 198 0
173 197 0
175 198 0
174 198 0
174 198 0
174 198 0
175 198 0
175 198 0
175 198 0
175 198 0
175 198 0
174 198 0
174 197 0
174 198 0
174 197 0
174 197 0
175 198 0
174 198 0
175 198 0
174 197 0
173 197 0
174 198 0
174 198 0
173 197 0
174 198 0
174 197 0
174 198 0
173 197 0
174 198 0
173 197 0
175 198 0
175 198 0
174 198 0
176 199 0
176 199 0
173 197 0
174 198 0
173 197 0
175 198 0
174 198 0
174 198 0
174 198 0
174 198 0
176 198 0
173 197 0
173 197 0
174 197 0
175 198 0
173 197 0
175 198 0
174 198 0
175 198 0
174 197 0
175 198 0
174 198 0
173 197 0
174 198 0
174 197 0
175 198 0
175 198 0
175 198 0
174 198 0
174 197 0
173 197 0
175 198 0
174 197 0
176 199 0
173 197 0
174 198 0
174 198 0
174 198 0
173 197 0
175 198 0
176 199 0
173 197 0
174 198 0
175 198 0
173 197 0
175 198 0
173 197 0
175 198 0
174 198 0
173 197 0
174 198 0
174 198 0
174 197 0
174 198 0
175 198 0
174 198 0
176 198 0
174 197 0
173 197 0
173 197 0
174 198 0
175 198 0
174 198 0
173 197 0
174 198 0
174 198 0
174 197 0
175 198 0
173 197 0
172 196 0
175 198 0
174 198 0
176 199 0
174 198 0
173 197 0
172 196 0
176 198 0
172 197 0
174 197 0
175 198 0
173 197 0
175 198 0
174 197 0
175 198 0
175 198 0
173 197 0
171 195 0
173 197 0
175 198 0
174 198 0
175 198 0
174 197 0
174 198 0
174 198 0
174 198 0
171 195 0
174 197 0
174 197 0
173 197 0
173 196 0
173 197 0
173 197 0
175 198 0
174 198 0
176 198 0
174 197 0
175 198 0
175 198 0
174 197 0
174 197 0
174 197 0
174 198 0
172 196 0
173 197 0
171 195 0
174 197 0
173 197 0
174 197 0
175 198 0
176 198 0
172 196 0
175 198 0
173 196 0
172 196 0
173 197 0
173 197 0
174 198 0
173 197 0
173 197 0
173 197 0
173 197 0
174 198 0
171 195 0
173 197 0
173 197 0
173 196 0
174 198 0
175 198 0
172 196 0
172 196 0
174 198 0
173 197 0
173 197 0
174 197 0
173 197 0
174 197 0
173 197 0
172 196 0
172 196 0
173 197 0
172 195 0
173 197 0
174 197 0
173 197 0
175 198 0
170 194 0
172 195 0
173 197 0
174 198 0
173 197 0
172 196 0
172 195 0
172 196 0
173 196 0
173 197 0
172 195 0
171 195 0
174 198 0
173 197 0
172 196 0
175 198 0
174 197 0
174 197 0
173 197 0
173 197 0
173 197 0
175 198 0
173 197 0
173 197 0
174 197 0
171 195 0
174 197 0
173 196 0
172 196 0
175 198 0
173 196 0
173 196 0
170 194 0
174 197 0
172 195 0
175 198 0
174 197 0
173 196 0
173 197 0
174 196 0
174 197 0
174 197 0
171 194 0
171 195 0
175 198 0
173 197 0
173 197 0
171 196 0
172 196 0
173 197 0
172 195 0
173 197 0
173 197 0
174 197 0
172 195 0
174 198 0
173 197 0
173 197 0
173 197 0
174 198 0
172 196 0
171 194 0
173 197 0
175 198 0
173 197 0
175 198 0
175 198 0
173 197 0
173 197 0
174 197 0
174 197 0
171 195 0
175 198 0
170 194 0
175 198 0
172 196 0
173 197 0
175 198 0
175 198 0
173 197 0
176 199 0
174 197 0
170 194 0
173 197 0
172 196 0
173 197 0
174 197 0
174 197 0
174 197 0
171 195 0
174 197 0
173 197 0
173 196 0
170 193 0
171 195 0
172 195 0
172 196 0
174 197 0
175 198 0
173 197 0
172 196 0
175 198 0
174 197 0
175 198 0
173 197 0
173 197 0
174 198 0
173 197 0
174 197 0
174 197 0
172 196 0
175 198 0
174 197 0
173 197 0
175 198 0
173 196 0
175 198 0
173 196 0
174 197 0
175 198 0
172 196 0
174 197 0
177 199 0
174 197 0
175 198 0
173 197 0
173 197 0
174 198 0
175 198 0
172 197 0
176 199 0
175 198 0
175 197 0
173 196 0
174 197 0
174 197 0
174 198 0
173 197 0
174 198 0
174 198 0
174 198 0
172 196 0
174 197 0
173 197 0
174 198 0
173 196 0
174 198 0
174 198 0
172 196 0
174 198 0
173 197 0
170 194 0
174 197 0
173 197 0
175 198 0
174 197 0
174 198 0
173 196 0
173 197 0
173 197 0
172 195 0
172 196 0
175 198 0
174 198 0
174 198 0
174 198 0
173 197 0
173 196 0
173 197 0
173 197 0
173 197 0
175 198 0
172 196 0
173 197 0
175 198 0
173 197 0
174 198 0
173 197 0
173 197 0
173 197 0
174 198 0
175 198 0
173 197 0
174 197 0
172 197 0
176 198 0
173 197 0
173 196 0
173 197 0
174 198 0
174 197 0
174 198 0
174 197 0
175 198 0
174 198 0
175 198 0
175 198 0
174 197 0
174 198 0
175 198 0
174 198 0
174 198 0
175 198 0
173 197 0
173 197 0
172 196 0
174 197 0
174 197 0
174 197 0
175 198 0
174 197 0
173 197 0
176 198 0
175 198 0
174 198 0
174 197 0
174 197 0
175 198 0
174 198 0
173 197 0
176 198 0
174 198 0
174 198 0
173 197 0
175 198 0
174 198 0
173 197 0
174 197 0
173 197 0
174 198 0
174 198 0
174 197 0
174 197 0
175 198 0
174 197 0
175 198 0
174 198 0
175 198 0
175 198 0
173 197 0
175 198 0
174 197 0
173 197 0
173 197 0
174 198 0
174 198 0
174 198 0
173 197 0
174 197 0
173 197 0
174 198 0
174 198 0
173 197 0
175 198 0
174 197 0
175 198 0
175 198 0
174 198 0
174 198 0
173 197 0
173 197 0
175 198 0
175 198 0
173 197 0
173 197 0
174 198 0
174 198 0
175 198 0
176 198 0
174 198 0
175 198 0
176 199 0
175 198 0
174 198 0
174 198 0
174 198 0
173 197 0
173 196 0
174 198 0
174 197 0
175 198 0
174 198 0
174 198 0
173 197 0
175 198 0
174 197 0
174 198 0
174 198 0
176 199 0
174 198 0
174 198 0
174 197 0
174 198 0
174 197 0
173 197 0
174 198 0
174 197 0
174 197 0
175 198 0
175 198 0
173 197 0
174 198 0
173 197 0
174 197 0
174 198 0
175 198 0
173 197 0
175 198 0
172 196 0
174 198 0
174 198 0
174 197 0
173 197 0
176 199 0
174 197 0
175 198 0
173 197 0
176 199 0
175 198 0
173 197 0
175 198 0
174 198 0
173 197 0
173 197 0
175 198 0
174 198 0
174 197 0
174 198 0
173 197 0
171 195 0
173 196 0
174 198 0
174 198 0
174 197 0
174 197 0
174 197 0
175 198 0
175 198 0
174 197 0
174 197 0
173 197 0
174 198 0
173 197 0
174 197 0
172 196 0
174 197 0
173 197 0
175 198 0
173 197 0
173 197 0
174 197 0
173 197 0
174 198 0
174 198 0
173 197 0
174 198 0
174 197 0
174 197 0
173 197 0
173 197 0
175 198 0
173 197 0
174 197 0
173 197 0
172 196 0
174 198 0
174 197 0
175 198 0
173 197 0
174 198 0
175 198 0
174 197 0
174 198 0
174 198 0
175 198 0
172 196 0
175 198 0
173 197 0
172 196 0
172 196 0
174 197 0
175 198 0
174 196 0
175 198 0
171 195 0
174 197 0
174 197 0
173 197 0
173 197 0
174 197 0
174 197 0
171 196 0
171 195 0
173 197 0
174 197 0
174 198 0
173 197 0
174 198 0
172 196 0
174 197 0
173 196 0
174 197 0
172 195 0
172 196 0
173 196 0
171 196 0
174 198 0
173 196 0
175 198 0
173 196 0
173 197 0
172 196 0
171 195 0
172 196 0
175 198 0
175 198 0
171 195 0
171 195 0
173 197 0
175 198 0
175 198 0
171 196 0
173 196 0
174 197 0
173 196 0
174 197 0
172 196 0
173 196 0
175 198 0
172 195 0
173 197 0
175 198 0
174 198 0
172 196 0
173 197 0
173 197 0
174 198 0
171 195 0
173 197 0
173 197 0
174 197 0
173 197 0
173 197 0
169 193 0
174 198 0
172 196 0
173 197 0
175 198 0
173 196 0
174 197 0
174 196 0
174 197 0
174 197 0
172 196 0
174 197 0
172 195 0
174 197 0
173 196 0
174 198 0
175 198 0
173 197 0
173 197 0
173 197 0
171 195 0
173 196 0
174 197 0
175 198 0
175 198 0
174 198 0
172 196 0
174 198 0
173 197 0
173 196 0
175 197 0
172 195 0
173 197 0
175 198 0
175 198 0
174 198 0
173 197 0
174 198 0
173 196 0
172 195 0
174 197 0
173 196 0
174 197 0
172 196 0
174 198 0
174 198 0
175 197 0
173 197 0
174 198 0
175 198 0
172 195 0
174 197 0
172 196 0
175 197 0
175 197 0
173 197 0
172 196 0
173 196 0
174 197 0
174 197 0
172 196 0
176 198 0
172 196 0
175 198 0
173 197 0
175 198 0
174 197 0
171 195 0
173 197 0
174 197 0
173 197 0
174 198 0
173 197 0
174 197 0
173 197 0
175 198 0
174 198 0
173 197 0
174 197 0
173 197 0
172 196 0
172 196 0
172 195 0
175 198 0
172 197 0
174 197 0
175 198 0
172 196 0
175 198 0
175 198 0
173 196 0
174 198 0
172 196 0
174 197 0
175 198 0
174 198 0
175 198 0
175 198 0
174 198 0
174 197 0
172 196 0
174 197 0
173 196 0
174 197 0
173 197 0
172 196 0
175 198 0
175 198 0
174 197 0
174 198 0
174 197 0
174 197 0
174 197 0
174 198 0
175 198 0
175 198 0
173 197 0
174 198 0
173 197 0
175 198 0
174 197 0
175 198 0
174 198 0
175 198 0
173 197 0
175 198 0
174 198 0
175 198 0
175 198 0
175 198 0
174 198 0
174 198 0
175 197 0
175 198 0
175 198 0
173 197 0
172 196 0
174 198 0
174 198 0
176 199 0
174 198 0
175 198 0
174 197 0
174 198 0
175 198 0
174 198 0
174 198 0
175 198 0
174 197 0
174 197 0
176 199 0
174 198 0
175 198 0
174 197 0
173 197 0
173 197 0
175 198 0
174 198 0
175 198 0
175 198 0
173 197 0
173 197 0
174 197 0
173 197 0
175 198 0
174 198 0
176 199 0
175 198 0
175 197 0
174 197 0
175 198 0
174 197 0
175 198 0
174 198 0
174 198 0
175 198 0
174 197 0
175 198 0
174 197 0
176 199 0
174 198 0
175 198 0
174 198 0
172 196 0
175 198 0
174 198 0
174 197 0
176 199 0
174 197 0
175 198 0
174 198 0
173 197 0
176 199 0
175 198 0
174 198 0
174 197 0
173 197 0
175 198 0
176 199 0
174 198 0
175 198 0
175 198 0
173 197 0
174 197 0
174 197 0
174 198 0
174 198 0
175 198 0
173 197 0
173 197 0
175 198 0
174 198 0
174 198 0
173 196 0
174 198 0
175 198 0
174 198 0
175 198 0
174 198 0
174 197 0
175 198 0
174 197 0
174 197 0
175 198 0
175 198 0
173 197 0
175 198 0
173 196 0
176 199 0
173 196 0
174 198 0
173 197 0
174 198 0
174 198 0
173 197 0
175 198 0
174 198 0
174 197 0
174 197 0
175 198 0
175 198 0
174 198 0
174 198 0
175 198 0
174 198 0
175 198 0
174 198 0
174 198 0
175 198 0
174 198 0
173 197 0
176 199 0
175 198 0
173 197 0
175 198 0
176 198 0
175 198 0
174 197 0
175 198 0
175 198 0
174 198 0
173 196 0
174 197 0
174 198 0
173 197 0
175 198 0
174 197 0
173 197 0
175 198 0
175 198 0
174 198 0
174 198 0
174 197 0
173 197 0
176 199 0
171 195 0
173 197 0
174 198 0
174 197 0
175 198 0
174 197 0
174 197 0
174 198 0
172 196 0
174 198 0
175 198 0
173 197 0
175 198 0
174 197 0
175 198 0
175 198 0
175 198 0
174 197 0
175 198 0
173 197 0
173 197 0
173 197 0
175 198 0
172 196 0
174 197 0
175 198 0
173 197 0
173 197 0
176 198 0
175 198 0
173 196 0
175 198 0
173 197 0
174 197 0
174 197 0
173 197 0
176 198 0
174 198 0
174 197 0
174 197 0
173 197 0
174 198 0
173 197 0
171 196 0
175 198 0
174 198 0
174 198 0
175 198 0
175 198 0
173 196 0
175 198 0
175 198 0
173 196 0
174 197 0
173 197 0
175 198 0
170 193 0
173 196 0
172 195 0
174 198 0
174 197 0
173 197 0
172 195 0
174 197 0
176 198 0
172 196 0
175 198 0
173 197 0
172 197 0
173 197 0
174 197 0
174 198 0
171 194 0
172 196 0
175 198 0
173 197 0
171 195 0
174 196 0
173 197 0
174 197 0
174 197 0
172 196 0
173 197 0
173 197 0
173 197 0
172 195 0
174 197 0
171 195 0
174 198 0
173 196 0
174 197 0
174 198 0
173 197 0
171 195 0
173 196 0
174 197 0
171 195 0
174 197 0
173 196 0
174 197 0
174 197 0
175 198 0
173 196 0
172 195 0
173 196 0
177 199 0
174 198 0
172 196 0
174 197 0
172 195 0
174 197 0
171 195 0
172 196 0
171 195 0
173 197 0
173 197 0
173 197 0
173 197 0
173 196 0
172 196 0
173 196 0
173 197 0
174 198 0
173 197 0
175 198 0
176 199 0
173 196 0
173 197 0
174 197 0
174 198 0
172 196 0
173 197 0
173 195 0
175 198 0
175 198 0
173 197 0
174 197 0
173 196 0
176 198 0
171 195 0
175 198 0
173 196 0
172 195 0
173 197 0
173 196 0
174 197 0
173 196 0
174 197 0
173 197 0
174 197 0
174 197 0
173 197 0
173 196 0
174 197 0
174 198 0
173 196 0
174 197 0
173 196 0
173 197 0
173 197 0
173 196 0
174 197 0
172 196 0
175 198 0
174 198 0
173 196 0
173 196 0
172 196 0
175 198 0
173 196 0
174 198 0
171 195 0
175 198 0
175 198 0
173 197 0
174 197 0
175 198 0
173 196 0
175 198 0
174 198 0
174 198 0
173 196 0
174 197 0
173 197 0
172 197 0
172 196 0
171 196 0
174 197 0
175 198 0
174 197 0
173 197 0
173 197 0
176 199 0
175 198 0
175 197 0
174 198 0
174 198 0
174 197 0
173 197 0
174 197 0
172 196 0
172 196 0
174 198 0
173 197 0
173 197 0
173 197 0
172 195 0
174 197 0
175 198 0
174 197 0
175 198 0
174 197 0
175 198 0
174 197 0
174 197 0
173 197 0
173 197 0
173 196 0
174 198 0
175 198 0
173 197 0
175 198 0
174 198 0
173 197 0
171 194 0
173 196 0
172 196 0
174 197 0
173 197 0
175 198 0
175 198 0
174 198 0
175 198 0
174 197 0
175 198 0
174 198 0
173 196 0
173 196 0
172 197 0
175 198 0
175 198 0
173 197 0
174 198 0
174 197 0
174 197 0
175 198 0
175 198 0
174 197 0
175 198 0
173 196 0
174 198 0
174 197 0
175 198 0
174 197 0
174 198 0
173 197 0
174 197 0
174 197 0
176 199 0
174 198 0
176 198 0
172 197 0
174 197 0
173 197 0
174 198 0
174 198 0
174 197 0
174 198 0
173 197 0
173 197 0
173 196 0
176 199 0
174 197 0
173 197 0
175 198 0
173 197 0
172 196 0
173 197 0
172 196 0
174 197 0
173 197 0
174 198 0
174 198 0
173 197 0
174 198 0
173 197 0
175 198 0
174 197 0
174 198 0
172 196 0
174 198 0
173 197 0
175 198 0
172 196 0
171 196 0
175 198 0
175 198 0
173 197 0
175 198 0
174 197 0
173 197 0
175 198 0
174 198 0
174 198 0
174 197 0
174 198 0
174 198 0
173 197 0
173 197 0
175 198 0
172 196 0
174 198 0
175 198 0
173 197 0
175 198 0
174 198 0
174 197 0
173 197 0
175 198 0
175 198 0
175 198 0
173 197 0
174 197 0
174 197 0
176 199 0
175 198 0
173 197 0
175 198 0
173 197 0
173 197 0
174 198 0
175 198 0
174 198 0
176 198 0
175 198 0
175 198 0
174 198 0
176 198 0
175 198 0
174 198 0
174 197 0
173 197 0
175 198 0
176 199 0
177 199 0
174 197 0
174 198 0
175 198 0
173 197 0
174 197 0
173 196 0
175 198 0
173 197 0
175 198 0
173 197 0
175 198 0
173 197 0
175 198 0
174 197 0
173 197 0
174 197 0
176 199 0
172 197 0
174 198 0
173 197 0
174 198 0
176 199 0
175 198 0
173 197 0
173 197 0
174 198 0
174 198 0
173 197 0
174 198 0
174 198 0
173 197 0
173 197 0
175 198 0
175 198 0
175 198 0
173 197 0
175 198 0
173 197 0
174 198 0
173 197 0
175 198 0
175 198 0
174 197 0
174 198 0
174 198 0
173 197 0
173 197 0
176 198 0
173 196 0
175 198 0
172 196 0
173 197 0
175 198 0
173 197 0
173 196 0
174 197 0
173 197 0
173 197 0
175 198 0
175 198 0
174 198 0
173 197 0
175 198 0
173 197 0
176 198 0
172 196 0
175 198 0
174 197 0
173 197 0
175 198 0
174 197 0
175 198 0
174 197 0
171 196 0
174 197 0
173 196 0
173 197 0
175 198 0
176 199 0
173 196 0
174 198 0
174 197 0
175 198 0
173 196 0
172 195 0
175 198 0
173 196 0
176 199 0
174 197 0
175 198 0
176 198 0
174 197 0
174 198 0
174 197 0
172 196 0
172 196 0
172 196 0
174 198 0
174 197 0
175 198 0
174 198 0
173 197 0
174 197 0
173 196 0
173 197 0
173 197 0
173 197 0
174 198 0
175 198 0
173 197 0
175 198 0
175 198 0
173 197 0
174 198 0
170 194 0
174 197 0
173 197 0
173 197 0
175 198 0
175 198 0
174 198 0
173 197 0
172 196 0
174 197 0
173 197 0
173 197 0
171 195 0
174 197 0
174 197 0
174 197 0
173 197 0
174 198 0
174 198 0
173 196 0
173 197 0
173 197 0
172 195 0
173 196 0
170 194 0
176 198 0
173 197 0
173 197 0
173 197 0
173 197 0
171 195 0
171 195 0
173 197 0
174 197 0
172 195 0
172 195 0
174 197 0
174 197 0
174 197 0
175 198 0
173 197 0
173 196 0
173 197 0
173 196 0
173 197 0
173 197 0
174 197 0
174 197 0
170 194 0
172 195 0
174 198 0
173 197 0
173 196 0
177 199 0
173 197 0
171 195 0
174 198 0
174 197 0
173 197 0
174 197 0
172 196 0
173 196 0
172 196 0
173 197 0
173 196 0
174 197 0
174 197 0
172 196 0
172 195 0
174 197 0
174 197 0
174 197 0
173 196 0
175 198 0
173 196 0
174 197 0
173 197 0
174 197 0
174 197 0
173 197 0
174 197 0
173 196 0
172 196 0
173 196 0
174 197 0
174 198 0
174 197 0
173 197 0
174 197 0
174 197 0
172 196 0
174 197 0
174 198 0
172 196 0
173 197 0
175 198 0
172 195 0
172 196 0
172 195 0
173 197 0
174 197 0
176 198 0
172 195 0
175 198 0
173 196 0
175 197 0
175 198 0
174 197 0
174 197 0
174 197 0
174 197 0
172 196 0
173 196 0
175 198 0
174 197 0
175 198 0
174 197 0
175 198 0
175 197 0
175 198 0
175 198 0
175 197 0
170 194 0
175 198 0
173 197 0
173 197 0
174 197 0
173 197 0
173 197 0
174 197 0
173 196 0
173 197 0
173 196 0
174 197 0
175 198 0
175 198 0
174 198 0
175 198 0
176 199 0
173 197 0
174 197 0
175 198 0
172 196 0
174 197 0
173 197 0
173 197 0
174 198 0
172 196 0
173 197 0
173 197 0
174 198 0
176 198 0
173 196 0
174 198 0
173 197 0
174 197 0
172 196 0
173 196 0
174 198 0
174 197 0
174 197 0
173 197 0
172 196 0
174 197 0
174 198 0
174 197 0
174 198 0
173 197 0
176 198 0
173 196 0
175 198 0
175 198 0
175 198 0
172 196 0
174 197 0
174 198 0
175 198 0
173 197 0
174 197 0
175 197 0
175 198 0
175 198 0
175 198 0
171 195 0
174 197 0
172 196 0
175 198 0
174 197 0
173 197 0
176 198 0
173 197 0
175 198 0
175 198 0
173 197 0
175 197 0
175 198 0
173 196 0
173 197 0
172 196 0
175 198 0
175 198 0
174 198 0
174 197 0
175 198 0
174 198 0
173 197 0
174 198 0
175 198 0
174 197 0
173 197 0
175 198 0
173 197 0
176 199 0
176 199 0
176 198 0
173 196 0
175 198 0
174 198 0
174 197 0
175 198 0
174 197 0
174 197 0
176 199 0
175 198 0
174 197 0
173 196 0
174 197 0
174 198 0
175 198 0
172 197 0
172 197 0
175 198 0
174 197 0
172 196 0
176 198 0
174 198 0
175 198 0
173 197 0
174 198 0
175 198 0
175 198 0
174 198 0
173 197 0
175 198 0
174 197 0
175 198 0
177 199 0
174 198 0
174 197 0
174 198 0
175 198 0
175 198 0
175 198 0
174 197 0
176 198 0
175 198 0
174 198 0
174 197 0
175 198 0
174 198 0
174 198 0
175 198 0
175 198 0
173 197 0
175 198 0
173 197 0
173 197 0
175 198 0
175 198 0
175 198 0
175 198 0
174 198 0
174 198 0
175 198 0
174 198 0
173 197 0
175 198 0
173 197 0
173 197 0
175 198 0
175 198 0
173 197 0
174 198 0
174 197 0
175 198 0
174 197 0
174 197 0
174 197 0
175 198 0
174 198 0
174 197 0
177 199 0
176 199 0
174 198 0
176 199 0
173 197 0
174 198 0
174 197 0
174 198 0
174 198 0
173 197 0
174 197 0
174 198 0
175 198 0
174 197 0
175 198 0
174 197 0
173 197 0
172 195 0
174 197 0
174 198 0
174 198 0
174 198 0
174 198 0
175 198 0
175 198 0
173 197 0
174 197 0
173 197 0
175 198 0
174 197 0
173 197 0
173 197 0
173 197 0
176 198 0
173 197 0
173 197 0
174 198 0
174 197 0
176 199 0
174 198 0
174 197 0
173 196 0
174 197 0
173 197 0
174 198 0
175 198 0
174 198 0
173 196 0
174 198 0
174 198 0
174 197 0
172 197 0
172 196 0
174 198 0
176 199 0
177 199 0
175 198 0
174 198 0
174 197 0
174 197 0
174 197 0
174 198 0
173 196 0
175 198 0
173 196 0
174 198 0
174 197 0
174 197 0
172 197 0
175 198 0
174 198 0
174 197 0
176 198 0
173 196 0
175 198 0
175 198 0
173 197 0
173 197 0
173 197 0
175 198 0
175 198 0
173 196 0
173 197 0
174 198 0
172 196 0
173 197 0
171 195 0
173 197 0
174 197 0
176 199 0
174 197 0
175 198 0
173 197 0
175 198 0
174 197 0
175 198 0
174 198 0
174 198 0
174 197 0
174 197 0
174 198 0
173 197 0
176 198 0
175 198 0
175 198 0
175 198 0
173 197 0
173 197 0
174 197 0
174 197 0
172 196 0
174 197 0
174 197 0
172 196 0
172 196 0
174 197 0
173 196 0
174 197 0
174 197 0
174 197 0
173 197 0
173 197 0
173 197 0
173 197 0
172 196 0
174 198 0
174 198 0
172 195 0
174 197 0
172 196 0
172 197 0
173 197 0
172 196 0
172 195 0
174 197 0
175 198 0
172 195 0
173 197 0
174 196 0
173 197 0
173 197 0
173 197 0
173 196 0
174 197 0
175 198 0
173 196 0
172 196 0
172 197 0
172 196 0
174 197 0
175 198 0
173 197 0
175 198 0
173 196 0
175 197 0
175 198 0
173 197 0
172 195 0
173 197 0
171 195 0
171 195 0
174 198 0
173 197 0
169 194 0
173 197 0
175 198 0
173 196 0
174 198 0
174 197 0
173 196 0
174 197 0
173 197 0
174 198 0
173 196 0
175 198 0
175 197 0
173 196 0
173 197 0
174 198 0
174 197 0
174 198 0
171 194 0
173 196 0
173 197 0
174 197 0
172 195 0
174 198 0
171 195 0
174 198 0
172 195 0
175 198 0
173 197 0
174 197 0
174 197 0
173 196 0
173 197 0
173 196 0
174 197 0
172 195 0
170 194 0
174 198 0
171 195 0
170 194 0
173 197 0
173 197 0
173 197 0
171 196 0
174 196 0
173 197 0
172 195 0
174 197 0
172 196 0
172 195 0
174 197 0
172 196 0
174 197 0
175 198 0
171 195 0
173 196 0
174 197 0
173 196 0
174 197 0
175 198 0
172 197 0
174 198 0
174 197 0
173 197 0
175 198 0
173 197 0
175 197 0
174 198 0
175 198 0
175 198 0
172 196 0
174 197 0
173 197 0
174 197 0
174 197 0
174 198 0
175 198 0
174 197 0
176 198 0
174 198 0
172 196 0
173 197 0
175 198 0
174 197 0
173 197 0
174 197 0
173 197 0
173 196 0
173 197 0
174 198 0
174 198 0
175 198 0
172 196 0
175 198 0
173 197 0
173 197 0
174 198 0
173 197 0
175 198 0
172 196 0
171 195 0
173 197 0
175 198 0
172 196 0
174 198 0
174 198 0
173 197 0
175 198 0
174 197 0
174 197 0
174 197 0
174 197 0
175 198 0
174 197 0
175 198 0
174 198 0
173 196 0
173 197 0
173 197 0
173 197 0
175 198 0
172 196 0
174 197 0
175 198 0
175 198 0
173 197 0
173 197 0
175 198 0
175 198 0
174 197 0
172 196 0
176 198 0
174 197 0
174 198 0
173 197 0
174 198 0
174 197 0
173 196 0
176 199 0
171 195 0
174 198 0
174 198 0
174 198 0
173 197 0
173 197 0
173 197 0
174 197 0
173 196 0
175 198 0
174 197 0
174 197 0
173 197 0
175 198 0
175 198 0
173 197 0
174 197 0
173 197 0
175 198 0
175 198 0
172 196 0
174 197 0
175 198 0
173 197 0
174 198 0
175 198 0
176 199 0
172 196 0
173 197 0
176 199 0
175 198 0
172 196 0
173 197 0
175 198 0
174 197 0
174 197 0
175 197 0
174 197 0
173 197 0
177 199 0
175 198 0
174 198 0
174 197 0
174 198 0
174 197 0
174 197 0
175 198 0
174 198 0
174 198 0
176 198 0
176 198 0
174 197 0
174 198 0
174 198 0
174 198 0
174 198 0
173 197 0
175 198 0
174 197 0
174 198 0
175 198 0
174 198 0
174 198 0
173 197 0
172 197 0
176 199 0
173 197 0
174 197 0
174 197 0
175 198 0
176 199 0
174 197 0
175 198 0
175 198 0
175 198 0
174 197 0
174 198 0
175 198 0
173 196 0
174 198 0
174 198 0
176 198 0
175 198 0
175 198 0
175 198 0
175 198 0
173 197 0
174 198 0
176 199 0
173 197 0
175 198 0
174 197 0
174 198 0
176 199 0
175 198 0
174 198 0
174 197 0
175 198 0
175 198 0
174 198 0
175 198 0
175 198 0
176 199 0
175 198 0
173 197 0
175 198 0
174 198 0
173 197 0
174 198 0
175 198 0
172 196 0
173 197 0
175 198 0
171 195 0
175 198 0
176 199 0
171 196 0
175 198 0
175 198 0
174 198 0
175 198 0
175 198 0
173 196 0
174 198 0
176 199 0
175 198 0
175 198 0
174 198 0
174 198 0
174 198 0
172 196 0
174 197 0
175 198 0
175 198 0
174 197 0
174 198 0
173 197 0
174 197 0
174 198 0
175 198 0
173 197 0
174 198 0
176 199 0
175 198 0
175 198 0
173 196 0
175 198 0
174 197 0
176 199 0
175 198 0
175 198 0
173 197 0
173 197 0
174 197 0
174 198 0
174 198 0
174 198 0
176 198 0
174 198 0
174 198 0
174 197 0
175 198 0
173 197 0
174 197 0
174 197 0
175 198 0
173 197 0
176 198 0
172 197 0
176 198 0
173 197 0
173 197 0
174 198 0
175 198 0
176 198 0
175 198 0
175 198 0
175 198 0
174 198 0
175 198 0
174 198 0
174 197 0
174 197 0
175 198 0
172 196 0
174 197 0
172 196 0
175 198 0
173 197 0
174 198 0
174 197 0
174 197 0
174 197 0
174 198 0
174 197 0
170 194 0
175 198 0
174 198 0
173 197 0
174 198 0
174 197 0
173 197 0
175 198 0
175 198 0
173 197 0
175 198 0
174 197 0
174 197 0
172 196 0
173 197 0
173 196 0
173 197 0
173 196 0
174 198 0
172 196 0
174 198 0
173 197 0
174 197 0
171 195 0
174 198 0
176 199 0
173 197 0
173 197 0
173 195 0
173 197 0
171 195 0
174 197 0
173 197 0
174 198 0
174 197 0
172 196 0
173 196 0
175 198 0
174 197 0
174 198 0
174 197 0
174 198 0
175 198 0
172 195 0
172 196 0
172 196 0
174 197 0
173 197 0
173 196 0
173 196 0
173 197 0
174 198 0
174 197 0
173 196 0
174 197 0
173 197 0
174 198 0
171 195 0
170 194 0
174 198 0
176 199 0
174 198 0
174 198 0
173 196 0
173 197 0
175 198 0
175 198 0
173 196 0
173 197 0
173 196 0
175 198 0
171 194 0
174 198 0
174 198 0
173 196 0
173 196 0
173 196 0
172 196 0
173 196 0
174 197 0
174 197 0
173 196 0
174 197 0
172 195 0
174 198 0
173 197 0
171 194 0
174 198 0
171 196 0
172 195 0
174 197 0
174 197 0
172 196 0
173 196 0
174 198 0
173 197 0
172 196 0
173 197 0
174 198 0
174 197 0
173 197 0
173 197 0
174 197 0
174 197 0
174 198 0
173 196 0
172 196 0
175 198 0
173 197 0
173 197 0
174 198 0
173 196 0
174 197 0
174 198 0
172 196 0
175 198 0
172 195 0
173 197 0
171 194 0
171 196 0
174 198 0
175 198 0
175 198 0
174 197 0
173 197 0
174 197 0
174 198 0
176 199 0
175 198 0
173 197 0
173 197 0
174 197 0
173 197 0
174 198 0
174 197 0
173 197 0
174 197 0
174 197 0
174 197 0
175 198 0
174 197 0
175 198 0
172 196 0
173 197 0
172 196 0
174 198 0
174 197 0
175 197 0
176 199 0
172 196 0
173 197 0
174 197 0
173 197 0
175 198 0
174 197 0
173 196 0
174 198 0
174 197 0
173 197 0
176 199 0
176 198 0
174 197 0
173 197 0
173 197 0
175 198 0
175 198 0
172 196 0
174 198 0
173 197 0
172 197 0
175 197 0
173 196 0
173 197 0
174 198 0
173 197 0
174 198 0
174 198 0
173 197 0
175 198 0
175 198 0
175 197 0
174 197 0
173 196 0
174 197 0
173 197 0
173 196 0
172 195 0
173 197 0
174 198 0
175 198 0
173 197 0
175 197 0
173 197 0
174 197 0
175 198 0
174 198 0
173 197 0
174 197 0
175 198 0
175 198 0
175 198 0
176 198 0
172 196 0
173 197 0
174 197 0
173 197 0
174 198 0
173 197 0
175 198 0
174 197 0
173 197 0
173 197 0
173 197 0
175 198 0
174 198 0
174 197 0
174 198 0
173 197 0
174 197 0
175 198 0
174 197 0
172 197 0
173 197 0
174 198 0
174 197 0
173 197 0
175 198 0
175 198 0
173 197 0
175 198 0
174 198 0
174 198 0
176 198 0
174 197 0
176 199 0
174 197 0
173 197 0
175 198 0
174 198 0
175 198 0
174 198 0
176 199 0
174 198 0
174 197 0
175 198 0
176 198 0
175 198 0
174 198 0
174 197 0
173 197 0
175 198 0
174 197 0
174 198 0
173 196 0
174 198 0
175 198 0
174 198 0
175 198 0
175 198 0
174 197 0
175 198 0
176 198 0
175 198 0
174 198 0
174 198 0
174 198 0
175 198 0
174 198 0
175 198 0
172 197 0
173 197 0
175 198 0
175 198 0
172 196 0
172 196 0
172 196 0
175 198 0
174 197 0
173 197 0
174 197 0
174 197 0
174 197 0
172 196 0
174 198 0
175 198 0
175 198 0
174 197 0
175 198 0
174 198 0
175 198 0
176 198 0
175 198 0
173 197 0
175 198 0
173 197 0
173 197 0
174 198 0
174 197 0
175 198 0
174 198 0
173 197 0
176 199 0
174 197 0
174 198 0
174 198 0
176 199 0
174 197 0
174 198 0
175 198 0
174 198 0
173 197 0
174 197 0
174 198 0
173 197 0
174 198 0
173 197 0
174 197 0
173 197 0
176 199 0
174 198 0
174 198 0
174 197 0
175 198 0
174 197 0
173 197 0
174 197 0
175 198 0
174 198 0
174 198 0
175 198 0
173 197 0
174 198 0
174 197 0
175 198 0
176 199 0
175 198 0
176 199 0
172 195 0
174 197 0
175 198 0
174 197 0
173 197 0
175 198 0
174 198 0
173 197 0
173 196 0
174 197 0
176 199 0
173 197 0
173 197 0
174 198 0
173 197 0
174 197 0
175 198 0
172 196 0
173 196 0
173 196 0
174 197 0
175 198 0
173 196 0
174 197 0
174 197 0
173 197 0
172 196 0
174 198 0
172 196 0
173 197 0
174 197 0
174 197 0
173 197 0
175 198 0
175 198 0
174 198 0
174 198 0
176 199 0
175 198 0
175 198 0
173 197 0
173 197 0
174 197 0
174 198 0
172 196 0
175 198 0
174 198 0
175 198 0
175 198 0
175 198 0
173 197 0
174 197 0
172 197 0
171 195 0
172 195 0
174 197 0
173 197 0
176 198 0
174 197 0
173 197 0
173 197 0
174 197 0
173 197 0
173 197 0
173 197 0
173 197 0
174 197 0
174 197 0
173 196 0
175 198 0
173 197 0
174 197 0
174 197 0
173 196 0
173 196 0
174 197 0
175 198 0
173 196 0
172 196 0
174 197 0
174 197 0
172 196 0
174 197 0
172 196 0
173 197 0
173 197 0
172 196 0
175 198 0
173 197 0
175 198 0
174 197 0
174 198 0
173 196 0
172 196 0
173 197 0
174 197 0
172 196 0
175 198 0
177 199 0
172 195 0
174 197 0
175 198 0
173 197 0
173 197 0
174 197 0
172 196 0
173 197 0
173 197 0
173 197 0
174 197 0
172 196 0
173 197 0
173 196 0
175 198 0
175 198 0
173 197 0
172 196 0
173 197 0
176 198 0
172 196 0
174 198 0
173 197 0
175 197 0
174 198 0
173 197 0
172 195 0
174 198 0
174 197 0
173 197 0
173 196 0
175 198 0
173 197 0
174 197 0
175 198 0
171 194 0
171 195 0
175 198 0
174 197 0
173 196 0
174 197 0
176 198 0
173 196 0
173 196 0
171 195 0
172 196 0
173 197 0
172 196 0
172 196 0
174 198 0
174 197 0
172 196 0
173 197 0
174 198 0
174 198 0
174 197 0
173 197 0
173 197 0
174 198 0
175 198 0
175 198 0
172 196 0
174 197 0
174 198 0
174 197 0
171 195 0
173 197 0
173 197 0
172 196 0
175 198 0
172 195 0
174 198 0
174 197 0
174 198 0
173 197 0
173 197 0
174 197 0
174 196 0
174 197 0
174 197 0
176 199 0
174 197 0
172 195 0
174 197 0
174 197 0
175 198 0
175 198 0
174 197 0
173 197 0
175 198 0
174 197 0
174 197 0
175 198 0
172 195 0
174 197 0
175 197 0
174 197 0
175 198 0
172 196 0
174 196 0
175 198 0
172 196 0
174 197 0
173 197 0
174 197 0
171 196 0
173 196 0
173 197 0
174 197 0
173 196 0
174 198 0
174 198 0
175 198 0
175 198 0
171 195 0
174 197 0
174 198 0
175 198 0
175 198 0
175 198 0
175 197 0
173 196 0
172 196 0
174 198 0
172 195 0
174 197 0
174 197 0
175 198 0
175 198 0
174 198 0
173 197 0
174 197 0
175 198 0
173 196 0
174 197 0
173 197 0
174 198 0
175 198 0
175 198 0
174 197 0
173 197 0
172 196 0
175 198 0
173 197 0
172 196 0
174 198 0
173 197 0
174 197 0
172 196 0
174 197 0
174 197 0
174 198 0
177 199 0
175 198 0
174 198 0
173 197 0
176 198 0
176 199 0
176 198 0
175 197 0
173 197 0
175 198 0
173 197 0
174 198 0
177 199 0
171 196 0
174 198 0
174 197 0
174 198 0
174 198 0
175 198 0
174 198 0
176 199 0
174 197 0
175 198 0
174 198 0
174 198 0
173 197 0
174 198 0
173 197 0
173 196 0
174 198 0
174 198 0
174 197 0
174 198 0
175 198 0
175 198 0
177 199 0
173 197 0
174 198 0
174 197 0
172 196 0
175 198 0
175 198 0
175 198 0
175 197 0
174 198 0
174 198 0
173 197 0
175 198 0
176 199 0
173 197 0
173 197 0
174 198 0
175 198 0
175 198 0
173 197 0
173 197 0
174 197 0
173 197 0
175 198 0
174 198 0
175 198 0
176 198 0
174 197 0
174 198 0
175 198 0
175 198 0
174 197 0
174 198 0
175 198 0
174 198 0
173 197 0
175 198 0
176 199 0
175 198 0
175 198 0
174 198 0
175 198 0
174 197 0
174 198 0
176 199 0
174 197 0
173 197 0
173 197 0
175 198 0
175 198 0
174 198 0
176 199 0
175 198 0
175 198 0
174 198 0
175 198 0
175 198 0
175 198 0
174 197 0
175 198 0
173 197 0
176 198 0
173 197 0
176 199 0
174 198 0
177 199 0
172 196 0
174 198 0
173 197 0
175 198 0
174 198 0
175 198 0
174 198 0
175 198 0
173 197 0
175 198 0
173 197 0
173 197 0
174 198 0
175 198 0
175 198 0
175 198 0
174 198 0
174 198 0
174 198 0
174 197 0
173 197 0
174 198 0
174 197 0
174 198 0
173 197 0
174 197 0
173 197 0
173 197 0
175 198 0
174 197 0
174 198 0
175 198 0
173 197 0
174 197 0
175 198 0
175 198 0
175 198 0
174 198 0
176 198 0
175 198 0
175 198 0
174 197 0
173 197 0
175 198 0
171 196 0
174 197 0
176 199 0
173 197 0
172 196 0
173 197 0
174 198 0
175 197 0
174 197 0
175 198 0
173 197 0
174 198 0
174 197 0
175 198 0
177 199 0
174 198 0
175 198 0
174 198 0
175 198 0
172 197 0
173 197 0
173 197 0
174 198 0
173 197 0
174 197 0
174 198 0
174 197 0
173 197 0
173 197 0
174 198 0
174 198 0
173 197 0
174 197 0
172 196 0
173 197 0
174 197 0
174 197 0
174 198 0
174 198 0
174 198 0
176 199 0
175 198 0
173 196 0
175 198 0
175 198 0
177 198 0
174 197 0
171 196 0
174 197 0
173 196 0
172 196 0
175 198 0
173 197 0
176 198 0
174 198 0
175 198 0
173 197 0
174 198 0
174 198 0
175 198 0
174 198 0
173 197 0
174 197 0
174 197 0
174 198 0
173 197 0
173 197 0
173 197 0
173 197 0
172 196 0
173 197 0
174 197 0
175 198 0
173 197 0
173 197 0
174 198 0
172 196 0
173 197 0
175 198 0
174 197 0
172 196 0
175 198 0
173 197 0
175 197 0
174 197 0
175 198 0
172 197 0
174 198 0
175 198 0
172 196 0
174 197 0
174 197 0
172 196 0
173 196 0
174 197 0
173 197 0
174 197 0
174 198 0
173 196 0
174 197 0
174 198 0
176 199 0
176 198 0
172 196 0
173 197 0
175 198 0
173 196 0
172 195 0
174 197 0
174 197 0
174 198 0
172 196 0
173 196 0
174 197 0
173 196 0
170 194 0
173 197 0
172 195 0
174 197 0
172 196 0
174 198 0
174 197 0
173 196 0
173 197 0
172 197 0
172 196 0
174 198 0
172 196 0
175 198 0
175 198 0
173 196 0
173 196 0
172 197 0
174 198 0
174 198 0
173 196 0
173 197 0
172 195 0
173 197 0
175 198 0
172 196 0
173 197 0
171 195 0
174 197 0
174 197 0
173 197 0
174 197 0
173 196 0
173 197 0
173 196 0
171 195 0
175 198 0
174 197 0
175 198 0
173 197 0
175 198 0
172 196 0
173 197 0
171 195 0
175 198 0
174 197 0
173 197 0
172 196 0
175 198 0
174 197 0
172 196 0
175 198 0
174 198 0
174 198 0
175 198 0
174 198 0
173 197 0
173 196 0
174 198 0
175 198 0
173 197 0
174 197 0
173 197 0
174 198 0
175 198 0
172 196 0
172 197 0
172 196 0
173 197 0
173 197 0
174 197 0
174 197 0
175 198 0
172 196 0
175 198 0
174 197 0
173 196 0
173 197 0
172 196 0
173 196 0
174 197 0
173 196 0
173 196 0
174 198 0
174 197 0
174 198 0
173 196 0
174 198 0
176 198 0
173 197 0
175 198 0
173 195 0
174 198 0
174 197 0
173 197 0
174 198 0
172 195 0
174 198 0
173 197 0
174 197 0
172 195 0
173 197 0
176 199 0
174 197 0
175 198 0
175 198 0
173 197 0
175 198 0
172 196 0
174 197 0
174 197 0
174 197 0
174 198 0
172 197 0
176 199 0
174 197 0
175 198 0
174 197 0
174 197 0
176 199 0
173 197 0
174 197 0
173 196 0
174 198 0
174 198 0
175 198 0
174 197 0
173 197 0
173 197 0
174 197 0
175 198 0
175 198 0
175 198 0
175 198 0
173 197 0
174 197 0
173 197 0
174 197 0
175 198 0
174 197 0
175 198 0
172 196 0
175 197 0
175 198 0
174 197 0
173 197 0
174 197 0
173 197 0
174 198 0
174 198 0
173 196 0
175 198 0
175 198 0
174 198 0
175 198 0
174 197 0
173 196 0
173 196 0
175 197 0
173 197 0
174 198 0
173 197 0
175 198 0
174 197 0
174 198 0
175 198 0
173 197 0
174 197 0
174 198 0
173 197 0
174 198 0
174 198 0
174 198 0
174 198 0
176 199 0
174 197 0
175 198 0
174 198 0
175 198 0
174 197 0
173 197 0
175 198 0
174 197 0
174 198 0
174 198 0
174 198 0
175 198 0
173 197 0
175 198 0
175 198 0
175 198 0
173 196 0
174 198 0
172 196 0
173 197 0
176 198 0
174 198 0
172 196 0
174 198 0
175 198 0
174 198 0
175 198 0
174 198 0
173 197 0
175 198 0
174 197 0
174 198 0
176 199 0
173 197 0
174 198 0
174 197 0
175 198 0
174 197 0
174 197 0
175 198 0
176 199 0
174 197 0
174 198 0
172 197 0
174 197 0
175 198 0
173 197 0
173 197 0
175 198 0
175 198 0
174 198 0
175 198 0
176 199 0
176 199 0
176 198 0
173 197 0
174 198 0
175 198 0
175 198 0
174 198 0
174 198 0
175 198 0
176 199 0
174 198 0
174 198 0
174 198 0
175 198 0
176 198 0
173 197 0
175 198 0
175 198 0
174 197 0
172 196 0
176 198 0
173 197 0
172 196 0
174 198 0
175 198 0
174 198 0
174 198 0
174 198 0
174 198 0
175 198 0
174 198 0
174 198 0
175 198 0
176 198 0
175 198 0
175 198 0
174 198 0
174 198 0
172 196 0
175 198 0
176 198 0
174 198 0
175 198 0
175 198 0
177 199 0
174 198 0
176 199 0
175 198 0
173 197 0
175 198 0
174 198 0
173 197 0
176 199 0
177 199 0
176 199 0
173 197 0
174 198 0
172 196 0
175 198 0
174 198 0
175 198 0
173 197 0
177 199 0
175 198 0
174 197 0
174 197 0
175 198 0
174 197 0
175 198 0
174 197 0
174 198 0
171 196 0
174 198 0
173 197 0
175 198 0
174 197 0
174 197 0
175 198 0
174 198 0
175 198 0
173 197 0
174 197 0
175 198 0
175 198 0
174 197 0
174 197 0
174 197 0
172 195 0
173 197 0
173 197 0
174 198 0
173 197 0
175 198 0
173 197 0
175 198 0
173 197 0
173 197 0
175 198 0
175 198 0
173 197 0
175 198 0
175 198 0
173 197 0
174 197 0
174 198 0
175 198 0
176 198 0
174 197 0
173 197 0
175 197 0
175 198 0
173 197 0
174 198 0
175 198 0
172 196 0
175 198 0
174 197 0
175 198 0
174 197 0
176 198 0
174 197 0
172 196 0
175 198 0
174 198 0
174 198 0
173 197 0
174 198 0
176 198 0
173 197 0
175 198 0
173 197 0
175 198 0
173 196 0
172 196 0
174 197 0
173 197 0
172 196 0
175 198 0
172 196 0
173 196 0
174 198 0
174 198 0
173 197 0
171 195 0
174 198 0
174 197 0
175 198 0
173 197 0
173 197 0
174 197 0
174 197 0
175 198 0
174 198 0
173 197 0
172 196 0
174 197 0
172 196 0
174 198 0
172 196 0
173 197 0
173 197 0
174 197 0
175 198 0
172 197 0
172 196 0
174 197 0
173 196 0
176 198 0
173 197 0
174 198 0
173 197 0
174 197 0
175 198 0
171 195 0
173 197 0
174 197 0
174 197 0
172 196 0
173 197 0
174 197 0
174 197 0
173 197 0
175 198 0
173 197 0
173 197 0
173 196 0
174 197 0
175 198 0
174 198 0
174 197 0
172 196 0
174 197 0
173 197 0
172 196 0
174 198 0
174 198 0
174 197 0
173 196 0
174 198 0
174 198 0
174 198 0
175 198 0
175 197 0
173 197 0
173 196 0
175 197 0
173 196 0
172 195 0
174 198 0
172 196 0
174 198 0
173 197 0
173 197 0
173 197 0
173 197 0
174 197 0
174 198 0
175 198 0
175 198 0
174 198 0
174 197 0
174 197 0
174 197 0
174 197 0
174 197 0
171 195 0
173 197 0
173 197 0
173 196 0
174 197 0
175 198 0
173 197 0
174 197 0
173 197 0
173 196 0
173 196 0
173 197 0
170 195 0
175 198 0
173 197 0
174 198 0
172 196 0
174 197 0
172 196 0
172 196 0
174 197 0
173 197 0
174 197 0
173 196 0
172 196 0
173 197 0
172 196 0
175 198 0
173 196 0
171 194 0
174 198 0
174 198 0
171 195 0
173 197 0
173 196 0
173 197 0
175 198 0
175 198 0
172 196 0
174 198 0
175 198 0
173 197 0
174 198 0
175 198 0
173 197 0
173 196 0
174 198 0
172 195 0
174 197 0
174 198 0
172 196 0
174 198 0
175 198 0
175 198 0
172 196 0
174 198 0
174 197 0
173 197 0
176 199 0
175 198 0
175 198 0
173 197 0
174 198 0
173 197 0
175 198 0
173 197 0
173 197 0
174 197 0
173 197 0
174 197 0
174 198 0
174 197 0
173 197 0
175 198 0
174 198 0
175 198 0
174 197 0
174 197 0
173 197 0
174 197 0
175 198 0
175 198 0
174 197 0
174 197 0
176 199 0
174 198 0
175 198 0
174 197 0
175 198 0
174 198 0
174 197 0
174 198 0
174 198 0
174 198 0
173 196 0
173 196 0
173 197 0
173 197 0
174 197 0
176 198 0
175 198 0
174 197 0
174 198 0
173 197 0
174 197 0
173 197 0
175 198 0
175 198 0
172 196 0
174 197 0
175 198 0
175 198 0
172 196 0
174 198 0
173 197 0
174 198 0
175 198 0
174 197 0
173 197 0
173 197 0
173 197 0
176 199 0
175 198 0
173 197 0
172 196 0
175 198 0
175 198 0
175 198 0
172 196 0
174 198 0
175 198 0
174 197 0
174 197 0
175 198 0
174 198 0
174 198 0
173 196 0
175 198 0
175 198 0
175 198 0
174 198 0
175 198 0
174 197 0
174 197 0
175 198 0
175 198 0
175 197 0
174 198 0
174 197 0
173 197 0
174 198 0
174 198 0
173 197 0
175 198 0
173 197 0
175 198 0
174 197 0
174 198 0
174 198 0
175 198 0
174 198 0
174 198 0
174 198 0
174 198 0
175 198 0
173 197 0
173 197 0
173 197 0
175 198 0
175 198 0
174 198 0
174 198 0
173 197 0
176 198 0
174 198 0
174 198 0
175 198 0
174 198 0
175 198 0
173 197 0
175 198 0
176 198 0
175 198 0
174 197 0
174 197 0
174 198 0
174 197 0
173 197 0
173 197 0
174 197 0
175 198 0
175 198 0
173 197 0
174 198 0
175 198 0
175 198 0
174 197 0
174 198 0
176 198 0
173 197 0
175 198 0
175 198 0
174 198 0
175 198 0
176 199 0
175 198 0
174 197 0
174 198 0
174 197 0
175 198 0
174 198 0
173 197 0
175 198 0
174 198 0
174 198 0
174 198 0
174 197 0
175 198 0
176 199 0
172 196 0
173 197 0
175 198 0
174 197 0
174 197 0
173 197 0
173 197 0
175 198 0
176 199 0
174 198 0
173 197 0
175 198 0
174 198 0
173 197 0
174 198 0
175 198 0
174 197 0
174 198 0
173 197 0
173 197 0
176 199 0
175 198 0
173 197 0
174 197 0
173 197 0
175 197 0
175 198 0
174 197 0
173 197 0
174 197 0
174 198 0
173 197 0
174 198 0
173 197 0
174 197 0
176 199 0
174 198 0
173 197 0
175 198 0
175 198 0
174 198 0
174 198 0
174 197 0
173 196 0
174 198 0
172 196 0
174 197 0
174 198 0
174 198 0
175 198 0
175 198 0
173 197 0
174 198 0
174 198 0
175 198 0
174 197 0
174 197 0
172 196 0
175 198 0
172 196 0
175 198 0
174 198 0
174 196 0
171 195 0
174 198 0
172 196 0
174 198 0
173 197 0
174 198 0
174 197 0
175 198 0
174 198 0
174 197 0
175 197 0
175 198 0
173 197 0
174 197 0
174 198 0
176 198 0
174 198 0
174 197 0
174 198 0
173 196 0
175 198 0
172 195 0
174 198 0
175 198 0
174 198 0
173 197 0
175 197 0
173 197 0
174 198 0
175 197 0
175 198 0
171 195 0
174 197 0
174 197 0
175 198 0
174 198 0
173 197 0
175 198 0
173 197 0
174 197 0
173 196 0
173 196 0
173 197 0
174 197 0
175 197 0
173 197 0
176 198 0
173 196 0
174 197 0
172 195 0
174 197 0
171 195 0
173 196 0
174 197 0
174 197 0
174 197 0
172 196 0
174 197 0
174 198 0
173 197 0
173 197 0
174 198 0
171 195 0
174 197 0
173 196 0
173 197 0
175 197 0
174 198 0
173 197 0
174 197 0
173 197 0
174 197 0
173 196 0
173 197 0
173 197 0
175 198 0
173 196 0
173 197 0
173 196 0
173 197 0
175 198 0
175 198 0
171 195 0
174 198 0
174 197 0
172 195 0
174 198 0
172 196 0
174 197 0
174 197 0
174 197 0
171 195 0
173 196 0
172 196 0
172 196 0
172 196 0
171 195 0
173 196 0
172 196 0
174 197 0
173 196 0
173 196 0
174 197 0
175 198 0
173 196 0
175 198 0
174 197 0
174 197 0
172 196 0
174 197 0
174 196 0
174 197 0
173 197 0
172 195 0
174 197 0
175 198 0
174 197 0
173 197 0
172 196 0
172 195 0
173 197 0
172 196 0
174 198 0
173 197 0
173 197 0
173 197 0
175 198 0
174 197 0
175 198 0
173 196 0
173 197 0
175 198 0
173 196 0
174 197 0
173 197 0
174 197 0
174 197 0
175 198 0
173 197 0
172 195 0
174 197 0
174 197 0
172 196 0
173 196 0
174 198 0
173 197 0
172 196 0
175 198 0
173 197 0
175 198 0
174 198 0
174 198 0
175 197 0
173 196 0
172 196 0
175 198 0
173 197 0
174 197 0
173 197 0
175 198 0
171 195 0
173 197 0
176 198 0
174 197 0
173 197 0
174 197 0
174 197 0
175 198 0
175 198 0
175 198 0
172 196 0
174 197 0
174 197 0
173 197 0
174 197 0
175 198 0
172 196 0
175 198 0
175 198 0
172 196 0
175 198 0
173 197 0
174 197 0
175 198 0
175 198 0
174 198 0
175 198 0
173 197 0
173 197 0
173 196 0
174 198 0
175 198 0
175 198 0
175 198 0
173 197 0
175 198 0
173 197 0
174 198 0
175 198 0
174 197 0
172 196 0
173 197 0
175 198 0
175 198 0
175 198 0
174 198 0
174 197 0
173 197 0
174 197 0
173 197 0
174 197 0
173 197 0
173 197 0
176 198 0
172 196 0
175 198 0
173 196 0
174 197 0
174 198 0
173 196 0
174 197 0
176 198 0
173 197 0
174 197 0
174 197 0
174 198 0
174 198 0
173 197 0
173 197 0
175 198 0
173 196 0
175 198 0
175 198 0
175 198 0
175 198 0
175 197 0
174 197 0
175 198 0
173 197 0
174 198 0
176 199 0
174 198 0
172 196 0
173 197 0
176 199 0
174 197 0
173 197 0
174 197 0
176 198 0
173 197 0
175 198 0
173 197 0
174 197 0
175 198 0
174 198 0
173 197 0
173 197 0
174 197 0
175 198 0
174 198 0
173 197 0
175 198 0
174 197 0
174 197 0
174 198 0
173 197 0
174 198 0
173 197 0
174 198 0
175 197 0
177 199 0
173 197 0
174 198 0
172 196 0
174 197 0
172 197 0
175 198 0
175 198 0
174 198 0
173 197 0
172 197 0
175 198 0
175 198 0
173 197 0
175 198 0
174 197 0
175 198 0
174 198 0
175 198 0
176 198 0
175 198 0
175 198 0
174 197 0
175 198 0
175 198 0
174 198 0
175 198 0
176 199 0
175 198 0
174 197 0
175 198 0
174 198 0
173 197 0
175 198 0
173 197 0
175 198 0
175 198 0
174 197 0
175 198 0
176 198 0
174 198 0
173 197 0
175 198 0
175 198 0
173 197 0
174 198 0
174 198 0
174 197 0
174 198 0
175 198 0
174 197 0
174 197 0
175 198 0
174 197 0
175 198 0
174 198 0
175 198 0
174 198 0
175 198 0
173 197 0
174 197 0
175 198 0
174 197 0
174 198 0
173 197 0
174 198 0
174 197 0
175 198 0
175 198 0
176 199 0
175 198 0
176 199 0
174 197 0
173 197 0
174 197 0
175 198 0
174 197 0
174 197 0
174 197 0
173 197 0
174 198 0
173 197 0
173 197 0
174 198 0
172 196 0
174 198 0
173 197 0
174 198 0
175 198 0
174 197 0
175 198 0
174 197 0
175 198 0
174 198 0
175 198 0
173 197 0
173 197 0
173 197 0
175 198 0
174 197 0
175 198 0
175 198 0
174 197 0
174 197 0
173 197 0
173 197 0
176 199 0
175 198 0
173 197 0
175 198 0
174 197 0
174 197 0
174 198 0
173 197 0
174 198 0
175 198 0
174 197 0
173 196 0
173 196 0
174 198 0
174 197 0
174 197 0
173 197 0
171 195 0
176 199 0
172 197 0
175 198 0
172 197 0
175 198 0
174 197 0
174 198 0
175 198 0
175 198 0
174 198 0
175 198 0
172 197 0
175 198 0
174 197 0
174 197 0
173 196 0
173 197 0
176 199 0
174 197 0
175 198 0
175 198 0
175 198 0
174 198 0
175 198 0
174 198 0
175 198 0
172 196 0
174 198 0
172 196 0
174 198 0
175 198 0
175 198 0
174 197 0
174 198 0
174 198 0
175 197 0
174 197 0
173 197 0
174 197 0
174 197 0
174 197 0
174 197 0
175 198 0
173 197 0
173 197 0
174 197 0
173 197 0
174 197 0
173 197 0
173 197 0
175 198 0
173 196 0
172 196 0
174 197 0
174 198 0
174 197 0
174 198 0
173 197 0
173 196 0
171 195 0
174 197 0
172 195 0
174 197 0
174 198 0
174 196 0
173 197 0
173 197 0
174 197 0
173 196 0
175 198 0
175 198 0
174 197 0
173 197 0
174 198 0
173 196 0
175 198 0
172 196 0
176 198 0
173 196 0
175 197 0
173 196 0
174 197 0
175 198 0
174 197 0
173 196 0
172 196 0
173 197 0
170 194 0
175 198 0
174 197 0
176 198 0
174 197 0
173 196 0
174 197 0
171 195 0
174 197 0
176 199 0
173 197 0
174 197 0
170 194 0
174 196 0
175 198 0
173 197 0
175 198 0
173 196 0
174 197 0
173 196 0
173 197 0
174 198 0
173 197 0
174 197 0
174 197 0
174 198 0
174 197 0
173 197 0
174 197 0
175 198 0
174 197 0
172 196 0
171 195 0
174 197 0
173 196 0
174 197 0
172 196 0
173 197 0
173 197 0
174 197 0
174 198 0
173 196 0
174 197 0
173 197 0
173 197 0
172 195 0
173 197 0
174 197 0
173 196 0
174 197 0
174 198 0
173 197 0
174 198 0
174 198 0
175 198 0
175 198 0
173 197 0
175 198 0
174 198 0
175 198 0
174 198 0
174 198 0
173 196 0
174 197 0
174 196 0
172 196 0
173 197 0
175 198 0
173 197 0
173 197 0
175 197 0
174 198 0
172 196 0
172 196 0
174 197 0
173 196 0
174 197 0
175 198 0
174 197 0
173 197 0
173 197 0
175 198 0
175 198 0
174 197 0
175 198 0
175 198 0
172 195 0
175 198 0
174 198 0
174 197 0
174 198 0
173 197 0
172 196 0
174 197 0
175 198 0
175 198 0
172 196 0
172 195 0
174 197 0
174 198 0
174 196 0
175 198 0
173 197 0
175 198 0
173 197 0
173 197 0
174 197 0
175 198 0
175 198 0
174 198 0
174 197 0
174 198 0
175 198 0
175 198 0
173 196 0
171 195 0
172 195 0
173 197 0
174 197 0
174 198 0
174 197 0
173 197 0
174 197 0
173 197 0
173 197 0
171 195 0
174 198 0
175 198 0
172 196 0
172 197 0
174 197 0
173 197 0
173 197 0
174 198 0
175 197 0
175 198 0
174 197 0
172 196 0
174 198 0
175 198 0
174 198 0
174 197 0
175 198 0
175 198 0
173 197 0
174 197 0
174 197 0
173 196 0
174 198 0
174 197 0
174 197 0
175 198 0
175 198 0
173 197 0
173 196 0
175 198 0
173 197 0
174 198 0
174 197 0
173 197 0
176 199 0
173 197 0
174 198 0
175 198 0
175 198 0
174 197 0
174 197 0
172 196 0
173 197 0
174 197 0
175 198 0
173 197 0
173 197 0
175 198 0
174 198 0
174 198 0
174 198 0
172 196 0
174 197 0
175 198 0
175 198 0
174 198 0
175 198 0
174 197 0
174 197 0
175 198 0
174 198 0
175 198 0
174 198 0
174 198 0
174 197 0
175 198 0
175 198 0
174 197 0
175 198 0
174 197 0
175 198 0
174 197 0
174 197 0
174 198 0
175 198 0
175 198 0
173 197 0
173 197 0
174 198 0
174 197 0
174 198 0
173 197 0
173 197 0
174 197 0
173 197 0
175 198 0
174 198 0
174 197 0
173 197 0
175 198 0
175 198 0
174 198 0
175 198 0
174 197 0
176 199 0
174 198 0
174 197 0
175 198 0
174 198 0
175 198 0
174 198 0
174 197 0
174 198 0
174 198 0
175 198 0
174 198 0
173 197 0
175 198 0
174 197 0
176 199 0
175 198 0
172 196 0
176 199 0
174 198 0
174 198 0
173 197 0
175 198 0
175 198 0
174 197 0
176 198 0
176 199 0
172 196 0
175 198 0
177 199 0
175 198 0
175 197 0
175 198 0
175 198 0
175 198 0
174 198 0
173 197 0
174 198 0
174 198 0
174 198 0
174 198 0
175 198 0
173 197 0
174 198 0
173 197 0
175 197 0
176 198 0
175 198 0
175 198 0
173 197 0
171 195 0
174 198 0
172 196 0
174 198 0
174 198 0
174 198 0
173 197 0
173 197 0
172 196 0
175 198 0
174 198 0
174 197 0
173 197 0
175 198 0
175 198 0
171 194 0
173 196 0
175 198 0
174 197 0
174 198 0
175 198 0
172 196 0
175 198 0
173 197 0
174 197 0
175 198 0
174 198 0
173 197 0
173 197 0
174 197 0
173 197 0
175 198 0
174 197 0
174 197 0
173 197 0
174 198 0
174 198 0
175 198 0
175 198 0
173 197 0
175 198 0
174 198 0
174 198 0
173 197 0
175 198 0
174 198 0
176 198 0
173 196 0
173 197 0
175 198 0
175 198 0
174 197 0
175 198 0
174 197 0
175 198 0
175 198 0
174 198 0
173 197 0
174 198 0
173 197 0
173 196 0
174 197 0
174 197 0
173 197 0
174 197 0
174 198 0
174 198 0
175 198 0
172 196 0
172 195 0
174 197 0
174 198 0
173 197 0
172 196 0
174 198 0
174 197 0
173 197 0
175 198 0
172 197 0
174 197 0
174 197 0
172 196 0
173 197 0
175 198 0
175 198 0
175 198 0
174 198 0
173 197 0
175 197 0
173 196 0
173 196 0
175 198 0
173 197 0
174 198 0
174 197 0
173 197 0
173 196 0
173 197 0
177 199 0
174 198 0
176 198 0
171 194 0
174 197 0
172 196 0
172 196 0
173 197 0
174 197 0
171 195 0
173 197 0
175 198 0
173 197 0
174 198 0
175 198 0
174 198 0
173 197 0
175 198 0
171 196 0
172 195 0
172 196 0
173 197 0
175 198 0
174 197 0
174 198 0
174 197 0
172 196 0
172 196 0
174 198 0
175 198 0
173 197 0
174 197 0
173 197 0
174 197 0
174 198 0
174 197 0
174 197 0
171 195 0
174 198 0
174 197 0
176 199 0
175 198 0
171 195 0
174 197 0
173 196 0
173 196 0
173 197 0
175 198 0
174 197 0
174 197 0
174 197 0
175 198 0
173 197 0
176 198 0
175 198 0
173 197 0
174 197 0
174 197 0
173 196 0
174 197 0
174 198 0
174 197 0
173 197 0
173 197 0
174 197 0
172 195 0
175 198 0
172 196 0
175 198 0
173 197 0
172 195 0
175 198 0
175 198 0
172 195 0
173 197 0
175 198 0
174 198 0
175 198 0
173 197 0
174 198 0
173 197 0
173 197 0
175 198 0
173 197 0
174 197 0
174 198 0
176 198 0
173 197 0
175 198 0
174 197 0
174 197 0
173 197 0
174 197 0
174 197 0
174 198 0
174 198 0
175 198 0
173 197 0
176 198 0
174 198 0
174 197 0
175 198 0
172 196 0
173 197 0
174 198 0
171 195 0
173 197 0
175 198 0
174 197 0
174 198 0
174 197 0
174 197 0
174 198 0
176 199 0
173 196 0
174 198 0
175 198 0
175 198 0
173 197 0
174 198 0
173 197 0
175 198 0
175 198 0
175 198 0
175 198 0
174 197 0
174 197 0
174 198 0
173 197 0
174 197 0
175 198 0
175 198 0
175 198 0
174 197 0
174 198 0
174 197 0
173 197 0
173 197 0
172 196 0
173 197 0
173 196 0
175 198 0
174 198 0
175 198 0
174 198 0
172 196 0
174 197 0
174 197 0
174 198 0
173 197 0
175 198 0
175 198 0
174 198 0
176 199 0
174 197 0
173 197 0
173 197 0
175 198 0
175 198 0
176 199 0
175 198 0
174 197 0
175 197 0
173 197 0
174 198 0
175 198 0
174 198 0
173 197 0
175 198 0
174 198 0
175 198 0
173 197 0
175 198 0
175 198 0
174 197 0
173 197 0
176 199 0
172 197 0
175 198 0
172 196 0
176 199 0
174 197 0
176 199 0
175 198 0
173 197 0
175 198 0
174 197 0
173 197 0
173 197 0
176 198 0
174 197 0
175 198 0
174 198 0
175 198 0
174 198 0
174 198 0
176 199 0
175 198 0
173 197 0
173 197 0
172 196 0
175 198 0
175 198 0
174 198 0
175 198 0
175 198 0
172 196 0
173 197 0
175 198 0
174 197 0
174 198 0
172 196 0
174 197 0
174 198 0
175 198 0
175 198 0
176 198 0
174 198 0
175 198 0
174 198 0
175 198 0
175 198 0
173 197 0
175 198 0
175 198 0
175 198 0
174 197 0
173 197 0
174 198 0
174 197 0
175 198 0
177 199 0
175 198 0
174 198 0
174 198 0
174 198 0
174 198 0
175 198 0
175 198 0
173 197 0
175 198 0
174 197 0
173 197 0
173 197 0
173 197 0
173 197 0
174 197 0
176 199 0
173 197 0
173 197 0
176 198 0
175 198 0
174 198 0
173 197 0
175 198 0
175 198 0
174 197 0
174 198 0
175 198 0
174 198 0
174 197 0
174 197 0
174 198 0
174 198 0
175 198 0
175 198 0
174 197 0
174 197 0
175 198 0
173 197 0
175 198 0
174 197 0
174 197 0
174 198 0
172 197 0
175 198 0
176 198 0
174 197 0
173 196 0
174 197 0
175 198 0
176 199 0
175 198 0
175 198 0
175 198 0
175 198 0
173 197 0
174 198 0
172 196 0
175 198 0
174 197 0
174 197 0
173 197 0
174 198 0
174 198 0
175 198 0
175 198 0
173 197 0
173 196 0
174 197 0
174 198 0
175 198 0
174 198 0
174 197 0
174 198 0
175 198 0
174 198 0
171 195 0
175 198 0
174 197 0
174 198 0
173 197 0
173 196 0
173 197 0
175 198 0
174 198 0
173 197 0
173 197 0
175 198 0
174 197 0
174 198 0
175 198 0
175 198 0
176 199 0
173 197 0
173 197 0
173 197 0
173 196 0
174 198 0
173 196 0
174 197 0
175 198 0
173 197 0
172 196 0
175 198 0
174 198 0
176 198 0
174 197 0
174 198 0
175 198 0
174 197 0
175 198 0
173 197 0
174 198 0
173 196 0
173 197 0
174 197 0
173 196 0
174 198 0
174 197 0
175 198 0
173 197 0
174 198 0
175 198 0
174 198 0
174 197 0
173 197 0
174 197 0
175 198 0
176 198 0
173 197 0
173 197 0
174 197 0
174 197 0
173 197 0
174 197 0
175 198 0
174 197 0
174 198 0
174 197 0
174 197 0
174 197 0
174 198 0
174 197 0
174 197 0
174 197 0
174 198 0
174 198 0
177 199 0
174 197 0
173 197 0
175 198 0
174 197 0
173 196 0
173 197 0
174 197 0
175 198 0
172 196 0
175 198 0
176 198 0
174 197 0
172 196 0
174 198 0
174 198 0
173 197 0
173 197 0
175 198 0
173 197 0
173 197 0
173 197 0
174 197 0
174 198 0
174 198 0
174 198 0
173 197 0
174 198 0
172 196 0
173 196 0
175 198 0
173 196 0
175 198 0
172 196 0
174 198 0
174 197 0
174 197 0
171 195 0
174 197 0
173 196 0
174 198 0
175 198 0
172 195 0
175 198 0
172 196 0
173 196 0
175 198 0
172 195 0
173 197 0
175 198 0
175 198 0
174 198 0
173 197 0
174 197 0
174 197 0
173 197 0
174 198 0
173 197 0
174 197 0
173 196 0
174 197 0
174 197 0
174 197 0
173 196 0
172 195 0
173 197 0
171 195 0
174 198 0
174 197 0
174 197 0
172 196 0
171 194 0
171 195 0
174 197 0
173 197 0
172 195 0
173 196 0
173 196 0
172 197 0
173 196 0
171 195 0
173 196 0
174 197 0
172 196 0
174 198 0
174 197 0
174 198 0
173 196 0
175 197 0
172 195 0
174 197 0
175 198 0
172 196 0
174 198 0
174 197 0
174 197 0
174 196 0
174 197 0
174 198 0
172 196 0
174 198 0
174 197 0
175 198 0
173 196 0
173 197 0
171 196 0
172 196 0
173 197 0
172 197 0
174 198 0
175 198 0
175 198 0
174 197 0
175 197 0
174 197 0
176 198 0
174 198 0
174 198 0
172 196 0
173 196 0
175 198 0
172 197 0
176 198 0
174 198 0
175 198 0
173 197 0
174 198 0
175 198 0
173 196 0
174 197 0
175 198 0
174 197 0
175 198 0
174 198 0
172 195 0
173 196 0
172 196 0
174 197 0
173 196 0
176 199 0
174 197 0
173 197 0
172 196 0
173 196 0
175 198 0
175 198 0
172 196 0
174 197 0
174 197 0
172 196 0
174 197 0
174 198 0
175 198 0
174 197 0
175 197 0
173 196 0
175 198 0
175 198 0
173 197 0
173 197 0
174 197 0
174 197 0
173 197 0
172 196 0
174 198 0
174 198 0
174 197 0
175 198 0
175 198 0
174 198 0
174 197 0
175 198 0
174 197 0
173 197 0
174 197 0
174 197 0
174 197 0
171 195 0
173 197 0
174 198 0
174 197 0
174 198 0
173 197 0
174 198 0
175 198 0
174 197 0
175 198 0
174 197 0
175 198 0
175 198 0
175 198 0
175 198 0
176 199 0
173 195 0
174 197 0
174 198 0
173 196 0
174 197 0
175 198 0
174 197 0
173 197 0
173 197 0
175 198 0
176 199 0
174 197 0
171 195 0
173 197 0
173 197 0
175 198 0
175 198 0
175 198 0
175 198 0
177 199 0
174 197 0
173 197 0
175 198 0
175 198 0
172 197 0
175 198 0
174 198 0
173 197 0
175 198 0
175 198 0
175 198 0
176 199 0
174 198 0
177 199 0
174 198 0
175 198 0
174 198 0
174 197 0
174 198 0
174 197 0
172 196 0
174 197 0
175 198 0
174 197 0
173 197 0
175 198 0
175 198 0
174 197 0
174 197 0
174 197 0
174 198 0
174 198 0
173 197 0
173 197 0
174 198 0
174 198 0
174 197 0
174 197 0
173 197 0
175 198 0
175 198 0
174 198 0
173 197 0
176 198 0
176 199 0
173 197 0
174 198 0
174 198 0
175 198 0
174 198 0
176 198 0
174 197 0
174 197 0
174 198 0
174 198 0
174 198 0
175 198 0
174 198 0
174 198 0
175 198 0
174 198 0
173 197 0
176 198 0
173 197 0
174 198 0
173 197 0
173 197 0
173 197 0
174 197 0
176 198 0
175 198 0
174 197 0
177 199 0
174 198 0
175 198 0
174 197 0
175 198 0
174 197 0
175 198 0
174 198 0
175 198 0
175 198 0
173 197 0
173 197 0
174 198 0
175 198 0
174 197 0
173 197 0
175 198 0
173 197 0
174 198 0
174 197 0
173 197 0
174 198 0
173 197 0
175 198 0
174 198 0
173 197 0
175 198 0
174 198 0
176 199 0
174 197 0
175 198 0
173 197 0
174 198 0
174 198 0
176 198 0
174 197 0
175 198 0
171 196 0
173 196 0
174 198 0
175 198 0
174 198 0
173 197 0
175 198 0
172 196 0
175 198 0
174 198 0
173 197 0
173 197 0
174 198 0
174 198 0
174 198 0
173 197 0
175 198 0
173 197 0
175 198 0
176 198 0
174 198 0
173 197 0
174 197 0
172 196 0
174 198 0
172 196 0
175 198 0
174 198 0
172 196 0
174 197 0
174 198 0
174 197 0
174 198 0
175 198 0
174 197 0
174 197 0
174 197 0
173 197 0
174 197 0
175 198 0
172 196 0
174 197 0
176 198 0
175 198 0
173 196 0
174 197 0
173 197 0
174 197 0
175 198 0
173 197 0
173 196 0
174 197 0
175 197 0
174 197 0
173 197 0
173 197 0
174 198 0
175 198 0
175 198 0
173 196 0
174 197 0
174 197 0
175 198 0
175 198 0
170 195 0
175 197 0
173 197 0
173 197 0
175 198 0
174 198 0
175 198 0
172 196 0
175 198 0
173 197 0
173 196 0
173 196 0
174 198 0
173 197 0
173 196 0
173 196 0
175 198 0
175 198 0
175 198 0
172 196 0
172 196 0
175 198 0
174 197 0
174 197 0
175 198 0
173 197 0
174 198 0
175 198 0
175 198 0
173 197 0
175 198 0
175 198 0
175 198 0
173 197 0
174 197 0
175 197 0
174 198 0
171 194 0
174 198 0
176 199 0
175 198 0
173 197 0
174 197 0
175 198 0
173 196 0
174 197 0
174 197 0
173 196 0
173 197 0
174 197 0
173 196 0
174 197 0
173 196 0
175 198 0
172 196 0
172 196 0
175 198 0
172 196 0
174 197 0
173 197 0
172 196 0
176 198 0
171 194 0
173 197 0
174 197 0
174 196 0
171 195 0
173 196 0
175 198 0
171 195 0
173 197 0
173 196 0
174 197 0
174 197 0
174 197 0
174 197 0
175 198 0
172 196 0
173 196 0
174 197 0
173 197 0
173 196 0
174 198 0
174 198 0
173 196 0
173 197 0
174 197 0
174 197 0
176 198 0
174 198 0
175 198 0
172 196 0
174 197 0
173 197 0
172 195 0
175 198 0
172 195 0
171 194 0
174 197 0
174 197 0
175 198 0
174 197 0
173 196 0
170 195 0
172 196 0
174 197 0
172 195 0
175 198 0
175 198 0
172 196 0
174 198 0
175 198 0
173 197 0
174 197 0
173 196 0
174 197 0
175 198 0
173 196 0
174 197 0
172 195 0
174 198 0
173 197 0
175 198 0
173 197 0
172 196 0
173 197 0
174 197 0
173 196 0
173 197 0
177 199 0
174 197 0
172 195 0
173 196 0
173 197 0
173 197 0
173 196 0
172 196 0
174 198 0
173 196 0
173 196 0
173 196 0
172 196 0
176 198 0
176 198 0
173 196 0
174 197 0
174 198 0
173 196 0
175 198 0
173 197 0
174 197 0
173 197 0
173 196 0
174 197 0
173 197 0
173 197 0
173 197 0
175 198 0
173 197 0
172 196 0
173 197 0
174 197 0
174 197 0
174 198 0
175 198 0
173 196 0
175 198 0
174 198 0
173 197 0
174 197 0
174 198 0
174 198 0
173 197 0
172 196 0
174 198 0
175 198 0
172 196 0
173 197 0
170 193 0
174 197 0
174 198 0
173 197 0
174 198 0
173 197 0
174 198 0
175 198 0
174 198 0
174 198 0
175 197 0
174 198 0
174 197 0
173 196 0
173 197 0
174 197 0
175 198 0
173 196 0
173 196 0
174 197 0
173 196 0
170 196 0
173 197 0
174 198 0
175 198 0
175 198 0
175 198 0
174 198 0
173 197 0
175 198 0
173 197 0
173 197 0
173 197 0
174 197 0
176 199 0
174 197 0
173 197 0
174 198 0
173 197 0
173 197 0
173 197 0
173 197 0
174 197 0
175 198 0
175 198 0
174 198 0
173 197 0
172 197 0
173 197 0
175 198 0
175 198 0
173 197 0
175 198 0
174 198 0
176 199 0
174 198 0
176 199 0
175 198 0
174 198 0
174 197 0
173 197 0
173 196 0
173 197 0
174 198 0
174 198 0
174 197 0
176 198 0
174 198 0
174 198 0
175 198 0
173 197 0
174 198 0
173 197 0
175 198 0
174 198 0
174 198 0
173 197 0
174 198 0
173 197 0
176 198 0
174 197 0
174 198 0
175 198 0
175 198 0
175 198 0
175 198 0
174 198 0
174 197 0
175 198 0
173 197 0
173 197 0
176 199 0
175 198 0
174 197 0
174 197 0
174 197 0
174 198 0
173 197 0
174 197 0
173 197 0
174 198 0
174 198 0
175 198 0
174 197 0
174 197 0
173 197 0
175 198 0
173 197 0
173 196 0
176 199 0
174 198 0
175 198 0
175 198 0
174 197 0
174 197 0
174 197 0
175 198 0
175 198 0
175 198 0
175 198 0
176 198 0
175 198 0
175 198 0
174 198 0
174 197 0
174 198 0
173 197 0
175 198 0
173 197 0
173 197 0
174 197 0
174 197 0
175 198 0
174 197 0
174 198 0
174 198 0
172 196 0
176 198 0
173 197 0
175 198 0
174 198 0
176 199 0
173 197 0
175 198 0
175 198 0
174 198 0
173 197 0
176 199 0
174 198 0
174 198 0
175 198 0
174 197 0
174 198 0
174 198 0
174 198 0
174 198 0
175 198 0
173 197 0
174 197 0
175 198 0
176 199 0
171 195 0
175 198 0
174 198 0
175 198 0
174 197 0
174 197 0
174 198 0
174 197 0
174 198 0
176 198 0
174 198 0
174 198 0
173 196 0
175 198 0
174 197 0
174 197 0
175 198 0
175 198 0
174 198 0
174 198 0
175 198 0
173 197 0
175 198 0
175 198 0
175 198 0
174 197 0
172 196 0
176 199 0
175 198 0
174 197 0
174 198 0
173 197 0
174 197 0
173 197 0
173 197 0
175 198 0
175 198 0
172 196 0
175 198 0
174 197 0
174 198 0
174 198 0
175 198 0
173 197 0
172 196 0
172 196 0
172 196 0
174 197 0
175 198 0
175 198 0
174 198 0
174 197 0
175 198 0
175 197 0
173 197 0
174 198 0
175 198 0
174 197 0
175 198 0
173 197 0
175 198 0
173 197 0
176 199 0
174 198 0
173 197 0
173 197 0
174 198 0
175 198 0
176 198 0
172 196 0
174 197 0
175 198 0
172 196 0
174 197 0
173 197 0
175 198 0
174 197 0
172 196 0
174 197 0
173 197 0
174 197 0
175 198 0
176 199 0
173 196 0
175 198 0
173 197 0
172 196 0
174 198 0
173 196 0
175 198 0
173 197 0
173 197 0
173 196 0
175 198 0
175 198 0
175 198 0
175 198 0
173 196 0
172 196 0
171 195 0
173 197 0
173 197 0
174 197 0
175 198 0
174 197 0
173 196 0
174 198 0
174 198 0
174 198 0
172 196 0
173 197 0
173 196 0
173 196 0
173 196 0
173 196 0
175 198 0
173 196 0
174 197 0
174 197 0
172 195 0
173 196 0
171 195 0
173 197 0
174 197 0
173 196 0
173 196 0
174 197 0
173 197 0
175 198 0
174 197 0
171 194 0
175 198 0
173 196 0
172 196 0
173 196 0
171 195 0
175 198 0
173 196 0
173 197 0
173 196 0
173 197 0
173 197 0
175 198 0
176 198 0
173 196 0
173 196 0
176 198 0
174 197 0
173 196 0
175 197 0
173 196 0
172 196 0
168 192 0
173 197 0
173 197 0
173 196 0
172 195 0
174 197 0
172 196 0
173 197 0
174 197 0
172 196 0
174 197 0
172 195 0
175 198 0
173 197 0
175 198 0
174 198 0
173 197 0
172 196 0
174 197 0
176 198 0
174 197 0
174 197 0
174 197 0
175 198 0
174 197 0
175 198 0
173 196 0
173 197 0
174 197 0
175 198 0
174 197 0
173 197 0
170 193 0
175 198 0
174 197 0
173 197 0
175 198 0
174 197 0
174 198 0
174 198 0
173 196 0
174 197 0
173 197 0
175 198 0
175 198 0
173 197 0
174 198 0
174 198 0
174 198 0
174 197 0
173 197 0
174 198 0
173 196 0
174 197 0
174 197 0
175 198 0
173 197 0
173 197 0
174 198 0
172 196 0
175 198 0
175 198 0
174 197 0
174 197 0
173 197 0
175 198 0
173 197 0
173 197 0
175 198 0
173 197 0
174 197 0
173 197 0
174 198 0
176 199 0
174 198 0
173 196 0
175 198 0
172 196 0
174 197 0
175 198 0
174 197 0
173 197 0
173 197 0
172 196 0
174 197 0
174 197 0
174 198 0
173 197 0
174 197 0
175 198 0
174 197 0
172 197 0
173 196 0
175 198 0
173 197 0
173 197 0
175 198 0
175 198 0
173 197 0
174 197 0
174 197 0
174 197 0
173 197 0
174 198 0
171 196 0
173 197 0
174 197 0
172 197 0
176 199 0
174 198 0
174 198 0
173 197 0
176 199 0
173 196 0
174 197 0
173 197 0
175 198 0
172 197 0
175 198 0
172 196 0
173 197 0
173 197 0
175 198 0
172 196 0
174 197 0
174 197 0
176 198 0
176 199 0
175 198 0
176 199 0
174 197 0
176 198 0
172 196 0
173 197 0
176 198 0
176 199 0
172 196 0
175 198 0
175 198 0
173 197 0
171 195 0
174 197 0
175 198 0
175 198 0
174 198 0
176 198 0
174 197 0
176 198 0
174 197 0
172 196 0
173 197 0
175 197 0
174 198 0
175 198 0
176 198 0
175 198 0
174 197 0
173 197 0
172 196 0
174 198 0
175 198 0
174 198 0
175 198 0
174 197 0
174 198 0
175 198 0
174 197 0
174 197 0
174 198 0
175 198 0
176 199 0
174 197 0
174 197 0
175 198 0
175 198 0
174 198 0
175 198 0
174 198 0
175 198 0
174 197 0
175 198 0
172 196 0
173 197 0
174 197 0
173 197 0
175 198 0
174 197 0
173 197 0
174 197 0
174 198 0
173 197 0
174 198 0
173 197 0
175 198 0
173 197 0
173 197 0
175 198 0
174 198 0
174 198 0
173 197 0
176 199 0
175 198 0
174 197 0
175 198 0
174 197 0
175 198 0
175 198 0
175 198 0
174 198 0
175 198 0
173 197 0
174 197 0
175 198 0
175 198 0
173 197 0
174 198 0
175 198 0
174 197 0
174 198 0
174 198 0
175 198 0
175 198 0
175 198 0
172 196 0
173 197 0
172 196 0
176 199 0
174 198 0
174 198 0
175 198 0
174 197 0
175 198 0
174 198 0
174 198 0
173 197 0
173 197 0
174 198 0
175 198 0
175 198 0
173 197 0
173 197 0
173 197 0
175 198 0
174 197 0
174 197 0
175 198 0
174 198 0
174 197 0
175 198 0
174 197 0
175 198 0
174 197 0
174 197 0
174 198 0
176 199 0
173 197 0
175 198 0
174 197 0
174 198 0
173 197 0
175 198 0
174 198 0
174 197 0
174 198 0
172 196 0
174 197 0
173 197 0
174 198 0
173 197 0
174 198 0
174 198 0
174 197 0
173 196 0
176 199 0
174 197 0
173 197 0
174 197 0
173 197 0
172 196 0
175 198 0
174 197 0
174 197 0
174 198 0
174 197 0
173 197 0
173 197 0
173 197 0
175 198 0
173 196 0
174 198 0
174 197 0
175 198 0
175 198 0
171 195 0
174 197 0
173 197 0
175 198 0
175 198 0
174 197 0
174 198 0
174 197 0
175 198 0
175 197 0
174 197 0
174 197 0
174 197 0
174 197 0
174 197 0
174 197 0
174 198 0
173 197 0
175 198 0
173 196 0
173 197 0
173 197 0
175 198 0
174 197 0
173 197 0
174 197 0
177 199 0
171 195 0
173 197 0
175 198 0
173 197 0
174 197 0
173 197 0
174 198 0
174 198 0
174 197 0
173 197 0
173 197 0
174 197 0
172 196 0
173 196 0
172 196 0
174 197 0
172 197 0
174 197 0
175 198 0
172 196 0
175 198 0
175 198 0
171 196 0
173 197 0
173 197 0
174 197 0
173 197 0
175 198 0
173 197 0
173 197 0
172 196 0
173 197 0
175 198 0
174 197 0
174 198 0
173 195 0
174 198 0
171 195 0
173 197 0
174 197 0
175 198 0
174 197 0
170 195 0
174 197 0
172 196 0
171 195 0
172 196 0
174 198 0
175 198 0
175 198 0
174 197 0
174 197 0
173 197 0
172 196 0
173 196 0
171 196 0
174 197 0
171 195 0
174 197 0
174 197 0
173 197 0
174 197 0
174 197 0
173 196 0
173 196 0
176 199 0
171 195 0
174 198 0
173 197 0
172 196 0
174 197 0
173 197 0
174 197 0
174 197 0
173 197 0
172 195 0
175 198 0
174 197 0
175 198 0
175 198 0
173 196 0
174 197 0
174 197 0
174 198 0
176 199 0
173 197 0
175 198 0
175 198 0
174 197 0
173 197 0
175 198 0
174 197 0
173 196 0
173 197 0
173 196 0
174 197 0
175 198 0
172 195 0
174 197 0
172 195 0
175 198 0
174 198 0
174 198 0
172 196 0
172 196 0
174 198 0
173 197 0
173 195 0
174 197 0
172 196 0
173 196 0
175 198 0
173 196 0
172 196 0
172 196 0
173 197 0
173 197 0
175 198 0
176 198 0
173 197 0
173 196 0
172 196 0
175 198 0
174 198 0
175 198 0
172 196 0
174 198 0
174 196 0
174 198 0
173 196 0
172 196 0
174 198 0
175 198 0
173 197 0
173 197 0
173 197 0
175 198 0
174 197 0
174 197 0
174 197 0
174 197 0
174 198 0
173 196 0
174 197 0
173 197 0
173 197 0
174 197 0
174 197 0
174 197 0
175 198 0
174 197 0
175 198 0
174 198 0
173 197 0
175 198 0
174 197 0
174 198 0
174 198 0
173 197 0
173 197 0
174 197 0
173 197 0
175 198 0
174 197 0
175 198 0
173 197 0
174 198 0
175 198 0
175 198 0
173 197 0
173 197 0
175 197 0
175 198 0
174 197 0
172 196 0
174 198 0
175 198 0
175 198 0
174 197 0
173 197 0
174 198 0
175 198 0
174 196 0
175 198 0
174 198 0
175 198 0
174 198 0
173 196 0
175 198 0
173 197 0
173 197 0
174 198 0
173 197 0
174 197 0
175 198 0
173 197 0
174 197 0
174 198 0
174 198 0
174 197 0
173 197 0
173 197 0
174 197 0
174 198 0
175 198 0
173 197 0
175 198 0
174 198 0
174 197 0
173 196 0
174 197 0
175 198 0
174 198 0
174 198 0
173 196 0
174 198 0
172 196 0
174 198 0
174 198 0
173 196 0
175 198 0
174 198 0
173 196 0
175 198 0
175 198 0
173 197 0
175 198 0
175 198 0
175 198 0
171 195 0
173 197 0
173 197 0
174 197 0
174 197 0
172 196 0
175 198 0
174 197 0
176 199 0
174 198 0
175 198 0
175 198 0
174 198 0
174 198 0
173 197 0
176 199 0
174 197 0
175 198 0
174 197 0
174 197 0
175 198 0
174 198 0
174 198 0
174 198 0
175 198 0
175 198 0
175 198 0
175 198 0
175 198 0
176 198 0
175 198 0
173 197 0
171 196 0
174 198 0
174 198 0
174 198 0
173 197 0
174 197 0
175 198 0
172 196 0
175 198 0
176 198 0
174 198 0
174 198 0
175 198 0
173 197 0
174 197 0
175 198 0
174 197 0
174 197 0
174 197 0
174 198 0
175 198 0
176 199 0
174 198 0
172 196 0
174 198 0
172 196 0
174 198 0
174 197 0
175 198 0
172 196 0
175 198 0
173 197 0
175 198 0
172 196 0
175 198 0
173 197 0
173 197 0
174 197 0
176 198 0
173 197 0
175 198 0
173 197 0
173 197 0
173 197 0
174 198 0
174 197 0
176 199 0
176 199 0
172 197 0
174 198 0
174 198 0
174 197 0
174 197 0
176 199 0
174 198 0
173 197 0
174 197 0
174 197 0
174 197 0
173 197 0
174 198 0
175 198 0
175 198 0
174 197 0
175 198 0
172 196 0
175 198 0
174 198 0
174 198 0
175 198 0
175 198 0
175 198 0
175 198 0
175 198 0
175 198 0
176 199 0
176 199 0
173 197 0
174 197 0
174 198 0
173 197 0
174 198 0
173 196 0
172 196 0
175 198 0
173 197 0
173 197 0
173 197 0
174 198 0
173 197 0
174 197 0
174 197 0
173 197 0
174 197 0
175 198 0
174 197 0
172 197 0
174 197 0
172 196 0
173 197 0
174 198 0
174 198 0
173 197 0
174 198 0
174 198 0
175 198 0
175 198 0
174 197 0
171 195 0
172 197 0
176 198 0
175 198 0
173 197 0
172 196 0
175 198 0
175 198 0
175 198 0
175 198 0
173 197 0
175 198 0
175 198 0
175 198 0
173 197 0
173 197 0
174 197 0
172 196 0
174 198 0
172 196 0
172 196 0
175 198 0
173 197 0
175 198 0
174 197 0
174 197 0
173 196 0
175 198 0
174 197 0
174 197 0
173 197 0
173 197 0
173 197 0
174 197 0
174 197 0
173 197 0
173 197 0
175 198 0
172 196 0
174 197 0
175 198 0
174 197 0
174 197 0
175 198 0
174 197 0
174 197 0
173 197 0
175 198 0
175 198 0
172 196 0
174 197 0
174 197 0
171 195 0
174 197 0
174 198 0
172 196 0
174 197 0
173 197 0
174 197 0
174 198 0
173 197 0
174 198 0
173 197 0
174 198 0
173 197 0
173 196 0
173 197 0
175 198 0
173 197 0
174 197 0
171 196 0
174 198 0
175 198 0
175 198 0
174 198 0
173 196 0
174 197 0
173 197 0
172 195 0
174 197 0
174 197 0
174 197 0
173 197 0
173 196 0
174 197 0
173 197 0
173 197 0
174 196 0
172 195 0
174 197 0
173 197 0
173 197 0
173 197 0
174 198 0
175 198 0
174 197 0
174 198 0
173 197 0
171 195 0
172 196 0
172 196 0
174 197 0
174 197 0
175 198 0
174 197 0
173 197 0
174 198 0
173 197 0
172 196 0
175 198 0
172 196 0
173 197 0
175 197 0
173 197 0
175 198 0
173 197 0
175 198 0
173 197 0
173 197 0
174 198 0
172 196 0
170 194 0
173 197 0
173 197 0
171 195 0
173 196 0
174 198 0
173 197 0
175 197 0
174 197 0
174 196 0
172 196 0
173 196 0
173 197 0
173 197 0
172 196 0
173 196 0
173 196 0
174 197 0
174 197 0
173 197 0
174 197 0
174 196 0
173 197 0
172 196 0
174 197 0
173 197 0
172 196 0
174 198 0
173 197 0
175 198 0
174 197 0
176 199 0
174 197 0
175 198 0
173 197 0
175 198 0
176 198 0
173 196 0
176 199 0
171 194 0
171 195 0
173 197 0
174 197 0
173 197 0
175 198 0
174 197 0
175 198 0
173 197 0
173 197 0
174 198 0
175 198 0
172 195 0
173 197 0
173 197 0
175 198 0
172 197 0
174 197 0
174 197 0
174 197 0
173 196 0
172 196 0
173 197 0
173 197 0
174 198 0
173 196 0
175 198 0
175 198 0
174 197 0
173 197 0
174 197 0
174 198 0
174 198 0
174 197 0
175 198 0
174 197 0
174 198 0
175 197 0
172 197 0
175 198 0
173 196 0
174 198 0
174 197 0
174 198 0
173 197 0
173 196 0
174 197 0
174 198 0
174 198 0
173 197 0
175 198 0
174 198 0
175 197 0
174 198 0
173 197 0
175 198 0
172 195 0
175 198 0
175 198 0
175 198 0
174 198 0
174 198 0
176 199 0
175 198 0
174 198 0
173 197 0
174 197 0
174 197 0
175 198 0
174 198 0
174 197 0
175 198 0
174 197 0
173 197 0
174 197 0
172 196 0
175 198 0
175 198 0
174 198 0
173 197 0
175 197 0
175 198 0
174 197 0
175 198 0
175 198 0
174 198 0
174 197 0
173 196 0
173 197 0
173 197 0
174 197 0
174 198 0
174 197 0
172 196 0
173 196 0
172 197 0
173 197 0
173 197 0
174 197 0
173 197 0
175 198 0
173 197 0
174 197 0
173 197 0
174 198 0
174 198 0
173 197 0
175 198 0
175 198 0
173 197 0
174 198 0
175 198 0
174 198 0
173 197 0
174 198 0
173 197 0
175 198 0
175 198 0
174 197 0
175 198 0
174 197 0
175 198 0
173 197 0
174 198 0
174 198 0
175 198 0
173 197 0
175 198 0
172 197 0
174 198 0
174 198 0
174 198 0
175 198 0
176 198 0
176 198 0
174 198 0
176 199 0
174 197 0
174 197 0
175 198 0
174 197 0
174 198 0
174 197 0
174 198 0
174 198 0
173 197 0
174 198 0
174 198 0
175 198 0
173 197 0
175 198 0
176 199 0
176 199 0
175 198 0
174 197 0
175 198 0
174 197 0
175 198 0
174 198 0
174 197 0
175 198 0
174 198 0
174 197 0
175 198 0
175 198 0
173 196 0
174 197 0
173 196 0
175 198 0
175 198 0
175 198 0
176 199 0
176 199 0
174 198 0
175 198 0
176 199 0
174 198 0
176 198 0
171 196 0
176 199 0
175 198 0
175 198 0
174 198 0
173 197 0
175 198 0
174 197 0
175 198 0
174 198 0
173 197 0
174 198 0
175 198 0
174 198 0
175 198 0
174 197 0
175 198 0
172 197 0
174 198 0
173 197 0
173 197 0
175 198 0
176 199 0
173 197 0
175 198 0
176 198 0
174 198 0
173 197 0
174 198 0
173 197 0
173 197 0
174 198 0
173 196 0
174 197 0
174 197 0
174 197 0
174 198 0
174 198 0
175 198 0
173 197 0
175 198 0
172 197 0
175 198 0
174 198 0
174 198 0
174 197 0
174 197 0
173 197 0
172 197 0
174 197 0
174 198 0
173 197 0
176 198 0
175 197 0
175 198 0
174 197 0
176 199 0
175 198 0
174 198 0
173 197 0
175 198 0
175 198 0
172 196 0
173 197 0
173 197 0
174 197 0
176 198 0
175 198 0
172 196 0
174 198 0
173 197 0
174 197 0
174 198 0
173 197 0
171 196 0
173 196 0
176 199 0
173 197 0
174 197 0
173 197 0
176 199 0
175 198 0
175 198 0
175 198 0
175 198 0
174 198 0
172 195 0
174 197 0
175 197 0
174 198 0
174 197 0
174 197 0
175 197 0
173 197 0
174 197 0
173 197 0
174 198 0
174 197 0
175 198 0
173 197 0
174 197 0
175 198 0
174 197 0
174 198 0
174 198 0
174 198 0
175 198 0
172 196 0
174 198 0
172 196 0
173 197 0
175 198 0
174 197 0
172 196 0
173 197 0
172 196 0
175 198 0
172 195 0
173 197 0
173 197 0
171 196 0
173 197 0
173 196 0
174 198 0
175 198 0
173 197 0
173 196 0
175 198 0
173 197 0
173 197 0
172 195 0
173 197 0
173 196 0
174 197 0
173 196 0
172 196 0
172 196 0
173 197 0
174 197 0
175 198 0
174 197 0
171 195 0
173 197 0
175 198 0
174 198 0
171 195 0
172 196 0
173 196 0
171 194 0
172 196 0
173 197 0
173 197 0
175 198 0
173 196 0
173 197 0
173 197 0
173 197 0
172 195 0
174 197 0
173 197 0
174 196 0
174 197 0
174 197 0
175 197 0
174 198 0
172 196 0
174 197 0
173 196 0
171 195 0
173 196 0
171 195 0
175 198 0
172 196 0
173 197 0
174 198 0
173 197 0
173 197 0
172 196 0
174 197 0
173 197 0
174 198 0
173 196 0
174 197 0
174 197 0
175 198 0
173 197 0
174 197 0
172 196 0
173 197 0
175 198 0
173 197 0
173 197 0
172 196 0
173 197 0
173 197 0
173 196 0
172 195 0
175 198 0
173 196 0
174 197 0
175 197 0
174 198 0
173 197 0
174 197 0
175 198 0
174 197 0
173 196 0
173 197 0
177 199 0
173 197 0
173 196 0
177 199 0
171 195 0
175 198 0
173 196 0
174 197 0
175 198 0
176 199 0
174 197 0
174 198 0
172 196 0
172 196 0
173 197 0
175 198 0
174 197 0
176 199 0
174 197 0
175 198 0
174 196 0
174 197 0
173 196 0
176 199 0
170 194 0
173 197 0
174 197 0
173 197 0
174 197 0
172 197 0
173 197 0
175 198 0
174 197 0
174 197 0
174 198 0
172 196 0
172 196 0
172 196 0
172 195 0
173 197 0
174 198 0
174 197 0
174 197 0
175 198 0
175 198 0
174 197 0
174 197 0
173 196 0
172 196 0
175 198 0
173 197 0
175 197 0
174 197 0
173 197 0
175 198 0
172 196 0
174 197 0
174 198 0
175 198 0
175 198 0
174 197 0
174 197 0
173 197 0
174 197 0
175 198 0
175 198 0
175 198 0
175 198 0
176 198 0
174 198 0
174 197 0
174 197 0
174 197 0
173 197 0
175 198 0
174 198 0
175 198 0
175 198 0
175 198 0
175 198 0
174 198 0
174 197 0
173 197 0
174 197 0
176 199 0
175 198 0
175 197 0
173 197 0
175 198 0
173 196 0
174 198 0
174 198 0
174 197 0
175 198 0
175 198 0
173 197 0
175 198 0
175 198 0
173 197 0
173 197 0
177 199 0
174 198 0
175 198 0
174 198 0
174 198 0
173 197 0
174 198 0
176 199 0
173 197 0
174 197 0
174 197 0
175 198 0
174 197 0
174 198 0
175 198 0
174 198 0
172 196 0
175 198 0
174 198 0
172 196 0
175 198 0
175 198 0
174 198 0
175 198 0
174 198 0
174 198 0
174 198 0
175 198 0
172 196 0
173 197 0
173 197 0
173 196 0
175 198 0
174 197 0
175 198 0
