P3
400 225
255
163 200 255
163 200 255
163 200 255
163 200 255
163 200 255
163 200 255
163 200 255
163 200 255
163 200 255
163 200 255
163 200 255
162 200 255
162 200 255
162 200 255
162 199 255
162 199 255
162 199 255
162 199 255
162 199 255
162 199 255
162 199 255
161 199 255
161 199 255
161 199 255
161 199 255
161 199 255
161 199 255
161 199 255
161 199 255
161 199 255
161 199 255
161 199 255
160 198 255
160 198 255
160 198 255
160 198 255
160 198 255
160 198 255
160 198 255
160 198 255
160 198 255
160 198 255
159 198 255
159 198 255
159 198 255
159 198 255
159 198 255
159 198 255
159 197 255
159 197 255
159 197 255
159 197 255
158 197 255
158 197 255
158 197 255
158 197 255
158 197 255
158 197 255
158 197 255
158 197 255
158 197 255
157 197 255
157 197 255
157 197 255
157 196 255
157 196 255
157 196 255
157 196 255
157 196 255
157 196 255
157 196 255
156 196 255
156 196 255
156 196 255
156 196 255
156 196 255
156 196 255
156 196 255
156 196 255
156 196 255
155 195 255
155 195 255
155 195 255
155 195 255
155 195 255
155 195 255
155 195 255
155 195 255
155 195 255
154 195 255
154 195 255
154 195 255
154 195 255
154 195 255
154 195 255
154 194 255
154 194 255
154 194 255
153 194 255
153 194 255
153 194 255
153 194 255
153 194 255
153 194 255
153 194 255
153 194 255
153 194 255
152 194 255
152 194 255
152 194 255
152 193 255
152 193 255
152 193 255
152 193 255
152 193 255
152 193 255
152 193 255
151 193 255
151 193 255
151 193 255
151 193 255
151 193 255
151 193 255
151 193 255
151 193 255
151 193 255
151 193 255
150 192 255
150 192 255
150 192 255
150 192 255
150 192 255
150 192 255
150 192 255
150 192 255
150 192 255
150 192 255
149 192 255
149 192 255
149 192 255
149 192 255
149 192 255
149 192 255
149 192 255
149 192 255
149 191 255
149 191 255
149 191 255
149 191 255
148 191 255
148 191 255
148 191 255
148 191 255
148 191 255
148 191 255
148 191 255
148 191 255
148 191 255
148 191 255
148 191 255
148 191 255
148 191 255
148 191 255
148 191 255
147 191 255
147 191 255
147 191 255
147 191 255
147 191 255
147 190 255
147 190 255
147 190 255
147 190 255
147 190 255
147 190 255
147 190 255
147 190 255
147 190 255
147 190 255
147 190 255
147 190 255
147 190 255
147 190 255
147 190 255
147 190 255
147 190 255
147 190 255
146 190 255
146 190 255
146 190 255
146 190 255
146 190 255
146 190 255
146 190 255
146 190 255
146 190 255
146 190 255
146 190 255
146 190 255
146 190 255
146 190 255
146 190 255
146 190 255
146 190 255
146 190 255
146 190 255
146 190 255
146 190 255
146 190 255
146 190 255
146 190 255
146 190 255
146 190 255
147 190 255
147 190 255
147 190 255
147 190 255
147 190 255
147 190 255
147 190 255
147 190 255
147 190 255
147 190 255
147 190 255
147 190 255
147 190 255
147 190 255
147 190 255
147 190 255
147 190 255
147 190 255
147 191 255
147 191 255
147 191 255
147 191 255
147 191 255
147 191 255
148 191 255
148 191 255
148 191 255
148 191 255
148 191 255
148 191 255
148 191 255
148 191 255
148 191 255
148 191 255
148 191 255
148 191 255
148 191 255
148 191 255
149 191 255
149 191 255
149 191 255
149 191 255
149 192 255
149 192 255
149 192 255
149 192 255
149 192 255
149 192 255
149 192 255
149 192 255
150 192 255
150 192 255
150 192 255
150 192 255
150 192 255
150 192 255
150 192 255
150 192 255
150 192 255
150 192 255
151 193 255
151 193 255
151 193 255
151 193 255
151 193 255
151 193 255
151 193 255
151 193 255
151 193 255
151 193 255
152 193 255
152 193 255
152 193 255
152 193 255
152 193 255
152 193 255
152 194 255
152 194 255
152 194 255
152 194 255
153 194 255
153 194 255
153 194 255
153 194 255
153 194 255
153 194 255
153 194 255
153 194 255
153 194 255
154 194 255
154 194 255
154 194 255
154 195 255
154 195 255
154 195 255
154 195 255
154 195 255
154 195 255
155 195 255
155 195 255
155 195 255
155 195 255
155 195 255
155 195 255
155 195 255
155 195 255
155 195 255
156 196 255
156 196 255
156 196 255
156 196 255
156 196 255
156 196 255
156 196 255
156 196 255
156 196 255
157 196 255
157 196 255
157 196 255
157 196 255
157 196 255
157 196 255
157 196 255
157 197 255
157 197 255
157 197 255
158 197 255
158 197 255
158 197 255
158 197 255
158 197 255
158 197 255
158 197 255
158 197 255
158 197 255
159 197 255
159 197 255
159 197 255
159 198 255
159 198 255
159 198 255
159 198 255
159 198 255
159 198 255
159 198 255
160 198 255
160 198 255
160 198 255
160 198 255
160 198 255
160 198 255
160 198 255
160 198 255
160 198 255
160 198 255
161 199 255
161 199 255
161 199 255
161 199 255
161 199 255
161 199 255
161 199 255
161 199 255
161 199 255
161 199 255
162 199 255
162 199 255
162 199 255
162 199 255
162 199 255
162 199 255
162 199 255
162 199 255
162 200 255
162 200 255
162 200 255
163 200 255
163 200 255
163 200 255
163 200 255
163 200 255
163 200 255
163 200 255
163 200 255
163 200 255
163 200 255
163 200 255
164 200 255
164 200 255
163 200 255
163 200 255
163 200 255
163 200 255
163 200 255
163 200 255
163 200 255
163 200 255
163 200 255
163 200 255
163 200 255
162 200 255
162 200 255
162 200 255
162 200 255
162 199 255
162 199 255
162 199 255
162 199 255
162 199 255
162 199 255
162 199 255
161 199 255
161 199 255
161 199 255
161 199 255
161 199 255
161 199 255
161 199 255
161 199 255
161 199 255
161 199 255
160 198 255
160 198 255
160 198 255
160 198 255
160 198 255
160 198 255
160 198 255
160 198 255
160 198 255
160 198 255
159 198 255
159 198 255
159 198 255
159 198 255
159 198 255
159 198 255
159 198 255
159 197 255
159 197 255
159 197 255
158 197 255
158 197 255
158 197 255
158 197 255
158 197 255
158 197 255
158 197 255
158 197 255
158 197 255
158 197 255
157 197 255
157 197 255
157 196 255
157 196 255
157 196 255
157 196 255
157 196 255
157 196 255
157 196 255
156 196 255
156 196 255
156 196 255
156 196 255
156 196 255
156 196 255
156 196 255
156 196 255
156 196 255
155 195 255
155 195 255
155 195 255
155 195 255
155 195 255
155 195 255
155 195 255
155 195 255
155 195 255
154 195 255
154 195 255
154 195 255
154 195 255
154 195 255
154 195 255
154 194 255
154 194 255
154 194 255
153 194 255
153 194 255
153 194 255
153 194 255
153 194 255
153 194 255
153 194 255
153 194 255
153 194 255
153 194 255
152 194 255
152 194 255
152 194 255
152 193 255
152 193 255
152 193 255
152 193 255
152 193 255
152 193 255
151 193 255
151 193 255
151 193 255
151 193 255
151 193 255
151 193 255
151 193 255
151 193 255
151 193 255
151 193 255
150 192 255
150 192 255
150 192 255
150 192 255
150 192 255
150 192 255
150 192 255
150 192 255
150 192 255
150 192 255
150 192 255
149 192 255
149 192 255
149 192 255
149 192 255
149 192 255
149 192 255
149 192 255
149 192 255
149 191 255
149 191 255
149 191 255
149 191 255
148 191 255
148 191 255
148 191 255
148 191 255
148 191 255
148 191 255
148 191 255
148 191 255
148 191 255
148 191 255
148 191 255
148 191 255
148 191 255
148 191 255
148 191 255
147 191 255
147 191 255
147 191 255
147 191 255
147 191 255
147 191 255
147 190 255
147 190 255
147 190 255
147 190 255
147 190 255
147 190 255
147 190 255
147 190 255
147 190 255
147 190 255
147 190 255
147 190 255
147 190 255
147 190 255
147 190 255
147 190 255
147 190 255
147 190 255
147 190 255
147 190 255
147 190 255
147 190 255
147 190 255
147 190 255
147 190 255
147 190 255
147 190 255
147 190 255
147 190 255
147 190 255
147 190 255
147 190 255
147 190 255
147 190 255
147 190 255
147 190 255
147 190 255
147 190 255
147 190 255
147 190 255
147 190 255
147 190 255
147 190 255
147 190 255
147 190 255
147 190 255
147 190 255
147 190 255
147 190 255
147 190 255
147 190 255
147 190 255
147 190 255
147 191 255
147 191 255
147 191 255
147 191 255
147 191 255
147 191 255
147 191 255
148 191 255
148 191 255
148 191 255
148 191 255
148 191 255
148 191 255
148 191 255
148 191 255
148 191 255
148 191 255
148 191 255
148 191 255
148 191 255
148 191 255
148 191 255
149 191 255
149 191 255
149 191 255
149 191 255
149 191 255
149 192 255
149 192 255
149 192 255
149 192 255
149 192 255
149 192 255
149 192 255
150 192 255
150 192 255
150 192 255
150 192 255
150 192 255
150 192 255
150 192 255
150 192 255
150 192 255
150 192 255
150 192 255
151 193 255
151 193 255
151 193 255
151 193 255
151 193 255
151 193 255
151 193 255
151 193 255
151 193 255
151 193 255
152 193 255
152 193 255
152 193 255
152 193 255
152 193 255
152 193 255
152 194 255
152 194 255
152 194 255
152 194 255
153 194 255
153 194 255
153 194 255
153 194 255
153 194 255
153 194 255
153 194 255
153 194 255
153 194 255
154 194 255
154 194 255
154 194 255
154 195 255
154 195 255
154 195 255
154 195 255
154 195 255
154 195 255
155 195 255
155 195 255
155 195 255
155 195 255
155 195 255
155 195 255
155 195 255
155 195 255
155 195 255
156 196 255
156 196 255
156 196 255
156 196 255
156 196 255
156 196 255
156 196 255
156 196 255
156 196 255
157 196 255
157 196 255
157 196 255
157 196 255
157 196 255
157 196 255
157 196 255
157 197 255
157 197 255
157 197 255
158 197 255
158 197 255
158 197 255
158 197 255
158 197 255
158 197 255
158 197 255
158 197 255
158 197 255
159 197 255
159 197 255
159 197 255
159 198 255
159 198 255
159 198 255
159 198 255
159 198 255
159 198 255
159 198 255
160 198 255
160 198 255
160 198 255
160 198 255
160 198 255
160 198 255
160 198 255
160 198 255
160 198 255
160 198 255
161 199 255
161 199 255
161 199 255
161 199 255
161 199 255
161 199 255
161 199 255
161 199 255
161 199 255
161 199 255
162 199 255
162 199 255
162 199 255
162 199 255
162 199 255
162 199 255
162 199 255
162 199 255
162 200 255
162 200 255
162 200 255
163 200 255
163 200 255
163 200 255
163 200 255
163 200 255
163 200 255
163 200 255
163 200 255
163 200 255
163 200 255
163 200 255
164 200 255
164 200 255
164 200 255
164 200 255
164 200 255
164 200 255
163 200 255
163 200 255
163 200 255
163 200 255
163 200 255
163 200 255
163 200 255
163 200 255
163 200 255
163 200 255
163 200 255
162 200 255
162 200 255
162 200 255
162 200 255
162 199 255
162 199 255
162 199 255
162 199 255
162 199 255
162 199 255
162 199 255
161 199 255
161 199 255
161 199 255
161 199 255
161 199 255
161 199 255
161 199 255
161 199 255
161 199 255
161 199 255
160 198 255
160 198 255
160 198 255
160 198 255
160 198 255
160 198 255
160 198 255
160 198 255
160 198 255
160 198 255
159 198 255
159 198 255
159 198 255
159 198 255
159 198 255
159 198 255
159 198 255
159 197 255
159 197 255
159 197 255
158 197 255
158 197 255
158 197 255
158 197 255
158 197 255
158 197 255
158 197 255
158 197 255
158 197 255
158 197 255
157 197 255
157 197 255
157 196 255
157 196 255
157 196 255
157 196 255
157 196 255
157 196 255
157 196 255
156 196 255
156 196 255
156 196 255
156 196 255
156 196 255
156 196 255
156 196 255
156 196 255
156 196 255
155 195 255
155 195 255
155 195 255
155 195 255
155 195 255
155 195 255
155 195 255
155 195 255
155 195 255
154 195 255
154 195 255
154 195 255
154 195 255
154 195 255
154 195 255
154 194 255
154 194 255
154 194 255
153 194 255
153 194 255
153 194 255
153 194 255
153 194 255
153 194 255
153 194 255
153 194 255
153 194 255
153 194 255
152 194 255
152 194 255
152 194 255
152 193 255
152 193 255
152 193 255
152 193 255
152 193 255
152 193 255
151 193 255
151 193 255
151 193 255
151 193 255
151 193 255
151 193 255
151 193 255
151 193 255
151 193 255
151 193 255
150 192 255
150 192 255
150 192 255
150 192 255
150 192 255
150 192 255
150 192 255
150 192 255
150 192 255
150 192 255
150 192 255
149 192 255
149 192 255
149 192 255
149 192 255
149 192 255
149 192 255
149 192 255
149 192 255
149 191 255
149 191 255
149 191 255
149 191 255
149 191 255
148 191 255
148 191 255
148 191 255
148 191 255
148 191 255
148 191 255
148 191 255
148 191 255
148 191 255
148 191 255
148 191 255
148 191 255
148 191 255
148 191 255
148 191 255
148 191 255
147 191 255
147 191 255
147 191 255
147 191 255
147 191 255
147 191 255
147 191 255
147 191 255
147 190 255
147 190 255
147 190 255
147 190 255
147 190 255
147 190 255
147 190 255
147 190 255
147 190 255
147 190 255
147 190 255
147 190 255
147 190 255
147 190 255
147 190 255
147 190 255
147 190 255
147 190 255
147 190 255
147 190 255
147 190 255
147 190 255
147 190 255
147 190 255
147 190 255
147 190 255
147 190 255
147 190 255
147 190 255
147 190 255
147 190 255
147 190 255
147 190 255
147 190 255
147 190 255
147 190 255
147 190 255
147 190 255
147 190 255
147 190 255
147 190 255
147 190 255
147 190 255
147 191 255
147 191 255
147 191 255
147 191 255
147 191 255
147 191 255
147 191 255
148 191 255
148 191 255
148 191 255
148 191 255
148 191 255
148 191 255
148 191 255
148 191 255
148 191 255
148 191 255
148 191 255
148 191 255
148 191 255
148 191 255
148 191 255
148 191 255
149 191 255
149 191 255
149 191 255
149 191 255
149 191 255
149 192 255
149 192 255
149 192 255
149 192 255
149 192 255
149 192 255
149 192 255
149 192 255
150 192 255
150 192 255
150 192 255
150 192 255
150 192 255
150 192 255
150 192 255
150 192 255
150 192 255
150 192 255
150 192 255
151 193 255
151 193 255
151 193 255
151 193 255
151 193 255
151 193 255
151 193 255
151 193 255
151 193 255
151 193 255
152 193 255
152 193 255
152 193 255
152 193 255
152 193 255
152 193 255
152 194 255
152 194 255
152 194 255
153 194 255
153 194 255
153 194 255
153 194 255
153 194 255
153 194 255
153 194 255
153 194 255
153 194 255
153 194 255
154 194 255
154 194 255
154 194 255
154 195 255
154 195 255
154 195 255
154 195 255
154 195 255
154 195 255
155 195 255
155 195 255
155 195 255
155 195 255
155 195 255
155 195 255
155 195 255
155 195 255
155 195 255
156 196 255
156 196 255
156 196 255
156 196 255
156 196 255
156 196 255
156 196 255
156 196 255
156 196 255
157 196 255
157 196 255
157 196 255
157 196 255
157 196 255
157 196 255
157 197 255
157 197 255
157 197 255
157 197 255
158 197 255
158 197 255
158 197 255
158 197 255
158 197 255
158 197 255
158 197 255
158 197 255
158 197 255
159 197 255
159 197 255
159 197 255
159 198 255
159 198 255
159 198 255
159 198 255
159 198 255
159 198 255
159 198 255
160 198 255
160 198 255
160 198 255
160 198 255
160 198 255
160 198 255
160 198 255
160 198 255
160 198 255
160 198 255
161 199 255
161 199 255
161 199 255
161 199 255
161 199 255
161 199 255
161 199 255
161 199 255
161 199 255
161 199 255
162 199 255
162 199 255
162 199 255
162 199 255
162 199 255
162 199 255
162 199 255
162 200 255
162 200 255
162 200 255
162 200 255
163 200 255
163 200 255
163 200 255
163 200 255
163 200 255
163 200 255
163 200 255
163 200 255
163 200 255
163 200 255
163 200 255
164 200 255
164 200 255
164 200 255
164 200 255
164 201 255
164 201 255
164 200 255
164 200 255
164 200 255
164 200 255
163 200 255
163 200 255
163 200 255
163 200 255
163 200 255
163 200 255
163 200 255
163 200 255
163 200 255
163 200 255
163 200 255
162 200 255
162 200 255
162 200 255
162 200 255
162 199 255
162 199 255
162 199 255
162 199 255
162 199 255
162 199 255
162 199 255
161 199 255
161 199 255
161 199 255
161 199 255
161 199 255
161 199 255
161 199 255
161 199 255
161 199 255
161 199 255
160 198 255
160 198 255
160 198 255
160 198 255
160 198 255
160 198 255
160 198 255
160 198 255
160 198 255
160 198 255
159 198 255
159 198 255
159 198 255
159 198 255
159 198 255
159 198 255
159 198 255
159 197 255
159 197 255
159 197 255
158 197 255
158 197 255
158 197 255
158 197 255
158 197 255
158 197 255
158 197 255
158 197 255
158 197 255
158 197 255
157 197 255
157 197 255
157 196 255
157 196 255
157 196 255
157 196 255
157 196 255
157 196 255
157 196 255
156 196 255
156 196 255
156 196 255
156 196 255
156 196 255
156 196 255
156 196 255
156 196 255
156 196 255
155 195 255
155 195 255
155 195 255
155 195 255
155 195 255
155 195 255
155 195 255
155 195 255
155 195 255
154 195 255
154 195 255
154 195 255
154 195 255
154 195 255
154 195 255
154 194 255
154 194 255
154 194 255
153 194 255
153 194 255
153 194 255
153 194 255
153 194 255
153 194 255
153 194 255
153 194 255
153 194 255
153 194 255
152 194 255
152 194 255
152 194 255
152 193 255
152 193 255
152 193 255
152 193 255
152 193 255
152 193 255
151 193 255
151 193 255
151 193 255
151 193 255
151 193 255
151 193 255
151 193 255
151 193 255
151 193 255
151 193 255
150 192 255
150 192 255
150 192 255
150 192 255
150 192 255
150 192 255
150 192 255
150 192 255
150 192 255
150 192 255
150 192 255
150 192 255
149 192 255
149 192 255
149 192 255
149 192 255
149 192 255
149 192 255
149 192 255
149 192 255
149 191 255
149 191 255
149 191 255
149 191 255
149 191 255
148 191 255
148 191 255
148 191 255
148 191 255
148 191 255
148 191 255
148 191 255
148 191 255
148 191 255
148 191 255
148 191 255
148 191 255
148 191 255
148 191 255
148 191 255
148 191 255
148 191 255
147 191 255
147 191 255
147 191 255
147 191 255
147 191 255
147 191 255
147 191 255
147 191 255
147 191 255
147 191 255
147 190 255
147 190 255
147 190 255
147 190 255
147 190 255
147 190 255
147 190 255
147 190 255
147 190 255
147 190 255
147 190 255
147 190 255
147 190 255
147 190 255
147 190 255
147 190 255
147 190 255
147 190 255
147 190 255
147 190 255
147 190 255
147 190 255
147 190 255
147 190 255
147 190 255
147 190 255
147 190 255
147 190 255
147 190 255
147 190 255
147 191 255
147 191 255
147 191 255
147 191 255
147 191 255
147 191 255
147 191 255
147 191 255
147 191 255
148 191 255
148 191 255
148 191 255
148 191 255
148 191 255
148 191 255
148 191 255
148 191 255
148 191 255
148 191 255
148 191 255
148 191 255
148 191 255
148 191 255
148 191 255
148 191 255
148 191 255
148 191 255
149 191 255
149 191 255
149 191 255
149 191 255
149 191 255
149 192 255
149 192 255
149 192 255
149 192 255
149 192 255
149 192 255
149 192 255
149 192 255
150 192 255
150 192 255
150 192 255
150 192 255
150 192 255
150 192 255
150 192 255
150 192 255
150 192 255
150 192 255
150 192 255
151 193 255
151 193 255
151 193 255
151 193 255
151 193 255
151 193 255
151 193 255
151 193 255
151 193 255
151 193 255
151 193 255
152 193 255
152 193 255
152 193 255
152 193 255
152 193 255
152 193 255
152 194 255
152 194 255
152 194 255
153 194 255
153 194 255
153 194 255
153 194 255
153 194 255
153 194 255
153 194 255
153 194 255
153 194 255
153 194 255
154 194 255
154 194 255
154 194 255
154 195 255
154 195 255
154 195 255
154 195 255
154 195 255
154 195 255
155 195 255
155 195 255
155 195 255
155 195 255
155 195 255
155 195 255
155 195 255
155 195 255
155 195 255
156 196 255
156 196 255
156 196 255
156 196 255
156 196 255
156 196 255
156 196 255
156 196 255
156 196 255
157 196 255
157 196 255
157 196 255
157 196 255
157 196 255
157 196 255
157 197 255
157 197 255
157 197 255
158 197 255
158 197 255
158 197 255
158 197 255
158 197 255
158 197 255
158 197 255
158 197 255
158 197 255
158 197 255
159 197 255
159 197 255
159 197 255
159 198 255
159 198 255
159 198 255
159 198 255
159 198 255
159 198 255
159 198 255
160 198 255
160 198 255
160 198 255
160 198 255
160 198 255
160 198 255
160 198 255
160 198 255
160 198 255
160 198 255
161 199 255
161 199 255
161 199 255
161 199 255
161 199 255
161 199 255
161 199 255
161 199 255
161 199 255
161 199 255
162 199 255
162 199 255
162 199 255
162 199 255
162 199 255
162 199 255
162 199 255
162 200 255
162 200 255
162 200 255
163 200 255
163 200 255
163 200 255
163 200 255
163 200 255
163 200 255
163 200 255
163 200 255
163 200 255
163 200 255
163 200 255
163 200 255
164 200 255
164 200 255
164 200 255
164 200 255
164 201 255
164 201 255
164 201 255
164 201 255
164 201 255
164 201 255
164 201 255
164 200 255
164 200 255
164 200 255
164 200 255
163 200 255
163 200 255
163 200 255
163 200 255
163 200 255
163 200 255
163 200 255
163 200 255
163 200 255
163 200 255
163 200 255
162 200 255
162 200 255
162 200 255
162 199 255
162 199 255
162 199 255
162 199 255
162 199 255
162 199 255
162 199 255
161 199 255
161 199 255
161 199 255
161 199 255
161 199 255
161 199 255
161 199 255
161 199 255
161 199 255
161 199 255
161 199 255
160 198 255
160 198 255
160 198 255
160 198 255
160 198 255
160 198 255
160 198 255
160 198 255
160 198 255
160 198 255
159 198 255
159 198 255
159 198 255
159 198 255
159 198 255
159 198 255
159 197 255
159 197 255
159 197 255
158 197 255
158 197 255
158 197 255
158 197 255
158 197 255
158 197 255
158 197 255
158 197 255
158 197 255
158 197 255
157 197 255
157 197 255
157 197 255
157 196 255
157 196 255
157 196 255
157 196 255
157 196 255
157 196 255
156 196 255
156 196 255
156 196 255
156 196 255
156 196 255
156 196 255
156 196 255
156 196 255
156 196 255
155 195 255
155 195 255
155 195 255
155 195 255
155 195 255
155 195 255
155 195 255
155 195 255
155 195 255
154 195 255
154 195 255
154 195 255
154 195 255
154 195 255
154 195 255
154 194 255
154 194 255
154 194 255
153 194 255
153 194 255
153 194 255
153 194 255
153 194 255
153 194 255
153 194 255
153 194 255
153 194 255
153 194 255
152 194 255
152 194 255
152 194 255
152 193 255
152 193 255
152 193 255
152 193 255
152 193 255
152 193 255
152 193 255
151 193 255
151 193 255
151 193 255
151 193 255
151 193 255
151 193 255
151 193 255
151 193 255
151 193 255
151 193 255
150 192 255
150 192 255
150 192 255
150 192 255
150 192 255
150 192 255
150 192 255
150 192 255
150 192 255
150 192 255
150 192 255
149 192 255
149 192 255
149 192 255
149 192 255
149 192 255
149 192 255
149 192 255
149 192 255
149 192 255
149 191 255
149 191 255
149 191 255
149 191 255
149 191 255
148 191 255
148 191 255
148 191 255
148 191 255
148 191 255
148 191 255
148 191 255
148 191 255
148 191 255
148 191 255
148 191 255
148 191 255
148 191 255
148 191 255
148 191 255
148 191 255
148 191 255
148 191 255
148 191 255
148 191 255
147 191 255
147 191 255
147 191 255
147 191 255
147 191 255
147 191 255
147 191 255
147 191 255
147 191 255
147 191 255
147 191 255
147 191 255
147 191 255
147 191 255
147 191 255
147 191 255
147 191 255
147 191 255
147 191 255
147 191 255
147 191 255
147 191 255
147 191 255
147 191 255
147 191 255
147 191 255
147 191 255
147 191 255
147 191 255
147 191 255
147 191 255
147 191 255
147 191 255
147 191 255
147 191 255
147 191 255
147 191 255
147 191 255
148 191 255
148 191 255
148 191 255
148 191 255
148 191 255
148 191 255
148 191 255
148 191 255
148 191 255
148 191 255
148 191 255
148 191 255
148 191 255
148 191 255
148 191 255
148 191 255
148 191 255
148 191 255
148 191 255
148 191 255
149 191 255
149 191 255
149 191 255
149 191 255
149 191 255
149 192 255
149 192 255
149 192 255
149 192 255
149 192 255
149 192 255
149 192 255
149 192 255
149 192 255
150 192 255
150 192 255
150 192 255
150 192 255
150 192 255
150 192 255
150 192 255
150 192 255
150 192 255
150 192 255
150 192 255
151 193 255
151 193 255
151 193 255
151 193 255
151 193 255
151 193 255
151 193 255
151 193 255
151 193 255
151 193 255
152 193 255
152 193 255
152 193 255
152 193 255
152 193 255
152 193 255
152 193 255
152 194 255
152 194 255
152 194 255
153 194 255
153 194 255
153 194 255
153 194 255
153 194 255
153 194 255
153 194 255
153 194 255
153 194 255
153 194 255
154 194 255
154 194 255
154 194 255
154 195 255
154 195 255
154 195 255
154 195 255
154 195 255
154 195 255
155 195 255
155 195 255
155 195 255
155 195 255
155 195 255
155 195 255
155 195 255
155 195 255
155 195 255
156 196 255
156 196 255
156 196 255
156 196 255
156 196 255
156 196 255
156 196 255
156 196 255
156 196 255
157 196 255
157 196 255
157 196 255
157 196 255
157 196 255
157 196 255
157 197 255
157 197 255
157 197 255
158 197 255
158 197 255
158 197 255
158 197 255
158 197 255
158 197 255
158 197 255
158 197 255
158 197 255
158 197 255
159 197 255
159 197 255
159 197 255
159 198 255
159 198 255
159 198 255
159 198 255
159 198 255
159 198 255
160 198 255
160 198 255
160 198 255
160 198 255
160 198 255
160 198 255
160 198 255
160 198 255
160 198 255
160 198 255
161 199 255
161 199 255
161 199 255
161 199 255
161 199 255
161 199 255
161 199 255
161 199 255
161 199 255
161 199 255
161 199 255
162 199 255
162 199 255
162 199 255
162 199 255
162 199 255
162 199 255
162 199 255
162 200 255
162 200 255
162 200 255
163 200 255
163 200 255
163 200 255
163 200 255
163 200 255
163 200 255
163 200 255
163 200 255
163 200 255
163 200 255
163 200 255
164 200 255
164 200 255
164 200 255
164 200 255
164 201 255
164 201 255
164 201 255
164 201 255
164 201 255
164 201 255
164 201 255
164 201 255
164 201 255
164 201 255
164 201 255
164 201 255
164 200 255
164 200 255
164 200 255
164 200 255
163 200 255
163 200 255
163 200 255
163 200 255
163 200 255
163 200 255
163 200 255
163 200 255
163 200 255
163 200 255
163 200 255
162 200 255
162 200 255
162 200 255
162 200 255
162 199 255
162 199 255
162 199 255
162 199 255
162 199 255
162 199 255
162 199 255
161 199 255
161 199 255
161 199 255
161 199 255
161 199 255
161 199 255
161 199 255
161 199 255
161 199 255
161 199 255
160 198 255
160 198 255
160 198 255
160 198 255
160 198 255
160 198 255
160 198 255
160 198 255
160 198 255
160 198 255
159 198 255
159 198 255
159 198 255
159 198 255
159 198 255
159 198 255
159 197 255
159 197 255
159 197 255
158 197 255
158 197 255
158 197 255
158 197 255
158 197 255
158 197 255
158 197 255
158 197 255
158 197 255
158 197 255
157 197 255
157 197 255
157 197 255
157 196 255
157 196 255
157 196 255
157 196 255
157 196 255
157 196 255
156 196 255
156 196 255
156 196 255
156 196 255
156 196 255
156 196 255
156 196 255
156 196 255
156 196 255
155 195 255
155 195 255
155 195 255
155 195 255
155 195 255
155 195 255
155 195 255
155 195 255
155 195 255
154 195 255
154 195 255
154 195 255
154 195 255
154 195 255
154 195 255
154 194 255
154 194 255
154 194 255
154 194 255
153 194 255
153 194 255
153 194 255
153 194 255
153 194 255
153 194 255
153 194 255
153 194 255
153 194 255
152 194 255
152 194 255
152 194 255
152 193 255
152 193 255
152 193 255
152 193 255
152 193 255
152 193 255
152 193 255
151 193 255
151 193 255
151 193 255
151 193 255
151 193 255
151 193 255
151 193 255
151 193 255
151 193 255
151 193 255
151 193 255
150 192 255
150 192 255
150 192 255
150 192 255
150 192 255
150 192 255
150 192 255
150 192 255
150 192 255
150 192 255
150 192 255
149 192 255
149 192 255
149 192 255
149 192 255
149 192 255
149 192 255
149 192 255
149 192 255
149 192 255
149 191 255
149 191 255
149 191 255
149 191 255
149 191 255
149 191 255
148 191 255
148 191 255
148 191 255
148 191 255
148 191 255
148 191 255
148 191 255
148 191 255
148 191 255
148 191 255
148 191 255
148 191 255
148 191 255
148 191 255
148 191 255
148 191 255
148 191 255
148 191 255
148 191 255
148 191 255
148 191 255
148 191 255
148 191 255
148 191 255
147 191 255
147 191 255
147 191 255
147 191 255
147 191 255
147 191 255
147 191 255
147 191 255
147 191 255
147 191 255
147 191 255
147 191 255
147 191 255
147 191 255
147 191 255
147 191 255
147 191 255
147 191 255
147 191 255
147 191 255
147 191 255
147 191 255
148 191 255
148 191 255
148 191 255
148 191 255
148 191 255
148 191 255
148 191 255
148 191 255
148 191 255
148 191 255
148 191 255
148 191 255
148 191 255
148 191 255
148 191 255
148 191 255
148 191 255
148 191 255
148 191 255
148 191 255
148 191 255
148 191 255
148 191 255
148 191 255
148 191 255
149 191 255
149 191 255
149 191 255
149 191 255
149 191 255
149 192 255
149 192 255
149 192 255
149 192 255
149 192 255
149 192 255
149 192 255
149 192 255
149 192 255
150 192 255
150 192 255
150 192 255
150 192 255
150 192 255
150 192 255
150 192 255
150 192 255
150 192 255
150 192 255
150 192 255
150 192 255
151 193 255
151 193 255
151 193 255
151 193 255
151 193 255
151 193 255
151 193 255
151 193 255
151 193 255
151 193 255
152 193 255
152 193 255
152 193 255
152 193 255
152 193 255
152 193 255
152 193 255
152 194 255
152 194 255
152 194 255
153 194 255
153 194 255
153 194 255
153 194 255
153 194 255
153 194 255
153 194 255
153 194 255
153 194 255
153 194 255
154 194 255
154 194 255
154 194 255
154 195 255
154 195 255
154 195 255
154 195 255
154 195 255
154 195 255
155 195 255
155 195 255
155 195 255
155 195 255
155 195 255
155 195 255
155 195 255
155 195 255
155 195 255
156 196 255
156 196 255
156 196 255
156 196 255
156 196 255
156 196 255
156 196 255
156 196 255
156 196 255
157 196 255
157 196 255
157 196 255
157 196 255
157 196 255
157 196 255
157 197 255
157 197 255
157 197 255
158 197 255
158 197 255
158 197 255
158 197 255
158 197 255
158 197 255
158 197 255
158 197 255
158 197 255
158 197 255
159 197 255
159 197 255
159 197 255
159 198 255
159 198 255
159 198 255
159 198 255
159 198 255
159 198 255
160 198 255
160 198 255
160 198 255
160 198 255
160 198 255
160 198 255
160 198 255
160 198 255
160 198 255
160 198 255
161 199 255
161 199 255
161 199 255
161 199 255
161 199 255
161 199 255
161 199 255
161 199 255
161 199 255
161 199 255
162 199 255
162 199 255
162 199 255
162 199 255
162 199 255
162 199 255
162 199 255
162 200 255
162 200 255
162 200 255
162 200 255
163 200 255
163 200 255
163 200 255
163 200 255
163 200 255
163 200 255
163 200 255
163 200 255
163 200 255
163 200 255
163 200 255
164 200 255
164 200 255
164 200 255
164 200 255
164 201 255
164 201 255
164 201 255
164 201 255
164 201 255
164 201 255
164 201 255
165 201 255
165 201 255
164 201 255
164 201 255
164 201 255
164 201 255
164 201 255
164 201 255
164 201 255
164 201 255
164 200 255
164 200 255
164 200 255
163 200 255
163 200 255
163 200 255
163 200 255
163 200 255
163 200 255
163 200 255
163 200 255
163 200 255
163 200 255
163 200 255
162 200 255
162 200 255
162 200 255
162 200 255
162 199 255
162 199 255
162 199 255
162 199 255
162 199 255
162 199 255
162 199 255
161 199 255
161 199 255
161 199 255
161 199 255
161 199 255
161 199 255
161 199 255
161 199 255
161 199 255
161 199 255
160 198 255
160 198 255
160 198 255
160 198 255
160 198 255
160 198 255
160 198 255
160 198 255
160 198 255
160 198 255
159 198 255
159 198 255
159 198 255
159 198 255
159 198 255
159 198 255
159 197 255
159 197 255
159 197 255
158 197 255
158 197 255
158 197 255
158 197 255
158 197 255
158 197 255
158 197 255
158 197 255
158 197 255
158 197 255
157 197 255
157 197 255
157 197 255
157 196 255
157 196 255
157 196 255
157 196 255
157 196 255
157 196 255
156 196 255
156 196 255
156 196 255
156 196 255
156 196 255
156 196 255
156 196 255
156 196 255
156 196 255
155 195 255
155 195 255
155 195 255
155 195 255
155 195 255
155 195 255
155 195 255
155 195 255
155 195 255
154 195 255
154 195 255
154 195 255
154 195 255
154 195 255
154 195 255
154 195 255
154 194 255
154 194 255
154 194 255
153 194 255
153 194 255
153 194 255
153 194 255
153 194 255
153 194 255
153 194 255
153 194 255
153 194 255
152 194 255
152 194 255
152 194 255
152 193 255
152 193 255
152 193 255
152 193 255
152 193 255
152 193 255
152 193 255
151 193 255
151 193 255
151 193 255
151 193 255
151 193 255
151 193 255
151 193 255
151 193 255
151 193 255
151 193 255
151 193 255
150 192 255
150 192 255
150 192 255
150 192 255
150 192 255
150 192 255
150 192 255
150 192 255
150 192 255
150 192 255
150 192 255
150 192 255
149 192 255
149 192 255
149 192 255
149 192 255
149 192 255
149 192 255
149 192 255
149 192 255
149 192 255
149 192 255
149 191 255
149 191 255
149 191 255
149 191 255
149 191 255
148 191 255
148 191 255
148 191 255
148 191 255
148 191 255
148 191 255
148 191 255
148 191 255
148 191 255
148 191 255
148 191 255
148 191 255
148 191 255
148 191 255
148 191 255
148 191 255
148 191 255
148 191 255
148 191 255
148 191 255
148 191 255
148 191 255
148 191 255
148 191 255
148 191 255
148 191 255
148 191 255
148 191 255
148 191 255
148 191 255
148 191 255
148 191 255
148 191 255
148 191 255
148 191 255
148 191 255
148 191 255
148 191 255
148 191 255
148 191 255
148 191 255
148 191 255
148 191 255
148 191 255
148 191 255
148 191 255
148 191 255
148 191 255
148 191 255
148 191 255
148 191 255
148 191 255
148 191 255
148 191 255
148 191 255
148 191 255
148 191 255
148 191 255
148 191 255
148 191 255
148 191 255
148 191 255
148 191 255
148 191 255
149 191 255
149 191 255
149 191 255
149 191 255
149 191 255
149 192 255
149 192 255
149 192 255
149 192 255
149 192 255
149 192 255
149 192 255
149 192 255
149 192 255
149 192 255
150 192 255
150 192 255
150 192 255
150 192 255
150 192 255
150 192 255
150 192 255
150 192 255
150 192 255
150 192 255
150 192 255
150 192 255
151 193 255
151 193 255
151 193 255
151 193 255
151 193 255
151 193 255
151 193 255
151 193 255
151 193 255
151 193 255
151 193 255
152 193 255
152 193 255
152 193 255
152 193 255
152 193 255
152 193 255
152 193 255
152 194 255
152 194 255
152 194 255
153 194 255
153 194 255
153 194 255
153 194 255
153 194 255
153 194 255
153 194 255
153 194 255
153 194 255
154 194 255
154 194 255
154 194 255
154 195 255
154 195 255
154 195 255
154 195 255
154 195 255
154 195 255
154 195 255
155 195 255
155 195 255
155 195 255
155 195 255
155 195 255
155 195 255
155 195 255
155 195 255
155 195 255
156 196 255
156 196 255
156 196 255
156 196 255
156 196 255
156 196 255
156 196 255
156 196 255
156 196 255
157 196 255
157 196 255
157 196 255
157 196 255
157 196 255
157 196 255
157 197 255
157 197 255
157 197 255
158 197 255
158 197 255
158 197 255
158 197 255
158 197 255
158 197 255
158 197 255
158 197 255
158 197 255
158 197 255
159 197 255
159 197 255
159 197 255
159 198 255
159 198 255
159 198 255
159 198 255
159 198 255
159 198 255
160 198 255
160 198 255
160 198 255
160 198 255
160 198 255
160 198 255
160 198 255
160 198 255
160 198 255
160 198 255
161 199 255
161 199 255
161 199 255
161 199 255
161 199 255
161 199 255
161 199 255
161 199 255
161 199 255
161 199 255
162 199 255
162 199 255
162 199 255
162 199 255
162 199 255
162 199 255
162 199 255
162 200 255
162 200 255
162 200 255
162 200 255
163 200 255
163 200 255
163 200 255
163 200 255
163 200 255
163 200 255
163 200 255
163 200 255
163 200 255
163 200 255
163 200 255
164 200 255
164 200 255
164 200 255
164 201 255
164 201 255
164 201 255
164 201 255
164 201 255
164 201 255
164 201 255
164 201 255
165 201 255
165 201 255
165 201 255
165 201 255
165 201 255
165 201 255
164 201 255
164 201 255
164 201 255
164 201 255
164 201 255
164 201 255
164 201 255
164 201 255
164 200 255
164 200 255
164 200 255
164 200 255
163 200 255
163 200 255
163 200 255
163 200 255
163 200 255
163 200 255
163 200 255
163 200 255
163 200 255
163 200 255
163 200 255
162 200 255
162 200 255
162 200 255
162 199 255
162 199 255
162 199 255
162 199 255
162 199 255
162 199 255
162 199 255
161 199 255
161 199 255
161 199 255
161 199 255
161 199 255
161 199 255
161 199 255
161 199 255
161 199 255
161 199 255
160 198 255
160 198 255
160 198 255
160 198 255
160 198 255
160 198 255
160 198 255
160 198 255
160 198 255
160 198 255
159 198 255
159 198 255
159 198 255
159 198 255
159 198 255
159 198 255
159 197 255
159 197 255
159 197 255
159 197 255
158 197 255
158 197 255
158 197 255
158 197 255
158 197 255
158 197 255
158 197 255
158 197 255
158 197 255
157 197 255
157 197 255
157 197 255
157 196 255
157 196 255
157 196 255
157 196 255
157 196 255
157 196 255
156 196 255
156 196 255
156 196 255
156 196 255
156 196 255
156 196 255
156 196 255
156 196 255
156 196 255
155 195 255
155 195 255
155 195 255
155 195 255
155 195 255
155 195 255
155 195 255
155 195 255
155 195 255
155 195 255
154 195 255
154 195 255
154 195 255
154 195 255
154 195 255
154 195 255
154 194 255
154 194 255
154 194 255
153 194 255
153 194 255
153 194 255
153 194 255
153 194 255
153 194 255
153 194 255
153 194 255
153 194 255
152 194 255
152 194 255
152 194 255
152 194 255
152 193 255
152 193 255
152 193 255
152 193 255
152 193 255
152 193 255
152 193 255
151 193 255
151 193 255
151 193 255
151 193 255
151 193 255
151 193 255
151 193 255
151 193 255
151 193 255
151 193 255
151 193 255
150 192 255
150 192 255
150 192 255
150 192 255
150 192 255
150 192 255
150 192 255
150 192 255
150 192 255
150 192 255
150 192 255
150 192 255
149 192 255
149 192 255
149 192 255
149 192 255
149 192 255
149 192 255
149 192 255
149 192 255
149 192 255
149 192 255
149 191 255
149 191 255
149 191 255
149 191 255
149 191 255
149 191 255
149 191 255
148 191 255
148 191 255
148 191 255
148 191 255
148 191 255
148 191 255
148 191 255
148 191 255
148 191 255
148 191 255
148 191 255
148 191 255
148 191 255
148 191 255
148 191 255
148 191 255
148 191 255
148 191 255
148 191 255
148 191 255
148 191 255
148 191 255
148 191 255
148 191 255
148 191 255
148 191 255
148 191 255
148 191 255
148 191 255
148 191 255
148 191 255
148 191 255
148 191 255
148 191 255
148 191 255
148 191 255
148 191 255
148 191 255
148 191 255
148 191 255
148 191 255
148 191 255
148 191 255
148 191 255
148 191 255
148 191 255
148 191 255
148 191 255
148 191 255
148 191 255
148 191 255
148 191 255
148 191 255
148 191 255
149 191 255
149 191 255
149 191 255
149 191 255
149 191 255
149 191 255
149 191 255
149 192 255
149 192 255
149 192 255
149 192 255
149 192 255
149 192 255
149 192 255
149 192 255
149 192 255
149 192 255
150 192 255
150 192 255
150 192 255
150 192 255
150 192 255
150 192 255
150 192 255
150 192 255
150 192 255
150 192 255
150 192 255
150 192 255
151 193 255
151 193 255
151 193 255
151 193 255
151 193 255
151 193 255
151 193 255
151 193 255
151 193 255
151 193 255
151 193 255
151 193 255
152 193 255
152 193 255
152 193 255
152 193 255
152 193 255
152 193 255
152 194 255
152 194 255
152 194 255
152 194 255
153 194 255
153 194 255
153 194 255
153 194 255
153 194 255
153 194 255
153 194 255
153 194 255
153 194 255
154 194 255
154 194 255
154 194 255
154 195 255
154 195 255
154 195 255
154 195 255
154 195 255
154 195 255
155 195 255
155 195 255
155 195 255
155 195 255
155 195 255
155 195 255
155 195 255
155 195 255
155 195 255
155 195 255
156 196 255
156 196 255
156 196 255
156 196 255
156 196 255
156 196 255
156 196 255
156 196 255
156 196 255
157 196 255
157 196 255
157 196 255
157 196 255
157 196 255
157 196 255
157 197 255
157 197 255
157 197 255
158 197 255
158 197 255
158 197 255
158 197 255
158 197 255
158 197 255
158 197 255
158 197 255
158 197 255
159 197 255
159 197 255
159 197 255
159 198 255
159 198 255
159 198 255
159 198 255
159 198 255
159 198 255
159 198 255
160 198 255
160 198 255
160 198 255
160 198 255
160 198 255
160 198 255
160 198 255
160 198 255
160 198 255
160 198 255
161 199 255
161 199 255
161 199 255
161 199 255
161 199 255
161 199 255
161 199 255
161 199 255
161 199 255
161 199 255
162 199 255
162 199 255
162 199 255
162 199 255
162 199 255
162 199 255
162 199 255
162 200 255
162 200 255
162 200 255
163 200 255
163 200 255
163 200 255
163 200 255
163 200 255
163 200 255
163 200 255
163 200 255
163 200 255
163 200 255
163 200 255
164 200 255
164 200 255
164 200 255
164 200 255
164 201 255
164 201 255
164 201 255
164 201 255
164 201 255
164 201 255
164 201 255
164 201 255
165 201 255
165 201 255
165 201 255
165 201 255
165 201 255
165 201 255
165 201 255
165 201 255
165 201 255
165 201 255
165 201 255
164 201 255
164 201 255
164 201 255
164 201 255
164 201 255
164 201 255
164 201 255
164 200 255
164 200 255
164 200 255
164 200 255
163 200 255
163 200 255
163 200 255
163 200 255
163 200 255
163 200 255
163 200 255
163 200 255
163 200 255
163 200 255
163 200 255
162 200 255
162 200 255
162 200 255
162 200 255
162 199 255
162 199 255
162 199 255
162 199 255
162 199 255
162 199 255
162 199 255
161 199 255
161 199 255
161 199 255
161 199 255
161 199 255
161 199 255
161 199 255
161 199 255
161 199 255
161 199 255
160 198 255
160 198 255
160 198 255
160 198 255
160 198 255
160 198 255
160 198 255
160 198 255
160 198 255
159 198 255
159 198 255
159 198 255
159 198 255
159 198 255
159 198 255
159 198 255
159 197 255
159 197 255
159 197 255
158 197 255
158 197 255
158 197 255
158 197 255
158 197 255
158 197 255
158 197 255
158 197 255
158 197 255
157 197 255
157 197 255
157 197 255
157 196 255
157 196 255
157 196 255
157 196 255
157 196 255
157 196 255
156 196 255
156 196 255
156 196 255
156 196 255
156 196 255
156 196 255
156 196 255
156 196 255
156 196 255
156 196 255
155 195 255
155 195 255
155 195 255
155 195 255
155 195 255
155 195 255
155 195 255
155 195 255
155 195 255
154 195 255
154 195 255
154 195 255
154 195 255
154 195 255
154 195 255
154 194 255
154 194 255
154 194 255
153 194 255
153 194 255
153 194 255
153 194 255
153 194 255
153 194 255
153 194 255
153 194 255
153 194 255
153 194 255
152 194 255
152 194 255
152 194 255
152 193 255
152 193 255
152 193 255
152 193 255
152 193 255
152 193 255
152 193 255
151 193 255
151 193 255
151 193 255
151 193 255
151 193 255
151 193 255
151 193 255
151 193 255
151 193 255
151 193 255
151 193 255
150 192 255
150 192 255
150 192 255
150 192 255
150 192 255
150 192 255
150 192 255
150 192 255
150 192 255
150 192 255
150 192 255
150 192 255
150 192 255
149 192 255
149 192 255
149 192 255
149 192 255
149 192 255
149 192 255
149 192 255
149 192 255
149 192 255
149 192 255
149 192 255
149 192 255
149 191 255
149 191 255
149 191 255
149 191 255
149 191 255
149 191 255
149 191 255
148 191 255
148 191 255
148 191 255
148 191 255
148 191 255
148 191 255
148 191 255
148 191 255
148 191 255
148 191 255
148 191 255
148 191 255
148 191 255
148 191 255
148 191 255
148 191 255
148 191 255
148 191 255
148 191 255
148 191 255
148 191 255
148 191 255
148 191 255
148 191 255
148 191 255
148 191 255
148 191 255
148 191 255
148 191 255
148 191 255
148 191 255
148 191 255
148 191 255
148 191 255
148 191 255
148 191 255
148 191 255
148 191 255
148 191 255
148 191 255
148 191 255
148 191 255
148 191 255
148 191 255
149 191 255
149 191 255
149 191 255
149 191 255
149 191 255
149 191 255
149 191 255
149 191 255
149 192 255
149 192 255
149 192 255
149 192 255
149 192 255
149 192 255
149 192 255
149 192 255
149 192 255
149 192 255
149 192 255
150 192 255
150 192 255
150 192 255
150 192 255
150 192 255
150 192 255
150 192 255
150 192 255
150 192 255
150 192 255
150 192 255
150 192 255
150 192 255
151 193 255
151 193 255
151 193 255
151 193 255
151 193 255
151 193 255
151 193 255
151 193 255
151 193 255
151 193 255
151 193 255
152 193 255
152 193 255
152 193 255
152 193 255
152 193 255
152 193 255
152 193 255
152 194 255
152 194 255
152 194 255
153 194 255
153 194 255
153 194 255
153 194 255
153 194 255
153 194 255
153 194 255
153 194 255
153 194 255
153 194 255
154 194 255
154 194 255
154 194 255
154 195 255
154 195 255
154 195 255
154 195 255
154 195 255
154 195 255
155 195 255
155 195 255
155 195 255
155 195 255
155 195 255
155 195 255
155 195 255
155 195 255
155 195 255
156 196 255
156 196 255
156 196 255
156 196 255
156 196 255
156 196 255
156 196 255
156 196 255
156 196 255
156 196 255
157 196 255
157 196 255
157 196 255
157 196 255
157 196 255
157 196 255
157 197 255
157 197 255
157 197 255
158 197 255
158 197 255
158 197 255
158 197 255
158 197 255
158 197 255
158 197 255
158 197 255
158 197 255
159 197 255
159 197 255
159 197 255
159 198 255
159 198 255
159 198 255
159 198 255
159 198 255
159 198 255
159 198 255
160 198 255
160 198 255
160 198 255
160 198 255
160 198 255
160 198 255
160 198 255
160 198 255
160 198 255
161 199 255
161 199 255
161 199 255
161 199 255
161 199 255
161 199 255
161 199 255
161 199 255
161 199 255
161 199 255
162 199 255
162 199 255
162 199 255
162 199 255
162 199 255
162 199 255
162 199 255
162 200 255
162 200 255
162 200 255
162 200 255
163 200 255
163 200 255
163 200 255
163 200 255
163 200 255
163 200 255
163 200 255
163 200 255
163 200 255
163 200 255
163 200 255
164 200 255
164 200 255
164 200 255
164 200 255
164 201 255
164 201 255
164 201 255
164 201 255
164 201 255
164 201 255
164 201 255
165 201 255
165 201 255
165 201 255
165 201 255
165 201 255
165 201 255
165 201 255
165 201 255
165 201 255
165 201 255
165 201 255
165 201 255
165 201 255
165 201 255
165 201 255
165 201 255
164 201 255
164 201 255
164 201 255
164 201 255
164 201 255
164 201 255
164 201 255
164 201 255
164 200 255
164 200 255
164 200 255
164 200 255
163 200 255
163 200 255
163 200 255
163 200 255
163 200 255
163 200 255
163 200 255
163 200 255
163 200 255
163 200 255
162 200 255
162 200 255
162 200 255
162 200 255
162 199 255
162 199 255
162 199 255
162 199 255
162 199 255
162 199 255
162 199 255
161 199 255
161 199 255
161 199 255
161 199 255
161 199 255
161 199 255
161 199 255
161 199 255
161 199 255
161 199 255
160 198 255
160 198 255
160 198 255
160 198 255
160 198 255
160 198 255
160 198 255
160 198 255
160 198 255
159 198 255
159 198 255
159 198 255
159 198 255
159 198 255
159 198 255
159 198 255
159 197 255
159 197 255
159 197 255
158 197 255
158 197 255
158 197 255
158 197 255
158 197 255
158 197 255
158 197 255
158 197 255
158 197 255
157 197 255
157 197 255
157 197 255
157 197 255
157 196 255
157 196 255
157 196 255
157 196 255
157 196 255
157 196 255
156 196 255
156 196 255
156 196 255
156 196 255
156 196 255
156 196 255
156 196 255
156 196 255
156 196 255
155 195 255
155 195 255
155 195 255
155 195 255
155 195 255
155 195 255
155 195 255
155 195 255
155 195 255
154 195 255
154 195 255
154 195 255
154 195 255
154 195 255
154 195 255
154 194 255
154 194 255
154 194 255
153 194 255
153 194 255
153 194 255
153 194 255
153 194 255
153 194 255
153 194 255
153 194 255
153 194 255
153 194 255
152 194 255
152 194 255
152 194 255
152 194 255
152 193 255
152 193 255
152 193 255
152 193 255
152 193 255
152 193 255
152 193 255
151 193 255
151 193 255
151 193 255
151 193 255
151 193 255
151 193 255
151 193 255
151 193 255
151 193 255
151 193 255
151 193 255
150 192 255
150 192 255
150 192 255
150 192 255
150 192 255
150 192 255
150 192 255
150 192 255
150 192 255
150 192 255
150 192 255
150 192 255
150 192 255
150 192 255
149 192 255
149 192 255
149 192 255
149 192 255
149 192 255
149 192 255
149 192 255
149 192 255
149 192 255
149 192 255
149 192 255
149 192 255
149 191 255
149 191 255
149 191 255
149 191 255
149 191 255
149 191 255
149 191 255
149 191 255
149 191 255
149 191 255
148 191 255
148 191 255
148 191 255
148 191 255
148 191 255
148 191 255
148 191 255
148 191 255
148 191 255
148 191 255
148 191 255
148 191 255
148 191 255
148 191 255
148 191 255
148 191 255
148 191 255
148 191 255
148 191 255
148 191 255
148 191 255
148 191 255
148 191 255
148 191 255
148 191 255
148 191 255
148 191 255
148 191 255
148 191 255
148 191 255
148 191 255
149 191 255
149 191 255
149 191 255
149 191 255
149 191 255
149 191 255
149 191 255
149 191 255
149 192 255
149 192 255
149 192 255
149 192 255
149 192 255
149 192 255
149 192 255
149 192 255
149 192 255
149 192 255
149 192 255
149 192 255
149 192 255
150 192 255
150 192 255
150 192 255
150 192 255
150 192 255
150 192 255
150 192 255
150 192 255
150 192 255
150 192 255
150 192 255
150 192 255
150 192 255
150 192 255
151 193 255
151 193 255
151 193 255
151 193 255
151 193 255
151 193 255
151 193 255
151 193 255
151 193 255
151 193 255
151 193 255
151 193 255
152 193 255
152 193 255
152 193 255
152 193 255
152 193 255
152 193 255
152 194 255
152 194 255
152 194 255
152 194 255
153 194 255
153 194 255
153 194 255
153 194 255
153 194 255
153 194 255
153 194 255
153 194 255
153 194 255
153 194 255
154 194 255
154 194 255
154 194 255
154 195 255
154 195 255
154 195 255
154 195 255
154 195 255
154 195 255
155 195 255
155 195 255
155 195 255
155 195 255
155 195 255
155 195 255
155 195 255
155 195 255
155 195 255
156 196 255
156 196 255
156 196 255
156 196 255
156 196 255
156 196 255
156 196 255
156 196 255
156 196 255
156 196 255
157 196 255
157 196 255
157 196 255
157 196 255
157 196 255
157 196 255
157 197 255
157 197 255
157 197 255
158 197 255
158 197 255
158 197 255
158 197 255
158 197 255
158 197 255
158 197 255
158 197 255
158 197 255
159 197 255
159 197 255
159 197 255
159 198 255
159 198 255
159 198 255
159 198 255
159 198 255
159 198 255
160 198 255
160 198 255
160 198 255
160 198 255
160 198 255
160 198 255
160 198 255
160 198 255
160 198 255
160 198 255
161 199 255
161 199 255
161 199 255
161 199 255
161 199 255
161 199 255
161 199 255
161 199 255
161 199 255
161 199 255
162 199 255
162 199 255
162 199 255
162 199 255
162 199 255
162 199 255
162 199 255
162 200 255
162 200 255
162 200 255
163 200 255
163 200 255
163 200 255
163 200 255
163 200 255
163 200 255
163 200 255
163 200 255
163 200 255
163 200 255
163 200 255
164 200 255
164 200 255
164 200 255
164 200 255
164 201 255
164 201 255
164 201 255
164 201 255
164 201 255
164 201 255
164 201 255
164 201 255
165 201 255
165 201 255
165 201 255
165 201 255
165 201 255
165 201 255
165 201 255
165 201 255
165 201 255
165 201 255
165 201 255
165 201 255
165 201 255
165 201 255
165 201 255
165 201 255
165 201 255
165 201 255
165 201 255
165 201 255
165 201 255
164 201 255
164 201 255
164 201 255
164 201 255
164 201 255
164 201 255
164 201 255
164 200 255
164 200 255
164 200 255
164 200 255
163 200 255
163 200 255
163 200 255
163 200 255
163 200 255
163 200 255
163 200 255
163 200 255
163 200 255
163 200 255
163 200 255
162 200 255
162 200 255
162 200 255
162 199 255
162 199 255
162 199 255
162 199 255
162 199 255
162 199 255
162 199 255
161 199 255
161 199 255
161 199 255
161 199 255
161 199 255
161 199 255
161 199 255
161 199 255
161 199 255
161 199 255
160 198 255
160 198 255
160 198 255
160 198 255
160 198 255
160 198 255
160 198 255
160 198 255
160 198 255
160 198 255
159 198 255
159 198 255
159 198 255
159 198 255
159 198 255
159 198 255
159 197 255
159 197 255
159 197 255
158 197 255
158 197 255
158 197 255
158 197 255
158 197 255
158 197 255
158 197 255
158 197 255
158 197 255
158 197 255
157 197 255
157 197 255
157 197 255
157 196 255
157 196 255
157 196 255
157 196 255
157 196 255
157 196 255
156 196 255
156 196 255
156 196 255
156 196 255
156 196 255
156 196 255
156 196 255
156 196 255
156 196 255
155 195 255
155 195 255
155 195 255
155 195 255
155 195 255
155 195 255
155 195 255
155 195 255
155 195 255
154 195 255
154 195 255
154 195 255
154 195 255
154 195 255
154 195 255
154 195 255
154 194 255
154 194 255
154 194 255
153 194 255
153 194 255
153 194 255
153 194 255
153 194 255
153 194 255
153 194 255
153 194 255
153 194 255
153 194 255
152 194 255
152 194 255
152 194 255
152 193 255
152 193 255
152 193 255
152 193 255
152 193 255
152 193 255
152 193 255
151 193 255
151 193 255
151 193 255
151 193 255
151 193 255
151 193 255
151 193 255
151 193 255
151 193 255
151 193 255
151 193 255
151 193 255
150 192 255
150 192 255
150 192 255
150 192 255
150 192 255
150 192 255
150 192 255
150 192 255
150 192 255
150 192 255
150 192 255
150 192 255
150 192 255
150 192 255
150 192 255
149 192 255
149 192 255
149 192 255
149 192 255
149 192 255
149 192 255
149 192 255
149 192 255
149 192 255
149 192 255
149 192 255
149 192 255
149 192 255
149 192 255
149 191 255
149 191 255
149 191 255
149 191 255
149 191 255
149 191 255
149 191 255
149 191 255
149 191 255
149 191 255
149 191 255
149 191 255
149 191 255
149 191 255
149 191 255
149 191 255
149 191 255
149 191 255
149 191 255
149 191 255
149 191 255
149 191 255
149 191 255
149 191 255
149 191 255
149 191 255
149 191 255
149 191 255
149 191 255
149 191 255
149 191 255
149 191 255
149 191 255
149 191 255
149 191 255
149 191 255
149 191 255
149 191 255
149 192 255
149 192 255
149 192 255
149 192 255
149 192 255
149 192 255
149 192 255
149 192 255
149 192 255
149 192 255
149 192 255
149 192 255
149 192 255
149 192 255
150 192 255
150 192 255
150 192 255
150 192 255
150 192 255
150 192 255
150 192 255
150 192 255
150 192 255
150 192 255
150 192 255
150 192 255
150 192 255
150 192 255
150 192 255
151 193 255
151 193 255
151 193 255
151 193 255
151 193 255
151 193 255
151 193 255
151 193 255
151 193 255
151 193 255
151 193 255
151 193 255
152 193 255
152 193 255
152 193 255
152 193 255
152 193 255
152 193 255
152 193 255
152 194 255
152 194 255
152 194 255
153 194 255
153 194 255
153 194 255
153 194 255
153 194 255
153 194 255
153 194 255
153 194 255
153 194 255
153 194 255
154 194 255
154 194 255
154 194 255
154 195 255
154 195 255
154 195 255
154 195 255
154 195 255
154 195 255
154 195 255
155 195 255
155 195 255
155 195 255
155 195 255
155 195 255
155 195 255
155 195 255
155 195 255
155 195 255
156 196 255
156 196 255
156 196 255
156 196 255
156 196 255
156 196 255
156 196 255
156 196 255
156 196 255
157 196 255
157 196 255
157 196 255
157 196 255
157 196 255
157 196 255
157 197 255
157 197 255
157 197 255
158 197 255
158 197 255
158 197 255
158 197 255
158 197 255
158 197 255
158 197 255
158 197 255
158 197 255
158 197 255
159 197 255
159 197 255
159 197 255
159 198 255
159 198 255
159 198 255
159 198 255
159 198 255
159 198 255
160 198 255
160 198 255
160 198 255
160 198 255
160 198 255
160 198 255
160 198 255
160 198 255
160 198 255
160 198 255
161 199 255
161 199 255
161 199 255
161 199 255
161 199 255
161 199 255
161 199 255
161 199 255
161 199 255
161 199 255
162 199 255
162 199 255
162 199 255
162 199 255
162 199 255
162 199 255
162 199 255
162 200 255
162 200 255
162 200 255
163 200 255
163 200 255
163 200 255
163 200 255
163 200 255
163 200 255
163 200 255
163 200 255
163 200 255
163 200 255
163 200 255
164 200 255
164 200 255
164 200 255
164 200 255
164 201 255
164 201 255
164 201 255
164 201 255
164 201 255
164 201 255
164 201 255
165 201 255
165 201 255
165 201 255
165 201 255
165 201 255
165 201 255
165 201 255
165 201 255
165 201 255
165 201 255
165 201 255
165 201 255
166 202 255
166 202 255
166 202 255
165 201 255
165 201 255
165 201 255
165 201 255
165 201 255
165 201 255
165 201 255
165 201 255
165 201 255
165 201 255
165 201 255
164 201 255
164 201 255
164 201 255
164 201 255
164 201 255
164 201 255
164 201 255
164 201 255
164 200 255
164 200 255
164 200 255
164 200 255
163 200 255
163 200 255
163 200 255
163 200 255
163 200 255
163 200 255
163 200 255
163 200 255
163 200 255
163 200 255
162 200 255
162 200 255
162 200 255
162 200 255
162 199 255
162 199 255
162 199 255
162 199 255
162 199 255
162 199 255
161 199 255
161 199 255
161 199 255
161 199 255
161 199 255
161 199 255
161 199 255
161 199 255
161 199 255
161 199 255
160 198 255
160 198 255
160 198 255
160 198 255
160 198 255
160 198 255
160 198 255
160 198 255
160 198 255
160 198 255
159 198 255
159 198 255
159 198 255
159 198 255
159 198 255
159 198 255
159 197 255
159 197 255
159 197 255
158 197 255
158 197 255
158 197 255
158 197 255
158 197 255
158 197 255
158 197 255
158 197 255
158 197 255
158 197 255
157 197 255
157 197 255
157 197 255
157 196 255
157 196 255
157 196 255
157 196 255
157 196 255
157 196 255
156 196 255
156 196 255
156 196 255
156 196 255
156 196 255
156 196 255
156 196 255
156 196 255
156 196 255
155 195 255
155 195 255
155 195 255
155 195 255
155 195 255
155 195 255
155 195 255
155 195 255
155 195 255
154 195 255
154 195 255
154 195 255
154 195 255
154 195 255
154 195 255
154 195 255
154 194 255
154 194 255
154 194 255
153 194 255
153 194 255
153 194 255
153 194 255
153 194 255
153 194 255
153 194 255
153 194 255
153 194 255
153 194 255
152 194 255
152 194 255
152 194 255
152 194 255
152 193 255
152 193 255
152 193 255
152 193 255
152 193 255
152 193 255
152 193 255
151 193 255
151 193 255
151 193 255
151 193 255
151 193 255
151 193 255
151 193 255
151 193 255
151 193 255
151 193 255
151 193 255
151 193 255
150 192 255
150 192 255
150 192 255
150 192 255
150 192 255
150 192 255
150 192 255
150 192 255
150 192 255
150 192 255
150 192 255
150 192 255
150 192 255
150 192 255
150 192 255
150 192 255
149 192 255
149 192 255
149 192 255
149 192 255
149 192 255
149 192 255
149 192 255
149 192 255
149 192 255
149 192 255
149 192 255
149 192 255
149 192 255
149 192 255
149 192 255
149 192 255
149 192 255
149 192 255
149 192 255
149 192 255
149 191 255
149 191 255
149 191 255
149 191 255
149 191 255
149 191 255
149 191 255
149 191 255
149 191 255
149 191 255
149 191 255
149 191 255
149 191 255
149 191 255
149 191 255
149 191 255
149 191 255
149 191 255
149 191 255
149 192 255
149 192 255
149 192 255
149 192 255
149 192 255
149 192 255
149 192 255
149 192 255
149 192 255
149 192 255
149 192 255
149 192 255
149 192 255
149 192 255
149 192 255
149 192 255
149 192 255
149 192 255
149 192 255
150 192 255
150 192 255
150 192 255
150 192 255
150 192 255
150 192 255
150 192 255
150 192 255
150 192 255
150 192 255
150 192 255
150 192 255
150 192 255
150 192 255
150 192 255
150 192 255
151 193 255
151 193 255
151 193 255
151 193 255
151 193 255
151 193 255
151 193 255
151 193 255
151 193 255
151 193 255
151 193 255
151 193 255
152 193 255
152 193 255
152 193 255
152 193 255
152 193 255
152 193 255
152 193 255
152 194 255
152 194 255
152 194 255
152 194 255
153 194 255
153 194 255
153 194 255
153 194 255
153 194 255
153 194 255
153 194 255
153 194 255
153 194 255
153 194 255
154 194 255
154 194 255
154 194 255
154 195 255
154 195 255
154 195 255
154 195 255
154 195 255
154 195 255
154 195 255
155 195 255
155 195 255
155 195 255
155 195 255
155 195 255
155 195 255
155 195 255
155 195 255
155 195 255
156 196 255
156 196 255
156 196 255
156 196 255
156 196 255
156 196 255
156 196 255
156 196 255
156 196 255
157 196 255
157 196 255
157 196 255
157 196 255
157 196 255
157 196 255
157 197 255
157 197 255
157 197 255
158 197 255
158 197 255
158 197 255
158 197 255
158 197 255
158 197 255
158 197 255
158 197 255
158 197 255
158 197 255
159 197 255
159 197 255
159 198 255
159 198 255
159 198 255
159 198 255
159 198 255
159 198 255
159 198 255
160 198 255
160 198 255
160 198 255
160 198 255
160 198 255
160 198 255
160 198 255
160 198 255
160 198 255
161 199 255
161 199 255
161 199 255
161 199 255
161 199 255
161 199 255
161 199 255
161 199 255
161 199 255
161 199 255
161 199 255
162 199 255
162 199 255
162 199 255
162 199 255
162 199 255
162 199 255
162 200 255
162 200 255
162 200 255
162 200 255
163 200 255
163 200 255
163 200 255
163 200 255
163 200 255
163 200 255
163 200 255
163 200 255
163 200 255
163 200 255
164 200 255
164 200 255
164 200 255
164 200 255
164 201 255
164 201 255
164 201 255
164 201 255
164 201 255
164 201 255
164 201 255
164 201 255
165 201 255
165 201 255
165 201 255
165 201 255
165 201 255
165 201 255
165 201 255
165 201 255
165 201 255
165 201 255
165 201 255
166 202 255
166 202 255
166 202 255
166 202 255
166 202 255
166 202 255
166 202 255
166 202 255
165 201 255
165 201 255
165 201 255
165 201 255
165 201 255
165 201 255
165 201 255
165 201 255
165 201 255
165 201 255
165 201 255
165 201 255
164 201 255
164 201 255
164 201 255
164 201 255
164 201 255
164 201 255
164 201 255
164 200 255
164 200 255
164 200 255
164 200 255
163 200 255
163 200 255
163 200 255
163 200 255
163 200 255
163 200 255
163 200 255
163 200 255
163 200 255
163 200 255
163 200 255
162 200 255
162 200 255
162 200 255
162 199 255
162 199 255
162 199 255
162 199 255
162 199 255
162 199 255
162 199 255
161 199 255
161 199 255
161 199 255
161 199 255
161 199 255
161 199 255
161 199 255
161 199 255
161 199 255
161 199 255
160 198 255
160 198 255
160 198 255
160 198 255
160 198 255
160 198 255
160 198 255
160 198 255
160 198 255
159 198 255
159 198 255
159 198 255
159 198 255
159 198 255
159 198 255
159 197 255
159 197 255
159 197 255
159 197 255
158 197 255
158 197 255
158 197 255
158 197 255
158 197 255
158 197 255
158 197 255
158 197 255
158 197 255
157 197 255
157 197 255
157 197 255
157 196 255
157 196 255
157 196 255
157 196 255
157 196 255
157 196 255
156 196 255
156 196 255
156 196 255
156 196 255
156 196 255
156 196 255
156 196 255
156 196 255
156 196 255
155 195 255
155 195 255
155 195 255
155 195 255
155 195 255
155 195 255
155 195 255
155 195 255
155 195 255
155 195 255
154 195 255
154 195 255
154 195 255
154 195 255
154 195 255
154 195 255
154 194 255
154 194 255
154 194 255
153 194 255
153 194 255
153 194 255
153 194 255
153 194 255
153 194 255
153 194 255
153 194 255
153 194 255
153 194 255
153 194 255
152 194 255
152 194 255
152 194 255
152 193 255
152 193 255
152 193 255
152 193 255
152 193 255
152 193 255
152 193 255
152 193 255
151 193 255
151 193 255
151 193 255
151 193 255
151 193 255
151 193 255
151 193 255
151 193 255
151 193 255
151 193 255
151 193 255
151 193 255
151 193 255
150 192 255
150 192 255
150 192 255
150 192 255
150 192 255
150 192 255
150 192 255
150 192 255
150 192 255
150 192 255
150 192 255
150 192 255
150 192 255
150 192 255
150 192 255
150 192 255
150 192 255
149 192 255
149 192 255
149 192 255
149 192 255
149 192 255
149 192 255
149 192 255
149 192 255
149 192 255
149 192 255
149 192 255
149 192 255
149 192 255
149 192 255
149 192 255
149 192 255
149 192 255
149 192 255
149 192 255
149 192 255
149 192 255
149 192 255
149 192 255
149 192 255
149 192 255
149 192 255
149 192 255
149 192 255
149 192 255
149 192 255
149 192 255
149 192 255
149 192 255
149 192 255
149 192 255
149 192 255
149 192 255
149 192 255
149 192 255
149 192 255
149 192 255
149 192 255
149 192 255
149 192 255
149 192 255
149 192 255
149 192 255
149 192 255
150 192 255
150 192 255
150 192 255
150 192 255
150 192 255
150 192 255
150 192 255
150 192 255
150 192 255
150 192 255
150 192 255
150 192 255
150 192 255
150 192 255
150 192 255
150 192 255
150 192 255
151 193 255
151 193 255
151 193 255
151 193 255
151 193 255
151 193 255
151 193 255
151 193 255
151 193 255
151 193 255
151 193 255
151 193 255
151 193 255
152 193 255
152 193 255
152 193 255
152 193 255
152 193 255
152 193 255
152 193 255
152 193 255
152 194 255
152 194 255
152 194 255
153 194 255
153 194 255
153 194 255
153 194 255
153 194 255
153 194 255
153 194 255
153 194 255
153 194 255
153 194 255
153 194 255
154 194 255
154 194 255
154 194 255
154 195 255
154 195 255
154 195 255
154 195 255
154 195 255
154 195 255
155 195 255
155 195 255
155 195 255
155 195 255
155 195 255
155 195 255
155 195 255
155 195 255
155 195 255
155 195 255
156 196 255
156 196 255
156 196 255
156 196 255
156 196 255
156 196 255
156 196 255
156 196 255
156 196 255
157 196 255
157 196 255
157 196 255
157 196 255
157 196 255
157 196 255
157 197 255
157 197 255
157 197 255
158 197 255
158 197 255
158 197 255
158 197 255
158 197 255
158 197 255
158 197 255
158 197 255
158 197 255
159 197 255
159 197 255
159 197 255
159 198 255
159 198 255
159 198 255
159 198 255
159 198 255
159 198 255
159 198 255
160 198 255
160 198 255
160 198 255
160 198 255
160 198 255
160 198 255
160 198 255
160 198 255
160 198 255
160 198 255
161 199 255
161 199 255
161 199 255
161 199 255
161 199 255
161 199 255
161 199 255
161 199 255
161 199 255
162 199 255
162 199 255
162 199 255
162 199 255
162 199 255
162 199 255
162 199 255
162 200 255
162 200 255
162 200 255
163 200 255
163 200 255
163 200 255
163 200 255
163 200 255
163 200 255
163 200 255
163 200 255
163 200 255
163 200 255
163 200 255
164 200 255
164 200 255
164 200 255
164 200 255
164 201 255
164 201 255
164 201 255
164 201 255
164 201 255
164 201 255
164 201 255
165 201 255
165 201 255
165 201 255
165 201 255
165 201 255
165 201 255
165 201 255
165 201 255
165 201 255
165 201 255
165 201 255
165 201 255
166 202 255
166 202 255
166 202 255
166 202 255
166 202 255
166 202 255
166 202 255
166 202 255
166 202 255
166 202 255
166 202 255
166 202 255
166 202 255
165 201 255
165 201 255
165 201 255
165 201 255
165 201 255
165 201 255
165 201 255
165 201 255
165 201 255
165 201 255
165 201 255
164 201 255
164 201 255
164 201 255
164 201 255
164 201 255
164 201 255
164 201 255
164 201 255
164 200 255
164 200 255
164 200 255
163 200 255
163 200 255
163 200 255
163 200 255
163 200 255
163 200 255
163 200 255
163 200 255
163 200 255
163 200 255
163 200 255
162 200 255
162 200 255
162 200 255
162 199 255
162 199 255
162 199 255
162 199 255
162 199 255
162 199 255
162 199 255
161 199 255
161 199 255
161 199 255
161 199 255
161 199 255
161 199 255
161 199 255
161 199 255
161 199 255
161 199 255
160 198 255
160 198 255
160 198 255
160 198 255
160 198 255
160 198 255
160 198 255
160 198 255
160 198 255
160 198 255
159 198 255
159 198 255
159 198 255
159 198 255
159 198 255
159 198 255
159 197 255
159 197 255
159 197 255
158 197 255
158 197 255
158 197 255
158 197 255
158 197 255
158 197 255
158 197 255
158 197 255
158 197 255
157 197 255
157 197 255
157 197 255
157 196 255
157 196 255
157 196 255
157 196 255
157 196 255
157 196 255
156 196 255
156 196 255
156 196 255
156 196 255
156 196 255
156 196 255
156 196 255
156 196 255
156 196 255
156 196 255
155 195 255
155 195 255
155 195 255
155 195 255
155 195 255
155 195 255
155 195 255
155 195 255
155 195 255
154 195 255
154 195 255
154 195 255
154 195 255
154 195 255
154 195 255
154 194 255
154 194 255
154 194 255
154 194 255
153 194 255
153 194 255
153 194 255
153 194 255
153 194 255
153 194 255
153 194 255
153 194 255
153 194 255
153 194 255
152 194 255
152 194 255
152 194 255
152 194 255
152 193 255
152 193 255
152 193 255
152 193 255
152 193 255
152 193 255
152 193 255
152 193 255
151 193 255
151 193 255
151 193 255
151 193 255
151 193 255
151 193 255
151 193 255
151 193 255
151 193 255
151 193 255
151 193 255
151 193 255
151 193 255
150 192 255
150 192 255
150 192 255
150 192 255
150 192 255
150 192 255
150 192 255
150 192 255
150 192 255
150 192 255
150 192 255
150 192 255
150 192 255
150 192 255
150 192 255
150 192 255
150 192 255
150 192 255
150 192 255
150 192 255
150 192 255
149 192 255
149 192 255
149 192 255
149 192 255
149 192 255
149 192 255
149 192 255
149 192 255
149 192 255
149 192 255
149 192 255
149 192 255
149 192 255
149 192 255
149 192 255
149 192 255
149 192 255
149 192 255
149 192 255
149 192 255
149 192 255
149 192 255
149 192 255
149 192 255
149 192 255
149 192 255
149 192 255
149 192 255
149 192 255
149 192 255
149 192 255
149 192 255
149 192 255
149 192 255
150 192 255
150 192 255
150 192 255
150 192 255
150 192 255
150 192 255
150 192 255
150 192 255
150 192 255
150 192 255
150 192 255
150 192 255
150 192 255
150 192 255
150 192 255
150 192 255
150 192 255
150 192 255
150 192 255
150 192 255
150 192 255
151 193 255
151 193 255
151 193 255
151 193 255
151 193 255
151 193 255
151 193 255
151 193 255
151 193 255
151 193 255
151 193 255
151 193 255
151 193 255
152 193 255
152 193 255
152 193 255
152 193 255
152 193 255
152 193 255
152 193 255
152 193 255
152 194 255
152 194 255
152 194 255
152 194 255
153 194 255
153 194 255
153 194 255
153 194 255
153 194 255
153 194 255
153 194 255
153 194 255
153 194 255
153 194 255
154 194 255
154 194 255
154 194 255
154 195 255
154 195 255
154 195 255
154 195 255
154 195 255
154 195 255
154 195 255
155 195 255
155 195 255
155 195 255
155 195 255
155 195 255
155 195 255
155 195 255
155 195 255
155 195 255
156 196 255
156 196 255
156 196 255
156 196 255
156 196 255
156 196 255
156 196 255
156 196 255
156 196 255
156 196 255
157 196 255
157 196 255
157 196 255
157 196 255
157 196 255
157 196 255
157 197 255
157 197 255
157 197 255
158 197 255
158 197 255
158 197 255
158 197 255
158 197 255
158 197 255
158 197 255
158 197 255
158 197 255
159 197 255
159 197 255
159 197 255
159 198 255
159 198 255
159 198 255
159 198 255
159 198 255
159 198 255
160 198 255
160 198 255
160 198 255
160 198 255
160 198 255
160 198 255
160 198 255
160 198 255
160 198 255
160 198 255
161 199 255
161 199 255
161 199 255
161 199 255
161 199 255
161 199 255
161 199 255
161 199 255
161 199 255
161 199 255
162 199 255
162 199 255
162 199 255
162 199 255
162 199 255
162 199 255
162 199 255
162 200 255
162 200 255
162 200 255
163 200 255
163 200 255
163 200 255
163 200 255
163 200 255
163 200 255
163 200 255
163 200 255
163 200 255
163 200 255
163 200 255
164 200 255
164 200 255
164 200 255
164 201 255
164 201 255
164 201 255
164 201 255
164 201 255
164 201 255
164 201 255
165 201 255
165 201 255
165 201 255
165 201 255
165 201 255
165 201 255
165 201 255
165 201 255
165 201 255
165 201 255
165 201 255
165 201 255
166 202 255
166 202 255
166 202 255
166 202 255
166 202 255
166 202 255
166 202 255
166 202 255
166 202 255
166 202 255
166 202 255
166 202 255
166 202 255
166 202 255
166 202 255
166 202 255
166 202 255
166 202 255
165 201 255
165 201 255
165 201 255
165 201 255
165 201 255
165 201 255
165 201 255
165 201 255
165 201 255
165 201 255
165 201 255
165 201 255
164 201 255
164 201 255
164 201 255
164 201 255
164 201 255
164 201 255
164 201 255
164 200 255
164 200 255
164 200 255
164 200 255
163 200 255
163 200 255
163 200 255
163 200 255
163 200 255
163 200 255
163 200 255
163 200 255
163 200 255
163 200 255
162 200 255
162 200 255
162 200 255
162 200 255
162 199 255
162 199 255
162 199 255
162 199 255
162 199 255
162 199 255
162 199 255
161 199 255
161 199 255
161 199 255
161 199 255
161 199 255
161 199 255
161 199 255
161 199 255
161 199 255
160 198 255
160 198 255
160 198 255
160 198 255
160 198 255
160 198 255
160 198 255
160 198 255
160 198 255
160 198 255
159 198 255
159 198 255
159 198 255
159 198 255
159 198 255
159 198 255
159 197 255
159 197 255
159 197 255
158 197 255
158 197 255
158 197 255
158 197 255
158 197 255
158 197 255
158 197 255
158 197 255
158 197 255
157 197 255
157 197 255
157 197 255
157 197 255
157 196 255
157 196 255
157 196 255
157 196 255
157 196 255
157 196 255
156 196 255
156 196 255
156 196 255
156 196 255
156 196 255
156 196 255
156 196 255
156 196 255
156 196 255
155 195 255
155 195 255
155 195 255
155 195 255
155 195 255
155 195 255
155 195 255
155 195 255
155 195 255
155 195 255
154 195 255
154 195 255
154 195 255
154 195 255
154 195 255
154 195 255
154 194 255
154 194 255
154 194 255
153 194 255
153 194 255
153 194 255
153 194 255
153 194 255
153 194 255
153 194 255
153 194 255
153 194 255
153 194 255
153 194 255
152 194 255
152 194 255
152 194 255
152 194 255
152 193 255
152 193 255
152 193 255
152 193 255
152 193 255
152 193 255
152 193 255
152 193 255
151 193 255
151 193 255
151 193 255
151 193 255
151 193 255
151 193 255
151 193 255
151 193 255
151 193 255
151 193 255
151 193 255
151 193 255
151 193 255
151 193 255
150 192 255
150 192 255
150 192 255
150 192 255
150 192 255
150 192 255
150 192 255
150 192 255
150 192 255
150 192 255
150 192 255
150 192 255
150 192 255
150 192 255
150 192 255
150 192 255
150 192 255
150 192 255
150 192 255
150 192 255
150 192 255
150 192 255
150 192 255
150 192 255
150 192 255
150 192 255
150 192 255
150 192 255
149 192 255
149 192 255
149 192 255
149 192 255
149 192 255
149 192 255
149 192 255
149 192 255
149 192 255
149 192 255
149 192 255
149 192 255
150 192 255
150 192 255
150 192 255
150 192 255
150 192 255
150 192 255
150 192 255
150 192 255
150 192 255
150 192 255
150 192 255
150 192 255
150 192 255
150 192 255
150 192 255
150 192 255
150 192 255
150 192 255
150 192 255
150 192 255
150 192 255
150 192 255
150 192 255
150 192 255
150 192 255
150 192 255
150 192 255
150 192 255
151 193 255
151 193 255
151 193 255
151 193 255
151 193 255
151 193 255
151 193 255
151 193 255
151 193 255
151 193 255
151 193 255
151 193 255
151 193 255
151 193 255
152 193 255
152 193 255
152 193 255
152 193 255
152 193 255
152 193 255
152 193 255
152 193 255
152 194 255
152 194 255
152 194 255
152 194 255
153 194 255
153 194 255
153 194 255
153 194 255
153 194 255
153 194 255
153 194 255
153 194 255
153 194 255
153 194 255
153 194 255
154 194 255
154 194 255
154 194 255
154 195 255
154 195 255
154 195 255
154 195 255
154 195 255
154 195 255
155 195 255
155 195 255
155 195 255
155 195 255
155 195 255
155 195 255
155 195 255
155 195 255
155 195 255
155 195 255
156 196 255
156 196 255
156 196 255
156 196 255
156 196 255
156 196 255
156 196 255
156 196 255
156 196 255
157 196 255
157 196 255
157 196 255
157 196 255
157 196 255
157 196 255
157 196 255
157 197 255
157 197 255
158 197 255
158 197 255
158 197 255
158 197 255
158 197 255
158 197 255
158 197 255
158 197 255
158 197 255
158 197 255
159 197 255
159 197 255
159 197 255
159 198 255
159 198 255
159 198 255
159 198 255
159 198 255
159 198 255
160 198 255
160 198 255
160 198 255
160 198 255
160 198 255
160 198 255
160 198 255
160 198 255
160 198 255
160 198 255
161 199 255
161 199 255
161 199 255
161 199 255
161 199 255
161 199 255
161 199 255
161 199 255
161 199 255
161 199 255
162 199 255
162 199 255
162 199 255
162 199 255
162 199 255
162 199 255
162 200 255
162 200 255
162 200 255
162 200 255
163 200 255
163 200 255
163 200 255
163 200 255
163 200 255
163 200 255
163 200 255
163 200 255
163 200 255
163 200 255
164 200 255
164 200 255
164 200 255
164 200 255
164 201 255
164 201 255
164 201 255
164 201 255
164 201 255
164 201 255
164 201 255
165 201 255
165 201 255
165 201 255
165 201 255
165 201 255
165 201 255
165 201 255
165 201 255
165 201 255
165 201 255
165 201 255
165 201 255
166 202 255
166 202 255
166 202 255
166 202 255
166 202 255
166 202 255
166 202 255
166 202 255
166 202 255
166 202 255
167 202 255
166 202 255
166 202 255
166 202 255
166 202 255
166 202 255
166 202 255
166 202 255
166 202 255
166 202 255
166 202 255
166 202 255
166 202 255
165 201 255
165 201 255
165 201 255
165 201 255
165 201 255
165 201 255
165 201 255
165 201 255
165 201 255
165 201 255
165 201 255
164 201 255
164 201 255
164 201 255
164 201 255
164 201 255
164 201 255
164 201 255
164 201 255
164 200 255
164 200 255
164 200 255
163 200 255
163 200 255
163 200 255
163 200 255
163 200 255
163 200 255
163 200 255
163 200 255
163 200 255
163 200 255
163 200 255
162 200 255
162 200 255
162 200 255
162 199 255
162 199 255
162 199 255
162 199 255
162 199 255
162 199 255
162 199 255
161 199 255
161 199 255
161 199 255
161 199 255
161 199 255
161 199 255
161 199 255
161 199 255
161 199 255
161 199 255
160 198 255
160 198 255
160 198 255
160 198 255
160 198 255
160 198 255
160 198 255
160 198 255
160 198 255
159 198 255
159 198 255
159 198 255
159 198 255
159 198 255
159 198 255
159 198 255
159 197 255
159 197 255
159 197 255
158 197 255
158 197 255
158 197 255
158 197 255
158 197 255
158 197 255
158 197 255
158 197 255
158 197 255
157 197 255
157 197 255
157 197 255
157 196 255
157 196 255
157 196 255
157 196 255
157 196 255
157 196 255
156 196 255
156 196 255
156 196 255
156 196 255
156 196 255
156 196 255
156 196 255
156 196 255
156 196 255
155 195 255
155 195 255
155 195 255
155 195 255
155 195 255
155 195 255
155 195 255
155 195 255
155 195 255
155 195 255
154 195 255
154 195 255
154 195 255
154 195 255
154 195 255
154 195 255
154 194 255
154 194 255
154 194 255
154 194 255
153 194 255
153 194 255
153 194 255
153 194 255
153 194 255
153 194 255
153 194 255
153 194 255
153 194 255
153 194 255
153 194 255
152 194 255
152 194 255
152 194 255
152 194 255
152 193 255
152 193 255
152 193 255
152 193 255
152 193 255
152 193 255
152 193 255
152 193 255
151 193 255
151 193 255
151 193 255
151 193 255
151 193 255
151 193 255
151 193 255
151 193 255
151 193 255
151 193 255
151 193 255
151 193 255
151 193 255
151 193 255
151 193 255
151 193 255
150 192 255
150 192 255
150 192 255
150 192 255
150 192 255
150 192 255
150 192 255
150 192 255
150 192 255
150 192 255
150 192 255
150 192 255
150 192 255
150 192 255
150 192 255
150 192 255
150 192 255
150 192 255
150 192 255
150 192 255
150 192 255
150 192 255
150 192 255
150 192 255
150 192 255
150 192 255
150 192 255
150 192 255
150 192 255
150 192 255
150 192 255
150 192 255
150 192 255
150 192 255
150 192 255
150 192 255
150 192 255
150 192 255
150 192 255
150 192 255
150 192 255
150 192 255
150 192 255
150 192 255
150 192 255
150 192 255
150 192 255
150 192 255
150 192 255
150 192 255
150 192 255
150 192 255
150 192 255
150 192 255
150 192 255
150 192 255
150 192 255
150 192 255
151 193 255
151 193 255
151 193 255
151 193 255
151 193 255
151 193 255
151 193 255
151 193 255
151 193 255
151 193 255
151 193 255
151 193 255
151 193 255
151 193 255
151 193 255
151 193 255
152 193 255
152 193 255
152 193 255
152 193 255
152 193 255
152 193 255
152 193 255
152 193 255
152 194 255
152 194 255
152 194 255
152 194 255
153 194 255
153 194 255
153 194 255
153 194 255
153 194 255
153 194 255
153 194 255
153 194 255
153 194 255
153 194 255
153 194 255
154 194 255
154 194 255
154 194 255
154 195 255
154 195 255
154 195 255
154 195 255
154 195 255
154 195 255
154 195 255
155 195 255
155 195 255
155 195 255
155 195 255
155 195 255
155 195 255
155 195 255
155 195 255
155 195 255
156 196 255
156 196 255
156 196 255
156 196 255
156 196 255
156 196 255
156 196 255
156 196 255
156 196 255
156 196 255
157 196 255
157 196 255
157 196 255
157 196 255
157 196 255
157 196 255
157 197 255
157 197 255
157 197 255
158 197 255
158 197 255
158 197 255
158 197 255
158 197 255
158 197 255
158 197 255
158 197 255
158 197 255
159 197 255
159 197 255
159 197 255
159 197 255
159 198 255
159 198 255
159 198 255
159 198 255
159 198 255
159 198 255
160 198 255
160 198 255
160 198 255
160 198 255
160 198 255
160 198 255
160 198 255
160 198 255
160 198 255
161 199 255
161 199 255
161 199 255
161 199 255
161 199 255
161 199 255
161 199 255
161 199 255
161 199 255
161 199 255
162 199 255
162 199 255
162 199 255
162 199 255
162 199 255
162 199 255
162 199 255
162 200 255
162 200 255
162 200 255
163 200 255
163 200 255
163 200 255
163 200 255
163 200 255
163 200 255
163 200 255
163 200 255
163 200 255
163 200 255
163 200 255
164 200 255
164 200 255
164 200 255
164 201 255
164 201 255
164 201 255
164 201 255
164 201 255
164 201 255
164 201 255
164 201 255
165 201 255
165 201 255
165 201 255
165 201 255
165 201 255
165 201 255
165 201 255
165 201 255
165 201 255
165 201 255
165 201 255
166 202 255
166 202 255
166 202 255
166 202 255
166 202 255
166 202 255
166 202 255
166 202 255
166 202 255
166 202 255
166 202 255
166 202 255
167 202 255
167 202 255
167 202 255
167 202 255
167 202 255
166 202 255
166 202 255
166 202 255
166 202 255
166 202 255
166 202 255
166 202 255
166 202 255
166 202 255
166 202 255
166 202 255
166 202 255
165 201 255
165 201 255
165 201 255
165 201 255
165 201 255
165 201 255
165 201 255
165 201 255
165 201 255
165 201 255
165 201 255
164 201 255
164 201 255
164 201 255
164 201 255
164 201 255
164 201 255
164 201 255
164 200 255
164 200 255
164 200 255
164 200 255
163 200 255
163 200 255
163 200 255
163 200 255
163 200 255
163 200 255
163 200 255
163 200 255
163 200 255
163 200 255
162 200 255
162 200 255
162 200 255
162 200 255
162 199 255
162 199 255
162 199 255
162 199 255
162 199 255
162 199 255
162 199 255
161 199 255
161 199 255
161 199 255
161 199 255
161 199 255
161 199 255
161 199 255
161 199 255
161 199 255
160 198 255
160 198 255
160 198 255
160 198 255
160 198 255
160 198 255
160 198 255
160 198 255
160 198 255
159 198 255
159 198 255
159 198 255
159 198 255
159 198 255
159 198 255
159 198 255
159 197 255
159 197 255
159 197 255
158 197 255
158 197 255
158 197 255
158 197 255
158 197 255
158 197 255
158 197 255
158 197 255
158 197 255
157 197 255
157 197 255
157 197 255
157 196 255
157 196 255
157 196 255
157 196 255
157 196 255
157 196 255
156 196 255
156 196 255
156 196 255
156 196 255
156 196 255
156 196 255
156 196 255
156 196 255
156 196 255
156 196 255
155 195 255
155 195 255
155 195 255
155 195 255
155 195 255
155 195 255
155 195 255
155 195 255
155 195 255
155 195 255
154 195 255
154 195 255
154 195 255
154 195 255
154 195 255
154 195 255
154 194 255
154 194 255
154 194 255
154 194 255
153 194 255
153 194 255
153 194 255
153 194 255
153 194 255
153 194 255
153 194 255
153 194 255
153 194 255
153 194 255
153 194 255
152 194 255
152 194 255
152 194 255
152 194 255
152 193 255
152 193 255
152 193 255
152 193 255
152 193 255
152 193 255
152 193 255
152 193 255
152 193 255
151 193 255
151 193 255
151 193 255
151 193 255
151 193 255
151 193 255
151 193 255
151 193 255
151 193 255
151 193 255
151 193 255
151 193 255
151 193 255
151 193 255
151 193 255
151 193 255
151 193 255
150 192 255
150 192 255
150 192 255
150 192 255
150 192 255
150 192 255
150 192 255
150 192 255
150 192 255
150 192 255
150 192 255
150 192 255
150 192 255
150 192 255
150 192 255
150 192 255
150 192 255
150 192 255
150 192 255
150 192 255
150 192 255
150 192 255
150 192 255
150 192 255
150 192 255
150 192 255
150 192 255
150 192 255
150 192 255
150 192 255
150 192 255
150 192 255
150 192 255
150 192 255
150 192 255
150 192 255
150 192 255
150 192 255
150 192 255
150 192 255
150 192 255
150 192 255
150 192 255
150 192 255
150 192 255
150 192 255
150 192 255
150 192 255
151 193 255
151 193 255
151 193 255
151 193 255
151 193 255
151 193 255
151 193 255
151 193 255
151 193 255
151 193 255
151 193 255
151 193 255
151 193 255
151 193 255
151 193 255
151 193 255
151 193 255
152 193 255
152 193 255
152 193 255
152 193 255
152 193 255
152 193 255
152 193 255
152 193 255
152 193 255
152 194 255
152 194 255
152 194 255
152 194 255
153 194 255
153 194 255
153 194 255
153 194 255
153 194 255
153 194 255
153 194 255
153 194 255
153 194 255
153 194 255
153 194 255
154 194 255
154 194 255
154 194 255
154 194 255
154 195 255
154 195 255
154 195 255
154 195 255
154 195 255
154 195 255
154 195 255
155 195 255
155 195 255
155 195 255
155 195 255
155 195 255
155 195 255
155 195 255
155 195 255
155 195 255
156 196 255
156 196 255
156 196 255
156 196 255
156 196 255
156 196 255
156 196 255
156 196 255
156 196 255
156 196 255
157 196 255
157 196 255
157 196 255
157 196 255
157 196 255
157 196 255
157 197 255
157 197 255
157 197 255
158 197 255
158 197 255
158 197 255
158 197 255
158 197 255
158 197 255
158 197 255
158 197 255
158 197 255
159 197 255
159 197 255
159 197 255
159 198 255
159 198 255
159 198 255
159 198 255
159 198 255
159 198 255
160 198 255
160 198 255
160 198 255
160 198 255
160 198 255
160 198 255
160 198 255
160 198 255
160 198 255
160 198 255
161 199 255
161 199 255
161 199 255
161 199 255
161 199 255
161 199 255
161 199 255
161 199 255
161 199 255
161 199 255
162 199 255
162 199 255
162 199 255
162 199 255
162 199 255
162 199 255
162 200 255
162 200 255
162 200 255
162 200 255
163 200 255
163 200 255
163 200 255
163 200 255
163 200 255
163 200 255
163 200 255
163 200 255
163 200 255
163 200 255
164 200 255
164 200 255
164 200 255
164 200 255
164 201 255
164 201 255
164 201 255
164 201 255
164 201 255
164 201 255
164 201 255
165 201 255
165 201 255
165 201 255
165 201 255
165 201 255
165 201 255
165 201 255
165 201 255
165 201 255
165 201 255
165 201 255
166 202 255
166 202 255
166 202 255
166 202 255
166 202 255
166 202 255
166 202 255
166 202 255
166 202 255
166 202 255
166 202 255
166 202 255
167 202 255
167 202 255
167 202 255
167 202 255
167 202 255
167 202 255
167 202 255
167 202 255
167 202 255
167 202 255
167 202 255
166 202 255
166 202 255
166 202 255
166 202 255
166 202 255
166 202 255
166 202 255
166 202 255
166 202 255
166 202 255
166 202 255
165 201 255
165 201 255
165 201 255
165 201 255
165 201 255
165 201 255
165 201 255
165 201 255
165 201 255
165 201 255
165 201 255
165 201 255
164 201 255
164 201 255
164 201 255
164 201 255
164 201 255
164 201 255
164 201 255
164 200 255
164 200 255
164 200 255
163 200 255
163 200 255
163 200 255
163 200 255
163 200 255
163 200 255
163 200 255
163 200 255
163 200 255
163 200 255
163 200 255
162 200 255
162 200 255
162 200 255
162 199 255
162 199 255
162 199 255
162 199 255
162 199 255
162 199 255
162 199 255
161 199 255
161 199 255
161 199 255
161 199 255
161 199 255
161 199 255
161 199 255
161 199 255
161 199 255
160 198 255
160 198 255
160 198 255
160 198 255
160 198 255
160 198 255
160 198 255
160 198 255
160 198 255
160 198 255
159 198 255
159 198 255
159 198 255
159 198 255
159 198 255
159 198 255
159 197 255
159 197 255
159 197 255
158 197 255
158 197 255
158 197 255
158 197 255
158 197 255
158 197 255
158 197 255
158 197 255
158 197 255
157 197 255
157 197 255
157 197 255
157 197 255
157 196 255
157 196 255
157 196 255
157 196 255
157 196 255
157 196 255
156 196 255
156 196 255
156 196 255
156 196 255
156 196 255
156 196 255
156 196 255
156 196 255
156 196 255
155 195 255
155 195 255
155 195 255
155 195 255
155 195 255
155 195 255
155 195 255
155 195 255
155 195 255
155 195 255
154 195 255
154 195 255
154 195 255
154 195 255
154 195 255
154 195 255
154 195 255
154 194 255
154 194 255
154 194 255
153 194 255
153 194 255
153 194 255
153 194 255
153 194 255
153 194 255
153 194 255
153 194 255
153 194 255
153 194 255
153 194 255
153 194 255
152 194 255
152 194 255
152 194 255
152 194 255
152 193 255
152 193 255
152 193 255
152 193 255
152 193 255
152 193 255
152 193 255
152 193 255
152 193 255
152 193 255
151 193 255
151 193 255
151 193 255
151 193 255
151 193 255
151 193 255
151 193 255
151 193 255
151 193 255
151 193 255
151 193 255
151 193 255
151 193 255
151 193 255
151 193 255
151 193 255
151 193 255
151 193 255
151 193 255
150 192 255
150 192 255
150 192 255
150 192 255
150 192 255
150 192 255
150 192 255
150 192 255
150 192 255
150 192 255
150 192 255
150 192 255
150 192 255
150 192 255
150 192 255
150 192 255
150 192 255
150 192 255
150 192 255
150 192 255
150 192 255
150 192 255
150 192 255
150 192 255
150 192 255
150 192 255
150 192 255
150 192 255
150 192 255
150 192 255
150 192 255
150 192 255
150 192 255
150 192 255
150 192 255
150 192 255
151 193 255
151 193 255
151 193 255
151 193 255
151 193 255
151 193 255
151 193 255
151 193 255
151 193 255
151 193 255
151 193 255
151 193 255
151 193 255
151 193 255
151 193 255
151 193 255
151 193 255
151 193 255
151 193 255
151 193 255
152 193 255
152 193 255
152 193 255
152 193 255
152 193 255
152 193 255
152 193 255
152 193 255
152 193 255
152 194 255
152 194 255
152 194 255
152 194 255
153 194 255
153 194 255
153 194 255
153 194 255
153 194 255
153 194 255
153 194 255
153 194 255
153 194 255
153 194 255
153 194 255
153 194 255
154 194 255
154 194 255
154 194 255
154 195 255
154 195 255
154 195 255
154 195 255
154 195 255
154 195 255
154 195 255
155 195 255
155 195 255
155 195 255
155 195 255
155 195 255
155 195 255
155 195 255
155 195 255
155 195 255
155 195 255
156 196 255
156 196 255
156 196 255
156 196 255
156 196 255
156 196 255
156 196 255
156 196 255
156 196 255
157 196 255
157 196 255
157 196 255
157 196 255
157 196 255
157 196 255
157 197 255
157 197 255
157 197 255
157 197 255
158 197 255
158 197 255
158 197 255
158 197 255
158 197 255
158 197 255
158 197 255
158 197 255
158 197 255
159 197 255
159 197 255
159 197 255
159 198 255
159 198 255
159 198 255
159 198 255
159 198 255
159 198 255
160 198 255
160 198 255
160 198 255
160 198 255
160 198 255
160 198 255
160 198 255
160 198 255
160 198 255
160 198 255
161 199 255
161 199 255
161 199 255
161 199 255
161 199 255
161 199 255
161 199 255
161 199 255
161 199 255
162 199 255
162 199 255
162 199 255
162 199 255
162 199 255
162 199 255
162 199 255
162 200 255
162 200 255
162 200 255
163 200 255
163 200 255
163 200 255
163 200 255
163 200 255
163 200 255
163 200 255
163 200 255
163 200 255
163 200 255
163 200 255
164 200 255
164 200 255
164 200 255
164 201 255
164 201 255
164 201 255
164 201 255
164 201 255
164 201 255
164 201 255
165 201 255
165 201 255
165 201 255
165 201 255
165 201 255
165 201 255
165 201 255
165 201 255
165 201 255
165 201 255
165 201 255
165 201 255
166 202 255
166 202 255
166 202 255
166 202 255
166 202 255
166 202 255
166 202 255
166 202 255
166 202 255
166 202 255
166 202 255
166 202 255
167 202 255
167 202 255
167 202 255
167 202 255
167 202 255
167 202 255
167 203 255
167 202 255
167 202 255
167 202 255
167 202 255
167 202 255
167 202 255
167 202 255
167 202 255
166 202 255
166 202 255
166 202 255
166 202 255
166 202 255
166 202 255
166 202 255
166 202 255
166 202 255
166 202 255
166 202 255
166 202 255
165 201 255
165 201 255
165 201 255
165 201 255
165 201 255
165 201 255
165 201 255
165 201 255
165 201 255
165 201 255
165 201 255
164 201 255
164 201 255
164 201 255
164 201 255
164 201 255
164 201 255
164 201 255
164 200 255
164 200 255
164 200 255
164 200 255
163 200 255
163 200 255
163 200 255
163 200 255
163 200 255
163 200 255
163 200 255
163 200 255
163 200 255
163 200 255
162 200 255
162 200 255
162 200 255
162 200 255
162 199 255
162 199 255
162 199 255
162 199 255
162 199 255
162 199 255
161 199 255
161 199 255
161 199 255
161 199 255
161 199 255
161 199 255
161 199 255
161 199 255
161 199 255
161 199 255
160 198 255
160 198 255
160 198 255
160 198 255
160 198 255
160 198 255
160 198 255
160 198 255
160 198 255
159 198 255
159 198 255
159 198 255
159 198 255
159 198 255
159 198 255
159 197 255
159 197 255
159 197 255
159 197 255
158 197 255
158 197 255
158 197 255
158 197 255
158 197 255
158 197 255
158 197 255
158 197 255
158 197 255
157 197 255
157 197 255
157 197 255
157 196 255
157 196 255
157 196 255
157 196 255
157 196 255
157 196 255
156 196 255
156 196 255
156 196 255
156 196 255
156 196 255
156 196 255
156 196 255
156 196 255
156 196 255
156 196 255
155 195 255
155 195 255
155 195 255
155 195 255
155 195 255
155 195 255
155 195 255
155 195 255
155 195 255
155 195 255
154 195 255
154 195 255
154 195 255
154 195 255
154 195 255
154 195 255
154 195 255
154 194 255
154 194 255
154 194 255
153 194 255
153 194 255
153 194 255
153 194 255
153 194 255
153 194 255
153 194 255
153 194 255
153 194 255
153 194 255
153 194 255
153 194 255
152 194 255
152 194 255
152 194 255
152 194 255
152 193 255
152 193 255
152 193 255
152 193 255
152 193 255
152 193 255
152 193 255
152 193 255
152 193 255
152 193 255
152 193 255
151 193 255
151 193 255
151 193 255
151 193 255
151 193 255
151 193 255
151 193 255
151 193 255
151 193 255
151 193 255
151 193 255
151 193 255
151 193 255
151 193 255
151 193 255
151 193 255
151 193 255
151 193 255
151 193 255
151 193 255
151 193 255
151 193 255
151 193 255
151 193 255
151 193 255
151 193 255
150 192 255
151 193 255
150 192 255
150 192 255
150 192 255
150 192 255
150 192 255
150 192 255
150 192 255
150 192 255
150 192 255
150 192 255
150 192 255
150 192 255
151 193 255
151 193 255
151 193 255
151 193 255
151 193 255
151 193 255
151 193 255
151 193 255
151 193 255
151 193 255
151 193 255
151 193 255
151 193 255
151 193 255
151 193 255
151 193 255
151 193 255
151 193 255
151 193 255
151 193 255
151 193 255
151 193 255
151 193 255
151 193 255
151 193 255
151 193 255
152 193 255
152 193 255
152 193 255
152 193 255
152 193 255
152 193 255
152 193 255
152 193 255
152 193 255
152 193 255
152 193 255
152 194 255
152 194 255
152 194 255
152 194 255
153 194 255
153 194 255
153 194 255
153 194 255
153 194 255
153 194 255
153 194 255
153 194 255
153 194 255
153 194 255
153 194 255
153 194 255
154 194 255
154 194 255
154 194 255
154 195 255
154 195 255
154 195 255
154 195 255
154 195 255
154 195 255
154 195 255
155 195 255
155 195 255
155 195 255
155 195 255
155 195 255
155 195 255
155 195 255
155 195 255
155 195 255
155 195 255
156 196 255
156 196 255
156 196 255
156 196 255
156 196 255
156 196 255
156 196 255
156 196 255
156 196 255
156 196 255
157 196 255
157 196 255
157 196 255
157 196 255
157 196 255
157 196 255
157 197 255
157 197 255
157 197 255
158 197 255
158 197 255
158 197 255
158 197 255
158 197 255
158 197 255
158 197 255
158 197 255
158 197 255
159 197 255
159 197 255
159 197 255
159 197 255
159 198 255
159 198 255
159 198 255
159 198 255
159 198 255
159 198 255
160 198 255
160 198 255
160 198 255
160 198 255
160 198 255
160 198 255
160 198 255
160 198 255
160 198 255
161 199 255
161 199 255
161 199 255
161 199 255
161 199 255
161 199 255
161 199 255
161 199 255
161 199 255
161 199 255
162 199 255
162 199 255
162 199 255
162 199 255
162 199 255
162 199 255
162 199 255
162 200 255
162 200 255
162 200 255
163 200 255
163 200 255
163 200 255
163 200 255
163 200 255
163 200 255
163 200 255
163 200 255
163 200 255
163 200 255
164 200 255
164 200 255
164 200 255
164 201 255
164 201 255
164 201 255
164 201 255
164 201 255
164 201 255
164 201 255
164 201 255
165 201 255
165 201 255
165 201 255
165 201 255
165 201 255
165 201 255
165 201 255
165 201 255
165 201 255
165 201 255
165 201 255
166 202 255
166 202 255
166 202 255
166 202 255
166 202 255
166 202 255
166 202 255
166 202 255
166 202 255
166 202 255
166 202 255
166 202 255
167 202 255
167 202 255
167 202 255
167 202 255
167 202 255
167 202 255
167 202 255
167 202 255
167 203 255
167 203 255
167 203 255
167 203 255
167 203 255
167 202 255
167 202 255
167 202 255
167 202 255
167 202 255
167 202 255
167 202 255
167 202 255
166 202 255
166 202 255
166 202 255
166 202 255
166 202 255
166 202 255
166 202 255
166 202 255
166 202 255
166 202 255
166 202 255
166 202 255
165 201 255
165 201 255
165 201 255
165 201 255
165 201 255
165 201 255
165 201 255
165 201 255
165 201 255
165 201 255
165 201 255
164 201 255
164 201 255
164 201 255
164 201 255
164 201 255
164 201 255
164 201 255
164 200 255
164 200 255
164 200 255
163 200 255
163 200 255
163 200 255
163 200 255
163 200 255
163 200 255
163 200 255
163 200 255
163 200 255
163 200 255
163 200 255
162 200 255
162 200 255
162 200 255
162 199 255
162 199 255
162 199 255
162 199 255
162 199 255
162 199 255
162 199 255
161 199 255
161 199 255
161 199 255
161 199 255
161 199 255
161 199 255
161 199 255
161 199 255
161 199 255
160 198 255
160 198 255
160 198 255
160 198 255
160 198 255
160 198 255
160 198 255
160 198 255
160 198 255
160 198 255
159 198 255
159 198 255
159 198 255
159 198 255
159 198 255
159 198 255
159 197 255
159 197 255
159 197 255
158 197 255
158 197 255
158 197 255
158 197 255
158 197 255
158 197 255
158 197 255
158 197 255
158 197 255
157 197 255
157 197 255
157 197 255
157 196 255
157 196 255
157 196 255
157 196 255
157 196 255
157 196 255
157 196 255
156 196 255
156 196 255
156 196 255
156 196 255
156 196 255
156 196 255
156 196 255
156 196 255
156 196 255
155 195 255
155 195 255
155 195 255
155 195 255
155 195 255
155 195 255
155 195 255
155 195 255
155 195 255
155 195 255
154 195 255
154 195 255
154 195 255
154 195 255
154 195 255
154 195 255
154 195 255
154 195 255
154 194 255
154 194 255
154 194 255
153 194 255
153 194 255
153 194 255
153 194 255
153 194 255
153 194 255
153 194 255
153 194 255
153 194 255
153 194 255
153 194 255
153 194 255
152 194 255
152 194 255
152 194 255
152 194 255
152 194 255
152 193 255
152 193 255
152 193 255
152 193 255
152 193 255
152 193 255
152 193 255
152 193 255
152 193 255
152 193 255
152 193 255
151 193 255
151 193 255
151 193 255
151 193 255
151 193 255
151 193 255
151 193 255
151 193 255
151 193 255
151 193 255
151 193 255
151 193 255
151 193 255
151 193 255
151 193 255
151 193 255
151 193 255
151 193 255
151 193 255
151 193 255
151 193 255
151 193 255
151 193 255
151 193 255
151 193 255
151 193 255
151 193 255
151 193 255
151 193 255
151 193 255
151 193 255
151 193 255
151 193 255
151 193 255
151 193 255
151 193 255
151 193 255
151 193 255
151 193 255
151 193 255
151 193 255
151 193 255
151 193 255
151 193 255
151 193 255
151 193 255
151 193 255
151 193 255
151 193 255
151 193 255
151 193 255
151 193 255
151 193 255
151 193 255
151 193 255
151 193 255
151 193 255
151 193 255
152 193 255
152 193 255
152 193 255
152 193 255
152 193 255
152 193 255
152 193 255
152 193 255
152 193 255
152 193 255
152 193 255
152 194 255
152 194 255
152 194 255
152 194 255
153 194 255
153 194 255
153 194 255
153 194 255
153 194 255
153 194 255
153 194 255
153 194 255
153 194 255
153 194 255
153 194 255
153 194 255
153 194 255
154 194 255
154 194 255
154 194 255
154 195 255
154 195 255
154 195 255
154 195 255
154 195 255
154 195 255
154 195 255
154 195 255
155 195 255
155 195 255
155 195 255
155 195 255
155 195 255
155 195 255
155 195 255
155 195 255
155 195 255
155 195 255
156 196 255
156 196 255
156 196 255
156 196 255
156 196 255
156 196 255
156 196 255
156 196 255
156 196 255
157 196 255
157 196 255
157 196 255
157 196 255
157 196 255
157 196 255
157 196 255
157 197 255
157 197 255
157 197 255
158 197 255
158 197 255
158 197 255
158 197 255
158 197 255
158 197 255
158 197 255
158 197 255
158 197 255
159 197 255
159 197 255
159 197 255
159 198 255
159 198 255
159 198 255
159 198 255
159 198 255
159 198 255
160 198 255
160 198 255
160 198 255
160 198 255
160 198 255
160 198 255
160 198 255
160 198 255
160 198 255
160 198 255
161 199 255
161 199 255
161 199 255
161 199 255
161 199 255
161 199 255
161 199 255
161 199 255
161 199 255
162 199 255
162 199 255
162 199 255
162 199 255
162 199 255
162 199 255
162 199 255
162 200 255
162 200 255
162 200 255
163 200 255
163 200 255
163 200 255
163 200 255
163 200 255
163 200 255
163 200 255
163 200 255
163 200 255
163 200 255
163 200 255
164 200 255
164 200 255
164 200 255
164 201 255
164 201 255
164 201 255
164 201 255
164 201 255
164 201 255
164 201 255
165 201 255
165 201 255
165 201 255
165 201 255
165 201 255
165 201 255
165 201 255
165 201 255
165 201 255
165 201 255
165 201 255
166 202 255
166 202 255
166 202 255
166 202 255
166 202 255
166 202 255
166 202 255
166 202 255
166 202 255
166 202 255
166 202 255
166 202 255
167 202 255
167 202 255
167 202 255
167 202 255
167 202 255
167 202 255
167 202 255
167 202 255
167 203 255
167 203 255
167 203 255
167 203 255
168 203 255
168 203 255
167 203 255
167 203 255
167 203 255
167 203 255
167 202 255
167 202 255
167 202 255
167 202 255
167 202 255
167 202 255
167 202 255
167 202 255
167 202 255
166 202 255
166 202 255
166 202 255
166 202 255
166 202 255
166 202 255
166 202 255
166 202 255
166 202 255
166 202 255
166 202 255
165 201 255
165 201 255
165 201 255
165 201 255
165 201 255
165 201 255
165 201 255
165 201 255
165 201 255
165 201 255
165 201 255
164 201 255
164 201 255
164 201 255
164 201 255
164 201 255
164 201 255
164 201 255
164 200 255
164 200 255
164 200 255
164 200 255
163 200 255
163 200 255
163 200 255
163 200 255
163 200 255
163 200 255
163 200 255
163 200 255
163 200 255
163 200 255
162 200 255
162 200 255
162 200 255
162 199 255
162 199 255
162 199 255
162 199 255
162 199 255
162 199 255
162 199 255
161 199 255
161 199 255
161 199 255
161 199 255
161 199 255
161 199 255
161 199 255
161 199 255
161 199 255
161 199 255
160 198 255
160 198 255
160 198 255
160 198 255
160 198 255
160 198 255
160 198 255
160 198 255
160 198 255
159 198 255
159 198 255
159 198 255
159 198 255
159 198 255
159 198 255
159 197 255
159 197 255
159 197 255
159 197 255
158 197 255
158 197 255
158 197 255
158 197 255
158 197 255
158 197 255
158 197 255
158 197 255
158 197 255
157 197 255
157 197 255
157 197 255
157 196 255
157 196 255
157 196 255
157 196 255
157 196 255
157 196 255
156 196 255
156 196 255
156 196 255
156 196 255
156 196 255
156 196 255
156 196 255
156 196 255
156 196 255
156 196 255
155 195 255
155 195 255
155 195 255
155 195 255
155 195 255
155 195 255
155 195 255
155 195 255
155 195 255
155 195 255
154 195 255
154 195 255
154 195 255
154 195 255
154 195 255
154 195 255
154 195 255
154 194 255
154 194 255
154 194 255
154 194 255
153 194 255
153 194 255
153 194 255
153 194 255
153 194 255
153 194 255
153 194 255
153 194 255
153 194 255
153 194 255
153 194 255
153 194 255
153 194 255
152 194 255
152 194 255
152 194 255
152 194 255
152 194 255
152 193 255
152 193 255
152 193 255
152 193 255
152 193 255
152 193 255
152 193 255
152 193 255
152 193 255
152 193 255
152 193 255
152 193 255
152 193 255
151 193 255
151 193 255
151 193 255
151 193 255
151 193 255
151 193 255
151 193 255
151 193 255
151 193 255
151 193 255
151 193 255
151 193 255
151 193 255
151 193 255
151 193 255
151 193 255
151 193 255
151 193 255
151 193 255
151 193 255
151 193 255
151 193 255
151 193 255
151 193 255
151 193 255
151 193 255
151 193 255
151 193 255
151 193 255
151 193 255
151 193 255
151 193 255
151 193 255
151 193 255
151 193 255
151 193 255
151 193 255
151 193 255
151 193 255
151 193 255
151 193 255
151 193 255
151 193 255
151 193 255
151 193 255
151 193 255
151 193 255
152 193 255
152 193 255
152 193 255
152 193 255
152 193 255
152 193 255
152 193 255
152 193 255
152 193 255
152 193 255
152 193 255
152 193 255
152 194 255
152 194 255
152 194 255
152 194 255
152 194 255
153 194 255
153 194 255
153 194 255
153 194 255
153 194 255
153 194 255
153 194 255
153 194 255
153 194 255
153 194 255
153 194 255
153 194 255
153 194 255
154 194 255
154 194 255
154 194 255
154 194 255
154 195 255
154 195 255
154 195 255
154 195 255
154 195 255
154 195 255
154 195 255
155 195 255
155 195 255
155 195 255
155 195 255
155 195 255
155 195 255
155 195 255
155 195 255
155 195 255
155 195 255
156 196 255
156 196 255
156 196 255
156 196 255
156 196 255
156 196 255
156 196 255
156 196 255
156 196 255
156 196 255
157 196 255
157 196 255
157 196 255
157 196 255
157 196 255
157 196 255
157 197 255
157 197 255
157 197 255
158 197 255
158 197 255
158 197 255
158 197 255
158 197 255
158 197 255
158 197 255
158 197 255
158 197 255
158 197 255
159 197 255
159 197 255
159 197 255
159 198 255
159 198 255
159 198 255
159 198 255
159 198 255
159 198 255
160 198 255
160 198 255
160 198 255
160 198 255
160 198 255
160 198 255
160 198 255
160 198 255
160 198 255
161 199 255
161 199 255
161 199 255
161 199 255
161 199 255
161 199 255
161 199 255
161 199 255
161 199 255
161 199 255
162 199 255
162 199 255
162 199 255
162 199 255
162 199 255
162 199 255
162 200 255
162 200 255
162 200 255
162 200 255
163 200 255
163 200 255
163 200 255
163 200 255
163 200 255
163 200 255
163 200 255
163 200 255
163 200 255
163 200 255
164 200 255
164 200 255
164 200 255
164 200 255
164 201 255
164 201 255
164 201 255
164 201 255
164 201 255
164 201 255
164 201 255
165 201 255
165 201 255
165 201 255
165 201 255
165 201 255
165 201 255
165 201 255
165 201 255
165 201 255
165 201 255
165 201 255
166 202 255
166 202 255
166 202 255
166 202 255
166 202 255
166 202 255
166 202 255
166 202 255
166 202 255
166 202 255
166 202 255
167 202 255
167 202 255
167 202 255
167 202 255
167 202 255
167 202 255
167 202 255
167 202 255
167 202 255
167 203 255
167 203 255
167 203 255
167 203 255
168 203 255
168 203 255
168 203 255
168 203 255
168 203 255
168 203 255
168 203 255
167 203 255
167 203 255
167 203 255
167 203 255
167 202 255
167 202 255
167 202 255
167 202 255
167 202 255
167 202 255
167 202 255
167 202 255
166 202 255
166 202 255
166 202 255
166 202 255
166 202 255
166 202 255
166 202 255
166 202 255
166 202 255
166 202 255
166 202 255
166 202 255
165 201 255
165 201 255
165 201 255
165 201 255
165 201 255
165 201 255
165 201 255
165 201 255
165 201 255
165 201 255
165 201 255
164 201 255
164 201 255
164 201 255
164 201 255
164 201 255
164 201 255
164 201 255
164 200 255
164 200 255
164 200 255
164 200 255
163 200 255
163 200 255
163 200 255
163 200 255
163 200 255
163 200 255
163 200 255
163 200 255
163 200 255
163 200 255
162 200 255
162 200 255
162 200 255
162 199 255
162 199 255
162 199 255
162 199 255
162 199 255
162 199 255
162 199 255
161 199 255
161 199 255
161 199 255
161 199 255
161 199 255
161 199 255
161 199 255
161 199 255
161 199 255
160 198 255
160 198 255
160 198 255
160 198 255
160 198 255
160 198 255
160 198 255
160 198 255
160 198 255
160 198 255
159 198 255
159 198 255
159 198 255
159 198 255
159 198 255
159 198 255
159 197 255
159 197 255
159 197 255
158 197 255
158 197 255
158 197 255
158 197 255
158 197 255
158 197 255
158 197 255
158 197 255
158 197 255
157 197 255
157 197 255
157 197 255
157 197 255
157 196 255
157 196 255
157 196 255
157 196 255
157 196 255
157 196 255
156 196 255
156 196 255
156 196 255
156 196 255
156 196 255
156 196 255
156 196 255
156 196 255
156 196 255
156 196 255
155 195 255
155 195 255
155 195 255
155 195 255
155 195 255
155 195 255
155 195 255
155 195 255
155 195 255
155 195 255
154 195 255
154 195 255
154 195 255
154 195 255
154 195 255
154 195 255
154 195 255
154 194 255
154 194 255
154 194 255
154 194 255
153 194 255
153 194 255
153 194 255
153 194 255
153 194 255
153 194 255
153 194 255
153 194 255
153 194 255
153 194 255
153 194 255
153 194 255
153 194 255
153 194 255
152 194 255
152 194 255
152 194 255
152 194 255
152 194 255
152 194 255
152 193 255
152 193 255
152 193 255
152 193 255
152 193 255
152 193 255
152 193 255
152 193 255
152 193 255
152 193 255
152 193 255
152 193 255
152 193 255
152 193 255
151 193 255
151 193 255
151 193 255
151 193 255
151 193 255
151 193 255
151 193 255
151 193 255
151 193 255
151 193 255
151 193 255
151 193 255
151 193 255
151 193 255
151 193 255
151 193 255
151 193 255
151 193 255
151 193 255
151 193 255
151 193 255
151 193 255
151 193 255
151 193 255
151 193 255
151 193 255
151 193 255
151 193 255
151 193 255
151 193 255
151 193 255
151 193 255
151 193 255
152 193 255
152 193 255
152 193 255
152 193 255
152 193 255
152 193 255
152 193 255
152 193 255
152 193 255
152 193 255
152 193 255
152 193 255
152 193 255
152 193 255
152 193 255
152 193 255
152 194 255
152 194 255
152 194 255
152 194 255
152 194 255
153 194 255
153 194 255
153 194 255
153 194 255
153 194 255
153 194 255
153 194 255
153 194 255
153 194 255
153 194 255
153 194 255
153 194 255
153 194 255
153 194 255
154 194 255
154 194 255
154 194 255
154 195 255
154 195 255
154 195 255
154 195 255
154 195 255
154 195 255
154 195 255
154 195 255
155 195 255
155 195 255
155 195 255
155 195 255
155 195 255
155 195 255
155 195 255
155 195 255
155 195 255
155 195 255
156 196 255
156 196 255
156 196 255
156 196 255
156 196 255
156 196 255
156 196 255
156 196 255
156 196 255
156 196 255
157 196 255
157 196 255
157 196 255
157 196 255
157 196 255
157 196 255
157 197 255
157 197 255
157 197 255
157 197 255
158 197 255
158 197 255
158 197 255
158 197 255
158 197 255
158 197 255
158 197 255
158 197 255
158 197 255
159 197 255
159 197 255
159 197 255
159 198 255
159 198 255
159 198 255
159 198 255
159 198 255
159 198 255
160 198 255
160 198 255
160 198 255
160 198 255
160 198 255
160 198 255
160 198 255
160 198 255
160 198 255
160 198 255
161 199 255
161 199 255
161 199 255
161 199 255
161 199 255
161 199 255
161 199 255
161 199 255
161 199 255
162 199 255
162 199 255
162 199 255
162 199 255
162 199 255
162 199 255
162 199 255
162 200 255
162 200 255
162 200 255
163 200 255
163 200 255
163 200 255
163 200 255
163 200 255
163 200 255
163 200 255
163 200 255
163 200 255
163 200 255
164 200 255
164 200 255
164 200 255
164 200 255
164 201 255
164 201 255
164 201 255
164 201 255
164 201 255
164 201 255
164 201 255
165 201 255
165 201 255
165 201 255
165 201 255
165 201 255
165 201 255
165 201 255
165 201 255
165 201 255
165 201 255
165 201 255
166 202 255
166 202 255
166 202 255
166 202 255
166 202 255
166 202 255
166 202 255
166 202 255
166 202 255
166 202 255
166 202 255
167 202 255
167 202 255
167 202 255
167 202 255
167 202 255
167 202 255
167 202 255
167 202 255
167 202 255
167 203 255
167 203 255
167 203 255
167 203 255
168 203 255
168 203 255
168 203 255
168 203 255
168 203 255
168 203 255
168 203 255
168 203 255
168 203 255
168 203 255
168 203 255
168 203 255
168 203 255
167 203 255
167 203 255
167 203 255
167 203 255
167 202 255
167 202 255
167 202 255
167 202 255
167 202 255
167 202 255
167 202 255
167 202 255
166 202 255
166 202 255
166 202 255
166 202 255
166 202 255
166 202 255
166 202 255
166 202 255
166 202 255
166 202 255
166 202 255
166 202 255
165 201 255
165 201 255
165 201 255
165 201 255
165 201 255
165 201 255
165 201 255
165 201 255
165 201 255
165 201 255
165 201 255
164 201 255
164 201 255
164 201 255
164 201 255
164 201 255
164 201 255
164 201 255
164 200 255
164 200 255
164 200 255
163 200 255
163 200 255
163 200 255
163 200 255
163 200 255
163 200 255
163 200 255
163 200 255
163 200 255
163 200 255
162 200 255
162 200 255
162 200 255
162 199 255
162 199 255
162 199 255
162 199 255
162 199 255
162 199 255
162 199 255
161 199 255
161 199 255
161 199 255
161 199 255
161 199 255
161 199 255
161 199 255
161 199 255
161 199 255
161 199 255
160 198 255
160 198 255
160 198 255
160 198 255
160 198 255
160 198 255
160 198 255
160 198 255
160 198 255
159 198 255
159 198 255
159 198 255
159 198 255
159 198 255
159 198 255
159 197 255
159 197 255
159 197 255
158 197 255
158 197 255
158 197 255
158 197 255
158 197 255
158 197 255
158 197 255
158 197 255
158 197 255
158 197 255
157 197 255
157 197 255
157 197 255
157 196 255
157 196 255
157 196 255
157 196 255
157 196 255
157 196 255
156 196 255
156 196 255
156 196 255
156 196 255
156 196 255
156 196 255
156 196 255
156 196 255
156 196 255
156 196 255
155 195 255
155 195 255
155 195 255
155 195 255
155 195 255
155 195 255
155 195 255
155 195 255
155 195 255
155 195 255
155 195 255
154 195 255
154 195 255
154 195 255
154 195 255
154 195 255
154 195 255
154 195 255
154 195 255
154 194 255
154 194 255
154 194 255
154 194 255
153 194 255
153 194 255
153 194 255
153 194 255
153 194 255
153 194 255
153 194 255
153 194 255
153 194 255
153 194 255
153 194 255
153 194 255
153 194 255
153 194 255
153 194 255
152 194 255
152 194 255
152 194 255
152 194 255
152 194 255
152 194 255
152 193 255
152 193 255
152 193 255
152 193 255
152 193 255
152 193 255
152 193 255
152 193 255
152 193 255
152 193 255
152 193 255
152 193 255
152 193 255
152 193 255
152 193 255
152 193 255
152 193 255
152 193 255
152 193 255
152 193 255
152 193 255
152 193 255
152 193 255
152 193 255
152 193 255
152 193 255
152 193 255
152 193 255
152 193 255
152 193 255
152 193 255
152 193 255
152 193 255
152 193 255
152 193 255
152 193 255
152 193 255
152 193 255
152 193 255
152 193 255
152 193 255
152 193 255
152 193 255
152 193 255
152 193 255
152 193 255
152 193 255
152 193 255
152 193 255
152 193 255
152 193 255
152 193 255
152 194 255
152 194 255
152 194 255
152 194 255
152 194 255
152 194 255
152 194 255
153 194 255
153 194 255
153 194 255
153 194 255
153 194 255
153 194 255
153 194 255
153 194 255
153 194 255
153 194 255
153 194 255
153 194 255
153 194 255
153 194 255
154 194 255
154 194 255
154 194 255
154 194 255
154 195 255
154 195 255
154 195 255
154 195 255
154 195 255
154 195 255
154 195 255
154 195 255
155 195 255
155 195 255
155 195 255
155 195 255
155 195 255
155 195 255
155 195 255
155 195 255
155 195 255
155 195 255
155 195 255
156 196 255
156 196 255
156 196 255
156 196 255
156 196 255
156 196 255
156 196 255
156 196 255
156 196 255
156 196 255
157 196 255
157 196 255
157 196 255
157 196 255
157 196 255
157 196 255
157 197 255
157 197 255
157 197 255
158 197 255
158 197 255
158 197 255
158 197 255
158 197 255
158 197 255
158 197 255
158 197 255
158 197 255
158 197 255
159 197 255
159 197 255
159 197 255
159 198 255
159 198 255
159 198 255
159 198 255
159 198 255
159 198 255
160 198 255
160 198 255
160 198 255
160 198 255
160 198 255
160 198 255
160 198 255
160 198 255
160 198 255
161 199 255
161 199 255
161 199 255
161 199 255
161 199 255
161 199 255
161 199 255
161 199 255
161 199 255
161 199 255
162 199 255
162 199 255
162 199 255
162 199 255
162 199 255
162 199 255
162 199 255
162 200 255
162 200 255
162 200 255
163 200 255
163 200 255
163 200 255
163 200 255
163 200 255
163 200 255
163 200 255
163 200 255
163 200 255
163 200 255
164 200 255
164 200 255
164 200 255
164 201 255
164 201 255
164 201 255
164 201 255
164 201 255
164 201 255
164 201 255
165 201 255
165 201 255
165 201 255
165 201 255
165 201 255
165 201 255
165 201 255
165 201 255
165 201 255
165 201 255
165 201 255
166 202 255
166 202 255
166 202 255
166 202 255
166 202 255
166 202 255
166 202 255
166 202 255
166 202 255
166 202 255
166 202 255
166 202 255
167 202 255
167 202 255
167 202 255
167 202 255
167 202 255
167 202 255
167 202 255
167 202 255
167 203 255
167 203 255
167 203 255
167 203 255
168 203 255
168 203 255
168 203 255
168 203 255
168 203 255
168 203 255
168 203 255
168 203 255
168 203 255
168 203 255
168 203 255
168 203 255
168 203 255
168 203 255
168 203 255
168 203 255
168 203 255
168 203 255
168 203 255
167 203 255
167 203 255
167 203 255
167 203 255
167 202 255
167 202 255
167 202 255
167 202 255
167 202 255
167 202 255
167 202 255
167 202 255
166 202 255
166 202 255
166 202 255
166 202 255
166 202 255
166 202 255
166 202 255
166 202 255
166 202 255
166 202 255
166 202 255
166 202 255
165 201 255
165 201 255
165 201 255
165 201 255
165 201 255
165 201 255
165 201 255
165 201 255
165 201 255
165 201 255
164 201 255
164 201 255
164 201 255
164 201 255
164 201 255
164 201 255
164 201 255
164 200 255
164 200 255
164 200 255
164 200 255
163 200 255
163 200 255
163 200 255
163 200 255
163 200 255
163 200 255
163 200 255
163 200 255
163 200 255
163 200 255
162 200 255
162 200 255
162 200 255
162 199 255
162 199 255
162 199 255
162 199 255
162 199 255
162 199 255
162 199 255
161 199 255
161 199 255
161 199 255
161 199 255
161 199 255
161 199 255
161 199 255
161 199 255
161 199 255
160 198 255
160 198 255
160 198 255
160 198 255
160 198 255
160 198 255
160 198 255
160 198 255
160 198 255
160 198 255
159 198 255
159 198 255
159 198 255
159 198 255
159 198 255
159 198 255
159 197 255
159 197 255
159 197 255
158 197 255
158 197 255
158 197 255
158 197 255
158 197 255
158 197 255
158 197 255
158 197 255
158 197 255
158 197 255
157 197 255
157 197 255
157 197 255
157 196 255
157 196 255
157 196 255
157 196 255
157 196 255
157 196 255
156 196 255
156 196 255
156 196 255
156 196 255
156 196 255
156 196 255
156 196 255
156 196 255
156 196 255
156 196 255
155 195 255
155 195 255
155 195 255
155 195 255
155 195 255
155 195 255
155 195 255
155 195 255
155 195 255
155 195 255
155 195 255
154 195 255
154 195 255
154 195 255
154 195 255
154 195 255
154 195 255
154 195 255
154 195 255
154 194 255
154 194 255
154 194 255
154 194 255
153 194 255
153 194 255
153 194 255
153 194 255
153 194 255
153 194 255
153 194 255
153 194 255
153 194 255
153 194 255
153 194 255
153 194 255
153 194 255
153 194 255
153 194 255
153 194 255
153 194 255
152 194 255
152 194 255
152 194 255
152 194 255
152 194 255
152 194 255
152 194 255
152 193 255
152 193 255
152 193 255
152 193 255
152 193 255
152 193 255
152 193 255
152 193 255
152 193 255
152 193 255
152 193 255
152 193 255
152 193 255
152 193 255
152 193 255
152 193 255
152 193 255
152 193 255
152 193 255
152 193 255
152 193 255
152 193 255
152 193 255
152 193 255
152 193 255
152 193 255
152 193 255
152 193 255
152 193 255
152 193 255
152 193 255
152 193 255
152 193 255
152 193 255
152 193 255
152 193 255
152 193 255
152 193 255
152 193 255
152 193 255
152 194 255
152 194 255
152 194 255
152 194 255
152 194 255
152 194 255
152 194 255
153 194 255
153 194 255
153 194 255
153 194 255
153 194 255
153 194 255
153 194 255
153 194 255
153 194 255
153 194 255
153 194 255
153 194 255
153 194 255
153 194 255
153 194 255
153 194 255
153 194 255
154 194 255
154 194 255
154 194 255
154 194 255
154 195 255
154 195 255
154 195 255
154 195 255
154 195 255
154 195 255
154 195 255
154 195 255
155 195 255
155 195 255
155 195 255
155 195 255
155 195 255
155 195 255
155 195 255
155 195 255
155 195 255
155 195 255
155 195 255
156 196 255
156 196 255
156 196 255
156 196 255
156 196 255
156 196 255
156 196 255
156 196 255
156 196 255
156 196 255
157 196 255
157 196 255
157 196 255
157 196 255
157 196 255
157 196 255
157 197 255
157 197 255
157 197 255
157 197 255
158 197 255
158 197 255
158 197 255
158 197 255
158 197 255
158 197 255
158 197 255
158 197 255
158 197 255
159 197 255
159 197 255
159 197 255
159 198 255
159 198 255
159 198 255
159 198 255
159 198 255
159 198 255
160 198 255
160 198 255
160 198 255
160 198 255
160 198 255
160 198 255
160 198 255
160 198 255
160 198 255
160 198 255
161 199 255
161 199 255
161 199 255
161 199 255
161 199 255
161 199 255
161 199 255
161 199 255
161 199 255
162 199 255
162 199 255
162 199 255
162 199 255
162 199 255
162 199 255
162 199 255
162 200 255
162 200 255
162 200 255
163 200 255
163 200 255
163 200 255
163 200 255
163 200 255
163 200 255
163 200 255
163 200 255
163 200 255
163 200 255
164 200 255
164 200 255
164 200 255
164 200 255
164 201 255
164 201 255
164 201 255
164 201 255
164 201 255
164 201 255
164 201 255
165 201 255
165 201 255
165 201 255
165 201 255
165 201 255
165 201 255
165 201 255
165 201 255
165 201 255
165 201 255
165 201 255
166 202 255
166 202 255
166 202 255
166 202 255
166 202 255
166 202 255
166 202 255
166 202 255
166 202 255
166 202 255
166 202 255
167 202 255
167 202 255
167 202 255
167 202 255
167 202 255
167 202 255
167 202 255
167 202 255
167 203 255
167 203 255
167 203 255
167 203 255
168 203 255
168 203 255
168 203 255
168 203 255
168 203 255
168 203 255
168 203 255
168 203 255
168 203 255
168 203 255
168 203 255
169 203 255
168 203 255
168 203 255
168 203 255
168 203 255
168 203 255
168 203 255
168 203 255
168 203 255
168 203 255
168 203 255
168 203 255
168 203 255
168 203 255
167 203 255
167 203 255
167 203 255
167 203 255
167 202 255
167 202 255
167 202 255
167 202 255
167 202 255
167 202 255
167 202 255
167 202 255
166 202 255
166 202 255
166 202 255
166 202 255
166 202 255
166 202 255
166 202 255
166 202 255
166 202 255
166 202 255
166 202 255
165 201 255
165 201 255
165 201 255
165 201 255
165 201 255
165 201 255
165 201 255
165 201 255
165 201 255
165 201 255
165 201 255
164 201 255
164 201 255
164 201 255
164 201 255
164 201 255
164 201 255
164 201 255
164 200 255
164 200 255
164 200 255
163 200 255
163 200 255
163 200 255
163 200 255
163 200 255
163 200 255
163 200 255
163 200 255
163 200 255
163 200 255
162 200 255
162 200 255
162 200 255
162 200 255
162 199 255
162 199 255
162 199 255
162 199 255
162 199 255
162 199 255
161 199 255
161 199 255
161 199 255
161 199 255
161 199 255
161 199 255
161 199 255
161 199 255
161 199 255
161 199 255
160 198 255
160 198 255
160 198 255
160 198 255
160 198 255
160 198 255
160 198 255
160 198 255
160 198 255
159 198 255
159 198 255
159 198 255
159 198 255
159 198 255
159 198 255
159 197 255
159 197 255
159 197 255
159 197 255
158 197 255
158 197 255
158 197 255
158 197 255
158 197 255
158 197 255
158 197 255
158 197 255
158 197 255
157 197 255
157 197 255
157 197 255
157 196 255
157 196 255
157 196 255
157 196 255
157 196 255
157 196 255
157 196 255
156 196 255
156 196 255
156 196 255
156 196 255
156 196 255
156 196 255
156 196 255
156 196 255
156 196 255
156 196 255
155 195 255
155 195 255
155 195 255
155 195 255
155 195 255
155 195 255
155 195 255
155 195 255
155 195 255
155 195 255
155 195 255
154 195 255
154 195 255
154 195 255
154 195 255
154 195 255
154 195 255
154 195 255
154 195 255
154 195 255
154 194 255
154 194 255
154 194 255
154 194 255
153 194 255
153 194 255
153 194 255
153 194 255
153 194 255
153 194 255
153 194 255
153 194 255
153 194 255
153 194 255
153 194 255
153 194 255
153 194 255
153 194 255
153 194 255
153 194 255
153 194 255
153 194 255
153 194 255
152 194 255
152 194 255
152 194 255
152 194 255
152 194 255
152 194 255
152 194 255
152 194 255
152 194 255
152 194 255
152 194 255
152 193 255
152 193 255
152 193 255
152 193 255
152 193 255
152 193 255
152 193 255
152 193 255
152 193 255
152 193 255
152 193 255
152 193 255
152 193 255
152 193 255
152 193 255
152 193 255
152 193 255
152 193 255
152 193 255
152 193 255
152 194 255
152 194 255
152 194 255
152 194 255
152 194 255
152 194 255
152 194 255
152 194 255
152 194 255
152 194 255
152 194 255
153 194 255
153 194 255
153 194 255
153 194 255
153 194 255
153 194 255
153 194 255
153 194 255
153 194 255
153 194 255
153 194 255
153 194 255
153 194 255
153 194 255
153 194 255
153 194 255
153 194 255
153 194 255
153 194 255
154 194 255
154 194 255
154 194 255
154 194 255
154 195 255
154 195 255
154 195 255
154 195 255
154 195 255
154 195 255
154 195 255
154 195 255
154 195 255
155 195 255
155 195 255
155 195 255
155 195 255
155 195 255
155 195 255
155 195 255
155 195 255
155 195 255
155 195 255
155 195 255
156 196 255
156 196 255
156 196 255
156 196 255
156 196 255
156 196 255
156 196 255
156 196 255
156 196 255
156 196 255
157 196 255
157 196 255
157 196 255
157 196 255
157 196 255
157 196 255
157 196 255
157 197 255
157 197 255
157 197 255
158 197 255
158 197 255
158 197 255
158 197 255
158 197 255
158 197 255
158 197 255
158 197 255
158 197 255
158 197 255
159 197 255
159 197 255
159 197 255
159 198 255
159 198 255
159 198 255
159 198 255
159 198 255
159 198 255
160 198 255
160 198 255
160 198 255
160 198 255
160 198 255
160 198 255
160 198 255
160 198 255
160 198 255
161 199 255
161 199 255
161 199 255
161 199 255
161 199 255
161 199 255
161 199 255
161 199 255
161 199 255
161 199 255
162 199 255
162 199 255
162 199 255
162 199 255
162 199 255
162 199 255
162 200 255
162 200 255
162 200 255
162 200 255
163 200 255
163 200 255
163 200 255
163 200 255
163 200 255
163 200 255
163 200 255
163 200 255
163 200 255
163 200 255
164 200 255
164 200 255
164 200 255
164 201 255
164 201 255
164 201 255
164 201 255
164 201 255
164 201 255
164 201 255
165 201 255
165 201 255
165 201 255
165 201 255
165 201 255
165 201 255
165 201 255
165 201 255
165 201 255
165 201 255
165 201 255
166 202 255
166 202 255
166 202 255
166 202 255
166 202 255
166 202 255
166 202 255
166 202 255
166 202 255
166 202 255
166 202 255
167 202 255
167 202 255
167 202 255
167 202 255
167 202 255
167 202 255
167 202 255
167 202 255
167 203 255
167 203 255
167 203 255
167 203 255
168 203 255
168 203 255
168 203 255
168 203 255
168 203 255
168 203 255
168 203 255
168 203 255
168 203 255
168 203 255
168 203 255
168 203 255
168 203 255
169 203 255
169 203 255
169 203 255
169 203 255
169 203 255
168 203 255
168 203 255
168 203 255
168 203 255
168 203 255
168 203 255
168 203 255
168 203 255
168 203 255
168 203 255
168 203 255
168 203 255
168 203 255
167 203 255
167 203 255
167 203 255
167 203 255
167 202 255
167 202 255
167 202 255
167 202 255
167 202 255
167 202 255
167 202 255
166 202 255
166 202 255
166 202 255
166 202 255
166 202 255
166 202 255
166 202 255
166 202 255
166 202 255
166 202 255
166 202 255
166 202 255
165 201 255
165 201 255
165 201 255
165 201 255
165 201 255
165 201 255
165 201 255
165 201 255
165 201 255
165 201 255
165 201 255
164 201 255
164 201 255
164 201 255
164 201 255
164 201 255
164 201 255
164 201 255
164 200 255
164 200 255
164 200 255
163 200 255
163 200 255
163 200 255
163 200 255
163 200 255
163 200 255
163 200 255
163 200 255
163 200 255
163 200 255
162 200 255
162 200 255
162 200 255
162 199 255
162 199 255
162 199 255
162 199 255
162 199 255
162 199 255
162 199 255
161 199 255
161 199 255
161 199 255
161 199 255
161 199 255
161 199 255
161 199 255
161 199 255
161 199 255
160 198 255
160 198 255
160 198 255
160 198 255
160 198 255
160 198 255
160 198 255
160 198 255
160 198 255
160 198 255
159 198 255
159 198 255
159 198 255
159 198 255
159 198 255
159 198 255
159 197 255
159 197 255
159 197 255
158 197 255
158 197 255
158 197 255
158 197 255
158 197 255
158 197 255
158 197 255
158 197 255
158 197 255
158 197 255
157 197 255
157 197 255
157 197 255
157 196 255
157 196 255
157 196 255
157 196 255
157 196 255
157 196 255
157 196 255
156 196 255
156 196 255
156 196 255
156 196 255
156 196 255
156 196 255
156 196 255
156 196 255
156 196 255
156 196 255
155 195 255
155 195 255
155 195 255
155 195 255
155 195 255
155 195 255
155 195 255
155 195 255
155 195 255
155 195 255
155 195 255
155 195 255
154 195 255
154 195 255
154 195 255
154 195 255
154 195 255
154 195 255
154 195 255
154 195 255
154 195 255
154 194 255
154 194 255
154 194 255
154 194 255
154 194 255
153 194 255
153 194 255
153 194 255
153 194 255
153 194 255
153 194 255
153 194 255
153 194 255
153 194 255
153 194 255
153 194 255
153 194 255
153 194 255
153 194 255
153 194 255
153 194 255
153 194 255
153 194 255
153 194 255
153 194 255
153 194 255
153 194 255
152 194 255
152 194 255
152 194 255
152 194 255
152 194 255
152 194 255
152 194 255
152 194 255
152 194 255
152 194 255
152 194 255
152 194 255
152 194 255
152 194 255
152 194 255
152 194 255
152 194 255
152 194 255
152 194 255
152 194 255
152 194 255
152 194 255
152 194 255
152 194 255
152 194 255
152 194 255
153 194 255
153 194 255
153 194 255
153 194 255
153 194 255
153 194 255
153 194 255
153 194 255
153 194 255
153 194 255
153 194 255
153 194 255
153 194 255
153 194 255
153 194 255
153 194 255
153 194 255
153 194 255
153 194 255
153 194 255
153 194 255
153 194 255
154 194 255
154 194 255
154 194 255
154 194 255
154 194 255
154 195 255
154 195 255
154 195 255
154 195 255
154 195 255
154 195 255
154 195 255
154 195 255
154 195 255
155 195 255
155 195 255
155 195 255
155 195 255
155 195 255
155 195 255
155 195 255
155 195 255
155 195 255
155 195 255
155 195 255
155 195 255
156 196 255
156 196 255
156 196 255
156 196 255
156 196 255
156 196 255
156 196 255
156 196 255
156 196 255
156 196 255
157 196 255
157 196 255
157 196 255
157 196 255
157 196 255
157 196 255
157 196 255
157 197 255
157 197 255
157 197 255
158 197 255
158 197 255
158 197 255
158 197 255
158 197 255
158 197 255
158 197 255
158 197 255
158 197 255
158 197 255
159 197 255
159 197 255
159 197 255
159 198 255
159 198 255
159 198 255
159 198 255
159 198 255
159 198 255
160 198 255
160 198 255
160 198 255
160 198 255
160 198 255
160 198 255
160 198 255
160 198 255
160 198 255
160 198 255
161 199 255
161 199 255
161 199 255
161 199 255
161 199 255
161 199 255
161 199 255
161 199 255
161 199 255
162 199 255
162 199 255
162 199 255
162 199 255
162 199 255
162 199 255
162 199 255
162 200 255
162 200 255
162 200 255
163 200 255
163 200 255
163 200 255
163 200 255
163 200 255
163 200 255
163 200 255
163 200 255
163 200 255
163 200 255
164 200 255
164 200 255
164 200 255
164 201 255
164 201 255
164 201 255
164 201 255
164 201 255
164 201 255
164 201 255
165 201 255
165 201 255
165 201 255
165 201 255
165 201 255
165 201 255
165 201 255
165 201 255
165 201 255
165 201 255
165 201 255
166 202 255
166 202 255
166 202 255
166 202 255
166 202 255
166 202 255
166 202 255
166 202 255
166 202 255
166 202 255
166 202 255
167 202 255
167 202 255
167 202 255
167 202 255
167 202 255
167 202 255
167 202 255
167 202 255
167 203 255
167 203 255
167 203 255
167 203 255
168 203 255
168 203 255
168 203 255
168 203 255
168 203 255
168 203 255
168 203 255
168 203 255
168 203 255
168 203 255
168 203 255
168 203 255
168 203 255
169 203 255
169 203 255
169 203 255
169 203 255
169 204 255
169 204 255
169 204 255
169 203 255
169 203 255
169 203 255
169 203 255
168 203 255
168 203 255
168 203 255
168 203 255
168 203 255
168 203 255
168 203 255
168 203 255
168 203 255
168 203 255
168 203 255
168 203 255
168 203 255
167 203 255
167 203 255
167 203 255
167 203 255
167 202 255
167 202 255
167 202 255
167 202 255
167 202 255
167 202 255
167 202 255
166 202 255
166 202 255
166 202 255
166 202 255
166 202 255
166 202 255
166 202 255
166 202 255
166 202 255
166 202 255
166 202 255
166 202 255
165 201 255
165 201 255
165 201 255
165 201 255
165 201 255
165 201 255
165 201 255
165 201 255
165 201 255
165 201 255
164 201 255
164 201 255
164 201 255
164 201 255
164 201 255
164 201 255
164 201 255
164 200 255
164 200 255
164 200 255
164 200 255
163 200 255
163 200 255
163 200 255
163 200 255
163 200 255
163 200 255
163 200 255
163 200 255
163 200 255
163 200 255
162 200 255
162 200 255
162 200 255
162 199 255
162 199 255
162 199 255
162 199 255
162 199 255
162 199 255
161 199 255
161 199 255
161 199 255
161 199 255
161 199 255
161 199 255
161 199 255
161 199 255
161 199 255
161 199 255
160 198 255
160 198 255
160 198 255
160 198 255
160 198 255
160 198 255
160 198 255
160 198 255
160 198 255
159 198 255
159 198 255
159 198 255
159 198 255
159 198 255
159 198 255
159 198 255
159 197 255
159 197 255
159 197 255
158 197 255
158 197 255
158 197 255
158 197 255
158 197 255
158 197 255
158 197 255
158 197 255
158 197 255
158 197 255
157 197 255
157 197 255
157 197 255
157 196 255
157 196 255
157 196 255
157 196 255
157 196 255
157 196 255
157 196 255
156 196 255
156 196 255
156 196 255
156 196 255
156 196 255
156 196 255
156 196 255
156 196 255
156 196 255
156 196 255
155 195 255
155 195 255
155 195 255
155 195 255
155 195 255
155 195 255
155 195 255
155 195 255
155 195 255
155 195 255
155 195 255
155 195 255
154 195 255
154 195 255
154 195 255
154 195 255
154 195 255
154 195 255
154 195 255
154 195 255
154 195 255
154 195 255
154 194 255
154 194 255
154 194 255
154 194 255
154 194 255
154 194 255
153 194 255
153 194 255
153 194 255
153 194 255
153 194 255
153 194 255
153 194 255
153 194 255
153 194 255
153 194 255
153 194 255
153 194 255
153 194 255
153 194 255
153 194 255
153 194 255
153 194 255
153 194 255
153 194 255
153 194 255
153 194 255
153 194 255
153 194 255
153 194 255
153 194 255
153 194 255
153 194 255
153 194 255
153 194 255
153 194 255
153 194 255
153 194 255
153 194 255
153 194 255
153 194 255
153 194 255
153 194 255
153 194 255
153 194 255
153 194 255
153 194 255
153 194 255
153 194 255
153 194 255
153 194 255
153 194 255
153 194 255
153 194 255
153 194 255
153 194 255
153 194 255
153 194 255
153 194 255
153 194 255
153 194 255
153 194 255
153 194 255
153 194 255
153 194 255
153 194 255
154 194 255
154 194 255
154 194 255
154 194 255
154 194 255
154 194 255
154 195 255
154 195 255
154 195 255
154 195 255
154 195 255
154 195 255
154 195 255
154 195 255
154 195 255
154 195 255
155 195 255
155 195 255
155 195 255
155 195 255
155 195 255
155 195 255
155 195 255
155 195 255
155 195 255
155 195 255
155 195 255
155 195 255
156 196 255
156 196 255
156 196 255
156 196 255
156 196 255
156 196 255
156 196 255
156 196 255
156 196 255
156 196 255
157 196 255
157 196 255
157 196 255
157 196 255
157 196 255
157 196 255
157 196 255
157 197 255
157 197 255
157 197 255
158 197 255
158 197 255
158 197 255
158 197 255
158 197 255
158 197 255
158 197 255
158 197 255
158 197 255
158 197 255
159 197 255
159 197 255
159 197 255
159 198 255
159 198 255
159 198 255
159 198 255
159 198 255
159 198 255
159 198 255
160 198 255
160 198 255
160 198 255
160 198 255
160 198 255
160 198 255
160 198 255
160 198 255
160 198 255
161 199 255
161 199 255
161 199 255
161 199 255
161 199 255
161 199 255
161 199 255
161 199 255
161 199 255
161 199 255
162 199 255
162 199 255
162 199 255
162 199 255
162 199 255
162 199 255
162 200 255
162 200 255
162 200 255
163 200 255
163 200 255
163 200 255
163 200 255
163 200 255
163 200 255
163 200 255
163 200 255
163 200 255
163 200 255
164 200 255
164 200 255
164 200 255
164 200 255
164 201 255
164 201 255
164 201 255
164 201 255
164 201 255
164 201 255
164 201 255
165 201 255
165 201 255
165 201 255
165 201 255
165 201 255
165 201 255
165 201 255
165 201 255
165 201 255
165 201 255
166 202 255
166 202 255
166 202 255
166 202 255
166 202 255
166 202 255
166 202 255
166 202 255
166 202 255
166 202 255
166 202 255
166 202 255
167 202 255
167 202 255
167 202 255
167 202 255
167 202 255
167 202 255
167 202 255
167 202 255
167 203 255
167 203 255
167 203 255
168 203 255
168 203 255
168 203 255
168 203 255
168 203 255
168 203 255
168 203 255
168 203 255
168 203 255
168 203 255
168 203 255
168 203 255
168 203 255
169 203 255
169 203 255
169 203 255
169 203 255
169 204 255
169 204 255
169 204 255
169 204 255
169 204 255
169 204 255
169 204 255
169 204 255
169 204 255
169 203 255
169 203 255
169 203 255
169 203 255
168 203 255
168 203 255
168 203 255
168 203 255
168 203 255
168 203 255
168 203 255
168 203 255
168 203 255
168 203 255
168 203 255
168 203 255
167 203 255
167 203 255
167 203 255
167 203 255
167 203 255
167 202 255
167 202 255
167 202 255
167 202 255
167 202 255
167 202 255
167 202 255
166 202 255
166 202 255
166 202 255
166 202 255
166 202 255
166 202 255
166 202 255
166 202 255
166 202 255
166 202 255
166 202 255
165 201 255
165 201 255
165 201 255
165 201 255
165 201 255
165 201 255
165 201 255
165 201 255
165 201 255
165 201 255
165 201 255
164 201 255
164 201 255
164 201 255
164 201 255
164 201 255
164 201 255
164 201 255
164 200 255
164 200 255
164 200 255
163 200 255
163 200 255
163 200 255
163 200 255
163 200 255
163 200 255
163 200 255
163 200 255
163 200 255
163 200 255
162 200 255
162 200 255
162 200 255
162 200 255
162 199 255
162 199 255
162 199 255
162 199 255
162 199 255
162 199 255
161 199 255
161 199 255
161 199 255
161 199 255
161 199 255
161 199 255
161 199 255
161 199 255
161 199 255
160 198 255
160 198 255
160 198 255
160 198 255
160 198 255
160 198 255
160 198 255
160 198 255
160 198 255
160 198 255
159 198 255
159 198 255
159 198 255
159 198 255
159 198 255
159 198 255
159 198 255
159 197 255
159 197 255
159 197 255
158 197 255
158 197 255
158 197 255
158 197 255
158 197 255
158 197 255
158 197 255
158 197 255
158 197 255
157 197 255
157 197 255
157 197 255
157 197 255
157 196 255
157 196 255
157 196 255
157 196 255
157 196 255
157 196 255
157 196 255
156 196 255
156 196 255
156 196 255
156 196 255
156 196 255
156 196 255
156 196 255
156 196 255
156 196 255
156 196 255
156 196 255
155 195 255
155 195 255
155 195 255
155 195 255
155 195 255
155 195 255
155 195 255
155 195 255
155 195 255
155 195 255
155 195 255
155 195 255
154 195 255
154 195 255
154 195 255
154 195 255
154 195 255
154 195 255
154 195 255
154 195 255
154 195 255
154 195 255
154 195 255
154 194 255
154 194 255
154 194 255
154 194 255
154 194 255
154 194 255
153 194 255
153 194 255
153 194 255
153 194 255
153 194 255
153 194 255
153 194 255
153 194 255
153 194 255
153 194 255
153 194 255
153 194 255
153 194 255
153 194 255
153 194 255
153 194 255
153 194 255
153 194 255
153 194 255
153 194 255
153 194 255
153 194 255
153 194 255
153 194 255
153 194 255
153 194 255
153 194 255
153 194 255
153 194 255
153 194 255
153 194 255
153 194 255
153 194 255
153 194 255
153 194 255
153 194 255
153 194 255
153 194 255
153 194 255
153 194 255
153 194 255
153 194 255
153 194 255
153 194 255
153 194 255
153 194 255
153 194 255
153 194 255
153 194 255
153 194 255
154 194 255
154 194 255
154 194 255
154 194 255
154 194 255
154 194 255
154 195 255
154 195 255
154 195 255
154 195 255
154 195 255
154 195 255
154 195 255
154 195 255
154 195 255
154 195 255
154 195 255
155 195 255
155 195 255
155 195 255
155 195 255
155 195 255
155 195 255
155 195 255
155 195 255
155 195 255
155 195 255
155 195 255
155 195 255
156 196 255
156 196 255
156 196 255
156 196 255
156 196 255
156 196 255
156 196 255
156 196 255
156 196 255
156 196 255
156 196 255
156 196 255
157 196 255
157 196 255
157 196 255
157 196 255
157 196 255
157 196 255
157 197 255
157 197 255
157 197 255
157 197 255
158 197 255
158 197 255
158 197 255
158 197 255
158 197 255
158 197 255
158 197 255
158 197 255
158 197 255
159 197 255
159 197 255
159 197 255
159 198 255
159 198 255
159 198 255
159 198 255
159 198 255
159 198 255
159 198 255
160 198 255
160 198 255
160 198 255
160 198 255
160 198 255
160 198 255
160 198 255
160 198 255
160 198 255
160 198 255
161 199 255
161 199 255
161 199 255
161 199 255
161 199 255
161 199 255
161 199 255
161 199 255
161 199 255
162 199 255
162 199 255
162 199 255
162 199 255
162 199 255
162 199 255
162 200 255
162 200 255
162 200 255
162 200 255
163 200 255
163 200 255
163 200 255
163 200 255
163 200 255
163 200 255
163 200 255
163 200 255
163 200 255
163 200 255
164 200 255
164 200 255
164 200 255
164 201 255
164 201 255
164 201 255
164 201 255
164 201 255
164 201 255
164 201 255
165 201 255
165 201 255
165 201 255
165 201 255
165 201 255
165 201 255
165 201 255
165 201 255
165 201 255
165 201 255
165 201 255
166 202 255
166 202 255
166 202 255
166 202 255
166 202 255
166 202 255
166 202 255
166 202 255
166 202 255
166 202 255
166 202 255
167 202 255
167 202 255
167 202 255
167 202 255
167 202 255
167 202 255
167 202 255
167 202 255
167 203 255
167 203 255
167 203 255
168 203 255
168 203 255
168 203 255
168 203 255
168 203 255
168 203 255
168 203 255
168 203 255
168 203 255
168 203 255
168 203 255
168 203 255
168 203 255
169 203 255
169 203 255
169 203 255
169 203 255
169 204 255
169 204 255
169 204 255
169 204 255
169 204 255
169 204 255
169 204 255
169 204 255
169 204 255
169 204 255
169 204 255
169 204 255
169 204 255
169 204 255
169 204 255
169 203 255
169 203 255
169 203 255
169 203 255
168 203 255
168 203 255
168 203 255
168 203 255
168 203 255
168 203 255
168 203 255
168 203 255
168 203 255
168 203 255
168 203 255
168 203 255
167 203 255
167 203 255
167 203 255
167 203 255
167 202 255
167 202 255
167 202 255
167 202 255
167 202 255
167 202 255
167 202 255
167 202 255
166 202 255
166 202 255
166 202 255
166 202 255
166 202 255
166 202 255
166 202 255
166 202 255
166 202 255
166 202 255
166 202 255
165 201 255
165 201 255
165 201 255
165 201 255
165 201 255
165 201 255
165 201 255
165 201 255
165 201 255
165 201 255
165 201 255
164 201 255
164 201 255
164 201 255
164 201 255
164 201 255
164 201 255
164 201 255
164 200 255
164 200 255
164 200 255
163 200 255
163 200 255
163 200 255
163 200 255
163 200 255
163 200 255
163 200 255
163 200 255
163 200 255
163 200 255
162 200 255
162 200 255
162 200 255
162 199 255
162 199 255
162 199 255
162 199 255
162 199 255
162 199 255
161 199 255
161 199 255
161 199 255
161 199 255
161 199 255
161 199 255
161 199 255
161 199 255
161 199 255
161 199 255
160 198 255
160 198 255
160 198 255
160 198 255
160 198 255
160 198 255
160 198 255
160 198 255
160 198 255
160 198 255
159 198 255
159 198 255
159 198 255
159 198 255
159 198 255
159 198 255
159 197 255
159 197 255
159 197 255
158 197 255
158 197 255
158 197 255
158 197 255
158 197 255
158 197 255
158 197 255
158 197 255
158 197 255
158 197 255
157 197 255
157 197 255
157 197 255
157 197 255
157 196 255
157 196 255
157 196 255
157 196 255
157 196 255
157 196 255
157 196 255
156 196 255
156 196 255
156 196 255
156 196 255
156 196 255
156 196 255
156 196 255
156 196 255
156 196 255
156 196 255
156 196 255
155 195 255
155 195 255
155 195 255
155 195 255
155 195 255
155 195 255
155 195 255
155 195 255
155 195 255
155 195 255
155 195 255
155 195 255
155 195 255
155 195 255
154 195 255
154 195 255
154 195 255
154 195 255
154 195 255
154 195 255
154 195 255
154 195 255
154 195 255
154 195 255
154 195 255
154 195 255
154 194 255
154 194 255
154 194 255
154 194 255
154 194 255
154 194 255
154 194 255
154 194 255
153 194 255
153 194 255
153 194 255
153 194 255
153 194 255
153 194 255
153 194 255
153 194 255
153 194 255
153 194 255
153 194 255
153 194 255
153 194 255
153 194 255
153 194 255
153 194 255
153 194 255
153 194 255
153 194 255
153 194 255
153 194 255
153 194 255
153 194 255
153 194 255
153 194 255
153 194 255
153 194 255
153 194 255
153 194 255
153 194 255
153 194 255
153 194 255
153 194 255
153 194 255
154 194 255
154 194 255
154 194 255
154 194 255
154 194 255
154 194 255
154 194 255
154 194 255
154 195 255
154 195 255
154 195 255
154 195 255
154 195 255
154 195 255
154 195 255
154 195 255
154 195 255
154 195 255
154 195 255
154 195 255
155 195 255
155 195 255
155 195 255
155 195 255
155 195 255
155 195 255
155 195 255
155 195 255
155 195 255
155 195 255
155 195 255
155 195 255
155 195 255
155 195 255
156 196 255
156 196 255
156 196 255
156 196 255
156 196 255
156 196 255
156 196 255
156 196 255
156 196 255
156 196 255
156 196 255
157 196 255
157 196 255
157 196 255
157 196 255
157 196 255
157 196 255
157 196 255
157 197 255
157 197 255
157 197 255
157 197 255
158 197 255
158 197 255
158 197 255
158 197 255
158 197 255
158 197 255
158 197 255
158 197 255
158 197 255
158 197 255
159 197 255
159 197 255
159 197 255
159 198 255
159 198 255
159 198 255
159 198 255
159 198 255
159 198 255
160 198 255
160 198 255
160 198 255
160 198 255
160 198 255
160 198 255
160 198 255
160 198 255
160 198 255
160 198 255
161 199 255
161 199 255
161 199 255
161 199 255
161 199 255
161 199 255
161 199 255
161 199 255
161 199 255
162 199 255
162 199 255
162 199 255
162 199 255
162 199 255
162 199 255
162 199 255
162 200 255
162 200 255
162 200 255
163 200 255
163 200 255
163 200 255
163 200 255
163 200 255
163 200 255
163 200 255
163 200 255
163 200 255
163 200 255
164 200 255
164 200 255
164 200 255
164 201 255
164 201 255
164 201 255
164 201 255
164 201 255
164 201 255
164 201 255
165 201 255
165 201 255
165 201 255
165 201 255
165 201 255
165 201 255
165 201 255
165 201 255
165 201 255
165 201 255
165 201 255
166 202 255
166 202 255
166 202 255
166 202 255
166 202 255
166 202 255
166 202 255
166 202 255
166 202 255
166 202 255
166 202 255
167 202 255
167 202 255
167 202 255
167 202 255
167 202 255
167 202 255
167 202 255
167 202 255
167 203 255
167 203 255
167 203 255
167 203 255
168 203 255
168 203 255
168 203 255
168 203 255
168 203 255
168 203 255
168 203 255
168 203 255
168 203 255
168 203 255
168 203 255
168 203 255
169 203 255
169 203 255
169 203 255
169 203 255
169 204 255
169 204 255
169 204 255
169 204 255
169 204 255
169 204 255
169 204 255
169 204 255
169 204 255
170 204 255
170 204 255
170 204 255
169 204 255
169 204 255
169 204 255
169 204 255
169 204 255
169 204 255
169 204 255
169 204 255
169 204 255
169 203 255
169 203 255
169 203 255
169 203 255
168 203 255
168 203 255
168 203 255
168 203 255
168 203 255
168 203 255
168 203 255
168 203 255
168 203 255
168 203 255
168 203 255
168 203 255
167 203 255
167 203 255
167 203 255
167 203 255
167 202 255
167 202 255
167 202 255
167 202 255
167 202 255
167 202 255
167 202 255
167 202 255
166 202 255
166 202 255
166 202 255
166 202 255
166 202 255
166 202 255
166 202 255
166 202 255
166 202 255
166 202 255
166 202 255
165 201 255
165 201 255
165 201 255
165 201 255
165 201 255
165 201 255
165 201 255
165 201 255
165 201 255
165 201 255
165 201 255
164 201 255
164 201 255
164 201 255
164 201 255
164 201 255
164 201 255
164 200 255
164 200 255
164 200 255
164 200 255
163 200 255
163 200 255
163 200 255
163 200 255
163 200 255
163 200 255
163 200 255
163 200 255
163 200 255
163 200 255
162 200 255
162 200 255
162 200 255
162 199 255
162 199 255
162 199 255
162 199 255
162 199 255
162 199 255
161 199 255
161 199 255
161 199 255
161 199 255
161 199 255
161 199 255
161 199 255
161 199 255
161 199 255
161 199 255
160 198 255
160 198 255
160 198 255
160 198 255
160 198 255
160 198 255
160 198 255
160 198 255
160 198 255
160 198 255
159 198 255
159 198 255
159 198 255
159 198 255
159 198 255
159 198 255
159 197 255
159 197 255
159 197 255
158 197 255
158 197 255
158 197 255
158 197 255
158 197 255
158 197 255
158 197 255
158 197 255
158 197 255
158 197 255
157 197 255
157 197 255
157 197 255
157 197 255
157 196 255
157 196 255
157 196 255
157 196 255
157 196 255
157 196 255
157 196 255
156 196 255
156 196 255
156 196 255
156 196 255
156 196 255
156 196 255
156 196 255
156 196 255
156 196 255
156 196 255
156 196 255
156 196 255
155 195 255
155 195 255
155 195 255
155 195 255
155 195 255
155 195 255
155 195 255
155 195 255
155 195 255
155 195 255
155 195 255
155 195 255
155 195 255
155 195 255
154 195 255
154 195 255
154 195 255
154 195 255
154 195 255
154 195 255
154 195 255
154 195 255
154 195 255
154 195 255
154 195 255
154 195 255
154 195 255
154 195 255
154 194 255
154 194 255
154 194 255
154 194 255
154 194 255
154 194 255
154 194 255
154 194 255
154 194 255
154 194 255
154 194 255
154 194 255
154 194 255
154 194 255
154 194 255
154 194 255
154 194 255
153 194 255
154 194 255
154 194 255
154 194 255
153 194 255
154 194 255
154 194 255
154 194 255
154 194 255
154 194 255
154 194 255
154 194 255
154 194 255
154 194 255
154 194 255
154 194 255
154 194 255
154 194 255
154 194 255
154 194 255
154 194 255
154 195 255
154 195 255
154 195 255
154 195 255
154 195 255
154 195 255
154 195 255
154 195 255
154 195 255
154 195 255
154 195 255
154 195 255
154 195 255
154 195 255
155 195 255
155 195 255
155 195 255
155 195 255
155 195 255
155 195 255
155 195 255
155 195 255
155 195 255
155 195 255
155 195 255
155 195 255
155 195 255
155 195 255
156 196 255
156 196 255
156 196 255
156 196 255
156 196 255
156 196 255
156 196 255
156 196 255
156 196 255
156 196 255
156 196 255
156 196 255
157 196 255
157 196 255
157 196 255
157 196 255
157 196 255
157 196 255
157 196 255
157 197 255
157 197 255
157 197 255
157 197 255
158 197 255
158 197 255
158 197 255
158 197 255
158 197 255
158 197 255
158 197 255
158 197 255
158 197 255
158 197 255
159 197 255
159 197 255
159 197 255
159 198 255
159 198 255
159 198 255
159 198 255
159 198 255
159 198 255
160 198 255
160 198 255
160 198 255
160 198 255
160 198 255
160 198 255
160 198 255
160 198 255
160 198 255
160 198 255
161 199 255
161 199 255
161 199 255
161 199 255
161 199 255
161 199 255
161 199 255
161 199 255
161 199 255
161 199 255
162 199 255
162 199 255
162 199 255
162 199 255
162 199 255
162 199 255
162 200 255
162 200 255
162 200 255
163 200 255
163 200 255
163 200 255
163 200 255
163 200 255
163 200 255
163 200 255
163 200 255
163 200 255
163 200 255
164 200 255
164 200 255
164 200 255
164 200 255
164 201 255
164 201 255
164 201 255
164 201 255
164 201 255
164 201 255
165 201 255
165 201 255
165 201 255
165 201 255
165 201 255
165 201 255
165 201 255
165 201 255
165 201 255
165 201 255
165 201 255
166 202 255
166 202 255
166 202 255
166 202 255
166 202 255
166 202 255
166 202 255
166 202 255
166 202 255
166 202 255
166 202 255
167 202 255
167 202 255
167 202 255
167 202 255
167 202 255
167 202 255
167 202 255
167 202 255
167 203 255
167 203 255
167 203 255
167 203 255
168 203 255
168 203 255
168 203 255
168 203 255
168 203 255
168 203 255
168 203 255
168 203 255
168 203 255
168 203 255
168 203 255
168 203 255
169 203 255
169 203 255
169 203 255
169 203 255
169 204 255
169 204 255
169 204 255
169 204 255
169 204 255
169 204 255
169 204 255
169 204 255
169 204 255
170 204 255
170 204 255
170 204 255
170 204 255
170 204 255
170 204 255
170 204 255
170 204 255
170 204 255
169 204 255
169 204 255
169 204 255
169 204 255
169 204 255
169 204 255
169 204 255
169 204 255
169 204 255
169 203 255
169 203 255
169 203 255
169 203 255
168 203 255
168 203 255
168 203 255
168 203 255
168 203 255
168 203 255
168 203 255
168 203 255
168 203 255
168 203 255
168 203 255
168 203 255
167 203 255
167 203 255
167 203 255
167 203 255
167 202 255
167 202 255
167 202 255
167 202 255
167 202 255
167 202 255
167 202 255
167 202 255
166 202 255
166 202 255
166 202 255
166 202 255
166 202 255
166 202 255
166 202 255
166 202 255
166 202 255
166 202 255
166 202 255
165 201 255
165 201 255
165 201 255
165 201 255
165 201 255
165 201 255
165 201 255
165 201 255
165 201 255
165 201 255
164 201 255
164 201 255
164 201 255
164 201 255
164 201 255
164 201 255
164 201 255
164 200 255
164 200 255
164 200 255
163 200 255
163 200 255
163 200 255
163 200 255
163 200 255
163 200 255
163 200 255
163 200 255
163 200 255
163 200 255
162 200 255
162 200 255
162 200 255
162 200 255
162 199 255
162 199 255
162 199 255
162 199 255
162 199 255
162 199 255
161 199 255
161 199 255
161 199 255
161 199 255
161 199 255
161 199 255
161 199 255
161 199 255
161 199 255
161 199 255
160 198 255
160 198 255
160 198 255
160 198 255
160 198 255
160 198 255
160 198 255
160 198 255
160 198 255
159 198 255
159 198 255
159 198 255
159 198 255
159 198 255
159 198 255
159 198 255
159 197 255
159 197 255
159 197 255
158 197 255
158 197 255
158 197 255
158 197 255
158 197 255
158 197 255
158 197 255
158 197 255
158 197 255
158 197 255
157 197 255
157 197 255
157 197 255
157 197 255
157 196 255
157 196 255
157 196 255
157 196 255
157 196 255
157 196 255
157 196 255
156 196 255
156 196 255
156 196 255
156 196 255
156 196 255
156 196 255
156 196 255
156 196 255
156 196 255
156 196 255
156 196 255
156 196 255
156 196 255
155 195 255
155 195 255
155 195 255
155 195 255
155 195 255
155 195 255
155 195 255
155 195 255
155 195 255
155 195 255
155 195 255
155 195 255
155 195 255
155 195 255
155 195 255
155 195 255
154 195 255
154 195 255
154 195 255
154 195 255
154 195 255
154 195 255
154 195 255
154 195 255
154 195 255
154 195 255
154 195 255
154 195 255
154 195 255
154 195 255
154 195 255
154 195 255
154 195 255
154 195 255
154 195 255
154 195 255
154 194 255
154 194 255
154 195 255
154 194 255
154 194 255
154 194 255
154 194 255
154 194 255
154 194 255
154 194 255
154 194 255
154 194 255
154 195 255
154 195 255
154 195 255
154 195 255
154 195 255
154 195 255
154 195 255
154 195 255
154 195 255
154 195 255
154 195 255
154 195 255
154 195 255
154 195 255
154 195 255
154 195 255
154 195 255
154 195 255
154 195 255
154 195 255
154 195 255
154 195 255
155 195 255
155 195 255
155 195 255
155 195 255
155 195 255
155 195 255
155 195 255
155 195 255
155 195 255
155 195 255
155 195 255
155 195 255
155 195 255
155 195 255
155 195 255
155 195 255
156 196 255
156 196 255
156 196 255
156 196 255
156 196 255
156 196 255
156 196 255
156 196 255
156 196 255
156 196 255
156 196 255
156 196 255
156 196 255
157 196 255
157 196 255
157 196 255
157 196 255
157 196 255
157 196 255
157 196 255
157 197 255
157 197 255
157 197 255
157 197 255
158 197 255
158 197 255
158 197 255
158 197 255
158 197 255
158 197 255
158 197 255
158 197 255
158 197 255
158 197 255
159 197 255
159 197 255
159 197 255
159 198 255
159 198 255
159 198 255
159 198 255
159 198 255
159 198 255
159 198 255
160 198 255
160 198 255
160 198 255
160 198 255
160 198 255
160 198 255
160 198 255
160 198 255
160 198 255
161 199 255
161 199 255
161 199 255
161 199 255
161 199 255
161 199 255
161 199 255
161 199 255
161 199 255
161 199 255
162 199 255
162 199 255
162 199 255
162 199 255
162 199 255
162 199 255
162 199 255
162 200 255
162 200 255
163 200 255
163 200 255
163 200 255
163 200 255
163 200 255
163 200 255
163 200 255
163 200 255
163 200 255
163 200 255
164 200 255
164 200 255
164 200 255
164 200 255
164 201 255
164 201 255
164 201 255
164 201 255
164 201 255
164 201 255
164 201 255
165 201 255
165 201 255
165 201 255
165 201 255
165 201 255
165 201 255
165 201 255
165 201 255
165 201 255
165 201 255
166 202 255
166 202 255
166 202 255
166 202 255
166 202 255
166 202 255
166 202 255
166 202 255
166 202 255
166 202 255
166 202 255
167 202 255
167 202 255
167 202 255
167 202 255
167 202 255
167 202 255
167 202 255
167 202 255
167 203 255
167 203 255
167 203 255
167 203 255
168 203 255
168 203 255
168 203 255
168 203 255
168 203 255
168 203 255
168 203 255
168 203 255
168 203 255
168 203 255
168 203 255
168 203 255
169 203 255
169 203 255
169 203 255
169 203 255
169 204 255
169 204 255
169 204 255
169 204 255
169 204 255
169 204 255
169 204 255
169 204 255
169 204 255
170 204 255
170 204 255
170 204 255
170 204 255
170 204 255
170 204 255
170 204 255
170 204 255
170 204 255
170 204 255
170 204 255
170 204 255
170 204 255
170 204 255
170 204 255
169 204 255
169 204 255
169 204 255
169 204 255
169 204 255
169 204 255
169 204 255
169 204 255
169 204 255
169 203 255
169 203 255
169 203 255
169 203 255
168 203 255
168 203 255
168 203 255
168 203 255
168 203 255
168 203 255
168 203 255
168 203 255
168 203 255
168 203 255
168 203 255
168 203 255
167 203 255
167 203 255
167 203 255
167 203 255
167 202 255
167 202 255
167 202 255
167 202 255
167 202 255
167 202 255
167 202 255
167 202 255
166 202 255
166 202 255
166 202 255
166 202 255
166 202 255
166 202 255
166 202 255
166 202 255
166 202 255
166 202 255
166 202 255
165 201 255
165 201 255
165 201 255
165 201 255
165 201 255
165 201 255
165 201 255
165 201 255
165 201 255
165 201 255
164 201 255
164 201 255
164 201 255
164 201 255
164 201 255
164 201 255
164 201 255
164 200 255
164 200 255
164 200 255
163 200 255
163 200 255
163 200 255
163 200 255
163 200 255
163 200 255
163 200 255
163 200 255
163 200 255
163 200 255
162 200 255
162 200 255
162 200 255
162 199 255
162 199 255
162 199 255
162 199 255
162 199 255
162 199 255
162 199 255
161 199 255
161 199 255
161 199 255
161 199 255
161 199 255
161 199 255
161 199 255
161 199 255
161 199 255
160 198 255
160 198 255
160 198 255
160 198 255
160 198 255
160 198 255
160 198 255
160 198 255
160 198 255
160 198 255
159 198 255
159 198 255
159 198 255
159 198 255
159 198 255
159 198 255
159 198 255
159 197 255
159 197 255
159 197 255
158 197 255
158 197 255
158 197 255
158 197 255
158 197 255
158 197 255
158 197 255
158 197 255
158 197 255
158 197 255
157 197 255
157 197 255
157 197 255
157 197 255
157 196 255
157 196 255
157 196 255
157 196 255
157 196 255
157 196 255
157 196 255
157 196 255
156 196 255
156 196 255
156 196 255
156 196 255
156 196 255
156 196 255
156 196 255
156 196 255
156 196 255
156 196 255
156 196 255
156 196 255
156 196 255
155 195 255
155 195 255
155 195 255
155 195 255
155 195 255
155 195 255
155 195 255
155 195 255
155 195 255
155 195 255
155 195 255
155 195 255
155 195 255
155 195 255
155 195 255
155 195 255
155 195 255
155 195 255
155 195 255
154 195 255
154 195 255
154 195 255
154 195 255
154 195 255
154 195 255
154 195 255
154 195 255
154 195 255
154 195 255
154 195 255
154 195 255
154 195 255
154 195 255
154 195 255
154 195 255
154 195 255
154 195 255
154 195 255
154 195 255
154 195 255
154 195 255
154 195 255
154 195 255
154 195 255
154 195 255
154 195 255
154 195 255
154 195 255
154 195 255
154 195 255
154 195 255
154 195 255
154 195 255
154 195 255
154 195 255
154 195 255
154 195 255
154 195 255
154 195 255
155 195 255
155 195 255
155 195 255
155 195 255
155 195 255
155 195 255
155 195 255
155 195 255
155 195 255
155 195 255
155 195 255
155 195 255
155 195 255
155 195 255
155 195 255
155 195 255
155 195 255
155 195 255
155 195 255
156 196 255
156 196 255
156 196 255
156 196 255
156 196 255
156 196 255
156 196 255
156 196 255
156 196 255
156 196 255
156 196 255
156 196 255
156 196 255
157 196 255
157 196 255
157 196 255
157 196 255
157 196 255
157 196 255
157 196 255
157 196 255
157 197 255
157 197 255
157 197 255
157 197 255
158 197 255
158 197 255
158 197 255
158 197 255
158 197 255
158 197 255
158 197 255
158 197 255
158 197 255
158 197 255
159 197 255
159 197 255
159 197 255
159 198 255
159 198 255
159 198 255
159 198 255
159 198 255
159 198 255
159 198 255
160 198 255
160 198 255
160 198 255
160 198 255
160 198 255
160 198 255
160 198 255
160 198 255
160 198 255
161 199 255
161 199 255
161 199 255
161 199 255
161 199 255
161 199 255
161 199 255
161 199 255
161 199 255
161 199 255
162 199 255
162 199 255
162 199 255
162 199 255
162 199 255
162 199 255
162 199 255
162 200 255
162 200 255
162 200 255
163 200 255
163 200 255
163 200 255
163 200 255
163 200 255
163 200 255
163 200 255
163 200 255
163 200 255
163 200 255
164 200 255
164 200 255
164 200 255
164 201 255
164 201 255
164 201 255
164 201 255
164 201 255
164 201 255
164 201 255
165 201 255
165 201 255
165 201 255
165 201 255
165 201 255
165 201 255
165 201 255
165 201 255
165 201 255
165 201 255
166 202 255
166 202 255
166 202 255
166 202 255
166 202 255
166 202 255
166 202 255
166 202 255
166 202 255
166 202 255
166 202 255
167 202 255
167 202 255
167 202 255
167 202 255
167 202 255
167 202 255
167 202 255
167 202 255
167 203 255
167 203 255
167 203 255
167 203 255
168 203 255
168 203 255
168 203 255
168 203 255
168 203 255
168 203 255
168 203 255
168 203 255
168 203 255
168 203 255
168 203 255
168 203 255
169 203 255
169 203 255
169 203 255
169 203 255
169 204 255
169 204 255
169 204 255
169 204 255
169 204 255
169 204 255
169 204 255
169 204 255
170 204 255
170 204 255
170 204 255
170 204 255
170 204 255
170 204 255
170 204 255
170 204 255
170 204 255
170 204 255
170 204 255
170 204 255
170 204 255
170 204 255
170 204 255
170 204 255
170 204 255
170 204 255
170 204 255
170 204 255
170 204 255
170 204 255
170 204 255
169 204 255
169 204 255
169 204 255
169 204 255
169 204 255
169 204 255
169 204 255
169 204 255
169 203 255
169 203 255
169 203 255
169 203 255
168 203 255
168 203 255
168 203 255
168 203 255
168 203 255
168 203 255
168 203 255
168 203 255
168 203 255
168 203 255
168 203 255
168 203 255
167 203 255
167 203 255
167 203 255
167 203 255
167 202 255
167 202 255
167 202 255
167 202 255
167 202 255
167 202 255
167 202 255
167 202 255
166 202 255
166 202 255
166 202 255
166 202 255
166 202 255
166 202 255
166 202 255
166 202 255
166 202 255
166 202 255
166 202 255
165 201 255
165 201 255
165 201 255
165 201 255
165 201 255
165 201 255
165 201 255
165 201 255
165 201 255
165 201 255
164 201 255
164 201 255
164 201 255
164 201 255
164 201 255
164 201 255
164 201 255
164 200 255
164 200 255
164 200 255
163 200 255
163 200 255
163 200 255
163 200 255
163 200 255
163 200 255
163 200 255
163 200 255
163 200 255
163 200 255
162 200 255
162 200 255
162 200 255
162 199 255
162 199 255
162 199 255
162 199 255
162 199 255
162 199 255
162 199 255
161 199 255
161 199 255
161 199 255
161 199 255
161 199 255
161 199 255
161 199 255
161 199 255
161 199 255
160 198 255
160 198 255
160 198 255
160 198 255
160 198 255
160 198 255
160 198 255
160 198 255
160 198 255
160 198 255
159 198 255
159 198 255
159 198 255
159 198 255
159 198 255
159 198 255
159 198 255
159 197 255
159 197 255
159 197 255
158 197 255
158 197 255
158 197 255
158 197 255
158 197 255
158 197 255
158 197 255
158 197 255
158 197 255
158 197 255
158 197 255
157 197 255
157 197 255
157 197 255
157 196 255
157 196 255
157 196 255
157 196 255
157 196 255
157 196 255
157 196 255
157 196 255
157 196 255
156 196 255
156 196 255
156 196 255
156 196 255
156 196 255
156 196 255
156 196 255
156 196 255
156 196 255
156 196 255
156 196 255
156 196 255
156 196 255
156 196 255
155 195 255
155 195 255
155 195 255
155 195 255
155 195 255
155 195 255
155 195 255
155 195 255
155 195 255
155 195 255
155 195 255
155 195 255
155 195 255
155 195 255
155 195 255
155 195 255
155 195 255
155 195 255
155 195 255
155 195 255
155 195 255
155 195 255
155 195 255
155 195 255
154 195 255
154 195 255
154 195 255
154 195 255
154 195 255
154 195 255
154 195 255
154 195 255
154 195 255
154 195 255
154 195 255
154 195 255
154 195 255
154 195 255
154 195 255
154 195 255
154 195 255
154 195 255
154 195 255
154 195 255
155 195 255
155 195 255
155 195 255
155 195 255
155 195 255
155 195 255
155 195 255
155 195 255
155 195 255
155 195 255
155 195 255
155 195 255
155 195 255
155 195 255
155 195 255
155 195 255
155 195 255
155 195 255
155 195 255
155 195 255
155 195 255
155 195 255
155 195 255
155 195 255
156 196 255
156 196 255
156 196 255
156 196 255
156 196 255
156 196 255
156 196 255
156 196 255
156 196 255
156 196 255
156 196 255
156 196 255
156 196 255
156 196 255
157 196 255
157 196 255
157 196 255
157 196 255
157 196 255
157 196 255
157 196 255
157 196 255
157 197 255
157 197 255
157 197 255
157 197 255
158 197 255
158 197 255
158 197 255
158 197 255
158 197 255
158 197 255
158 197 255
158 197 255
158 197 255
158 197 255
158 197 255
159 197 255
159 197 255
159 197 255
159 198 255
159 198 255
159 198 255
159 198 255
159 198 255
159 198 255
159 198 255
160 198 255
160 198 255
160 198 255
160 198 255
160 198 255
160 198 255
160 198 255
160 198 255
160 198 255
160 198 255
161 199 255
161 199 255
161 199 255
161 199 255
161 199 255
161 199 255
161 199 255
161 199 255
161 199 255
161 199 255
162 199 255
162 199 255
162 199 255
162 199 255
162 199 255
162 199 255
162 200 255
162 200 255
162 200 255
163 200 255
163 200 255
163 200 255
163 200 255
163 200 255
163 200 255
163 200 255
163 200 255
163 200 255
163 200 255
164 200 255
164 200 255
164 200 255
164 201 255
164 201 255
164 201 255
164 201 255
164 201 255
164 201 255
164 201 255
165 201 255
165 201 255
165 201 255
165 201 255
165 201 255
165 201 255
165 201 255
165 201 255
165 201 255
165 201 255
166 202 255
166 202 255
166 202 255
166 202 255
166 202 255
166 202 255
166 202 255
166 202 255
166 202 255
166 202 255
166 202 255
167 202 255
167 202 255
167 202 255
167 202 255
167 202 255
167 202 255
167 202 255
167 202 255
167 203 255
167 203 255
167 203 255
167 203 255
168 203 255
168 203 255
168 203 255
168 203 255
168 203 255
168 203 255
168 203 255
168 203 255
168 203 255
168 203 255
168 203 255
168 203 255
169 203 255
169 203 255
169 203 255
169 203 255
169 204 255
169 204 255
169 204 255
169 204 255
169 204 255
169 204 255
169 204 255
169 204 255
170 204 255
170 204 255
170 204 255
170 204 255
170 204 255
170 204 255
170 204 255
170 204 255
170 204 255
170 204 255
170 204 255
170 204 255
170 204 255
171 205 255
171 205 255
170 204 255
170 204 255
170 204 255
170 204 255
170 204 255
170 204 255
170 204 255
170 204 255
170 204 255
170 204 255
170 204 255
170 204 255
170 204 255
170 204 255
169 204 255
169 204 255
169 204 255
169 204 255
169 204 255
169 204 255
169 204 255
169 204 255
169 203 255
169 203 255
169 203 255
169 203 255
168 203 255
168 203 255
168 203 255
168 203 255
168 203 255
168 203 255
168 203 255
168 203 255
168 203 255
168 203 255
168 203 255
168 203 255
167 203 255
167 203 255
167 203 255
167 203 255
167 202 255
167 202 255
167 202 255
167 202 255
167 202 255
167 202 255
167 202 255
167 202 255
166 202 255
166 202 255
166 202 255
166 202 255
166 202 255
166 202 255
166 202 255
166 202 255
166 202 255
166 202 255
165 201 255
165 201 255
165 201 255
165 201 255
165 201 255
165 201 255
165 201 255
165 201 255
165 201 255
165 201 255
165 201 255
164 201 255
164 201 255
164 201 255
164 201 255
164 201 255
164 201 255
164 201 255
164 200 255
164 200 255
164 200 255
163 200 255
163 200 255
163 200 255
163 200 255
163 200 255
163 200 255
163 200 255
163 200 255
163 200 255
163 200 255
162 200 255
162 200 255
162 200 255
162 199 255
162 199 255
162 199 255
162 199 255
162 199 255
162 199 255
162 199 255
161 199 255
161 199 255
161 199 255
161 199 255
161 199 255
161 199 255
161 199 255
161 199 255
161 199 255
160 198 255
160 198 255
160 198 255
160 198 255
160 198 255
160 198 255
160 198 255
160 198 255
160 198 255
160 198 255
159 198 255
159 198 255
159 198 255
159 198 255
159 198 255
159 198 255
159 198 255
159 197 255
159 197 255
159 197 255
158 197 255
158 197 255
158 197 255
158 197 255
158 197 255
158 197 255
158 197 255
158 197 255
158 197 255
158 197 255
158 197 255
157 197 255
157 197 255
157 197 255
157 197 255
157 196 255
157 196 255
157 196 255
157 196 255
157 196 255
157 196 255
157 196 255
157 196 255
157 196 255
156 196 255
156 196 255
156 196 255
156 196 255
156 196 255
156 196 255
156 196 255
156 196 255
156 196 255
156 196 255
156 196 255
156 196 255
156 196 255
156 196 255
156 196 255
155 195 255
155 195 255
155 195 255
155 195 255
155 195 255
155 195 255
155 195 255
155 195 255
155 195 255
155 195 255
155 195 255
155 195 255
155 195 255
155 195 255
155 195 255
155 195 255
155 195 255
155 195 255
155 195 255
155 195 255
155 195 255
155 195 255
155 195 255
155 195 255
155 195 255
155 195 255
155 195 255
155 195 255
155 195 255
155 195 255
155 195 255
155 195 255
155 195 255
155 195 255
155 195 255
155 195 255
155 195 255
155 195 255
155 195 255
155 195 255
155 195 255
155 195 255
155 195 255
155 195 255
155 195 255
155 195 255
155 195 255
155 195 255
155 195 255
155 195 255
155 195 255
155 195 255
155 195 255
155 195 255
155 195 255
155 195 255
155 195 255
155 195 255
156 196 255
156 196 255
156 196 255
156 196 255
156 196 255
156 196 255
156 196 255
156 196 255
156 196 255
156 196 255
156 196 255
156 196 255
156 196 255
156 196 255
156 196 255
157 196 255
157 196 255
157 196 255
157 196 255
157 196 255
157 196 255
157 196 255
157 196 255
157 196 255
157 197 255
157 197 255
157 197 255
157 197 255
158 197 255
158 197 255
158 197 255
158 197 255
158 197 255
158 197 255
158 197 255
158 197 255
158 197 255
158 197 255
158 197 255
159 197 255
159 197 255
159 197 255
159 198 255
159 198 255
159 198 255
159 198 255
159 198 255
159 198 255
159 198 255
160 198 255
160 198 255
160 198 255
160 198 255
160 198 255
160 198 255
160 198 255
160 198 255
160 198 255
160 198 255
161 199 255
161 199 255
161 199 255
161 199 255
161 199 255
161 199 255
161 199 255
161 199 255
161 199 255
161 199 255
162 199 255
162 199 255
162 199 255
162 199 255
162 199 255
162 199 255
162 200 255
162 200 255
162 200 255
163 200 255
163 200 255
163 200 255
163 200 255
163 200 255
163 200 255
163 200 255
163 200 255
163 200 255
163 200 255
164 200 255
164 200 255
164 200 255
164 201 255
164 201 255
164 201 255
164 201 255
164 201 255
164 201 255
164 201 255
165 201 255
165 201 255
165 201 255
165 201 255
165 201 255
165 201 255
165 201 255
165 201 255
165 201 255
165 201 255
166 202 255
166 202 255
166 202 255
166 202 255
166 202 255
166 202 255
166 202 255
166 202 255
166 202 255
166 202 255
166 202 255
167 202 255
167 202 255
167 202 255
167 202 255
167 202 255
167 202 255
167 202 255
167 202 255
167 203 255
167 203 255
167 203 255
167 203 255
168 203 255
168 203 255
168 203 255
168 203 255
168 203 255
168 203 255
168 203 255
168 203 255
168 203 255
168 203 255
168 203 255
168 203 255
169 203 255
169 203 255
169 203 255
169 203 255
169 204 255
169 204 255
169 204 255
169 204 255
169 204 255
169 204 255
169 204 255
169 204 255
170 204 255
170 204 255
170 204 255
170 204 255
170 204 255
170 204 255
170 204 255
170 204 255
170 204 255
170 204 255
170 204 255
170 204 255
170 204 255
170 204 255
171 205 255
171 205 255
171 205 255
171 205 255
171 205 255
171 205 255
171 205 255
171 205 255
170 204 255
170 204 255
170 204 255
170 204 255
170 204 255
170 204 255
170 204 255
170 204 255
170 204 255
170 204 255
170 204 255
170 204 255
170 204 255
169 204 255
169 204 255
169 204 255
169 204 255
169 204 255
169 204 255
169 204 255
169 204 255
169 204 255
169 203 255
169 203 255
169 203 255
169 203 255
168 203 255
168 203 255
168 203 255
168 203 255
168 203 255
168 203 255
168 203 255
168 203 255
168 203 255
168 203 255
168 203 255
168 203 255
167 203 255
167 203 255
167 203 255
167 202 255
167 202 255
167 202 255
167 202 255
167 202 255
167 202 255
167 202 255
167 202 255
166 202 255
166 202 255
166 202 255
166 202 255
166 202 255
166 202 255
166 202 255
166 202 255
166 202 255
166 202 255
165 201 255
165 201 255
165 201 255
165 201 255
165 201 255
165 201 255
165 201 255
165 201 255
165 201 255
165 201 255
165 201 255
164 201 255
164 201 255
164 201 255
164 201 255
164 201 255
164 201 255
164 200 255
164 200 255
164 200 255
164 200 255
163 200 255
163 200 255
163 200 255
163 200 255
163 200 255
163 200 255
163 200 255
163 200 255
163 200 255
163 200 255
162 200 255
162 200 255
162 200 255
162 199 255
162 199 255
162 199 255
162 199 255
162 199 255
162 199 255
161 199 255
161 199 255
161 199 255
161 199 255
161 199 255
161 199 255
161 199 255
161 199 255
161 199 255
161 199 255
160 198 255
160 198 255
160 198 255
160 198 255
160 198 255
160 198 255
160 198 255
160 198 255
160 198 255
160 198 255
159 198 255
159 198 255
159 198 255
159 198 255
159 198 255
159 198 255
159 198 255
159 197 255
159 197 255
159 197 255
159 197 255
158 197 255
158 197 255
158 197 255
158 197 255
158 197 255
158 197 255
158 197 255
158 197 255
158 197 255
158 197 255
158 197 255
157 197 255
157 197 255
157 197 255
157 197 255
157 196 255
157 196 255
157 196 255
157 196 255
157 196 255
157 196 255
157 196 255
157 196 255
157 196 255
156 196 255
156 196 255
156 196 255
156 196 255
156 196 255
156 196 255
156 196 255
156 196 255
156 196 255
156 196 255
156 196 255
156 196 255
156 196 255
156 196 255
156 196 255
156 196 255
156 196 255
156 196 255
155 195 255
155 195 255
155 195 255
155 195 255
155 195 255
155 195 255
155 195 255
155 195 255
155 195 255
155 195 255
155 195 255
155 195 255
155 195 255
155 195 255
155 195 255
155 195 255
155 195 255
155 195 255
155 195 255
155 195 255
155 195 255
155 195 255
155 195 255
155 195 255
155 195 255
155 195 255
155 195 255
155 195 255
155 195 255
155 195 255
155 195 255
155 195 255
155 195 255
155 195 255
155 195 255
155 195 255
155 195 255
155 195 255
155 195 255
155 195 255
155 195 255
155 195 255
155 195 255
155 195 255
156 196 255
156 196 255
156 196 255
156 196 255
156 196 255
156 196 255
156 196 255
156 196 255
156 196 255
156 196 255
156 196 255
156 196 255
156 196 255
156 196 255
156 196 255
156 196 255
156 196 255
156 196 255
157 196 255
157 196 255
157 196 255
157 196 255
157 196 255
157 196 255
157 196 255
157 196 255
157 196 255
157 197 255
157 197 255
157 197 255
157 197 255
158 197 255
158 197 255
158 197 255
158 197 255
158 197 255
158 197 255
158 197 255
158 197 255
158 197 255
158 197 255
158 197 255
159 197 255
159 197 255
159 197 255
159 197 255
159 198 255
159 198 255
159 198 255
159 198 255
159 198 255
159 198 255
159 198 255
160 198 255
160 198 255
160 198 255
160 198 255
160 198 255
160 198 255
160 198 255
160 198 255
160 198 255
160 198 255
161 199 255
161 199 255
161 199 255
161 199 255
161 199 255
161 199 255
161 199 255
161 199 255
161 199 255
161 199 255
162 199 255
162 199 255
162 199 255
162 199 255
162 199 255
162 199 255
162 200 255
162 200 255
162 200 255
163 200 255
163 200 255
163 200 255
163 200 255
163 200 255
163 200 255
163 200 255
163 200 255
163 200 255
163 200 255
164 200 255
164 200 255
164 200 255
164 201 255
164 201 255
164 201 255
164 201 255
164 201 255
164 201 255
164 201 255
165 201 255
165 201 255
165 201 255
165 201 255
165 201 255
165 201 255
165 201 255
165 201 255
165 201 255
165 201 255
165 201 255
166 202 255
166 202 255
166 202 255
166 202 255
166 202 255
166 202 255
166 202 255
166 202 255
166 202 255
166 202 255
167 202 255
167 202 255
167 202 255
167 202 255
167 202 255
167 202 255
167 202 255
167 202 255
167 203 255
167 203 255
167 203 255
167 203 255
168 203 255
168 203 255
168 203 255
168 203 255
168 203 255
168 203 255
168 203 255
168 203 255
168 203 255
168 203 255
168 203 255
169 203 255
169 203 255
169 203 255
169 203 255
169 203 255
169 204 255
169 204 255
169 204 255
169 204 255
169 204 255
169 204 255
169 204 255
169 204 255
170 204 255
170 204 255
170 204 255
170 204 255
170 204 255
170 204 255
170 204 255
170 204 255
170 204 255
170 204 255
170 204 255
170 204 255
170 204 255
171 205 255
171 205 255
171 205 255
171 205 255
171 205 255
171 205 255
171 205 255
171 205 255
171 205 255
171 205 255
171 205 255
171 205 255
171 205 255
171 205 255
171 205 255
170 204 255
170 204 255
170 204 255
170 204 255
170 204 255
170 204 255
170 204 255
170 204 255
170 204 255
170 204 255
170 204 255
170 204 255
170 204 255
169 204 255
169 204 255
169 204 255
169 204 255
169 204 255
169 204 255
169 204 255
169 204 255
169 203 255
169 203 255
169 203 255
169 203 255
169 203 255
168 203 255
168 203 255
168 203 255
168 203 255
168 203 255
168 203 255
168 203 255
168 203 255
168 203 255
168 203 255
168 203 255
167 203 255
167 203 255
167 203 255
167 203 255
167 202 255
167 202 255
167 202 255
167 202 255
167 202 255
167 202 255
167 202 255
167 202 255
166 202 255
166 202 255
166 202 255
166 202 255
166 202 255
166 202 255
166 202 255
166 202 255
166 202 255
166 202 255
165 201 255
165 201 255
165 201 255
165 201 255
165 201 255
165 201 255
165 201 255
165 201 255
165 201 255
165 201 255
165 201 255
164 201 255
164 201 255
164 201 255
164 201 255
164 201 255
164 201 255
164 201 255
164 200 255
164 200 255
164 200 255
163 200 255
163 200 255
163 200 255
163 200 255
163 200 255
163 200 255
163 200 255
163 200 255
163 200 255
163 200 255
162 200 255
162 200 255
162 200 255
162 199 255
162 199 255
162 199 255
162 199 255
162 199 255
162 199 255
161 199 255
161 199 255
161 199 255
161 199 255
161 199 255
161 199 255
161 199 255
161 199 255
161 199 255
161 199 255
160 198 255
160 198 255
160 198 255
160 198 255
160 198 255
160 198 255
160 198 255
160 198 255
160 198 255
160 198 255
159 198 255
159 198 255
159 198 255
159 198 255
159 198 255
159 198 255
159 198 255
159 197 255
159 197 255
159 197 255
159 197 255
158 197 255
158 197 255
158 197 255
158 197 255
158 197 255
158 197 255
158 197 255
158 197 255
158 197 255
158 197 255
158 197 255
158 197 255
157 197 255
157 197 255
157 197 255
157 197 255
157 196 255
157 196 255
157 196 255
157 196 255
157 196 255
157 196 255
157 196 255
157 196 255
157 196 255
157 196 255
156 196 255
156 196 255
156 196 255
156 196 255
156 196 255
156 196 255
156 196 255
156 196 255
156 196 255
156 196 255
156 196 255
156 196 255
156 196 255
156 196 255
156 196 255
156 196 255
156 196 255
156 196 255
156 196 255
156 196 255
156 196 255
156 196 255
156 196 255
155 195 255
155 195 255
155 195 255
155 195 255
155 195 255
155 195 255
155 195 255
155 195 255
155 195 255
155 195 255
155 195 255
155 195 255
155 195 255
155 195 255
155 195 255
155 195 255
155 195 255
155 195 255
155 195 255
155 195 255
155 195 255
155 195 255
155 195 255
155 195 255
156 196 255
156 196 255
156 196 255
156 196 255
156 196 255
156 196 255
156 196 255
156 196 255
156 196 255
156 196 255
156 196 255
156 196 255
156 196 255
156 196 255
156 196 255
156 196 255
156 196 255
156 196 255
156 196 255
156 196 255
156 196 255
156 196 255
156 196 255
157 196 255
157 196 255
157 196 255
157 196 255
157 196 255
157 196 255
157 196 255
157 196 255
157 196 255
157 196 255
157 197 255
157 197 255
157 197 255
157 197 255
158 197 255
158 197 255
158 197 255
158 197 255
158 197 255
158 197 255
158 197 255
158 197 255
158 197 255
158 197 255
158 197 255
158 197 255
159 197 255
159 197 255
159 197 255
159 197 255
159 198 255
159 198 255
159 198 255
159 198 255
159 198 255
159 198 255
159 198 255
160 198 255
160 198 255
160 198 255
160 198 255
160 198 255
160 198 255
160 198 255
160 198 255
160 198 255
160 198 255
161 199 255
161 199 255
161 199 255
161 199 255
161 199 255
161 199 255
161 199 255
161 199 255
161 199 255
161 199 255
162 199 255
162 199 255
162 199 255
162 199 255
162 199 255
162 199 255
162 200 255
162 200 255
162 200 255
163 200 255
163 200 255
163 200 255
163 200 255
163 200 255
163 200 255
163 200 255
163 200 255
163 200 255
163 200 255
164 200 255
164 200 255
164 200 255
164 200 255
164 201 255
164 201 255
164 201 255
164 201 255
164 201 255
164 201 255
165 201 255
165 201 255
165 201 255
165 201 255
165 201 255
165 201 255
165 201 255
165 201 255
165 201 255
165 201 255
165 201 255
166 202 255
166 202 255
166 202 255
166 202 255
166 202 255
166 202 255
166 202 255
166 202 255
166 202 255
166 202 255
167 202 255
167 202 255
167 202 255
167 202 255
167 202 255
167 202 255
167 202 255
167 202 255
167 203 255
167 203 255
167 203 255
167 203 255
168 203 255
168 203 255
168 203 255
168 203 255
168 203 255
168 203 255
168 203 255
168 203 255
168 203 255
168 203 255
168 203 255
169 203 255
169 203 255
169 203 255
169 203 255
169 204 255
169 204 255
169 204 255
169 204 255
169 204 255
169 204 255
169 204 255
169 204 255
169 204 255
170 204 255
170 204 255
170 204 255
170 204 255
170 204 255
170 204 255
170 204 255
170 204 255
170 204 255
170 204 255
170 204 255
170 204 255
170 204 255
171 205 255
171 205 255
171 205 255
171 205 255
171 205 255
171 205 255
171 205 255
171 205 255
171 205 255
171 205 255
171 205 255
171 205 255
171 205 255
171 205 255
171 205 255
171 205 255
171 205 255
171 205 255
171 205 255
171 205 255
171 205 255
170 204 255
170 204 255
170 204 255
170 204 255
170 204 255
170 204 255
170 204 255
170 204 255
170 204 255
170 204 255
170 204 255
170 204 255
170 204 255
169 204 255
169 204 255
169 204 255
169 204 255
169 204 255
169 204 255
169 204 255
169 204 255
169 204 255
169 203 255
169 203 255
169 203 255
169 203 255
168 203 255
168 203 255
168 203 255
168 203 255
168 203 255
168 203 255
168 203 255
168 203 255
168 203 255
168 203 255
168 203 255
168 203 255
167 203 255
167 203 255
167 203 255
167 202 255
167 202 255
167 202 255
167 202 255
167 202 255
167 202 255
167 202 255
167 202 255
166 202 255
166 202 255
166 202 255
166 202 255
166 202 255
166 202 255
166 202 255
166 202 255
166 202 255
166 202 255
165 201 255
165 201 255
165 201 255
165 201 255
165 201 255
165 201 255
165 201 255
165 201 255
165 201 255
165 201 255
164 201 255
164 201 255
164 201 255
164 201 255
164 201 255
164 201 255
164 201 255
164 200 255
164 200 255
164 200 255
163 200 255
163 200 255
163 200 255
163 200 255
163 200 255
163 200 255
163 200 255
163 200 255
163 200 255
163 200 255
163 200 255
162 200 255
162 200 255
162 200 255
162 199 255
162 199 255
162 199 255
162 199 255
162 199 255
162 199 255
161 199 255
161 199 255
161 199 255
161 199 255
161 199 255
161 199 255
161 199 255
161 199 255
161 199 255
161 199 255
160 198 255
160 198 255
160 198 255
160 198 255
160 198 255
160 198 255
160 198 255
160 198 255
160 198 255
160 198 255
160 198 255
159 198 255
159 198 255
159 198 255
159 198 255
159 198 255
159 198 255
159 198 255
159 197 255
159 197 255
159 197 255
158 197 255
158 197 255
158 197 255
158 197 255
158 197 255
158 197 255
158 197 255
158 197 255
158 197 255
158 197 255
158 197 255
158 197 255
158 197 255
157 197 255
157 197 255
157 197 255
157 197 255
157 197 255
157 196 255
157 196 255
157 196 255
157 196 255
157 196 255
157 196 255
157 196 255
157 196 255
157 196 255
157 196 255
156 196 255
156 196 255
156 196 255
156 196 255
156 196 255
156 196 255
156 196 255
156 196 255
156 196 255
156 196 255
156 196 255
156 196 255
156 196 255
156 196 255
156 196 255
156 196 255
156 196 255
156 196 255
156 196 255
156 196 255
156 196 255
156 196 255
156 196 255
156 196 255
156 196 255
156 196 255
156 196 255
156 196 255
156 196 255
156 196 255
156 196 255
156 196 255
156 196 255
156 196 255
156 196 255
156 196 255
156 196 255
156 196 255
156 196 255
156 196 255
156 196 255
156 196 255
156 196 255
156 196 255
156 196 255
156 196 255
156 196 255
156 196 255
156 196 255
156 196 255
156 196 255
156 196 255
156 196 255
156 196 255
156 196 255
156 196 255
156 196 255
156 196 255
156 196 255
156 196 255
157 196 255
157 196 255
157 196 255
157 196 255
157 196 255
157 196 255
157 196 255
157 196 255
157 196 255
157 196 255
157 196 255
157 197 255
157 197 255
157 197 255
157 197 255
158 197 255
158 197 255
158 197 255
158 197 255
158 197 255
158 197 255
158 197 255
158 197 255
158 197 255
158 197 255
158 197 255
158 197 255
159 197 255
159 197 255
159 197 255
159 197 255
159 198 255
159 198 255
159 198 255
159 198 255
159 198 255
159 198 255
159 198 255
160 198 255
160 198 255
160 198 255
160 198 255
160 198 255
160 198 255
160 198 255
160 198 255
160 198 255
160 198 255
160 198 255
161 199 255
161 199 255
161 199 255
161 199 255
161 199 255
161 199 255
161 199 255
161 199 255
161 199 255
161 199 255
162 199 255
162 199 255
162 199 255
162 199 255
162 199 255
162 199 255
162 200 255
162 200 255
162 200 255
162 200 255
163 200 255
163 200 255
163 200 255
163 200 255
163 200 255
163 200 255
163 200 255
163 200 255
163 200 255
163 200 255
164 200 255
164 200 255
164 200 255
164 201 255
164 201 255
164 201 255
164 201 255
164 201 255
164 201 255
165 201 255
165 201 255
165 201 255
165 201 255
165 201 255
165 201 255
165 201 255
165 201 255
165 201 255
165 201 255
165 201 255
166 202 255
166 202 255
166 202 255
166 202 255
166 202 255
166 202 255
166 202 255
166 202 255
166 202 255
166 202 255
166 202 255
167 202 255
167 202 255
167 202 255
167 202 255
167 202 255
167 202 255
167 202 255
167 203 255
167 203 255
167 203 255
168 203 255
168 203 255
168 203 255
168 203 255
168 203 255
168 203 255
168 203 255
168 203 255
168 203 255
168 203 255
168 203 255
168 203 255
169 203 255
169 203 255
169 203 255
169 203 255
169 204 255
169 204 255
169 204 255
169 204 255
169 204 255
169 204 255
169 204 255
169 204 255
170 204 255
170 204 255
170 204 255
170 204 255
170 204 255
170 204 255
170 204 255
170 204 255
170 204 255
170 204 255
170 204 255
170 204 255
170 204 255
170 204 255
171 205 255
171 205 255
171 205 255
171 205 255
171 205 255
171 205 255
171 205 255
171 205 255
171 205 255
171 205 255
171 205 255
171 205 255
172 205 255
172 205 255
171 205 255
171 205 255
171 205 255
171 205 255
171 205 255
171 205 255
171 205 255
171 205 255
171 205 255
171 205 255
171 205 255
171 205 255
171 205 255
171 205 255
170 204 255
170 204 255
170 204 255
170 204 255
170 204 255
170 204 255
170 204 255
170 204 255
170 204 255
170 204 255
170 204 255
170 204 255
170 204 255
169 204 255
169 204 255
169 204 255
169 204 255
169 204 255
169 204 255
169 204 255
169 204 255
169 203 255
169 203 255
169 203 255
169 203 255
168 203 255
168 203 255
168 203 255
168 203 255
168 203 255
168 203 255
168 203 255
168 203 255
168 203 255
168 203 255
168 203 255
167 203 255
167 203 255
167 203 255
167 203 255
167 202 255
167 202 255
167 202 255
167 202 255
167 202 255
167 202 255
167 202 255
167 202 255
166 202 255
166 202 255
166 202 255
166 202 255
166 202 255
166 202 255
166 202 255
166 202 255
166 202 255
166 202 255
165 201 255
165 201 255
165 201 255
165 201 255
165 201 255
165 201 255
165 201 255
165 201 255
165 201 255
165 201 255
165 201 255
164 201 255
164 201 255
164 201 255
164 201 255
164 201 255
164 201 255
164 200 255
164 200 255
164 200 255
164 200 255
163 200 255
163 200 255
163 200 255
163 200 255
163 200 255
163 200 255
163 200 255
163 200 255
163 200 255
163 200 255
162 200 255
162 200 255
162 200 255
162 199 255
162 199 255
162 199 255
162 199 255
162 199 255
162 199 255
161 199 255
161 199 255
161 199 255
161 199 255
161 199 255
161 199 255
161 199 255
161 199 255
161 199 255
161 199 255
161 199 255
160 198 255
160 198 255
160 198 255
160 198 255
160 198 255
160 198 255
160 198 255
160 198 255
160 198 255
160 198 255
159 198 255
159 198 255
159 198 255
159 198 255
159 198 255
159 198 255
159 198 255
159 197 255
159 197 255
159 197 255
159 197 255
158 197 255
158 197 255
158 197 255
158 197 255
158 197 255
158 197 255
158 197 255
158 197 255
158 197 255
158 197 255
158 197 255
158 197 255
158 197 255
157 197 255
157 197 255
157 197 255
157 197 255
157 197 255
157 196 255
157 196 255
157 196 255
157 196 255
157 196 255
157 196 255
157 196 255
157 196 255
157 196 255
157 196 255
157 196 255
157 196 255
157 196 255
156 196 255
156 196 255
156 196 255
156 196 255
156 196 255
156 196 255
156 196 255
156 196 255
156 196 255
156 196 255
156 196 255
156 196 255
156 196 255
156 196 255
156 196 255
156 196 255
156 196 255
156 196 255
156 196 255
156 196 255
156 196 255
156 196 255
156 196 255
156 196 255
156 196 255
156 196 255
156 196 255
156 196 255
156 196 255
156 196 255
156 196 255
156 196 255
156 196 255
156 196 255
156 196 255
156 196 255
156 196 255
156 196 255
156 196 255
156 196 255
156 196 255
156 196 255
156 196 255
156 196 255
156 196 255
156 196 255
157 196 255
157 196 255
157 196 255
157 196 255
157 196 255
157 196 255
157 196 255
157 196 255
157 196 255
157 196 255
157 196 255
157 196 255
157 197 255
157 197 255
157 197 255
157 197 255
157 197 255
157 197 255
158 197 255
158 197 255
158 197 255
158 197 255
158 197 255
158 197 255
158 197 255
158 197 255
158 197 255
158 197 255
158 197 255
158 197 255
158 197 255
159 197 255
159 197 255
159 197 255
159 197 255
159 198 255
159 198 255
159 198 255
159 198 255
159 198 255
159 198 255
159 198 255
160 198 255
160 198 255
160 198 255
160 198 255
160 198 255
160 198 255
160 198 255
160 198 255
160 198 255
160 198 255
161 199 255
161 199 255
161 199 255
161 199 255
161 199 255
161 199 255
161 199 255
161 199 255
161 199 255
161 199 255
161 199 255
162 199 255
162 199 255
162 199 255
162 199 255
162 199 255
162 199 255
162 200 255
162 200 255
162 200 255
163 200 255
163 200 255
163 200 255
163 200 255
163 200 255
163 200 255
163 200 255
163 200 255
163 200 255
163 200 255
164 200 255
164 200 255
164 200 255
164 200 255
164 201 255
164 201 255
164 201 255
164 201 255
164 201 255
164 201 255
165 201 255
165 201 255
165 201 255
165 201 255
165 201 255
165 201 255
165 201 255
165 201 255
165 201 255
165 201 255
165 201 255
166 202 255
166 202 255
166 202 255
166 202 255
166 202 255
166 202 255
166 202 255
166 202 255
166 202 255
166 202 255
167 202 255
167 202 255
167 202 255
167 202 255
167 202 255
167 202 255
167 202 255
167 202 255
167 203 255
167 203 255
167 203 255
168 203 255
168 203 255
168 203 255
168 203 255
168 203 255
168 203 255
168 203 255
168 203 255
168 203 255
168 203 255
168 203 255
168 203 255
169 203 255
169 203 255
169 203 255
169 203 255
169 204 255
169 204 255
169 204 255
169 204 255
169 204 255
169 204 255
169 204 255
169 204 255
170 204 255
170 204 255
170 204 255
170 204 255
170 204 255
170 204 255
170 204 255
170 204 255
170 204 255
170 204 255
170 204 255
170 204 255
170 204 255
171 205 255
171 205 255
171 205 255
171 205 255
171 205 255
171 205 255
171 205 255
171 205 255
171 205 255
171 205 255
171 205 255
171 205 255
171 205 255
171 205 255
172 205 255
172 205 255
172 205 255
172 205 255
172 205 255
172 205 255
172 205 255
171 205 255
171 205 255
171 205 255
171 205 255
171 205 255
171 205 255
171 205 255
171 205 255
171 205 255
171 205 255
171 205 255
171 205 255
171 205 255
171 205 255
170 204 255
170 204 255
170 204 255
170 204 255
170 204 255
170 204 255
170 204 255
170 204 255
170 204 255
170 204 255
170 204 255
170 204 255
170 204 255
169 204 255
169 204 255
169 204 255
169 204 255
169 204 255
169 204 255
169 204 255
169 204 255
169 203 255
169 203 255
169 203 255
169 203 255
168 203 255
168 203 255
168 203 255
168 203 255
168 203 255
168 203 255
168 203 255
168 203 255
168 203 255
168 203 255
168 203 255
168 203 255
167 203 255
167 203 255
167 203 255
167 202 255
167 202 255
167 202 255
167 202 255
167 202 255
167 202 255
167 202 255
167 202 255
166 202 255
166 202 255
166 202 255
166 202 255
166 202 255
166 202 255
166 202 255
166 202 255
166 202 255
166 202 255
165 201 255
165 201 255
165 201 255
165 201 255
165 201 255
165 201 255
165 201 255
165 201 255
165 201 255
165 201 255
164 201 255
164 201 255
164 201 255
164 201 255
164 201 255
164 201 255
164 201 255
164 200 255
164 200 255
164 200 255
163 200 255
163 200 255
163 200 255
163 200 255
163 200 255
163 200 255
163 200 255
163 200 255
163 200 255
163 200 255
162 200 255
162 200 255
162 200 255
162 200 255
162 199 255
162 199 255
162 199 255
162 199 255
162 199 255
162 199 255
162 199 255
161 199 255
161 199 255
161 199 255
161 199 255
161 199 255
161 199 255
161 199 255
161 199 255
161 199 255
161 199 255
160 198 255
160 198 255
160 198 255
160 198 255
160 198 255
160 198 255
160 198 255
160 198 255
160 198 255
160 198 255
160 198 255
159 198 255
159 198 255
159 198 255
159 198 255
159 198 255
159 198 255
159 198 255
159 197 255
159 197 255
159 197 255
159 197 255
159 197 255
158 197 255
158 197 255
158 197 255
158 197 255
158 197 255
158 197 255
158 197 255
158 197 255
158 197 255
158 197 255
158 197 255
158 197 255
158 197 255
157 197 255
157 197 255
157 197 255
157 197 255
157 197 255
157 197 255
157 196 255
157 196 255
157 196 255
157 196 255
157 196 255
157 196 255
157 196 255
157 196 255
157 196 255
157 196 255
157 196 255
157 196 255
157 196 255
157 196 255
157 196 255
157 196 255
157 196 255
156 196 255
156 196 255
156 196 255
156 196 255
156 196 255
156 196 255
156 196 255
156 196 255
156 196 255
156 196 255
156 196 255
156 196 255
156 196 255
156 196 255
156 196 255
156 196 255
156 196 255
156 196 255
156 196 255
156 196 255
156 196 255
156 196 255
156 196 255
156 196 255
156 196 255
156 196 255
157 196 255
157 196 255
157 196 255
157 196 255
157 196 255
157 196 255
157 196 255
157 196 255
157 196 255
157 196 255
157 196 255
157 196 255
157 196 255
157 196 255
157 196 255
157 196 255
157 196 255
157 197 255
157 197 255
157 197 255
157 197 255
157 197 255
158 197 255
158 197 255
158 197 255
158 197 255
158 197 255
158 197 255
158 197 255
158 197 255
158 197 255
158 197 255
158 197 255
158 197 255
158 197 255
158 197 255
158 197 255
159 197 255
159 197 255
159 197 255
159 197 255
159 198 255
159 198 255
159 198 255
159 198 255
159 198 255
159 198 255
159 198 255
160 198 255
160 198 255
160 198 255
160 198 255
160 198 255
160 198 255
160 198 255
160 198 255
160 198 255
160 198 255
160 198 255
161 199 255
161 199 255
161 199 255
161 199 255
161 199 255
161 199 255
161 199 255
161 199 255
161 199 255
161 199 255
161 199 255
162 199 255
162 199 255
162 199 255
162 199 255
162 199 255
162 199 255
162 200 255
162 200 255
162 200 255
163 200 255
163 200 255
163 200 255
163 200 255
163 200 255
163 200 255
163 200 255
163 200 255
163 200 255
163 200 255
164 200 255
164 200 255
164 200 255
164 200 255
164 201 255
164 201 255
164 201 255
164 201 255
164 201 255
164 201 255
165 201 255
165 201 255
165 201 255
165 201 255
165 201 255
165 201 255
165 201 255
165 201 255
165 201 255
165 201 255
165 201 255
166 202 255
166 202 255
166 202 255
166 202 255
166 202 255
166 202 255
166 202 255
166 202 255
166 202 255
166 202 255
167 202 255
167 202 255
167 202 255
167 202 255
167 202 255
167 202 255
167 202 255
167 203 255
167 203 255
167 203 255
167 203 255
168 203 255
168 203 255
168 203 255
168 203 255
168 203 255
168 203 255
168 203 255
168 203 255
168 203 255
168 203 255
168 203 255
168 203 255
169 203 255
169 203 255
169 203 255
169 203 255
169 204 255
169 204 255
169 204 255
169 204 255
169 204 255
169 204 255
169 204 255
169 204 255
170 204 255
170 204 255
170 204 255
170 204 255
170 204 255
170 204 255
170 204 255
170 204 255
170 204 255
170 204 255
170 204 255
170 204 255
170 204 255
171 205 255
171 205 255
171 205 255
171 205 255
171 205 255
171 205 255
171 205 255
171 205 255
171 205 255
171 205 255
171 205 255
171 205 255
171 205 255
171 205 255
172 205 255
172 205 255
172 205 255
172 205 255
172 205 255
172 205 255
172 205 255
172 205 255
172 205 255
172 205 255
172 205 255
172 205 255
172 205 255
172 205 255
171 205 255
171 205 255
171 205 255
171 205 255
171 205 255
171 205 255
171 205 255
171 205 255
171 205 255
171 205 255
171 205 255
171 205 255
171 205 255
171 204 255
170 204 255
170 204 255
170 204 255
170 204 255
170 204 255
170 204 255
170 204 255
170 204 255
170 204 255
170 204 255
170 204 255
170 204 255
169 204 255
169 204 255
169 204 255
169 204 255
169 204 255
169 204 255
169 204 255
169 204 255
169 203 255
169 203 255
169 203 255
169 203 255
168 203 255
168 203 255
168 203 255
168 203 255
168 203 255
168 203 255
168 203 255
168 203 255
168 203 255
168 203 255
168 203 255
168 203 255
167 203 255
167 203 255
167 203 255
167 203 255
167 202 255
167 202 255
167 202 255
167 202 255
167 202 255
167 202 255
167 202 255
166 202 255
166 202 255
166 202 255
166 202 255
166 202 255
166 202 255
166 202 255
166 202 255
166 202 255
166 202 255
165 201 255
165 201 255
165 201 255
165 201 255
165 201 255
165 201 255
165 201 255
165 201 255
165 201 255
165 201 255
165 201 255
164 201 255
164 201 255
164 201 255
164 201 255
164 201 255
164 201 255
164 200 255
164 200 255
164 200 255
164 200 255
163 200 255
163 200 255
163 200 255
163 200 255
163 200 255
163 200 255
163 200 255
163 200 255
163 200 255
163 200 255
162 200 255
162 200 255
162 200 255
162 199 255
162 199 255
162 199 255
162 199 255
162 199 255
162 199 255
162 199 255
161 199 255
161 199 255
161 199 255
161 199 255
161 199 255
161 199 255
161 199 255
161 199 255
161 199 255
161 199 255
160 198 255
160 198 255
160 198 255
160 198 255
160 198 255
160 198 255
160 198 255
160 198 255
160 198 255
160 198 255
160 198 255
159 198 255
159 198 255
159 198 255
159 198 255
159 198 255
159 198 255
159 198 255
159 198 255
159 197 255
159 197 255
159 197 255
159 197 255
159 197 255
158 197 255
158 197 255
158 197 255
158 197 255
158 197 255
158 197 255
158 197 255
158 197 255
158 197 255
158 197 255
158 197 255
158 197 255
158 197 255
158 197 255
158 197 255
157 197 255
157 197 255
157 197 255
157 197 255
157 197 255
157 197 255
157 197 255
157 196 255
157 196 255
157 196 255
157 196 255
157 196 255
157 196 255
157 196 255
157 196 255
157 196 255
157 196 255
157 196 255
157 196 255
157 196 255
157 196 255
157 196 255
157 196 255
157 196 255
157 196 255
157 196 255
157 196 255
157 196 255
157 196 255
157 196 255
157 196 255
157 196 255
157 196 255
157 196 255
157 196 255
157 196 255
157 196 255
157 196 255
157 196 255
157 196 255
157 196 255
157 196 255
157 196 255
157 196 255
157 196 255
157 196 255
157 196 255
157 196 255
157 196 255
157 196 255
157 196 255
157 196 255
157 196 255
157 197 255
157 197 255
157 197 255
157 197 255
157 197 255
157 197 255
157 197 255
158 197 255
158 197 255
158 197 255
158 197 255
158 197 255
158 197 255
158 197 255
158 197 255
158 197 255
158 197 255
158 197 255
158 197 255
158 197 255
158 197 255
158 197 255
158 197 255
159 197 255
159 197 255
159 197 255
159 197 255
159 198 255
159 198 255
159 198 255
159 198 255
159 198 255
159 198 255
159 198 255
159 198 255
160 198 255
160 198 255
160 198 255
160 198 255
160 198 255
160 198 255
160 198 255
160 198 255
160 198 255
160 198 255
160 198 255
161 199 255
161 199 255
161 199 255
161 199 255
161 199 255
161 199 255
161 199 255
161 199 255
161 199 255
161 199 255
162 199 255
162 199 255
162 199 255
162 199 255
162 199 255
162 199 255
162 199 255
162 200 255
162 200 255
162 200 255
163 200 255
163 200 255
163 200 255
163 200 255
163 200 255
163 200 255
163 200 255
163 200 255
163 200 255
163 200 255
164 200 255
164 200 255
164 200 255
164 200 255
164 201 255
164 201 255
164 201 255
164 201 255
164 201 255
164 201 255
165 201 255
165 201 255
165 201 255
165 201 255
165 201 255
165 201 255
165 201 255
165 201 255
165 201 255
165 201 255
165 201 255
166 202 255
166 202 255
166 202 255
166 202 255
166 202 255
166 202 255
166 202 255
166 202 255
166 202 255
166 202 255
167 202 255
167 202 255
167 202 255
167 202 255
167 202 255
167 202 255
167 202 255
167 202 255
167 203 255
167 203 255
167 203 255
168 203 255
168 203 255
168 203 255
168 203 255
168 203 255
168 203 255
168 203 255
168 203 255
168 203 255
168 203 255
168 203 255
168 203 255
169 203 255
169 203 255
169 203 255
169 203 255
169 204 255
169 204 255
169 204 255
169 204 255
169 204 255
169 204 255
169 204 255
169 204 255
170 204 255
170 204 255
170 204 255
170 204 255
170 204 255
170 204 255
170 204 255
170 204 255
170 204 255
170 204 255
170 204 255
170 204 255
171 205 255
171 205 255
171 205 255
171 205 255
171 205 255
171 205 255
171 205 255
171 205 255
171 205 255
171 205 255
171 205 255
171 205 255
171 205 255
171 205 255
172 205 255
172 205 255
172 205 255
172 205 255
172 205 255
172 205 255
172 205 255
172 205 255
172 205 255
172 206 255
172 206 255
172 206 255
172 205 255
172 205 255
172 205 255
172 205 255
172 205 255
172 205 255
172 205 255
172 205 255
172 205 255
171 205 255
171 205 255
171 205 255
171 205 255
171 205 255
171 205 255
171 205 255
171 205 255
171 205 255
171 205 255
171 205 255
171 205 255
171 205 255
171 205 255
170 204 255
170 204 255
170 204 255
170 204 255
170 204 255
170 204 255
170 204 255
170 204 255
170 204 255
170 204 255
170 204 255
170 204 255
170 204 255
169 204 255
169 204 255
169 204 255
169 204 255
169 204 255
169 204 255
169 204 255
169 204 255
169 203 255
169 203 255
169 203 255
169 203 255
168 203 255
168 203 255
168 203 255
168 203 255
168 203 255
168 203 255
168 203 255
168 203 255
168 203 255
168 203 255
168 203 255
167 203 255
167 203 255
167 203 255
167 203 255
167 202 255
167 202 255
167 202 255
167 202 255
167 202 255
167 202 255
167 202 255
166 202 255
166 202 255
166 202 255
166 202 255
166 202 255
166 202 255
166 202 255
166 202 255
166 202 255
166 202 255
165 201 255
165 201 255
165 201 255
165 201 255
165 201 255
165 201 255
165 201 255
165 201 255
165 201 255
165 201 255
165 201 255
164 201 255
164 201 255
164 201 255
164 201 255
164 201 255
164 201 255
164 200 255
164 200 255
164 200 255
164 200 255
163 200 255
163 200 255
163 200 255
163 200 255
163 200 255
163 200 255
163 200 255
163 200 255
163 200 255
163 200 255
162 200 255
162 200 255
162 200 255
162 199 255
162 199 255
162 199 255
162 199 255
162 199 255
162 199 255
162 199 255
161 199 255
161 199 255
161 199 255
161 199 255
161 199 255
161 199 255
161 199 255
161 199 255
161 199 255
161 199 255
161 199 255
160 198 255
160 198 255
160 198 255
160 198 255
160 198 255
160 198 255
160 198 255
160 198 255
160 198 255
160 198 255
160 198 255
159 198 255
159 198 255
159 198 255
159 198 255
159 198 255
159 198 255
159 198 255
159 198 255
159 198 255
159 197 255
159 197 255
159 197 255
159 197 255
158 197 255
158 197 255
158 197 255
158 197 255
158 197 255
158 197 255
158 197 255
158 197 255
158 197 255
158 197 255
158 197 255
158 197 255
158 197 255
158 197 255
158 197 255
158 197 255
158 197 255
158 197 255
157 197 255
157 197 255
157 197 255
157 197 255
157 197 255
157 197 255
157 197 255
157 197 255
157 197 255
157 196 255
157 196 255
157 196 255
157 196 255
157 196 255
157 196 255
157 196 255
157 196 255
157 196 255
157 196 255
157 196 255
157 196 255
157 196 255
157 196 255
157 196 255
157 196 255
157 196 255
157 196 255
157 196 255
157 196 255
157 196 255
157 196 255
157 196 255
157 196 255
157 196 255
157 196 255
157 196 255
157 197 255
157 197 255
157 197 255
157 197 255
157 197 255
157 197 255
157 197 255
157 197 255
157 197 255
157 197 255
158 197 255
158 197 255
158 197 255
158 197 255
158 197 255
158 197 255
158 197 255
158 197 255
158 197 255
158 197 255
158 197 255
158 197 255
158 197 255
158 197 255
158 197 255
158 197 255
158 197 255
158 197 255
159 197 255
159 197 255
159 197 255
159 197 255
159 198 255
159 198 255
159 198 255
159 198 255
159 198 255
159 198 255
159 198 255
159 198 255
159 198 255
160 198 255
160 198 255
160 198 255
160 198 255
160 198 255
160 198 255
160 198 255
160 198 255
160 198 255
160 198 255
160 198 255
161 199 255
161 199 255
161 199 255
161 199 255
161 199 255
161 199 255
161 199 255
161 199 255
161 199 255
161 199 255
161 199 255
162 199 255
162 199 255
162 199 255
162 199 255
162 199 255
162 199 255
162 199 255
162 200 255
162 200 255
162 200 255
163 200 255
163 200 255
163 200 255
163 200 255
163 200 255
163 200 255
163 200 255
163 200 255
163 200 255
163 200 255
164 200 255
164 200 255
164 200 255
164 200 255
164 201 255
164 201 255
164 201 255
164 201 255
164 201 255
164 201 255
165 201 255
165 201 255
165 201 255
165 201 255
165 201 255
165 201 255
165 201 255
165 201 255
165 201 255
165 201 255
166 202 255
166 202 255
166 202 255
166 202 255
166 202 255
166 202 255
166 202 255
166 202 255
166 202 255
166 202 255
166 202 255
167 202 255
167 202 255
167 202 255
167 202 255
167 202 255
167 202 255
167 202 255
167 203 255
167 203 255
167 203 255
167 203 255
168 203 255
168 203 255
168 203 255
168 203 255
168 203 255
168 203 255
168 203 255
168 203 255
168 203 255
168 203 255
168 203 255
169 203 255
169 203 255
169 203 255
169 203 255
169 204 255
169 204 255
169 204 255
169 204 255
169 204 255
169 204 255
169 204 255
169 204 255
170 204 255
170 204 255
170 204 255
170 204 255
170 204 255
170 204 255
170 204 255
170 204 255
170 204 255
170 204 255
170 204 255
170 204 255
170 204 255
171 205 255
171 205 255
171 205 255
171 205 255
171 205 255
171 205 255
171 205 255
171 205 255
171 205 255
171 205 255
171 205 255
171 205 255
171 205 255
171 205 255
172 205 255
172 205 255
172 205 255
172 205 255
172 205 255
172 205 255
172 205 255
172 205 255
172 205 255
172 206 255
172 206 255
172 206 255
173 206 255
172 206 255
172 206 255
172 206 255
172 206 255
172 206 255
172 205 255
172 205 255
172 205 255
172 205 255
172 205 255
172 205 255
172 205 255
172 205 255
172 205 255
172 205 255
171 205 255
171 205 255
171 205 255
171 205 255
171 205 255
171 205 255
171 205 255
171 205 255
171 205 255
171 205 255
171 205 255
171 205 255
171 205 255
170 204 255
170 204 255
170 204 255
170 204 255
170 204 255
170 204 255
170 204 255
170 204 255
170 204 255
170 204 255
170 204 255
170 204 255
170 204 255
169 204 255
169 204 255
169 204 255
169 204 255
169 204 255
169 204 255
169 204 255
169 204 255
169 203 255
169 203 255
169 203 255
169 203 255
168 203 255
168 203 255
168 203 255
168 203 255
168 203 255
168 203 255
168 203 255
168 203 255
168 203 255
168 203 255
168 203 255
167 203 255
167 203 255
167 203 255
167 203 255
167 202 255
167 202 255
167 202 255
167 202 255
167 202 255
167 202 255
167 202 255
166 202 255
166 202 255
166 202 255
166 202 255
166 202 255
166 202 255
166 202 255
166 202 255
166 202 255
166 202 255
166 202 255
165 201 255
165 201 255
165 201 255
165 201 255
165 201 255
165 201 255
165 201 255
165 201 255
165 201 255
165 201 255
164 201 255
164 201 255
164 201 255
164 201 255
164 201 255
164 201 255
164 201 255
164 200 255
164 200 255
164 200 255
163 200 255
163 200 255
163 200 255
163 200 255
163 200 255
163 200 255
163 200 255
163 200 255
163 200 255
163 200 255
162 200 255
162 200 255
162 200 255
162 200 255
162 199 255
162 199 255
162 199 255
162 199 255
162 199 255
162 199 255
162 199 255
161 199 255
161 199 255
161 199 255
161 199 255
161 199 255
161 199 255
161 199 255
161 199 255
161 199 255
161 199 255
160 198 255
160 198 255
160 198 255
160 198 255
160 198 255
160 198 255
160 198 255
160 198 255
160 198 255
160 198 255
160 198 255
160 198 255
159 198 255
159 198 255
159 198 255
159 198 255
159 198 255
159 198 255
159 198 255
159 198 255
159 198 255
159 197 255
159 197 255
159 197 255
159 197 255
159 197 255
158 197 255
158 197 255
158 197 255
158 197 255
158 197 255
158 197 255
158 197 255
158 197 255
158 197 255
158 197 255
158 197 255
158 197 255
158 197 255
158 197 255
158 197 255
158 197 255
158 197 255
158 197 255
158 197 255
158 197 255
158 197 255
158 197 255
158 197 255
157 197 255
157 197 255
157 197 255
157 197 255
157 197 255
157 197 255
157 197 255
157 197 255
157 197 255
157 197 255
157 197 255
157 197 255
157 197 255
157 197 255
157 197 255
157 197 255
157 197 255
157 197 255
157 197 255
157 197 255
157 197 255
157 197 255
157 197 255
157 197 255
157 197 255
157 197 255
158 197 255
158 197 255
158 197 255
158 197 255
158 197 255
158 197 255
158 197 255
158 197 255
158 197 255
158 197 255
158 197 255
158 197 255
158 197 255
158 197 255
158 197 255
158 197 255
158 197 255
158 197 255
158 197 255
158 197 255
158 197 255
158 197 255
158 197 255
159 197 255
159 197 255
159 197 255
159 197 255
159 197 255
159 198 255
159 198 255
159 198 255
159 198 255
159 198 255
159 198 255
159 198 255
159 198 255
159 198 255
160 198 255
160 198 255
160 198 255
160 198 255
160 198 255
160 198 255
160 198 255
160 198 255
160 198 255
160 198 255
160 198 255
160 198 255
161 199 255
161 199 255
161 199 255
161 199 255
161 199 255
161 199 255
161 199 255
161 199 255
161 199 255
161 199 255
162 199 255
162 199 255
162 199 255
162 199 255
162 199 255
162 199 255
162 199 255
162 200 255
162 200 255
162 200 255
162 200 255
163 200 255
163 200 255
163 200 255
163 200 255
163 200 255
163 200 255
163 200 255
163 200 255
163 200 255
163 200 255
164 200 255
164 200 255
164 200 255
164 201 255
164 201 255
164 201 255
164 201 255
164 201 255
164 201 255
164 201 255
165 201 255
165 201 255
165 201 255
165 201 255
165 201 255
165 201 255
165 201 255
165 201 255
165 201 255
165 201 255
166 202 255
166 202 255
166 202 255
166 202 255
166 202 255
166 202 255
166 202 255
166 202 255
166 202 255
166 202 255
166 202 255
167 202 255
167 202 255
167 202 255
167 202 255
167 202 255
167 202 255
167 202 255
167 203 255
167 203 255
167 203 255
167 203 255
168 203 255
168 203 255
168 203 255
168 203 255
168 203 255
168 203 255
168 203 255
168 203 255
168 203 255
168 203 255
168 203 255
169 203 255
169 203 255
169 203 255
169 203 255
169 204 255
169 204 255
169 204 255
169 204 255
169 204 255
169 204 255
169 204 255
169 204 255
170 204 255
170 204 255
170 204 255
170 204 255
170 204 255
170 204 255
170 204 255
170 204 255
170 204 255
170 204 255
170 204 255
170 204 255
170 204 255
171 205 255
171 205 255
171 205 255
171 205 255
171 205 255
171 205 255
171 205 255
171 205 255
171 205 255
171 205 255
171 205 255
171 205 255
171 205 255
172 205 255
172 205 255
172 205 255
172 205 255
172 205 255
172 205 255
172 205 255
172 205 255
172 205 255
172 205 255
172 206 255
172 206 255
172 206 255
172 206 255
172 206 255
173 206 255
173 206 255
173 206 255
173 206 255
173 206 255
173 206 255
172 206 255
172 206 255
172 206 255
172 206 255
172 206 255
172 205 255
172 205 255
172 205 255
172 205 255
172 205 255
172 205 255
172 205 255
172 205 255
172 205 255
171 205 255
171 205 255
171 205 255
171 205 255
171 205 255
171 205 255
171 205 255
171 205 255
171 205 255
171 205 255
171 205 255
171 205 255
171 205 255
171 205 255
170 204 255
170 204 255
170 204 255
170 204 255
170 204 255
170 204 255
170 204 255
170 204 255
170 204 255
170 204 255
170 204 255
170 204 255
169 204 255
169 204 255
169 204 255
169 204 255
169 204 255
169 204 255
169 204 255
169 204 255
169 204 255
169 203 255
169 203 255
169 203 255
168 203 255
168 203 255
168 203 255
168 203 255
168 203 255
168 203 255
168 203 255
168 203 255
168 203 255
168 203 255
168 203 255
167 203 255
167 203 255
167 203 255
167 203 255
167 202 255
167 202 255
167 202 255
167 202 255
167 202 255
167 202 255
167 202 255
166 202 255
166 202 255
166 202 255
166 202 255
166 202 255
166 202 255
166 202 255
166 202 255
166 202 255
166 202 255
166 202 255
165 201 255
165 201 255
165 201 255
165 201 255
165 201 255
165 201 255
165 201 255
165 201 255
165 201 255
165 201 255
164 201 255
164 201 255
164 201 255
164 201 255
164 201 255
164 201 255
164 201 255
164 200 255
164 200 255
164 200 255
163 200 255
163 200 255
163 200 255
163 200 255
163 200 255
163 200 255
163 200 255
163 200 255
163 200 255
163 200 255
163 200 255
162 200 255
162 200 255
162 200 255
162 199 255
162 199 255
162 199 255
162 199 255
162 199 255
162 199 255
162 199 255
161 199 255
161 199 255
161 199 255
161 199 255
161 199 255
161 199 255
161 199 255
161 199 255
161 199 255
161 199 255
161 199 255
160 198 255
160 198 255
160 198 255
160 198 255
160 198 255
160 198 255
160 198 255
160 198 255
160 198 255
160 198 255
160 198 255
160 198 255
160 198 255
159 198 255
159 198 255
159 198 255
159 198 255
159 198 255
159 198 255
159 198 255
159 198 255
159 198 255
159 198 255
159 197 255
159 197 255
159 197 255
159 197 255
159 197 255
159 197 255
158 197 255
158 197 255
158 197 255
158 197 255
158 197 255
158 197 255
158 197 255
158 197 255
158 197 255
158 197 255
158 197 255
158 197 255
158 197 255
158 197 255
158 197 255
158 197 255
158 197 255
158 197 255
158 197 255
158 197 255
158 197 255
158 197 255
158 197 255
158 197 255
158 197 255
158 197 255
158 197 255
158 197 255
158 197 255
158 197 255
158 197 255
158 197 255
158 197 255
158 197 255
158 197 255
158 197 255
158 197 255
158 197 255
158 197 255
158 197 255
158 197 255
158 197 255
158 197 255
158 197 255
158 197 255
158 197 255
158 197 255
158 197 255
158 197 255
158 197 255
158 197 255
158 197 255
158 197 255
158 197 255
158 197 255
158 197 255
158 197 255
158 197 255
158 197 255
159 197 255
159 197 255
159 197 255
159 197 255
159 197 255
159 198 255
159 198 255
159 198 255
159 198 255
159 198 255
159 198 255
159 198 255
159 198 255
159 198 255
159 198 255
160 198 255
160 198 255
160 198 255
160 198 255
160 198 255
160 198 255
160 198 255
160 198 255
160 198 255
160 198 255
160 198 255
160 198 255
160 198 255
161 199 255
161 199 255
161 199 255
161 199 255
161 199 255
161 199 255
161 199 255
161 199 255
161 199 255
161 199 255
161 199 255
162 199 255
162 199 255
162 199 255
162 199 255
162 199 255
162 199 255
162 199 255
162 200 255
162 200 255
162 200 255
163 200 255
163 200 255
163 200 255
163 200 255
163 200 255
163 200 255
163 200 255
163 200 255
163 200 255
163 200 255
163 200 255
164 200 255
164 200 255
164 200 255
164 201 255
164 201 255
164 201 255
164 201 255
164 201 255
164 201 255
164 201 255
165 201 255
165 201 255
165 201 255
165 201 255
165 201 255
165 201 255
165 201 255
165 201 255
165 201 255
165 201 255
166 202 255
166 202 255
166 202 255
166 202 255
166 202 255
166 202 255
166 202 255
166 202 255
166 202 255
166 202 255
166 202 255
167 202 255
167 202 255
167 202 255
167 202 255
167 202 255
167 202 255
167 202 255
167 203 255
167 203 255
167 203 255
167 203 255
168 203 255
168 203 255
168 203 255
168 203 255
168 203 255
168 203 255
168 203 255
168 203 255
168 203 255
168 203 255
168 203 255
169 203 255
169 203 255
169 203 255
169 203 255
169 204 255
169 204 255
169 204 255
169 204 255
169 204 255
169 204 255
169 204 255
169 204 255
170 204 255
170 204 255
170 204 255
170 204 255
170 204 255
170 204 255
170 204 255
170 204 255
170 204 255
170 204 255
170 204 255
170 204 255
171 205 255
171 205 255
171 205 255
171 205 255
171 205 255
171 205 255
171 205 255
171 205 255
171 205 255
171 205 255
171 205 255
171 205 255
171 205 255
171 205 255
172 205 255
172 205 255
172 205 255
172 205 255
172 205 255
172 205 255
172 205 255
172 205 255
172 205 255
172 206 255
172 206 255
172 206 255
172 206 255
172 206 255
173 206 255
173 206 255
173 206 255
173 206 255
173 206 255
173 206 255
173 206 255
173 206 255
173 206 255
173 206 255
173 206 255
173 206 255
173 206 255
173 206 255
172 206 255
172 206 255
172 206 255
172 206 255
172 205 255
172 205 255
172 205 255
172 205 255
172 205 255
172 205 255
172 205 255
172 205 255
172 205 255
172 205 255
171 205 255
171 205 255
171 205 255
171 205 255
171 205 255
171 205 255
171 205 255
171 205 255
171 205 255
171 205 255
171 205 255
171 205 255
171 205 255
170 204 255
170 204 255
170 204 255
170 204 255
170 204 255
170 204 255
170 204 255
170 204 255
170 204 255
170 204 255
170 204 255
170 204 255
170 204 255
169 204 255
169 204 255
169 204 255
169 204 255
169 204 255
169 204 255
169 204 255
169 204 255
169 203 255
169 203 255
169 203 255
169 203 255
168 203 255
168 203 255
168 203 255
168 203 255
168 203 255
168 203 255
168 203 255
168 203 255
168 203 255
168 203 255
168 203 255
167 203 255
167 203 255
167 203 255
167 202 255
167 202 255
167 202 255
167 202 255
167 202 255
167 202 255
167 202 255
167 202 255
166 202 255
166 202 255
166 202 255
166 202 255
166 202 255
166 202 255
166 202 255
166 202 255
166 202 255
166 202 255
165 201 255
165 201 255
165 201 255
165 201 255
165 201 255
165 201 255
165 201 255
165 201 255
165 201 255
165 201 255
164 201 255
164 201 255
164 201 255
164 201 255
164 201 255
164 201 255
164 201 255
164 200 255
164 200 255
164 200 255
164 200 255
163 200 255
163 200 255
163 200 255
163 200 255
163 200 255
163 200 255
163 200 255
163 200 255
163 200 255
163 200 255
162 200 255
162 200 255
162 200 255
162 200 255
162 199 255
162 199 255
162 199 255
162 199 255
162 199 255
162 199 255
162 199 255
161 199 255
161 199 255
161 199 255
161 199 255
161 199 255
161 199 255
161 199 255
161 199 255
161 199 255
161 199 255
161 199 255
160 198 255
160 198 255
160 198 255
160 198 255
160 198 255
160 198 255
160 198 255
160 198 255
160 198 255
160 198 255
160 198 255
160 198 255
160 198 255
160 198 255
159 198 255
159 198 255
159 198 255
159 198 255
159 198 255
159 198 255
159 198 255
159 198 255
159 198 255
159 198 255
159 198 255
159 197 255
159 197 255
159 197 255
159 197 255
159 197 255
159 197 255
159 197 255
158 197 255
158 197 255
158 197 255
158 197 255
158 197 255
158 197 255
158 197 255
158 197 255
158 197 255
158 197 255
158 197 255
158 197 255
158 197 255
158 197 255
158 197 255
158 197 255
158 197 255
158 197 255
158 197 255
158 197 255
158 197 255
158 197 255
158 197 255
158 197 255
158 197 255
158 197 255
158 197 255
158 197 255
158 197 255
158 197 255
158 197 255
158 197 255
158 197 255
158 197 255
158 197 255
158 197 255
158 197 255
158 197 255
158 197 255
158 197 255
158 197 255
158 197 255
158 197 255
158 197 255
159 197 255
159 197 255
159 197 255
159 197 255
159 197 255
159 197 255
159 197 255
159 198 255
159 198 255
159 198 255
159 198 255
159 198 255
159 198 255
159 198 255
159 198 255
159 198 255
159 198 255
159 198 255
160 198 255
160 198 255
160 198 255
160 198 255
160 198 255
160 198 255
160 198 255
160 198 255
160 198 255
160 198 255
160 198 255
160 198 255
160 198 255
160 198 255
161 199 255
161 199 255
161 199 255
161 199 255
161 199 255
161 199 255
161 199 255
161 199 255
161 199 255
161 199 255
161 199 255
162 199 255
162 199 255
162 199 255
162 199 255
162 199 255
162 199 255
162 199 255
162 200 255
162 200 255
162 200 255
162 200 255
163 200 255
163 200 255
163 200 255
163 200 255
163 200 255
163 200 255
163 200 255
163 200 255
163 200 255
163 200 255
164 200 255
164 200 255
164 200 255
164 200 255
164 201 255
164 201 255
164 201 255
164 201 255
164 201 255
164 201 255
164 201 255
165 201 255
165 201 255
165 201 255
165 201 255
165 201 255
165 201 255
165 201 255
165 201 255
165 201 255
165 201 255
166 202 255
166 202 255
166 202 255
166 202 255
166 202 255
166 202 255
166 202 255
166 202 255
166 202 255
166 202 255
166 202 255
167 202 255
167 202 255
167 202 255
167 202 255
167 202 255
167 202 255
167 202 255
167 203 255
167 203 255
167 203 255
168 203 255
168 203 255
168 203 255
168 203 255
168 203 255
168 203 255
168 203 255
168 203 255
168 203 255
168 203 255
168 203 255
169 203 255
169 203 255
169 203 255
169 203 255
169 204 255
169 204 255
169 204 255
169 204 255
169 204 255
169 204 255
169 204 255
169 204 255
170 204 255
170 204 255
170 204 255
170 204 255
170 204 255
170 204 255
170 204 255
170 204 255
170 204 255
170 204 255
170 204 255
170 204 255
170 204 255
171 205 255
171 205 255
171 205 255
171 205 255
171 205 255
171 205 255
171 205 255
171 205 255
171 205 255
171 205 255
171 205 255
171 205 255
171 205 255
172 205 255
172 205 255
172 205 255
172 205 255
172 205 255
172 205 255
172 205 255
172 205 255
172 205 255
172 205 255
172 206 255
172 206 255
172 206 255
172 206 255
173 206 255
173 206 255
173 206 255
173 206 255
173 206 255
173 206 255
173 206 255
173 206 255
173 206 255
173 206 255
173 206 255
173 206 255
173 206 255
173 206 255
173 206 255
173 206 255
173 206 255
173 206 255
173 206 255
173 206 255
173 206 255
172 206 255
172 206 255
172 206 255
172 206 255
172 206 255
172 205 255
172 205 255
172 205 255
172 205 255
172 205 255
172 205 255
172 205 255
172 205 255
172 205 255
172 205 255
171 205 255
171 205 255
171 205 255
171 205 255
171 205 255
171 205 255
171 205 255
171 205 255
171 205 255
171 205 255
171 205 255
171 205 255
171 205 255
170 204 255
170 204 255
170 204 255
170 204 255
170 204 255
170 204 255
170 204 255
170 204 255
170 204 255
170 204 255
170 204 255
170 204 255
169 204 255
169 204 255
169 204 255
169 204 255
169 204 255
169 204 255
169 204 255
169 204 255
169 203 255
169 203 255
169 203 255
169 203 255
168 203 255
168 203 255
168 203 255
168 203 255
168 203 255
168 203 255
168 203 255
168 203 255
168 203 255
168 203 255
168 203 255
167 203 255
167 203 255
167 203 255
167 203 255
167 202 255
167 202 255
167 202 255
167 202 255
167 202 255
167 202 255
167 202 255
166 202 255
166 202 255
166 202 255
166 202 255
166 202 255
166 202 255
166 202 255
166 202 255
166 202 255
166 202 255
165 201 255
165 201 255
165 201 255
165 201 255
165 201 255
165 201 255
165 201 255
165 201 255
165 201 255
165 201 255
165 201 255
164 201 255
164 201 255
164 201 255
164 201 255
164 201 255
164 201 255
164 201 255
164 200 255
164 200 255
164 200 255
163 200 255
163 200 255
163 200 255
163 200 255
163 200 255
163 200 255
163 200 255
163 200 255
163 200 255
163 200 255
162 200 255
162 200 255
162 200 255
162 200 255
162 199 255
162 199 255
162 199 255
162 199 255
162 199 255
162 199 255
162 199 255
162 199 255
161 199 255
161 199 255
161 199 255
161 199 255
161 199 255
161 199 255
161 199 255
161 199 255
161 199 255
161 199 255
161 199 255
161 199 255
160 198 255
160 198 255
160 198 255
160 198 255
160 198 255
160 198 255
160 198 255
160 198 255
160 198 255
160 198 255
160 198 255
160 198 255
160 198 255
160 198 255
159 198 255
159 198 255
159 198 255
159 198 255
159 198 255
159 198 255
159 198 255
159 198 255
159 198 255
159 198 255
159 198 255
159 198 255
159 198 255
159 198 255
159 197 255
159 197 255
159 197 255
159 197 255
159 197 255
159 197 255
159 197 255
159 197 255
159 197 255
159 197 255
159 197 255
158 197 255
158 197 255
158 197 255
158 197 255
158 197 255
158 197 255
158 197 255
158 197 255
158 197 255
158 197 255
158 197 255
158 197 255
158 197 255
158 197 255
158 197 255
158 197 255
158 197 255
158 197 255
158 197 255
158 197 255
158 197 255
159 197 255
159 197 255
159 197 255
159 197 255
159 197 255
159 197 255
159 197 255
159 197 255
159 197 255
159 197 255
159 197 255
159 198 255
159 198 255
159 198 255
159 198 255
159 198 255
159 198 255
159 198 255
159 198 255
159 198 255
159 198 255
159 198 255
159 198 255
159 198 255
160 198 255
160 198 255
160 198 255
160 198 255
160 198 255
160 198 255
160 198 255
160 198 255
160 198 255
160 198 255
160 198 255
160 198 255
160 198 255
160 198 255
161 199 255
161 199 255
161 199 255
161 199 255
161 199 255
161 199 255
161 199 255
161 199 255
161 199 255
161 199 255
161 199 255
161 199 255
162 199 255
162 199 255
162 199 255
162 199 255
162 199 255
162 199 255
162 199 255
162 199 255
162 200 255
162 200 255
162 200 255
162 200 255
163 200 255
163 200 255
163 200 255
163 200 255
163 200 255
163 200 255
163 200 255
163 200 255
163 200 255
163 200 255
164 200 255
164 200 255
164 200 255
164 201 255
164 201 255
164 201 255
164 201 255
164 201 255
164 201 255
164 201 255
165 201 255
165 201 255
165 201 255
165 201 255
165 201 255
165 201 255
165 201 255
165 201 255
165 201 255
165 201 255
165 201 255
166 202 255
166 202 255
166 202 255
166 202 255
166 202 255
166 202 255
166 202 255
166 202 255
166 202 255
166 202 255
167 202 255
167 202 255
167 202 255
167 202 255
167 202 255
167 202 255
167 202 255
167 203 255
167 203 255
167 203 255
167 203 255
168 203 255
168 203 255
168 203 255
168 203 255
168 203 255
168 203 255
168 203 255
168 203 255
168 203 255
168 203 255
168 203 255
169 203 255
169 203 255
169 203 255
169 203 255
169 204 255
169 204 255
169 204 255
169 204 255
169 204 255
169 204 255
169 204 255
169 204 255
170 204 255
170 204 255
170 204 255
170 204 255
170 204 255
170 204 255
170 204 255
170 204 255
170 204 255
170 204 255
170 204 255
170 204 255
171 205 255
171 205 255
171 205 255
171 205 255
171 205 255
171 205 255
171 205 255
171 205 255
171 205 255
171 205 255
171 205 255
171 205 255
171 205 255
172 205 255
172 205 255
172 205 255
172 205 255
172 205 255
172 205 255
172 205 255
172 205 255
172 205 255
172 205 255
172 206 255
172 206 255
172 206 255
172 206 255
172 206 255
173 206 255
173 206 255
173 206 255
173 206 255
173 206 255
173 206 255
173 206 255
173 206 255
173 206 255
173 206 255
173 206 255
173 206 255
174 206 255
173 206 255
173 206 255
173 206 255
173 206 255
173 206 255
173 206 255
173 206 255
173 206 255
173 206 255
173 206 255
173 206 255
173 206 255
173 206 255
173 206 255
173 206 255
172 206 255
172 206 255
172 206 255
172 206 255
172 206 255
172 205 255
172 205 255
172 205 255
172 205 255
172 205 255
172 205 255
172 205 255
172 205 255
172 205 255
171 205 255
171 205 255
171 205 255
171 205 255
171 205 255
171 205 255
171 205 255
171 205 255
171 205 255
171 205 255
171 205 255
171 205 255
171 205 255
170 204 255
170 204 255
170 204 255
170 204 255
170 204 255
170 204 255
170 204 255
170 204 255
170 204 255
170 204 255
170 204 255
170 204 255
170 204 255
169 204 255
169 204 255
169 204 255
169 204 255
169 204 255
169 204 255
169 204 255
169 203 255
169 203 255
169 203 255
169 203 255
168 203 255
168 203 255
168 203 255
168 203 255
168 203 255
168 203 255
168 203 255
168 203 255
168 203 255
168 203 255
168 203 255
168 203 255
167 203 255
167 203 255
167 203 255
167 202 255
167 202 255
167 202 255
167 202 255
167 202 255
167 202 255
167 202 255
166 202 255
166 202 255
166 202 255
166 202 255
166 202 255
166 202 255
166 202 255
166 202 255
166 202 255
166 202 255
166 202 255
165 201 255
165 201 255
165 201 255
165 201 255
165 201 255
165 201 255
165 201 255
165 201 255
165 201 255
165 201 255
164 201 255
164 201 255
164 201 255
164 201 255
164 201 255
164 201 255
164 201 255
164 200 255
164 200 255
164 200 255
164 200 255
163 200 255
163 200 255
163 200 255
163 200 255
163 200 255
163 200 255
163 200 255
163 200 255
163 200 255
163 200 255
162 200 255
162 200 255
162 200 255
162 200 255
162 199 255
162 199 255
162 199 255
162 199 255
162 199 255
162 199 255
162 199 255
162 199 255
161 199 255
161 199 255
161 199 255
161 199 255
161 199 255
161 199 255
161 199 255
161 199 255
161 199 255
161 199 255
161 199 255
161 199 255
160 198 255
160 198 255
160 198 255
160 198 255
160 198 255
160 198 255
160 198 255
160 198 255
160 198 255
160 198 255
160 198 255
160 198 255
160 198 255
160 198 255
160 198 255
160 198 255
159 198 255
159 198 255
159 198 255
159 198 255
159 198 255
159 198 255
159 198 255
159 198 255
159 198 255
159 198 255
159 198 255
159 198 255
159 198 255
159 198 255
159 198 255
159 198 255
159 198 255
159 198 255
159 198 255
159 198 255
159 197 255
159 197 255
159 197 255
159 197 255
159 197 255
159 197 255
159 197 255
159 197 255
159 197 255
159 197 255
159 197 255
159 197 255
159 197 255
159 197 255
159 197 255
159 197 255
159 197 255
159 197 255
159 198 255
159 198 255
159 198 255
159 198 255
159 198 255
159 198 255
159 198 255
159 198 255
159 198 255
159 198 255
159 198 255
159 198 255
159 198 255
159 198 255
159 198 255
159 198 255
159 198 255
159 198 255
159 198 255
160 198 255
160 198 255
160 198 255
160 198 255
160 198 255
160 198 255
160 198 255
160 198 255
160 198 255
160 198 255
160 198 255
160 198 255
160 198 255
160 198 255
160 198 255
160 198 255
161 199 255
161 199 255
161 199 255
161 199 255
161 199 255
161 199 255
161 199 255
161 199 255
161 199 255
161 199 255
161 199 255
161 199 255
161 199 255
162 199 255
162 199 255
162 199 255
162 199 255
162 199 255
162 199 255
162 199 255
162 199 255
162 200 255
162 200 255
162 200 255
162 200 255
163 200 255
163 200 255
163 200 255
163 200 255
163 200 255
163 200 255
163 200 255
163 200 255
163 200 255
163 200 255
164 200 255
164 200 255
164 200 255
164 200 255
164 201 255
164 201 255
164 201 255
164 201 255
164 201 255
164 201 255
164 201 255
165 201 255
165 201 255
165 201 255
165 201 255
165 201 255
165 201 255
165 201 255
165 201 255
165 201 255
165 201 255
166 202 255
166 202 255
166 202 255
166 202 255
166 202 255
166 202 255
166 202 255
166 202 255
166 202 255
166 202 255
166 202 255
167 202 255
167 202 255
167 202 255
167 202 255
167 202 255
167 202 255
167 202 255
167 203 255
167 203 255
167 203 255
167 203 255
168 203 255
168 203 255
168 203 255
168 203 255
168 203 255
168 203 255
168 203 255
168 203 255
168 203 255
168 203 255
168 203 255
169 203 255
169 203 255
169 203 255
169 203 255
169 204 255
169 204 255
169 204 255
169 204 255
169 204 255
169 204 255
169 204 255
170 204 255
170 204 255
170 204 255
170 204 255
170 204 255
170 204 255
170 204 255
170 204 255
170 204 255
170 204 255
170 204 255
170 204 255
170 204 255
171 205 255
171 205 255
171 205 255
171 205 255
171 205 255
171 205 255
171 205 255
171 205 255
171 205 255
171 205 255
171 205 255
171 205 255
171 205 255
172 205 255
172 205 255
172 205 255
172 205 255
172 205 255
172 205 255
172 205 255
172 205 255
172 205 255
172 206 255
172 206 255
172 206 255
172 206 255
172 206 255
173 206 255
173 206 255
173 206 255
173 206 255
173 206 255
173 206 255
173 206 255
173 206 255
173 206 255
173 206 255
173 206 255
173 206 255
173 206 255
173 206 255
173 206 255
174 206 255
174 206 255
174 206 255
174 206 255
174 206 255
174 206 255
173 206 255
173 206 255
173 206 255
173 206 255
173 206 255
173 206 255
173 206 255
173 206 255
173 206 255
173 206 255
173 206 255
173 206 255
173 206 255
173 206 255
173 206 255
172 206 255
172 206 255
172 206 255
172 206 255
172 206 255
172 205 255
172 205 255
172 205 255
172 205 255
172 205 255
172 205 255
172 205 255
172 205 255
172 205 255
171 205 255
171 205 255
171 205 255
171 205 255
171 205 255
171 205 255
171 205 255
171 205 255
171 205 255
171 205 255
171 205 255
171 205 255
171 205 255
170 204 255
170 204 255
170 204 255
170 204 255
170 204 255
170 204 255
170 204 255
170 204 255
170 204 255
170 204 255
170 204 255
170 204 255
169 204 255
169 204 255
169 204 255
169 204 255
169 204 255
169 204 255
169 204 255
169 204 255
169 203 255
169 203 255
169 203 255
169 203 255
168 203 255
168 203 255
168 203 255
168 203 255
168 203 255
168 203 255
168 203 255
168 203 255
168 203 255
168 203 255
168 203 255
167 203 255
167 203 255
167 203 255
167 202 255
167 202 255
167 202 255
167 202 255
167 202 255
167 202 255
167 202 255
166 202 255
166 202 255
166 202 255
166 202 255
166 202 255
166 202 255
166 202 255
166 202 255
166 202 255
166 202 255
166 202 255
165 201 255
165 201 255
165 201 255
165 201 255
165 201 255
165 201 255
165 201 255
165 201 255
165 201 255
165 201 255
165 201 255
164 201 255
164 201 255
164 201 255
164 201 255
164 201 255
164 201 255
164 201 255
164 200 255
164 200 255
164 200 255
163 200 255
163 200 255
163 200 255
163 200 255
163 200 255
163 200 255
163 200 255
163 200 255
163 200 255
163 200 255
163 200 255
162 200 255
162 200 255
162 200 255
162 200 255
162 199 255
162 199 255
162 199 255
162 199 255
162 199 255
162 199 255
162 199 255
162 199 255
161 199 255
161 199 255
161 199 255
161 199 255
161 199 255
161 199 255
161 199 255
161 199 255
161 199 255
161 199 255
161 199 255
161 199 255
161 199 255
161 199 255
160 198 255
160 198 255
160 198 255
160 198 255
160 198 255
160 198 255
160 198 255
160 198 255
160 198 255
160 198 255
160 198 255
160 198 255
160 198 255
160 198 255
160 198 255
160 198 255
160 198 255
160 198 255
160 198 255
159 198 255
159 198 255
159 198 255
159 198 255
159 198 255
159 198 255
159 198 255
159 198 255
159 198 255
159 198 255
159 198 255
159 198 255
159 198 255
159 198 255
159 198 255
159 198 255
159 198 255
159 198 255
159 198 255
159 198 255
159 198 255
159 198 255
159 198 255
159 198 255
159 198 255
159 198 255
159 198 255
159 198 255
159 198 255
159 198 255
159 198 255
159 198 255
159 198 255
159 198 255
159 198 255
159 198 255
159 198 255
159 198 255
159 198 255
159 198 255
160 198 255
160 198 255
160 198 255
160 198 255
160 198 255
160 198 255
160 198 255
160 198 255
160 198 255
160 198 255
160 198 255
160 198 255
160 198 255
160 198 255
160 198 255
160 198 255
160 198 255
160 198 255
160 198 255
160 198 255
161 199 255
161 199 255
161 199 255
161 199 255
161 199 255
161 199 255
161 199 255
161 199 255
161 199 255
161 199 255
161 199 255
161 199 255
161 199 255
162 199 255
162 199 255
162 199 255
162 199 255
162 199 255
162 199 255
162 199 255
162 199 255
162 200 255
162 200 255
162 200 255
162 200 255
163 200 255
163 200 255
163 200 255
163 200 255
163 200 255
163 200 255
163 200 255
163 200 255
163 200 255
163 200 255
163 200 255
164 200 255
164 200 255
164 200 255
164 201 255
164 201 255
164 201 255
164 201 255
164 201 255
164 201 255
164 201 255
165 201 255
165 201 255
165 201 255
165 201 255
165 201 255
165 201 255
165 201 255
165 201 255
165 201 255
165 201 255
165 201 255
166 202 255
166 202 255
166 202 255
166 202 255
166 202 255
166 202 255
166 202 255
166 202 255
166 202 255
166 202 255
167 202 255
167 202 255
167 202 255
167 202 255
167 202 255
167 202 255
167 202 255
167 202 255
167 203 255
167 203 255
167 203 255
168 203 255
168 203 255
168 203 255
168 203 255
168 203 255
168 203 255
168 203 255
168 203 255
168 203 255
168 203 255
168 203 255
169 203 255
169 203 255
169 203 255
169 203 255
169 204 255
169 204 255
169 204 255
169 204 255
169 204 255
169 204 255
169 204 255
169 204 255
170 204 255
170 204 255
170 204 255
170 204 255
170 204 255
170 204 255
170 204 255
170 204 255
170 204 255
170 204 255
170 204 255
170 204 255
171 205 255
171 205 255
171 205 255
171 205 255
171 205 255
171 205 255
171 205 255
171 205 255
171 205 255
171 205 255
171 205 255
171 205 255
171 205 255
172 205 255
172 205 255
172 205 255
172 205 255
172 205 255
172 205 255
172 205 255
172 205 255
172 205 255
172 206 255
172 206 255
172 206 255
172 206 255
172 206 255
173 206 255
173 206 255
173 206 255
173 206 255
173 206 255
173 206 255
173 206 255
173 206 255
173 206 255
173 206 255
173 206 255
173 206 255
173 206 255
173 206 255
173 206 255
174 206 255
174 206 255
174 206 255
174 206 255
174 206 255
174 207 255
174 207 255
174 207 255
174 207 255
174 206 255
174 206 255
174 206 255
174 206 255
174 206 255
173 206 255
173 206 255
173 206 255
173 206 255
173 206 255
173 206 255
173 206 255
173 206 255
173 206 255
173 206 255
173 206 255
173 206 255
173 206 255
173 206 255
173 206 255
172 206 255
172 206 255
172 206 255
172 206 255
172 206 255
172 205 255
172 205 255
172 205 255
172 205 255
172 205 255
172 205 255
172 205 255
172 205 255
172 205 255
171 205 255
171 205 255
171 205 255
171 205 255
171 205 255
171 205 255
171 205 255
171 205 255
171 205 255
171 205 255
171 205 255
171 205 255
170 204 255
170 204 255
170 204 255
170 204 255
170 204 255
170 204 255
170 204 255
170 204 255
170 204 255
170 204 255
170 204 255
170 204 255
169 204 255
169 204 255
169 204 255
169 204 255
169 204 255
169 204 255
169 204 255
169 204 255
169 203 255
169 203 255
169 203 255
169 203 255
168 203 255
168 203 255
168 203 255
168 203 255
168 203 255
168 203 255
168 203 255
168 203 255
168 203 255
168 203 255
168 203 255
168 203 255
167 203 255
167 203 255
167 203 255
167 202 255
167 202 255
167 202 255
167 202 255
167 202 255
167 202 255
167 202 255
166 202 255
166 202 255
166 202 255
166 202 255
166 202 255
166 202 255
166 202 255
166 202 255
166 202 255
166 202 255
166 202 255
165 201 255
165 201 255
165 201 255
165 201 255
165 201 255
165 201 255
165 201 255
165 201 255
165 201 255
165 201 255
164 201 255
164 201 255
164 201 255
164 201 255
164 201 255
164 201 255
164 201 255
164 200 255
164 200 255
164 200 255
164 200 255
163 200 255
163 200 255
163 200 255
163 200 255
163 200 255
163 200 255
163 200 255
163 200 255
163 200 255
163 200 255
163 200 255
162 200 255
162 200 255
162 200 255
162 200 255
162 199 255
162 199 255
162 199 255
162 199 255
162 199 255
162 199 255
162 199 255
162 199 255
162 199 255
161 199 255
161 199 255
161 199 255
161 199 255
161 199 255
161 199 255
161 199 255
161 199 255
161 199 255
161 199 255
161 199 255
161 199 255
161 199 255
161 199 255
160 198 255
160 198 255
160 198 255
160 198 255
160 198 255
160 198 255
160 198 255
160 198 255
160 198 255
160 198 255
160 198 255
160 198 255
160 198 255
160 198 255
160 198 255
160 198 255
160 198 255
160 198 255
160 198 255
160 198 255
160 198 255
160 198 255
160 198 255
160 198 255
160 198 255
160 198 255
156 193 249
145 180 232
137 169 219
137 171 221
129 161 208
117 145 187
111 138 178
106 132 171
125 155 200
130 162 209
127 158 204
115 143 184
123 153 199
133 165 212
152 189 244
154 192 247
160 198 255
160 198 255
160 198 255
160 198 255
160 198 255
160 198 255
160 198 255
160 198 255
160 198 255
160 198 255
160 198 255
160 198 255
160 198 255
160 198 255
160 198 255
160 198 255
160 198 255
160 198 255
160 198 255
160 198 255
160 198 255
160 198 255
160 198 255
160 198 255
160 198 255
160 198 255
161 199 255
161 199 255
161 199 255
161 199 255
161 199 255
161 199 255
161 199 255
161 199 255
161 199 255
161 199 255
161 199 255
161 199 255
161 199 255
161 199 255
162 199 255
162 199 255
162 199 255
162 199 255
162 199 255
162 199 255
162 199 255
162 199 255
162 199 255
162 200 255
162 200 255
162 200 255
162 200 255
163 200 255
163 200 255
163 200 255
163 200 255
163 200 255
163 200 255
163 200 255
163 200 255
163 200 255
163 200 255
163 200 255
164 200 255
164 200 255
164 200 255
164 200 255
164 201 255
164 201 255
164 201 255
164 201 255
164 201 255
164 201 255
164 201 255
165 201 255
165 201 255
165 201 255
165 201 255
165 201 255
165 201 255
165 201 255
165 201 255
165 201 255
165 201 255
166 202 255
166 202 255
166 202 255
166 202 255
166 202 255
166 202 255
166 202 255
166 202 255
166 202 255
166 202 255
166 202 255
167 202 255
167 202 255
167 202 255
167 202 255
167 202 255
167 202 255
167 202 255
167 203 255
167 203 255
167 203 255
167 203 255
168 203 255
168 203 255
168 203 255
168 203 255
168 203 255
168 203 255
168 203 255
168 203 255
168 203 255
168 203 255
168 203 255
169 203 255
169 203 255
169 203 255
169 203 255
169 204 255
169 204 255
169 204 255
169 204 255
169 204 255
169 204 255
169 204 255
170 204 255
170 204 255
170 204 255
170 204 255
170 204 255
170 204 255
170 204 255
170 204 255
170 204 255
170 204 255
170 204 255
170 204 255
171 205 255
171 205 255
171 205 255
171 205 255
171 205 255
171 205 255
171 205 255
171 205 255
171 205 255
171 205 255
171 205 255
171 205 255
171 205 255
171 205 255
172 205 255
172 205 255
172 205 255
172 205 255
172 205 255
172 205 255
172 205 255
172 205 255
172 205 255
172 206 255
172 206 255
172 206 255
172 206 255
173 206 255
173 206 255
173 206 255
173 206 255
173 206 255
173 206 255
173 206 255
173 206 255
173 206 255
173 206 255
173 206 255
173 206 255
173 206 255
173 206 255
173 206 255
174 206 255
174 206 255
174 206 255
174 206 255
174 206 255
174 207 255
174 207 255
174 207 255
174 207 255
174 207 255
174 207 255
174 207 255
174 207 255
174 207 255
174 207 255
174 207 255
174 207 255
174 206 255
174 206 255
174 206 255
174 206 255
174 206 255
173 206 255
173 206 255
173 206 255
173 206 255
173 206 255
173 206 255
173 206 255
173 206 255
173 206 255
173 206 255
173 206 255
173 206 255
173 206 255
173 206 255
173 206 255
172 206 255
172 206 255
172 206 255
172 206 255
172 205 255
172 205 255
172 205 255
172 205 255
172 205 255
172 205 255
172 205 255
172 205 255
172 205 255
171 205 255
171 205 255
171 205 255
171 205 255
171 205 255
171 205 255
171 205 255
171 205 255
171 205 255
171 205 255
171 205 255
171 205 255
171 205 255
170 204 255
170 204 255
170 204 255
170 204 255
170 204 255
170 204 255
170 204 255
170 204 255
170 204 255
170 204 255
170 204 255
170 204 255
169 204 255
169 204 255
169 204 255
169 204 255
169 204 255
169 204 255
169 204 255
169 204 255
169 203 255
169 203 255
169 203 255
169 203 255
168 203 255
168 203 255
168 203 255
168 203 255
168 203 255
168 203 255
168 203 255
168 203 255
168 203 255
168 203 255
168 203 255
167 203 255
167 203 255
167 203 255
167 202 255
167 202 255
167 202 255
167 202 255
167 202 255
167 202 255
167 202 255
166 202 255
166 202 255
166 202 255
166 202 255
166 202 255
166 202 255
166 202 255
166 202 255
166 202 255
166 202 255
166 202 255
165 201 255
165 201 255
165 201 255
165 201 255
165 201 255
165 201 255
165 201 255
165 201 255
165 201 255
165 201 255
165 201 255
164 201 255
164 201 255
164 201 255
164 201 255
164 201 255
164 201 255
164 201 255
164 200 255
164 200 255
164 200 255
164 200 255
163 200 255
163 200 255
163 200 255
163 200 255
163 200 255
163 200 255
163 200 255
163 200 255
163 200 255
163 200 255
163 200 255
162 200 255
162 200 255
162 200 255
162 200 255
162 200 255
162 199 255
162 199 255
162 199 255
162 199 255
162 199 255
162 199 255
162 199 255
162 199 255
161 199 255
161 199 255
161 199 255
161 199 255
161 199 255
161 199 255
161 199 255
161 199 255
161 199 255
161 199 255
161 199 255
161 199 255
161 199 255
161 199 255
161 199 255
161 199 255
161 199 255
161 199 255
160 198 255
160 198 255
160 198 255
160 198 255
160 198 255
160 198 255
160 198 255
160 198 255
160 198 255
160 198 255
160 198 255
160 198 255
153 190 245
139 173 224
126 156 202
100 124 159
84 104 135
68 84 109
61 75 98
54 67 87
56 70 91
59 74 95
59 73 94
52 65 85
59 74 96
56 70 91
61 76 100
58 72 94
52 66 86
61 75 97
62 77 100
57 72 93
61 77 101
59 74 97
68 84 109
91 112 144
97 121 156
130 161 208
129 160 207
156 193 249
160 198 255
160 198 255
160 198 255
160 198 255
160 198 255
160 198 255
160 198 255
160 198 255
160 198 255
160 198 255
160 198 255
160 198 255
160 198 255
161 199 255
161 199 255
161 199 255
161 199 255
161 199 255
161 199 255
161 199 255
161 199 255
161 199 255
161 199 255
161 199 255
161 199 255
161 199 255
161 199 255
161 199 255
161 199 255
162 199 255
162 199 255
162 199 255
162 199 255
162 199 255
162 199 255
162 199 255
162 199 255
162 199 255
162 199 255
162 200 255
162 200 255
162 200 255
162 200 255
163 200 255
163 200 255
163 200 255
163 200 255
163 200 255
163 200 255
163 200 255
163 200 255
163 200 255
163 200 255
163 200 255
164 200 255
164 200 255
164 200 255
164 200 255
164 201 255
164 201 255
164 201 255
164 201 255
164 201 255
164 201 255
164 201 255
165 201 255
165 201 255
165 201 255
165 201 255
165 201 255
165 201 255
165 201 255
165 201 255
165 201 255
165 201 255
165 201 255
166 202 255
166 202 255
166 202 255
166 202 255
166 202 255
166 202 255
166 202 255
166 202 255
166 202 255
166 202 255
166 202 255
167 202 255
167 202 255
167 202 255
167 202 255
167 202 255
167 202 255
167 202 255
167 203 255
167 203 255
167 203 255
168 203 255
168 203 255
168 203 255
168 203 255
168 203 255
168 203 255
168 203 255
168 203 255
168 203 255
168 203 255
168 203 255
169 203 255
169 203 255
169 203 255
169 203 255
169 204 255
169 204 255
169 204 255
169 204 255
169 204 255
169 204 255
169 204 255
169 204 255
170 204 255
170 204 255
170 204 255
170 204 255
170 204 255
170 204 255
170 204 255
170 204 255
170 204 255
170 204 255
170 204 255
170 204 255
171 205 255
171 205 255
171 205 255
171 205 255
171 205 255
171 205 255
171 205 255
171 205 255
171 205 255
171 205 255
171 205 255
171 205 255
171 205 255
172 205 255
172 205 255
172 205 255
172 205 255
172 205 255
172 205 255
172 205 255
172 205 255
172 205 255
172 206 255
172 206 255
172 206 255
172 206 255
172 206 255
173 206 255
173 206 255
173 206 255
173 206 255
173 206 255
173 206 255
173 206 255
173 206 255
173 206 255
173 206 255
173 206 255
173 206 255
173 206 255
173 206 255
174 206 255
174 206 255
174 206 255
174 206 255
174 206 255
174 207 255
174 207 255
174 207 255
174 207 255
174 207 255
174 207 255
174 207 255
174 207 255
175 207 255
174 207 255
174 207 255
174 207 255
174 207 255
174 207 255
174 207 255
174 207 255
174 207 255
174 207 255
174 207 255
174 207 255
174 206 255
174 206 255
174 206 255
174 206 255
174 206 255
173 206 255
173 206 255
173 206 255
173 206 255
173 206 255
173 206 255
173 206 255
173 206 255
173 206 255
173 206 255
173 206 255
173 206 255
173 206 255
173 206 255
173 206 255
172 206 255
172 206 255
172 206 255
172 206 255
172 205 255
172 205 255
172 205 255
172 205 255
172 205 255
172 205 255
172 205 255
172 205 255
172 205 255
171 205 255
171 205 255
171 205 255
171 205 255
171 205 255
171 205 255
171 205 255
171 205 255
171 205 255
171 205 255
171 205 255
171 205 255
171 205 255
170 204 255
170 204 255
170 204 255
170 204 255
170 204 255
170 204 255
170 204 255
170 204 255
170 204 255
170 204 255
170 204 255
170 204 255
169 204 255
169 204 255
169 204 255
169 204 255
169 204 255
169 204 255
169 204 255
169 203 255
169 203 255
169 203 255
169 203 255
168 203 255
168 203 255
168 203 255
168 203 255
168 203 255
168 203 255
168 203 255
168 203 255
168 203 255
168 203 255
168 203 255
167 203 255
167 203 255
167 203 255
167 203 255
167 202 255
167 202 255
167 202 255
167 202 255
167 202 255
167 202 255
167 202 255
166 202 255
166 202 255
166 202 255
166 202 255
166 202 255
166 202 255
166 202 255
166 202 255
166 202 255
166 202 255
166 202 255
165 201 255
165 201 255
165 201 255
165 201 255
165 201 255
165 201 255
165 201 255
165 201 255
165 201 255
165 201 255
165 201 255
164 201 255
164 201 255
164 201 255
164 201 255
164 201 255
164 201 255
164 201 255
164 200 255
164 200 255
164 200 255
164 200 255
163 200 255
163 200 255
163 200 255
163 200 255
163 200 255
163 200 255
163 200 255
163 200 255
163 200 255
163 200 255
163 200 255
163 200 255
162 200 255
162 200 255
162 200 255
162 200 255
162 199 255
162 199 255
162 199 255
162 199 255
162 199 255
162 199 255
162 199 255
162 199 255
162 199 255
162 199 255
161 199 255
161 199 255
161 199 255
161 199 255
161 199 255
161 199 255
161 199 255
161 199 255
161 199 255
161 199 255
161 199 255
161 199 255
161 199 255
161 199 255
161 199 255
161 199 255
161 199 255
161 199 255
161 199 255
161 199 255
157 195 250
123 152 197
100 124 161
82 103 133
60 74 95
59 74 96
60 75 97
53 66 86
54 68 89
59 73 95
59 74 98
57 71 92
57 71 92
57 71 91
55 68 88
54 67 87
54 68 89
59 73 95
61 76 97
58 73 94
54 67 86
60 75 96
59 74 95
55 68 88
59 74 97
52 66 86
56 69 89
60 74 94
57 72 94
54 67 86
56 69 89
59 73 94
80 100 131
106 132 170
127 158 203
154 190 245
161 199 255
161 199 255
161 199 255
161 199 255
161 199 255
161 199 255
161 199 255
161 199 255
161 199 255
161 199 255
161 199 255
161 199 255
161 199 255
161 199 255
161 199 255
161 199 255
161 199 255
161 199 255
161 199 255
161 199 255
162 199 255
162 199 255
162 199 255
162 199 255
162 199 255
162 199 255
162 199 255
162 199 255
162 199 255
162 200 255
162 200 255
162 200 255
162 200 255
162 200 255
163 200 255
163 200 255
163 200 255
163 200 255
163 200 255
163 200 255
163 200 255
163 200 255
163 200 255
163 200 255
163 200 255
163 200 255
164 200 255
164 200 255
164 200 255
164 200 255
164 201 255
164 201 255
164 201 255
164 201 255
164 201 255
164 201 255
164 201 255
165 201 255
165 201 255
165 201 255
165 201 255
165 201 255
165 201 255
165 201 255
165 201 255
165 201 255
165 201 255
165 201 255
166 202 255
166 202 255
166 202 255
166 202 255
166 202 255
166 202 255
166 202 255
166 202 255
166 202 255
166 202 255
166 202 255
167 202 255
167 202 255
167 202 255
167 202 255
167 202 255
167 202 255
167 202 255
167 203 255
167 203 255
167 203 255
167 203 255
168 203 255
168 203 255
168 203 255
168 203 255
168 203 255
168 203 255
168 203 255
168 203 255
168 203 255
168 203 255
168 203 255
169 203 255
169 203 255
169 203 255
169 204 255
169 204 255
169 204 255
169 204 255
169 204 255
169 204 255
169 204 255
169 204 255
170 204 255
170 204 255
170 204 255
170 204 255
170 204 255
170 204 255
170 204 255
170 204 255
170 204 255
170 204 255
170 204 255
170 204 255
171 205 255
171 205 255
171 205 255
171 205 255
171 205 255
171 205 255
171 205 255
171 205 255
171 205 255
171 205 255
171 205 255
171 205 255
171 205 255
172 205 255
172 205 255
172 205 255
172 205 255
172 205 255
172 205 255
172 205 255
172 205 255
172 205 255
172 206 255
172 206 255
172 206 255
172 206 255
173 206 255
173 206 255
173 206 255
173 206 255
173 206 255
173 206 255
173 206 255
173 206 255
173 206 255
173 206 255
173 206 255
173 206 255
173 206 255
173 206 255
173 206 255
174 206 255
174 206 255
174 206 255
174 206 255
174 206 255
174 207 255
174 207 255
174 207 255
174 207 255
174 207 255
174 207 255
174 207 255
174 207 255
174 207 255
174 207 255
174 207 255
175 207 255
175 207 255
175 207 255
175 207 255
175 207 255
175 207 255
174 207 255
174 207 255
174 207 255
174 207 255
174 207 255
174 207 255
174 207 255
174 207 255
174 207 255
174 207 255
174 207 255
174 206 255
174 206 255
174 206 255
174 206 255
174 206 255
173 206 255
173 206 255
173 206 255
173 206 255
173 206 255
173 206 255
173 206 255
173 206 255
173 206 255
173 206 255
173 206 255
173 206 255
173 206 255
173 206 255
172 206 255
172 206 255
172 206 255
172 206 255
172 206 255
172 205 255
172 205 255
172 205 255
172 205 255
172 205 255
172 205 255
172 205 255
172 205 255
172 205 255
171 205 255
171 205 255
171 205 255
171 205 255
171 205 255
171 205 255
171 205 255
171 205 255
171 205 255
171 205 255
171 205 255
171 205 255
170 204 255
170 204 255
170 204 255
170 204 255
170 204 255
170 204 255
170 204 255
170 204 255
170 204 255
170 204 255
170 204 255
170 204 255
169 204 255
169 204 255
169 204 255
169 204 255
169 204 255
169 204 255
169 204 255
169 204 255
169 203 255
169 203 255
169 203 255
169 203 255
168 203 255
168 203 255
168 203 255
168 203 255
168 203 255
168 203 255
168 203 255
168 203 255
168 203 255
168 203 255
168 203 255
167 203 255
167 203 255
167 203 255
167 203 255
167 202 255
167 202 255
167 202 255
167 202 255
167 202 255
167 202 255
167 202 255
166 202 255
166 202 255
166 202 255
166 202 255
166 202 255
166 202 255
166 202 255
166 202 255
166 202 255
166 202 255
166 202 255
165 201 255
165 201 255
165 201 255
165 201 255
165 201 255
165 201 255
165 201 255
165 201 255
165 201 255
165 201 255
165 201 255
164 201 255
164 201 255
164 201 255
164 201 255
164 201 255
164 201 255
164 201 255
164 200 255
164 200 255
164 200 255
164 200 255
163 200 255
163 200 255
163 200 255
163 200 255
163 200 255
163 200 255
163 200 255
163 200 255
163 200 255
163 200 255
163 200 255
163 200 255
163 200 255
162 200 255
162 200 255
162 200 255
162 200 255
162 200 255
162 199 255
162 199 255
162 199 255
162 199 255
162 199 255
162 199 255
162 199 255
162 199 255
162 199 255
162 199 255
162 199 255
161 199 255
161 199 255
161 199 255
161 199 255
161 199 255
161 199 255
161 199 255
161 199 255
161 199 255
161 199 255
149 184 237
115 142 183
80 99 128
58 72 92
60 75 98
60 75 97
52 67 88
57 71 92
59 73 95
52 66 86
54 68 88
53 67 87
62 77 99
56 70 90
59 72 92
58 72 94
61 76 98
59 73 95
61 76 99
58 71 91
58 73 96
58 73 95
56 69 90
57 71 93
55 69 89
55 69 89
63 79 103
58 72 93
55 68 88
55 70 91
51 64 84
56 71 92
59 73 94
58 73 95
56 69 89
56 70 91
58 73 94
55 69 91
57 72 93
80 99 128
112 139 178
150 185 238
161 199 255
161 199 255
161 199 255
161 199 255
161 199 255
161 199 255
161 199 255
161 199 255
161 199 255
161 199 255
162 199 255
162 199 255
162 199 255
162 199 255
162 199 255
162 199 255
162 199 255
162 199 255
162 199 255
162 199 255
162 199 255
162 200 255
162 200 255
162 200 255
162 200 255
162 200 255
163 200 255
163 200 255
163 200 255
163 200 255
163 200 255
163 200 255
163 200 255
163 200 255
163 200 255
163 200 255
163 200 255
163 200 255
163 200 255
164 200 255
164 200 255
164 200 255
164 200 255
164 201 255
164 201 255
164 201 255
164 201 255
164 201 255
164 201 255
164 201 255
164 201 255
165 201 255
165 201 255
165 201 255
165 201 255
165 201 255
165 201 255
165 201 255
165 201 255
165 201 255
165 201 255
166 202 255
166 202 255
166 202 255
166 202 255
166 202 255
166 202 255
166 202 255
166 202 255
166 202 255
166 202 255
166 202 255
167 202 255
167 202 255
167 202 255
167 202 255
167 202 255
167 202 255
167 202 255
167 203 255
167 203 255
167 203 255
167 203 255
168 203 255
168 203 255
168 203 255
168 203 255
168 203 255
168 203 255
168 203 255
168 203 255
168 203 255
168 203 255
168 203 255
169 203 255
169 203 255
169 203 255
169 203 255
169 204 255
169 204 255
169 204 255
169 204 255
169 204 255
169 204 255
169 204 255
169 204 255
170 204 255
170 204 255
170 204 255
170 204 255
170 204 255
170 204 255
170 204 255
170 204 255
170 204 255
170 204 255
170 204 255
171 205 255
171 205 255
171 205 255
171 205 255
171 205 255
171 205 255
171 205 255
171 205 255
171 205 255
171 205 255
171 205 255
171 205 255
171 205 255
172 205 255
172 205 255
172 205 255
172 205 255
172 205 255
172 205 255
172 205 255
172 205 255
172 205 255
172 206 255
172 206 255
172 206 255
172 206 255
172 206 255
173 206 255
173 206 255
173 206 255
173 206 255
173 206 255
173 206 255
173 206 255
173 206 255
173 206 255
173 206 255
173 206 255
173 206 255
173 206 255
173 206 255
174 206 255
174 206 255
174 206 255
174 206 255
174 206 255
174 207 255
174 207 255
174 207 255
174 207 255
174 207 255
174 207 255
174 207 255
174 207 255
174 207 255
174 207 255
174 207 255
175 207 255
175 207 255
175 207 255
175 207 255
175 207 255
175 207 255
175 207 255
175 207 255
175 207 255
175 207 255
175 207 255
175 207 255
175 207 255
175 207 255
174 207 255
174 207 255
174 207 255
174 207 255
174 207 255
174 207 255
174 207 255
174 207 255
174 207 255
174 207 255
174 207 255
174 206 255
174 206 255
174 206 255
174 206 255
174 206 255
173 206 255
173 206 255
173 206 255
173 206 255
173 206 255
173 206 255
173 206 255
173 206 255
173 206 255
173 206 255
173 206 255
173 206 255
173 206 255
173 206 255
172 206 255
172 206 255
172 206 255
172 206 255
172 206 255
172 205 255
172 205 255
172 205 255
172 205 255
172 205 255
172 205 255
172 205 255
172 205 255
172 205 255
171 205 255
171 205 255
171 205 255
171 205 255
171 205 255
171 205 255
171 205 255
171 205 255
171 205 255
171 205 255
171 205 255
171 205 255
170 204 255
170 204 255
170 204 255
170 204 255
170 204 255
170 204 255
170 204 255
170 204 255
170 204 255
170 204 255
170 204 255
170 204 255
169 204 255
169 204 255
169 204 255
169 204 255
169 204 255
169 204 255
169 204 255
169 204 255
169 203 255
169 203 255
169 203 255
169 203 255
168 203 255
168 203 255
168 203 255
168 203 255
168 203 255
168 203 255
168 203 255
168 203 255
168 203 255
168 203 255
168 203 255
167 203 255
167 203 255
167 203 255
167 202 255
167 202 255
167 202 255
167 202 255
167 202 255
167 202 255
167 202 255
166 202 255
166 202 255
166 202 255
166 202 255
166 202 255
166 202 255
166 202 255
166 202 255
166 202 255
166 202 255
166 202 255
165 201 255
165 201 255
165 201 255
165 201 255
165 201 255
165 201 255
165 201 255
165 201 255
165 201 255
165 201 255
165 201 255
165 201 255
164 201 255
164 201 255
164 201 255
164 201 255
164 201 255
164 201 255
164 201 255
164 201 255
164 200 255
164 200 255
164 200 255
164 200 255
163 200 255
163 200 255
163 200 255
163 200 255
163 200 255
163 200 255
163 200 255
163 200 255
163 200 255
163 200 255
163 200 255
163 200 255
163 200 255
162 200 255
162 200 255
162 200 255
162 200 255
162 200 255
162 199 255
162 199 255
162 199 255
162 199 255
162 199 255
162 199 255
162 199 255
162 199 255
162 199 255
162 199 255
162 199 255
162 199 255
162 199 255
153 189 242
120 148 191
82 102 132
58 72 94
59 74 96
54 68 89
55 68 89
55 68 88
54 67 87
56 71 92
58 71 91
59 74 97
51 64 83
57 72 93
57 71 92
53 67 87
65 80 101
55 69 88
54 67 88
53 67 87
54 68 88
56 71 92
55 69 89
58 72 92
51 65 85
53 65 84
54 66 85
55 68 87
53 67 87
52 65 85
53 67 87
53 66 86
60 74 96
57 71 92
58 72 93
57 71 92
59 74 97
59 73 95
58 71 90
57 71 91
58 73 95
58 73 95
60 74 96
62 78 102
57 72 94
68 85 110
114 141 182
153 188 241
162 199 255
162 199 255
162 199 255
162 199 255
162 199 255
162 199 255
162 199 255
162 199 255
162 199 255
162 199 255
162 199 255
162 199 255
162 199 255
162 200 255
162 200 255
162 200 255
162 200 255
163 200 255
163 200 255
163 200 255
163 200 255
163 200 255
163 200 255
163 200 255
163 200 255
163 200 255
163 200 255
163 200 255
163 200 255
163 200 255
163 200 255
164 200 255
164 200 255
164 200 255
164 200 255
164 200 255
164 201 255
164 201 255
164 201 255
164 201 255
164 201 255
164 201 255
164 201 255
165 201 255
165 201 255
165 201 255
165 201 255
165 201 255
165 201 255
165 201 255
165 201 255
165 201 255
165 201 255
165 201 255
165 201 255
166 202 255
166 202 255
166 202 255
166 202 255
166 202 255
166 202 255
166 202 255
166 202 255
166 202 255
166 202 255
167 202 255
167 202 255
167 202 255
167 202 255
167 202 255
167 202 255
167 202 255
167 202 255
167 203 255
167 203 255
167 203 255
167 203 255
168 203 255
168 203 255
168 203 255
168 203 255
168 203 255
168 203 255
168 203 255
168 203 255
168 203 255
168 203 255
169 203 255
169 203 255
169 203 255
169 203 255
169 204 255
169 204 255
169 204 255
169 204 255
169 204 255
169 204 255
169 204 255
169 204 255
170 204 255
170 204 255
170 204 255
170 204 255
170 204 255
170 204 255
170 204 255
170 204 255
170 204 255
170 204 255
170 204 255
170 204 255
171 205 255
171 205 255
171 205 255
171 205 255
171 205 255
171 205 255
171 205 255
171 205 255
171 205 255
171 205 255
171 205 255
171 205 255
172 205 255
172 205 255
172 205 255
172 205 255
172 205 255
172 205 255
172 205 255
172 205 255
172 205 255
172 206 255
172 206 255
172 206 255
172 206 255
172 206 255
173 206 255
173 206 255
173 206 255
173 206 255
173 206 255
173 206 255
173 206 255
173 206 255
173 206 255
173 206 255
173 206 255
173 206 255
173 206 255
173 206 255
174 206 255
174 206 255
174 206 255
174 206 255
174 206 255
174 207 255
174 207 255
174 207 255
174 207 255
174 207 255
174 207 255
174 207 255
174 207 255
174 207 255
174 207 255
174 207 255
175 207 255
175 207 255
175 207 255
175 207 255
175 207 255
175 207 255
175 207 255
175 207 255
175 207 255
175 207 255
175 207 255
175 207 255
175 207 255
175 207 255
175 207 255
175 207 255
175 207 255
175 207 255
175 207 255
175 207 255
175 207 255
175 207 255
175 207 255
174 207 255
174 207 255
174 207 255
174 207 255
174 207 255
174 207 255
174 207 255
174 207 255
174 207 255
174 207 255
174 206 255
174 206 255
174 206 255
174 206 255
174 206 255
173 206 255
173 206 255
173 206 255
173 206 255
173 206 255
173 206 255
173 206 255
173 206 255
173 206 255
173 206 255
173 206 255
173 206 255
173 206 255
173 206 255
172 206 255
172 206 255
172 206 255
172 206 255
172 206 255
172 205 255
172 205 255
172 205 255
172 205 255
172 205 255
172 205 255
172 205 255
172 205 255
171 205 255
171 205 255
171 205 255
171 205 255
171 205 255
171 205 255
171 205 255
171 205 255
171 205 255
171 205 255
171 205 255
171 205 255
171 205 255
170 204 255
170 204 255
170 204 255
170 204 255
170 204 255
170 204 255
170 204 255
170 204 255
170 204 255
170 204 255
170 204 255
170 204 255
169 204 255
169 204 255
169 204 255
169 204 255
169 204 255
169 204 255
169 204 255
169 203 255
169 203 255
169 203 255
169 203 255
168 203 255
168 203 255
168 203 255
168 203 255
168 203 255
168 203 255
168 203 255
168 203 255
168 203 255
168 203 255
168 203 255
167 203 255
167 203 255
167 203 255
167 203 255
167 202 255
167 202 255
167 202 255
167 202 255
167 202 255
167 202 255
167 202 255
166 202 255
166 202 255
166 202 255
166 202 255
166 202 255
166 202 255
166 202 255
166 202 255
166 202 255
166 202 255
166 202 255
166 202 255
165 201 255
165 201 255
165 201 255
165 201 255
165 201 255
165 201 255
165 201 255
165 201 255
165 201 255
165 201 255
165 201 255
164 201 255
164 201 255
164 201 255
164 201 255
164 201 255
164 201 255
164 201 255
164 201 255
164 200 255
164 200 255
164 200 255
164 200 255
164 200 255
163 200 255
163 200 255
163 200 255
163 200 255
163 200 255
163 200 255
163 200 255
163 200 255
163 200 255
163 200 255
163 200 255
163 200 255
163 200 255
163 200 255
162 200 255
162 200 255
162 200 255
162 200 255
162 200 255
162 200 255
162 199 255
162 199 255
162 199 255
162 199 255
138 170 217
91 112 144
62 77 100
57 72 94
54 67 88
56 70 90
57 71 92
59 73 94
55 69 91
58 73 95
55 70 92
56 71 93
56 70 91
57 70 90
55 67 85
55 68 88
57 72 95
57 71 92
59 75 97
57 70 91
56 69 89
47 59 78
57 71 91
53 66 85
63 78 101
62 78 101
62 77 100
60 75 98
60 74 96
54 67 87
57 70 90
53 67 87
52 66 86
59 73 95
53 67 88
57 71 92
56 71 93
60 75 97
63 78 102
55 70 91
56 70 90
58 71 92
52 65 84
61 75 96
58 72 94
58 73 94
53 66 86
61 76 100
57 71 93
59 73 95
96 119 154
135 167 215
162 199 255
162 199 255
162 199 255
162 199 255
162 200 255
162 200 255
162 200 255
162 200 255
162 200 255
163 200 255
163 200 255
163 200 255
163 200 255
163 200 255
163 200 255
163 200 255
163 200 255
163 200 255
163 200 255
163 200 255
163 200 255
163 200 255
163 200 255
163 200 255
164 200 255
164 200 255
164 200 255
164 200 255
164 200 255
164 201 255
164 201 255
164 201 255
164 201 255
164 201 255
164 201 255
164 201 255
164 201 255
165 201 255
165 201 255
165 201 255
165 201 255
165 201 255
165 201 255
165 201 255
165 201 255
165 201 255
165 201 255
165 201 255
165 201 255
166 202 255
166 202 255
166 202 255
166 202 255
166 202 255
166 202 255
166 202 255
166 202 255
166 202 255
166 202 255
166 202 255
167 202 255
167 202 255
167 202 255
167 202 255
167 202 255
167 202 255
167 202 255
167 203 255
167 203 255
167 203 255
167 203 255
168 203 255
168 203 255
168 203 255
168 203 255
168 203 255
168 203 255
168 203 255
168 203 255
168 203 255
168 203 255
168 203 255
169 203 255
169 203 255
169 203 255
169 203 255
169 204 255
169 204 255
169 204 255
169 204 255
169 204 255
169 204 255
169 204 255
170 204 255
170 204 255
170 204 255
170 204 255
170 204 255
170 204 255
170 204 255
170 204 255
170 204 255
170 204 255
170 204 255
170 204 255
171 205 255
171 205 255
171 205 255
171 205 255
171 205 255
171 205 255
171 205 255
171 205 255
171 205 255
171 205 255
171 205 255
171 205 255
172 205 255
172 205 255
172 205 255
172 205 255
172 205 255
172 205 255
172 205 255
172 205 255
172 205 255
172 206 255
172 206 255
172 206 255
172 206 255
172 206 255
173 206 255
173 206 255
173 206 255
173 206 255
173 206 255
173 206 255
173 206 255
173 206 255
173 206 255
173 206 255
173 206 255
173 206 255
173 206 255
173 206 255
174 206 255
174 206 255
174 206 255
174 206 255
174 206 255
174 207 255
174 207 255
174 207 255
174 207 255
174 207 255
174 207 255
174 207 255
174 207 255
174 207 255
174 207 255
175 207 255
175 207 255
175 207 255
175 207 255
175 207 255
175 207 255
175 207 255
175 207 255
175 207 255
175 207 255
175 207 255
175 207 255
175 207 255
175 207 255
176 208 255
175 207 255
175 207 255
175 207 255
175 207 255
175 207 255
175 207 255
175 207 255
175 207 255
175 207 255
175 207 255
175 207 255
175 207 255
175 207 255
175 207 255
175 207 255
175 207 255
175 207 255
174 207 255
174 207 255
174 207 255
174 207 255
174 207 255
174 207 255
174 207 255
174 207 255
174 207 255
174 207 255
174 206 255
174 206 255
174 206 255
174 206 255
174 206 255
173 206 255
173 206 255
173 206 255
173 206 255
173 206 255
173 206 255
173 206 255
173 206 255
173 206 255
173 206 255
173 206 255
173 206 255
173 206 255
173 206 255
172 206 255
172 206 255
172 206 255
172 206 255
172 205 255
172 205 255
172 205 255
172 205 255
172 205 255
172 205 255
172 205 255
172 205 255
172 205 255
171 205 255
171 205 255
171 205 255
171 205 255
171 205 255
171 205 255
171 205 255
171 205 255
171 205 255
171 205 255
171 205 255
171 205 255
171 205 255
170 204 255
170 204 255
170 204 255
170 204 255
170 204 255
170 204 255
170 204 255
170 204 255
170 204 255
170 204 255
170 204 255
170 204 255
169 204 255
169 204 255
169 204 255
169 204 255
169 204 255
169 204 255
169 204 255
169 203 255
169 203 255
169 203 255
169 203 255
168 203 255
168 203 255
168 203 255
168 203 255
168 203 255
168 203 255
168 203 255
168 203 255
168 203 255
168 203 255
168 203 255
167 203 255
167 203 255
167 203 255
167 203 255
167 202 255
167 202 255
167 202 255
167 202 255
167 202 255
167 202 255
167 202 255
166 202 255
166 202 255
166 202 255
166 202 255
166 202 255
166 202 255
166 202 255
166 202 255
166 202 255
166 202 255
166 202 255
166 202 255
165 201 255
165 201 255
165 201 255
165 201 255
165 201 255
165 201 255
165 201 255
165 201 255
165 201 255
165 201 255
165 201 255
164 201 255
164 201 255
164 201 255
164 201 255
164 201 255
164 201 255
164 201 255
164 201 255
164 201 255
164 200 255
164 200 255
164 200 255
164 200 255
164 200 255
163 200 255
163 200 255
163 200 255
163 200 255
163 200 255
163 200 255
163 200 255
163 200 255
163 200 255
163 200 255
163 200 255
163 200 255
163 200 255
163 200 255
163 200 255
163 200 255
162 200 255
137 168 215
81 99 127
51 64 84
55 69 89
59 74 96
55 69 90
54 68 89
57 71 92
56 70 89
59 74 96
62 77 99
58 71 92
55 69 89
62 78 101
49 61 78
55 69 90
55 69 90
58 73 95
53 66 86
57 71 92
60 75 98
51 64 82
56 71 94
54 68 88
55 68 88
56 70 91
57 70 91
52 65 85
55 68 87
56 69 89
55 68 88
50 64 84
52 65 85
60 74 96
57 71 93
58 73 94
53 67 87
55 69 89
57 71 92
55 68 89
54 68 88
58 74 96
55 69 90
51 63 81
60 74 94
62 77 101
59 75 98
56 70 92
58 73 96
57 70 91
56 69 89
52 65 85
52 66 86
54 68 88
82 102 131
131 162 208
159 195 250
163 200 255
163 200 255
163 200 255
163 200 255
163 200 255
163 200 255
163 200 255
163 200 255
163 200 255
163 200 255
163 200 255
163 200 255
163 200 255
163 200 255
163 200 255
163 200 255
164 200 255
164 200 255
164 200 255
164 200 255
164 200 255
164 201 255
164 201 255
164 201 255
164 201 255
164 201 255
164 201 255
164 201 255
164 201 255
164 201 255
165 201 255
165 201 255
165 201 255
165 201 255
165 201 255
165 201 255
165 201 255
165 201 255
165 201 255
165 201 255
165 201 255
166 202 255
166 202 255
166 202 255
166 202 255
166 202 255
166 202 255
166 202 255
166 202 255
166 202 255
166 202 255
166 202 255
166 202 255
167 202 255
167 202 255
167 202 255
167 202 255
167 202 255
167 202 255
167 202 255
167 203 255
167 203 255
167 203 255
167 203 255
168 203 255
168 203 255
168 203 255
168 203 255
168 203 255
168 203 255
168 203 255
168 203 255
168 203 255
168 203 255
168 203 255
169 203 255
169 203 255
169 203 255
169 203 255
169 204 255
169 204 255
169 204 255
169 204 255
169 204 255
169 204 255
169 204 255
170 204 255
170 204 255
170 204 255
170 204 255
170 204 255
170 204 255
170 204 255
170 204 255
170 204 255
170 204 255
170 204 255
170 204 255
171 205 255
171 205 255
171 205 255
171 205 255
171 205 255
171 205 255
171 205 255
171 205 255
171 205 255
171 205 255
171 205 255
171 205 255
171 205 255
172 205 255
172 205 255
172 205 255
172 205 255
172 205 255
172 205 255
172 205 255
172 205 255
172 206 255
172 206 255
172 206 255
172 206 255
172 206 255
173 206 255
173 206 255
173 206 255
173 206 255
173 206 255
173 206 255
173 206 255
173 206 255
173 206 255
173 206 255
173 206 255
173 206 255
173 206 255
173 206 255
174 206 255
174 206 255
174 206 255
174 206 255
174 206 255
174 207 255
174 207 255
174 207 255
174 207 255
174 207 255
174 207 255
174 207 255
174 207 255
174 207 255
174 207 255
175 207 255
175 207 255
175 207 255
175 207 255
175 207 255
175 207 255
175 207 255
175 207 255
175 207 255
175 207 255
175 207 255
175 207 255
175 207 255
175 207 255
175 207 255
175 207 255
175 207 255
176 208 255
176 208 255
176 208 255
176 208 255
176 208 255
176 208 255
176 208 255
175 207 255
175 207 255
175 207 255
175 207 255
175 207 255
175 207 255
175 207 255
175 207 255
175 207 255
175 207 255
175 207 255
175 207 255
175 207 255
175 207 255
175 207 255
175 207 255
174 207 255
174 207 255
174 207 255
174 207 255
174 207 255
174 207 255
174 207 255
174 207 255
174 207 255
174 207 255
174 206 255
174 206 255
174 206 255
174 206 255
174 206 255
173 206 255
173 206 255
173 206 255
173 206 255
173 206 255
173 206 255
173 206 255
173 206 255
173 206 255
173 206 255
173 206 255
173 206 255
173 206 255
173 206 255
172 206 255
172 206 255
172 206 255
172 206 255
172 205 255
172 205 255
172 205 255
172 205 255
172 205 255
172 205 255
172 205 255
172 205 255
172 205 255
171 205 255
171 205 255
171 205 255
171 205 255
171 205 255
171 205 255
171 205 255
171 205 255
171 205 255
171 205 255
171 205 255
171 205 255
171 205 255
170 204 255
170 204 255
170 204 255
170 204 255
170 204 255
170 204 255
170 204 255
170 204 255
170 204 255
170 204 255
170 204 255
169 204 255
169 204 255
169 204 255
169 204 255
169 204 255
169 204 255
169 204 255
169 204 255
169 203 255
169 203 255
169 203 255
169 203 255
168 203 255
168 203 255
168 203 255
168 203 255
168 203 255
168 203 255
168 203 255
168 203 255
168 203 255
168 203 255
168 203 255
167 203 255
167 203 255
167 203 255
167 203 255
167 202 255
167 202 255
167 202 255
167 202 255
167 202 255
167 202 255
167 202 255
166 202 255
166 202 255
166 202 255
166 202 255
166 202 255
166 202 255
166 202 255
166 202 255
166 202 255
166 202 255
166 202 255
166 202 255
165 201 255
165 201 255
165 201 255
165 201 255
165 201 255
165 201 255
165 201 255
165 201 255
165 201 255
165 201 255
165 201 255
165 201 255
164 201 255
164 201 255
164 201 255
164 201 255
164 201 255
164 201 255
164 201 255
164 201 255
164 201 255
164 200 255
164 200 255
164 200 255
164 200 255
164 200 255
163 200 255
163 200 255
163 200 255
163 200 255
163 200 255
163 200 255
163 200 255
163 200 255
163 200 255
162 199 254
128 157 201
78 97 126
58 72 94
56 69 89
54 68 90
54 67 88
50 63 82
55 69 90
56 70 92
52 65 84
58 73 96
52 64 83
60 75 96
55 70 91
57 71 93
54 67 87
55 68 87
54 68 89
54 67 87
58 72 94
60 75 97
55 69 90
52 65 85
54 68 88
56 70 91
57 71 92
55 68 88
58 72 92
54 68 89
58 72 93
57 70 91
54 68 88
58 72 93
54 68 90
52 65 84
56 70 91
59 74 95
54 68 89
55 69 89
53 65 84
58 72 92
60 74 96
56 70 91
56 70 92
54 67 88
54 67 88
50 62 81
55 68 88
54 67 88
54 69 90
51 64 84
59 73 93
54 68 88
55 68 89
56 70 90
58 72 93
63 77 99
57 72 94
71 88 113
128 157 202
163 200 255
163 200 255
163 200 255
163 200 255
163 200 255
163 200 255
163 200 255
163 200 255
163 200 255
164 200 255
164 200 255
164 200 255
164 200 255
164 200 255
164 200 255
164 201 255
164 201 255
164 201 255
164 201 255
164 201 255
164 201 255
164 201 255
164 201 255
164 201 255
165 201 255
165 201 255
165 201 255
165 201 255
165 201 255
165 201 255
165 201 255
165 201 255
165 201 255
165 201 255
165 201 255
165 201 255
166 202 255
166 202 255
166 202 255
166 202 255
166 202 255
166 202 255
166 202 255
166 202 255
166 202 255
166 202 255
166 202 255
166 202 255
167 202 255
167 202 255
167 202 255
167 202 255
167 202 255
167 202 255
167 202 255
167 203 255
167 203 255
167 203 255
167 203 255
168 203 255
168 203 255
168 203 255
168 203 255
168 203 255
168 203 255
168 203 255
168 203 255
168 203 255
168 203 255
168 203 255
169 203 255
169 203 255
169 203 255
169 203 255
169 204 255
169 204 255
169 204 255
169 204 255
169 204 255
169 204 255
169 204 255
169 204 255
170 204 255
170 204 255
170 204 255
170 204 255
170 204 255
170 204 255
170 204 255
170 204 255
170 204 255
170 204 255
170 204 255
171 205 255
171 205 255
171 205 255
171 205 255
171 205 255
171 205 255
171 205 255
171 205 255
171 205 255
171 205 255
171 205 255
171 205 255
171 205 255
172 205 255
172 205 255
172 205 255
172 205 255
172 205 255
172 205 255
172 205 255
172 205 255
172 205 255
172 206 255
172 206 255
172 206 255
172 206 255
173 206 255
173 206 255
173 206 255
173 206 255
173 206 255
173 206 255
173 206 255
173 206 255
173 206 255
173 206 255
173 206 255
173 206 255
173 206 255
173 206 255
174 206 255
174 206 255
174 206 255
174 206 255
174 206 255
174 207 255
174 207 255
174 207 255
174 207 255
174 207 255
174 207 255
174 207 255
174 207 255
174 207 255
174 207 255
175 207 255
175 207 255
175 207 255
175 207 255
175 207 255
175 207 255
175 207 255
175 207 255
175 207 255
175 207 255
175 207 255
175 207 255
175 207 255
175 207 255
175 207 255
175 207 255
176 208 255
176 208 255
176 208 255
176 208 255
176 208 255
176 208 255
176 208 255
176 208 255
176 208 255
176 208 255
176 208 255
176 208 255
176 208 255
176 208 255
176 208 255
176 208 255
175 207 255
175 207 255
175 207 255
175 207 255
175 207 255
175 207 255
175 207 255
175 207 255
175 207 255
175 207 255
175 207 255
175 207 255
175 207 255
175 207 255
175 207 255
175 207 255
174 207 255
174 207 255
174 207 255
174 207 255
174 207 255
174 207 255
174 207 255
174 207 255
174 207 255
174 207 255
174 206 255
174 206 255
174 206 255
174 206 255
174 206 255
173 206 255
173 206 255
173 206 255
173 206 255
173 206 255
173 206 255
173 206 255
173 206 255
173 206 255
173 206 255
173 206 255
173 206 255
173 206 255
173 206 255
172 206 255
172 206 255
172 206 255
172 206 255
172 206 255
172 205 255
172 205 255
172 205 255
172 205 255
172 205 255
172 205 255
172 205 255
172 205 255
171 205 255
171 205 255
171 205 255
171 205 255
171 205 255
171 205 255
171 205 255
171 205 255
171 205 255
171 205 255
171 205 255
171 205 255
171 205 255
170 204 255
170 204 255
170 204 255
170 204 255
170 204 255
170 204 255
170 204 255
170 204 255
170 204 255
170 204 255
170 204 255
169 204 255
169 204 255
169 204 255
169 204 255
169 204 255
169 204 255
169 204 255
169 204 255
169 203 255
169 203 255
169 203 255
169 203 255
168 203 255
168 203 255
168 203 255
168 203 255
168 203 255
168 203 255
168 203 255
168 203 255
168 203 255
168 203 255
168 203 255
167 203 255
167 203 255
167 203 255
167 203 255
167 202 255
167 202 255
167 202 255
167 202 255
167 202 255
167 202 255
167 202 255
167 202 255
166 202 255
166 202 255
166 202 255
166 202 255
166 202 255
166 202 255
166 202 255
166 202 255
166 202 255
166 202 255
166 202 255
166 202 255
165 201 255
165 201 255
165 201 255
165 201 255
165 201 255
165 201 255
165 201 255
165 201 255
165 201 255
165 201 255
165 201 255
165 201 255
165 201 255
164 201 255
164 201 255
164 201 255
164 201 255
164 201 255
164 201 255
164 201 255
164 201 255
164 201 255
164 200 255
164 200 255
164 200 255
164 200 255
164 200 255
164 200 255
163 200 255
132 163 208
71 89 115
55 69 89
58 73 95
56 70 92
55 68 89
55 69 90
55 69 90
53 66 86
55 69 90
57 70 91
57 70 91
52 66 85
53 66 85
53 66 85
58 72 92
61 75 97
56 71 92
53 66 85
57 70 91
57 70 89
56 70 91
58 72 93
52 65 84
53 66 86
56 69 90
53 67 87
57 71 93
54 68 88
58 73 94
48 60 78
49 61 79
60 74 96
56 70 90
58 72 94
53 66 85
53 65 84
56 70 91
55 69 90
57 71 92
57 71 91
56 70 90
57 72 93
53 66 85
53 66 85
53 67 86
52 66 87
50 63 82
55 68 87
59 73 94
56 70 90
58 71 92
54 67 86
57 71 93
55 68 88
58 72 94
58 72 93
55 68 89
59 72 93
59 73 95
55 70 91
57 71 92
70 87 113
135 166 212
163 200 255
164 200 255
164 200 255
164 200 255
164 200 255
164 200 255
164 201 255
164 201 255
164 201 255
164 201 255
164 201 255
164 201 255
164 201 255
164 201 255
164 201 255
164 201 255
164 201 255
165 201 255
165 201 255
165 201 255
165 201 255
165 201 255
165 201 255
165 201 255
165 201 255
165 201 255
165 201 255
165 201 255
165 201 255
166 202 255
166 202 255
166 202 255
166 202 255
166 202 255
166 202 255
166 202 255
166 202 255
166 202 255
166 202 255
166 202 255
166 202 255
167 202 255
167 202 255
167 202 255
167 202 255
167 202 255
167 202 255
167 202 255
167 202 255
167 203 255
167 203 255
167 203 255
167 203 255
168 203 255
168 203 255
168 203 255
168 203 255
168 203 255
168 203 255
168 203 255
168 203 255
168 203 255
168 203 255
168 203 255
169 203 255
169 203 255
169 203 255
169 203 255
169 204 255
169 204 255
169 204 255
169 204 255
169 204 255
169 204 255
169 204 255
169 204 255
170 204 255
170 204 255
170 204 255
170 204 255
170 204 255
170 204 255
170 204 255
170 204 255
170 204 255
170 204 255
170 204 255
170 204 255
171 205 255
171 205 255
171 205 255
171 205 255
171 205 255
171 205 255
171 205 255
171 205 255
171 205 255
171 205 255
171 205 255
171 205 255
172 205 255
172 205 255
172 205 255
172 205 255
172 205 255
172 205 255
172 205 255
172 205 255
172 206 255
172 206 255
172 206 255
172 206 255
172 206 255
173 206 255
173 206 255
173 206 255
173 206 255
173 206 255
173 206 255
173 206 255
173 206 255
173 206 255
173 206 255
173 206 255
173 206 255
173 206 255
173 206 255
174 206 255
174 206 255
174 206 255
174 206 255
174 207 255
174 207 255
174 207 255
174 207 255
174 207 255
174 207 255
174 207 255
174 207 255
174 207 255
174 207 255
174 207 255
175 207 255
175 207 255
175 207 255
175 207 255
175 207 255
175 207 255
175 207 255
175 207 255
175 207 255
175 207 255
175 207 255
175 207 255
175 207 255
175 207 255
175 207 255
175 207 255
176 208 255
176 208 255
176 208 255
176 208 255
176 208 255
176 208 255
176 208 255
176 208 255
176 208 255
176 208 255
176 208 255
176 208 255
176 208 255
176 208 255
176 208 255
176 208 255
176 208 255
176 208 255
176 208 255
176 208 255
176 208 255
176 208 255
176 208 255
176 208 255
175 207 255
175 207 255
175 207 255
175 207 255
175 207 255
175 207 255
175 207 255
175 207 255
175 207 255
175 207 255
175 207 255
175 207 255
175 207 255
175 207 255
175 207 255
175 207 255
175 207 255
174 207 255
174 207 255
174 207 255
174 207 255
174 207 255
174 207 255
174 207 255
174 207 255
174 207 255
174 207 255
174 206 255
174 206 255
174 206 255
174 206 255
174 206 255
173 206 255
173 206 255
173 206 255
173 206 255
173 206 255
173 206 255
173 206 255
173 206 255
173 206 255
173 206 255
173 206 255
173 206 255
173 206 255
172 206 255
172 206 255
172 206 255
172 206 255
172 206 255
172 205 255
172 205 255
172 205 255
172 205 255
172 205 255
172 205 255
172 205 255
172 205 255
171 205 255
171 205 255
171 205 255
171 205 255
171 205 255
171 205 255
171 205 255
171 205 255
171 205 255
171 205 255
171 205 255
171 205 255
170 204 255
170 204 255
170 204 255
170 204 255
170 204 255
170 204 255
170 204 255
170 204 255
170 204 255
170 204 255
170 204 255
170 204 255
169 204 255
169 204 255
169 204 255
169 204 255
169 204 255
169 204 255
169 204 255
169 204 255
169 203 255
169 203 255
169 203 255
169 203 255
168 203 255
168 203 255
168 203 255
168 203 255
168 203 255
168 203 255
168 203 255
168 203 255
168 203 255
168 203 255
168 203 255
168 203 255
167 203 255
167 203 255
167 203 255
167 202 255
167 202 255
167 202 255
167 202 255
167 202 255
167 202 255
167 202 255
167 202 255
166 202 255
166 202 255
166 202 255
166 202 255
166 202 255
166 202 255
166 202 255
166 202 255
166 202 255
166 202 255
166 202 255
166 202 255
165 201 255
165 201 255
165 201 255
165 201 255
165 201 255
165 201 255
165 201 255
165 201 255
165 201 255
165 201 255
165 201 255
165 201 255
165 201 255
165 201 255
164 201 255
164 201 255
164 201 255
164 201 255
164 201 255
164 201 255
164 201 255
164 201 255
164 201 255
156 191 243
80 100 130
56 69 89
56 70 92
58 72 94
54 68 89
55 69 89
51 64 82
56 72 95
53 66 86
54 68 88
57 70 90
54 68 87
55 69 89
52 64 82
53 66 86
52 65 84
49 62 81
54 67 88
62 76 97
55 68 88
54 68 89
52 65 84
56 70 90
53 65 84
55 69 89
54 67 87
58 72 93
54 68 89
51 64 84
58 72 94
52 64 83
55 68 88
52 64 82
54 68 89
57 70 91
54 68 88
61 76 99
52 65 83
53 66 86
57 71 92
56 71 92
53 67 87
59 73 95
52 66 86
57 71 92
52 65 84
53 66 86
57 70 91
55 69 89
53 67 87
56 69 89
57 70 90
55 69 89
61 75 96
58 71 91
50 63 83
55 69 91
56 69 89
53 66 86
56 69 90
55 68 89
53 66 86
52 65 85
54 66 85
55 68 88
77 95 123
146 179 229
164 201 255
164 201 255
164 201 255
164 201 255
164 201 255
164 201 255
164 201 255
164 201 255
164 201 255
165 201 255
165 201 255
165 201 255
165 201 255
165 201 255
165 201 255
165 201 255
165 201 255
165 201 255
165 201 255
165 201 255
165 201 255
165 201 255
165 201 255
166 202 255
166 202 255
166 202 255
166 202 255
166 202 255
166 202 255
166 202 255
166 202 255
166 202 255
166 202 255
166 202 255
166 202 255
167 202 255
167 202 255
167 202 255
167 202 255
167 202 255
167 202 255
167 202 255
167 202 255
167 203 255
167 203 255
167 203 255
167 203 255
168 203 255
168 203 255
168 203 255
168 203 255
168 203 255
168 203 255
168 203 255
168 203 255
168 203 255
168 203 255
168 203 255
169 203 255
169 203 255
169 203 255
169 203 255
169 204 255
169 204 255
169 204 255
169 204 255
169 204 255
169 204 255
169 204 255
170 204 255
170 204 255
170 204 255
170 204 255
170 204 255
170 204 255
170 204 255
170 204 255
170 204 255
170 204 255
170 204 255
170 204 255
171 205 255
171 205 255
171 205 255
171 205 255
171 205 255
171 205 255
171 205 255
171 205 255
171 205 255
171 205 255
171 205 255
171 205 255
171 205 255
172 205 255
172 205 255
172 205 255
172 205 255
172 205 255
172 205 255
172 205 255
172 205 255
172 206 255
172 206 255
172 206 255
172 206 255
172 206 255
173 206 255
173 206 255
173 206 255
173 206 255
173 206 255
173 206 255
173 206 255
173 206 255
173 206 255
173 206 255
173 206 255
173 206 255
173 206 255
174 206 255
174 206 255
174 206 255
174 206 255
174 206 255
174 207 255
174 207 255
174 207 255
174 207 255
174 207 255
174 207 255
174 207 255
174 207 255
174 207 255
174 207 255
175 207 255
175 207 255
175 207 255
175 207 255
175 207 255
175 207 255
175 207 255
175 207 255
175 207 255
175 207 255
175 207 255
175 207 255
175 207 255
175 207 255
175 207 255
175 207 255
176 208 255
176 208 255
176 208 255
176 208 255
176 208 255
176 208 255
176 208 255
176 208 255
176 208 255
176 208 255
176 208 255
176 208 255
176 208 255
176 208 255
176 208 255
177 208 255
176 208 255
176 208 255
176 208 255
176 208 255
176 208 255
176 208 255
176 208 255
176 208 255
176 208 255
176 208 255
176 208 255
176 208 255
176 208 255
176 208 255
176 208 255
176 208 255
176 208 255
176 208 255
175 207 255
175 207 255
175 207 255
175 207 255
175 207 255
175 207 255
175 207 255
175 207 255
175 207 255
175 207 255
175 207 255
175 207 255
175 207 255
175 207 255
175 207 255
175 207 255
174 207 255
174 207 255
174 207 255
174 207 255
174 207 255
174 207 255
174 207 255
174 207 255
174 207 255
174 207 255
174 206 255
174 206 255
174 206 255
174 206 255
174 206 255
173 206 255
173 206 255
173 206 255
173 206 255
173 206 255
173 206 255
173 206 255
173 206 255
173 206 255
173 206 255
173 206 255
173 206 255
173 206 255
172 206 255
172 206 255
172 206 255
172 206 255
172 206 255
172 205 255
172 205 255
172 205 255
172 205 255
172 205 255
172 205 255
172 205 255
172 205 255
171 205 255
171 205 255
171 205 255
171 205 255
171 205 255
171 205 255
171 205 255
171 205 255
171 205 255
171 205 255
171 205 255
171 205 255
171 205 255
170 204 255
170 204 255
170 204 255
170 204 255
170 204 255
170 204 255
170 204 255
170 204 255
170 204 255
170 204 255
170 204 255
169 204 255
169 204 255
169 204 255
169 204 255
169 204 255
169 204 255
169 204 255
169 204 255
169 203 255
169 203 255
169 203 255
169 203 255
168 203 255
168 203 255
168 203 255
168 203 255
168 203 255
168 203 255
168 203 255
168 203 255
168 203 255
168 203 255
168 203 255
168 203 255
167 203 255
167 203 255
167 203 255
167 203 255
167 202 255
167 202 255
167 202 255
167 202 255
167 202 255
167 202 255
167 202 255
167 202 255
166 202 255
166 202 255
166 202 255
166 202 255
166 202 255
166 202 255
166 202 255
166 202 255
166 202 255
166 202 255
166 202 255
166 202 255
166 202 255
165 201 255
165 201 255
165 201 255
165 201 255
165 201 255
165 201 255
165 201 255
165 201 255
165 201 255
165 201 255
165 201 255
165 201 255
165 201 255
165 201 255
165 201 255
160 196 249
106 131 167
59 73 95
56 71 93
57 71 92
52 64 84
54 67 87
54 67 86
60 73 94
54 68 90
54 68 89
52 64 83
53 66 86
60 75 97
57 72 93
54 67 87
54 67 86
52 66 85
55 68 88
58 71 92
53 66 84
52 65 84
55 68 89
53 66 85
54 67 87
56 69 88
55 68 87
54 68 88
54 66 85
52 65 85
55 70 91
55 68 88
55 67 86
50 63 83
55 68 89
58 71 91
59 74 95
54 66 84
57 71 91
54 69 90
55 69 91
54 68 88
53 66 86
52 64 83
52 64 84
50 63 81
51 63 82
51 63 81
55 68 89
50 63 83
56 70 92
54 67 87
53 67 88
54 67 86
55 69 90
53 67 88
62 77 100
52 64 84
54 67 87
55 68 89
57 71 92
56 69 89
57 71 92
53 66 86
55 69 89
57 71 92
55 69 91
53 66 84
56 69 89
59 74 96
97 119 154
159 195 248
165 201 255
165 201 255
165 201 255
165 201 255
165 201 255
165 201 255
165 201 255
165 201 255
165 201 255
165 201 255
165 201 255
165 201 255
165 201 255
165 201 255
165 201 255
165 201 255
166 202 255
166 202 255
166 202 255
166 202 255
166 202 255
166 202 255
166 202 255
166 202 255
166 202 255
166 202 255
166 202 255
166 202 255
167 202 255
167 202 255
167 202 255
167 202 255
167 202 255
167 202 255
167 202 255
167 202 255
167 203 255
167 203 255
167 203 255
167 203 255
168 203 255
168 203 255
168 203 255
168 203 255
168 203 255
168 203 255
168 203 255
168 203 255
168 203 255
168 203 255
168 203 255
168 203 255
169 203 255
169 203 255
169 203 255
169 203 255
169 204 255
169 204 255
169 204 255
169 204 255
169 204 255
169 204 255
169 204 255
169 204 255
170 204 255
170 204 255
170 204 255
170 204 255
170 204 255
170 204 255
170 204 255
170 204 255
170 204 255
170 204 255
170 204 255
170 204 255
171 205 255
171 205 255
171 205 255
171 205 255
171 205 255
171 205 255
171 205 255
171 205 255
171 205 255
171 205 255
171 205 255
171 205 255
172 205 255
172 205 255
172 205 255
172 205 255
172 205 255
172 205 255
172 205 255
172 205 255
172 206 255
172 206 255
172 206 255
172 206 255
172 206 255
173 206 255
173 206 255
173 206 255
173 206 255
173 206 255
173 206 255
173 206 255
173 206 255
173 206 255
173 206 255
173 206 255
173 206 255
173 206 255
174 206 255
174 206 255
174 206 255
174 206 255
174 206 255
174 207 255
174 207 255
174 207 255
174 207 255
174 207 255
174 207 255
174 207 255
174 207 255
174 207 255
174 207 255
175 207 255
175 207 255
175 207 255
175 207 255
175 207 255
175 207 255
175 207 255
175 207 255
175 207 255
175 207 255
175 207 255
175 207 255
175 207 255
175 207 255
175 207 255
175 207 255
176 208 255
176 208 255
176 208 255
176 208 255
176 208 255
176 208 255
176 208 255
176 208 255
176 208 255
176 208 255
176 208 255
176 208 255
176 208 255
176 208 255
176 208 255
176 208 255
176 208 255
177 208 255
177 208 255
177 208 255
177 208 255
177 208 255
177 208 255
177 208 255
177 208 255
176 208 255
176 208 255
176 208 255
176 208 255
176 208 255
176 208 255
176 208 255
176 208 255
176 208 255
176 208 255
176 208 255
176 208 255
176 208 255
176 208 255
176 208 255
176 208 255
176 208 255
176 208 255
175 207 255
175 207 255
175 207 255
175 207 255
175 207 255
175 207 255
175 207 255
175 207 255
175 207 255
175 207 255
175 207 255
175 207 255
175 207 255
175 207 255
175 207 255
174 207 255
174 207 255
174 207 255
174 207 255
174 207 255
174 207 255
174 207 255
174 207 255
174 207 255
174 207 255
174 206 255
174 206 255
174 206 255
174 206 255
174 206 255
173 206 255
173 206 255
173 206 255
173 206 255
173 206 255
173 206 255
173 206 255
173 206 255
173 206 255
173 206 255
173 206 255
173 206 255
173 206 255
172 206 255
172 206 255
172 206 255
172 206 255
172 206 255
172 205 255
172 205 255
172 205 255
172 205 255
172 205 255
172 205 255
172 205 255
172 205 255
171 205 255
171 205 255
171 205 255
171 205 255
171 205 255
171 205 255
171 205 255
171 205 255
171 205 255
171 205 255
171 205 255
171 205 255
171 205 255
170 204 255
170 204 255
170 204 255
170 204 255
170 204 255
170 204 255
170 204 255
170 204 255
170 204 255
170 204 255
170 204 255
170 204 255
169 204 255
169 204 255
169 204 255
169 204 255
169 204 255
169 204 255
169 204 255
169 203 255
169 203 255
169 203 255
169 203 255
168 203 255
168 203 255
168 203 255
168 203 255
168 203 255
168 203 255
168 203 255
168 203 255
168 203 255
168 203 255
168 203 255
168 203 255
167 203 255
167 203 255
167 203 255
167 203 255
167 202 255
167 202 255
167 202 255
167 202 255
167 202 255
167 202 255
167 202 255
167 202 255
167 202 255
166 202 255
166 202 255
166 202 255
166 202 255
166 202 255
166 202 255
166 202 255
166 202 255
166 202 255
166 202 255
166 202 255
166 202 255
166 202 255
165 201 255
165 201 255
165 201 255
165 201 255
165 201 255
165 201 255
165 201 255
165 201 255
165 201 255
141 172 219
69 86 111
57 71 93
56 70 90
55 68 87
54 68 88
55 69 89
55 68 88
53 66 85
47 59 77
56 68 87
53 67 87
50 62 80
53 66 84
57 70 91
55 68 87
50 63 82
54 68 89
55 68 87
57 71 92
58 72 94
53 67 88
54 67 87
54 68 88
52 65 84
57 70 91
54 67 87
54 66 86
50 63 83
56 69 90
55 68 87
56 70 91
53 66 86
49 62 81
51 64 84
52 65 84
54 67 86
54 67 86
59 72 93
54 67 86
53 66 86
55 68 87
49 62 82
58 71 92
55 68 89
55 69 90
53 65 85
58 72 92
52 64 83
52 64 83
58 71 91
61 75 97
55 69 89
52 65 84
57 70 91
55 70 91
51 64 83
55 68 87
55 70 91
50 62 80
51 65 85
55 69 90
48 61 80
58 72 93
54 67 87
56 69 88
55 68 89
48 60 78
57 70 90
59 74 97
56 71 93
58 72 93
69 86 111
131 160 203
165 201 255
165 201 255
165 201 255
165 201 255
165 201 255
165 201 255
165 201 255
165 201 255
165 201 255
166 202 255
166 202 255
166 202 255
166 202 255
166 202 255
166 202 255
166 202 255
166 202 255
166 202 255
166 202 255
166 202 255
166 202 255
166 202 255
166 202 255
167 202 255
167 202 255
167 202 255
167 202 255
167 202 255
167 202 255
167 202 255
167 202 255
167 203 255
167 203 255
167 203 255
167 203 255
168 203 255
168 203 255
168 203 255
168 203 255
168 203 255
168 203 255
168 203 255
168 203 255
168 203 255
168 203 255
168 203 255
168 203 255
169 203 255
169 203 255
169 203 255
169 203 255
169 204 255
169 204 255
169 204 255
169 204 255
169 204 255
169 204 255
169 204 255
169 204 255
170 204 255
170 204 255
170 204 255
170 204 255
170 204 255
170 204 255
170 204 255
170 204 255
170 204 255
170 204 255
170 204 255
171 205 255
171 205 255
171 205 255
171 205 255
171 205 255
171 205 255
171 205 255
171 205 255
171 205 255
171 205 255
171 205 255
171 205 255
171 205 255
172 205 255
172 205 255
172 205 255
172 205 255
172 205 255
172 205 255
172 205 255
172 205 255
172 206 255
172 206 255
172 206 255
172 206 255
173 206 255
173 206 255
173 206 255
173 206 255
173 206 255
173 206 255
173 206 255
173 206 255
173 206 255
173 206 255
173 206 255
173 206 255
173 206 255
173 206 255
174 206 255
174 206 255
174 206 255
174 206 255
174 206 255
174 207 255
174 207 255
174 207 255
174 207 255
174 207 255
174 207 255
174 207 255
174 207 255
174 207 255
174 207 255
175 207 255
175 207 255
175 207 255
175 207 255
175 207 255
175 207 255
175 207 255
175 207 255
175 207 255
175 207 255
175 207 255
175 207 255
175 207 255
175 207 255
175 207 255
176 208 255
176 208 255
176 208 255
176 208 255
176 208 255
176 208 255
176 208 255
176 208 255
176 208 255
176 208 255
176 208 255
176 208 255
176 208 255
176 208 255
176 208 255
176 208 255
176 208 255
176 208 255
177 208 255
177 208 255
177 208 255
177 208 255
177 208 255
177 208 255
177 208 255
177 208 255
177 208 255
177 208 255
177 208 255
177 208 255
177 208 255
177 208 255
177 208 255
177 208 255
177 208 255
176 208 255
176 208 255
176 208 255
176 208 255
176 208 255
176 208 255
176 208 255
176 208 255
176 208 255
176 208 255
176 208 255
176 208 255
176 208 255
176 208 255
176 208 255
176 208 255
176 208 255
175 207 255
175 207 255
175 207 255
175 207 255
175 207 255
175 207 255
175 207 255
175 207 255
175 207 255
175 207 255
175 207 255
175 207 255
175 207 255
175 207 255
175 207 255
175 207 255
174 207 255
174 207 255
174 207 255
174 207 255
174 207 255
174 207 255
174 207 255
174 207 255
174 207 255
174 207 255
174 206 255
174 206 255
174 206 255
174 206 255
173 206 255
173 206 255
173 206 255
173 206 255
173 206 255
173 206 255
173 206 255
173 206 255
173 206 255
173 206 255
173 206 255
173 206 255
173 206 255
173 206 255
172 206 255
172 206 255
172 206 255
172 206 255
172 205 255
172 205 255
172 205 255
172 205 255
172 205 255
172 205 255
172 205 255
172 205 255
172 205 255
171 205 255
171 205 255
171 205 255
171 205 255
171 205 255
171 205 255
171 205 255
171 205 255
171 205 255
171 205 255
171 205 255
171 205 255
170 204 255
170 204 255
170 204 255
170 204 255
170 204 255
170 204 255
170 204 255
170 204 255
170 204 255
170 204 255
170 204 255
170 204 255
169 204 255
169 204 255
169 204 255
169 204 255
169 204 255
169 204 255
169 204 255
169 204 255
169 203 255
169 203 255
169 203 255
169 203 255
168 203 255
168 203 255
168 203 255
168 203 255
168 203 255
168 203 255
168 203 255
168 203 255
168 203 255
168 203 255
168 203 255
168 203 255
167 203 255
167 203 255
167 203 255
167 203 255
167 202 255
167 202 255
167 202 255
167 202 255
167 202 255
167 202 255
167 202 255
167 202 255
167 202 255
166 202 255
166 202 255
166 202 255
166 202 255
166 202 255
166 202 255
166 202 255
166 202 255
166 202 255
166 202 255
166 202 255
166 202 255
166 202 255
166 202 255
166 202 255
164 199 253
115 141 181
55 69 90
56 70 92
57 71 92
57 70 90
57 71 91
57 70 91
58 73 94
58 71 91
56 70 91
52 65 84
56 70 91
51 64 84
52 66 85
54 67 86
54 67 86
57 71 90
47 59 77
59 72 92
56 69 89
53 66 84
55 68 88
56 71 92
53 66 84
51 65 84
56 69 89
52 65 84
50 63 82
52 65 83
56 70 90
50 63 81
58 72 94
57 70 90
54 67 87
55 68 89
52 66 86
56 70 90
51 65 85
52 65 84
59 73 94
52 64 83
55 69 89
54 69 91
56 70 92
55 68 88
52 65 84
50 62 82
58 72 92
54 68 90
53 67 86
54 67 87
56 69 89
53 66 86
53 67 87
55 69 90
60 73 92
56 70 91
53 67 88
57 71 92
62 77 99
54 67 86
51 65 85
60 75 97
52 65 86
55 69 89
57 71 92
55 68 87
55 69 90
58 71 92
53 66 85
51 64 83
58 73 95
51 65 85
56 70 91
56 70 91
109 133 170
162 197 250
166 201 255
166 202 255
166 202 255
166 202 255
166 202 255
166 202 255
166 202 255
166 202 255
166 202 255
166 202 255
166 202 255
166 202 255
166 202 255
166 202 255
166 202 255
167 202 255
167 202 255
167 202 255
167 202 255
167 202 255
167 202 255
167 202 255
167 202 255
167 202 255
167 203 255
167 203 255
167 203 255
167 203 255
168 203 255
168 203 255
168 203 255
168 203 255
168 203 255
168 203 255
168 203 255
168 203 255
168 203 255
168 203 255
168 203 255
168 203 255
169 203 255
169 203 255
169 203 255
169 203 255
169 204 255
169 204 255
169 204 255
169 204 255
169 204 255
169 204 255
169 204 255
169 204 255
170 204 255
170 204 255
170 204 255
170 204 255
170 204 255
170 204 255
170 204 255
170 204 255
170 204 255
170 204 255
170 204 255
170 204 255
171 205 255
171 205 255
171 205 255
171 205 255
171 205 255
171 205 255
171 205 255
171 205 255
171 205 255
171 205 255
171 205 255
171 205 255
172 205 255
172 205 255
172 205 255
172 205 255
172 205 255
172 205 255
172 205 255
172 205 255
172 205 255
172 206 255
172 206 255
172 206 255
172 206 255
173 206 255
173 206 255
173 206 255
173 206 255
173 206 255
173 206 255
173 206 255
173 206 255
173 206 255
173 206 255
173 206 255
173 206 255
173 206 255
173 206 255
174 206 255
174 206 255
174 206 255
174 206 255
174 207 255
174 207 255
174 207 255
174 207 255
174 207 255
174 207 255
174 207 255
174 207 255
174 207 255
174 207 255
175 207 255
175 207 255
175 207 255
175 207 255
175 207 255
175 207 255
175 207 255
175 207 255
175 207 255
175 207 255
175 207 255
175 207 255
175 207 255
175 207 255
175 207 255
175 207 255
176 208 255
176 208 255
176 208 255
176 208 255
176 208 255
176 208 255
176 208 255
176 208 255
176 208 255
176 208 255
176 208 255
176 208 255
176 208 255
176 208 255
176 208 255
176 208 255
176 208 255
177 208 255
177 208 255
177 208 255
177 208 255
177 208 255
177 208 255
177 208 255
177 208 255
177 208 255
177 208 255
177 208 255
177 209 255
177 209 255
177 209 255
177 209 255
177 208 255
177 208 255
177 208 255
177 208 255
177 208 255
177 208 255
177 208 255
177 208 255
177 208 255
177 208 255
177 208 255
177 208 255
176 208 255
176 208 255
176 208 255
176 208 255
176 208 255
176 208 255
176 208 255
176 208 255
176 208 255
176 208 255
176 208 255
176 208 255
176 208 255
176 208 255
176 208 255
176 208 255
176 208 255
175 207 255
175 207 255
175 207 255
175 207 255
175 207 255
175 207 255
175 207 255
175 207 255
175 207 255
175 207 255
175 207 255
175 207 255
175 207 255
175 207 255
175 207 255
174 207 255
174 207 255
174 207 255
174 207 255
174 207 255
174 207 255
174 207 255
174 207 255
174 207 255
174 207 255
174 206 255
174 206 255
174 206 255
174 206 255
174 206 255
173 206 255
173 206 255
173 206 255
173 206 255
173 206 255
173 206 255
173 206 255
173 206 255
173 206 255
173 206 255
173 206 255
173 206 255
173 206 255
172 206 255
172 206 255
172 206 255
172 206 255
172 206 255
172 205 255
172 205 255
172 205 255
172 205 255
172 205 255
172 205 255
172 205 255
172 205 255
171 205 255
171 205 255
171 205 255
171 205 255
171 205 255
171 205 255
171 205 255
171 205 255
171 205 255
171 205 255
171 205 255
171 205 255
170 204 255
170 204 255
170 204 255
170 204 255
170 204 255
170 204 255
170 204 255
170 204 255
170 204 255
170 204 255
170 204 255
170 204 255
169 204 255
169 204 255
169 204 255
169 204 255
169 204 255
169 204 255
169 204 255
169 204 255
169 203 255
169 203 255
169 203 255
169 203 255
168 203 255
168 203 255
168 203 255
168 203 255
168 203 255
168 203 255
168 203 255
168 203 255
168 203 255
168 203 255
168 203 255
168 203 255
168 203 255
167 203 255
167 203 255
167 203 255
167 203 255
167 202 255
167 202 255
167 202 255
167 202 255
167 202 255
167 202 255
167 202 255
167 202 255
167 202 255
167 202 255
166 202 255
166 202 255
166 202 255
166 202 255
166 202 255
166 202 255
166 202 255
166 202 255
153 187 237
75 92 118
52 65 84
57 71 92
59 73 94
53 66 86
58 73 94
51 64 82
54 67 87
57 71 92
53 66 85
48 61 80
56 70 92
55 68 87
50 62 82
57 71 91
49 62 80
51 64 83
54 67 86
59 73 94
61 75 98
55 68 89
57 71 91
50 63 82
51 65 85
53 67 87
56 70 91
53 66 85
54 68 88
53 66 85
58 72 93
56 70 91
57 70 91
55 68 88
53 66 85
53 67 86
54 67 87
55 68 88
55 69 90
57 70 90
53 66 86
54 67 88
57 72 95
53 66 87
52 65 84
49 62 80
50 62 81
50 63 81
50 62 81
54 67 85
55 68 88
53 66 84
54 67 87
50 63 82
57 71 92
56 70 90
58 72 95
57 70 90
56 70 92
52 65 85
59 73 94
58 73 96
58 72 92
56 69 88
49 61 79
55 68 87
55 68 88
54 68 88
55 69 90
47 60 78
53 66 85
56 69 89
52 65 84
59 73 94
55 68 87
55 69 89
55 69 89
56 71 93
79 97 125
153 186 237
166 202 255
166 202 255
166 202 255
166 202 255
166 202 255
166 202 255
166 202 255
166 202 255
166 202 255
167 202 255
167 202 255
167 202 255
167 202 255
167 202 255
167 202 255
167 202 255
167 202 255
167 202 255
167 203 255
167 203 255
167 203 255
167 203 255
168 203 255
168 203 255
168 203 255
168 203 255
168 203 255
168 203 255
168 203 255
168 203 255
168 203 255
168 203 255
168 203 255
168 203 255
168 203 255
169 203 255
169 203 255
169 203 255
169 203 255
169 204 255
169 204 255
169 204 255
169 204 255
169 204 255
169 204 255
169 204 255
169 204 255
170 204 255
170 204 255
170 204 255
170 204 255
170 204 255
170 204 255
170 204 255
170 204 255
170 204 255
170 204 255
170 204 255
170 204 255
171 205 255
171 205 255
171 205 255
171 205 255
171 205 255
171 205 255
171 205 255
171 205 255
171 205 255
171 205 255
171 205 255
171 205 255
172 205 255
172 205 255
172 205 255
172 205 255
172 205 255
172 205 255
172 205 255
172 205 255
172 205 255
172 206 255
172 206 255
172 206 255
172 206 255
173 206 255
173 206 255
173 206 255
173 206 255
173 206 255
173 206 255
173 206 255
173 206 255
173 206 255
173 206 255
173 206 255
173 206 255
173 206 255
174 206 255
174 206 255
174 206 255
174 206 255
174 206 255
174 207 255
174 207 255
174 207 255
174 207 255
174 207 255
174 207 255
174 207 255
174 207 255
174 207 255
174 207 255
175 207 255
175 207 255
175 207 255
175 207 255
175 207 255
175 207 255
175 207 255
175 207 255
175 207 255
175 207 255
175 207 255
175 207 255
175 207 255
175 207 255
175 207 255
176 208 255
176 208 255
176 208 255
176 208 255
176 208 255
176 208 255
176 208 255
176 208 255
176 208 255
176 208 255
176 208 255
176 208 255
176 208 255
176 208 255
176 208 255
176 208 255
176 208 255
177 208 255
177 208 255
177 208 255
177 208 255
177 208 255
177 208 255
177 208 255
177 208 255
177 208 255
177 208 255
177 208 255
177 208 255
177 209 255
177 209 255
177 209 255
177 209 255
178 209 255
178 209 255
177 209 255
177 209 255
177 209 255
177 209 255
177 209 255
177 209 255
177 209 255
177 208 255
177 208 255
177 208 255
177 208 255
177 208 255
177 208 255
177 208 255
177 208 255
177 208 255
177 208 255
177 208 255
177 208 255
176 208 255
176 208 255
176 208 255
176 208 255
176 208 255
176 208 255
176 208 255
176 208 255
176 208 255
176 208 255
176 208 255
176 208 255
176 208 255
176 208 255
176 208 255
176 208 255
176 208 255
175 207 255
175 207 255
175 207 255
175 207 255
175 207 255
175 207 255
175 207 255
175 207 255
175 207 255
175 207 255
175 207 255
175 207 255
175 207 255
175 207 255
175 207 255
174 207 255
174 207 255
174 207 255
174 207 255
174 207 255
174 207 255
174 207 255
174 207 255
174 207 255
174 207 255
174 206 255
174 206 255
174 206 255
174 206 255
173 206 255
173 206 255
173 206 255
173 206 255
173 206 255
173 206 255
173 206 255
173 206 255
173 206 255
173 206 255
173 206 255
173 206 255
173 206 255
173 206 255
172 206 255
172 206 255
172 206 255
172 206 255
172 205 255
172 205 255
172 205 255
172 205 255
172 205 255
172 205 255
172 205 255
172 205 255
171 205 255
171 205 255
171 205 255
171 205 255
171 205 255
171 205 255
171 205 255
171 205 255
171 205 255
171 205 255
171 205 255
171 205 255
171 205 255
170 204 255
170 204 255
170 204 255
170 204 255
170 204 255
170 204 255
170 204 255
170 204 255
170 204 255
170 204 255
170 204 255
170 204 255
169 204 255
169 204 255
169 204 255
169 204 255
169 204 255
169 204 255
169 204 255
169 204 255
169 203 255
169 203 255
169 203 255
169 203 255
168 203 255
168 203 255
168 203 255
168 203 255
168 203 255
168 203 255
168 203 255
168 203 255
168 203 255
168 203 255
168 203 255
168 203 255
168 203 255
167 203 255
167 203 255
167 203 255
167 203 255
167 203 255
167 202 255
167 202 255
167 202 255
167 202 255
167 202 255
167 202 255
167 202 255
167 202 255
167 202 255
167 202 255
166 202 255
135 166 211
66 82 106
56 70 90
53 67 88
57 71 91
56 69 90
51 63 81
47 59 77
52 66 86
57 70 90
53 67 87
52 64 82
53 66 85
52 64 84
54 68 89
50 63 82
45 58 76
54 68 90
50 62 81
52 65 84
52 64 83
51 63 82
48 60 79
54 66 85
54 67 86
49 62 81
59 73 95
52 65 85
52 65 84
52 65 85
52 65 84
52 64 82
56 70 91
52 65 85
52 65 85
54 66 85
54 67 86
53 65 84
59 73 94
54 68 89
58 72 94
48 60 78
57 72 94
58 73 95
57 71 93
55 68 88
56 69 90
56 70 91
50 62 81
55 68 89
52 64 84
52 65 85
53 66 85
52 64 83
51 64 82
50 62 82
55 68 88
54 67 87
53 66 86
56 69 89
56 71 93
57 71 92
54 67 87
56 69 89
56 69 90
52 64 83
55 68 87
56 69 89
55 68 87
58 71 92
51 63 80
56 70 90
55 68 89
57 71 93
55 69 90
49 63 82
51 63 81
57 71 92
54 68 89
57 71 92
59 74 96
136 166 210
166 202 255
167 202 255
167 202 255
167 202 255
167 202 255
167 202 255
167 202 255
167 202 255
167 202 255
167 202 255
167 202 255
167 203 255
167 203 255
167 203 255
167 203 255
167 203 255
168 203 255
168 203 255
168 203 255
168 203 255
168 203 255
168 203 255
168 203 255
168 203 255
168 203 255
168 203 255
168 203 255
168 203 255
168 203 255
169 203 255
169 203 255
169 203 255
169 203 255
169 204 255
169 204 255
169 204 255
169 204 255
169 204 255
169 204 255
169 204 255
169 204 255
170 204 255
170 204 255
170 204 255
170 204 255
170 204 255
170 204 255
170 204 255
170 204 255
170 204 255
170 204 255
170 204 255
170 204 255
171 205 255
171 205 255
171 205 255
171 205 255
171 205 255
171 205 255
171 205 255
171 205 255
171 205 255
171 205 255
171 205 255
171 205 255
171 205 255
172 205 255
172 205 255
172 205 255
172 205 255
172 205 255
172 205 255
172 205 255
172 205 255
172 206 255
172 206 255
172 206 255
172 206 255
173 206 255
173 206 255
173 206 255
173 206 255
173 206 255
173 206 255
173 206 255
173 206 255
173 206 255
173 206 255
173 206 255
173 206 255
173 206 255
173 206 255
174 206 255
174 206 255
174 206 255
174 206 255
174 207 255
174 207 255
174 207 255
174 207 255
174 207 255
174 207 255
174 207 255
174 207 255
174 207 255
174 207 255
175 207 255
175 207 255
175 207 255
175 207 255
175 207 255
175 207 255
175 207 255
175 207 255
175 207 255
175 207 255
175 207 255
175 207 255
175 207 255
175 207 255
175 207 255
176 208 255
176 208 255
176 208 255
176 208 255
176 208 255
176 208 255
176 208 255
176 208 255
176 208 255
176 208 255
176 208 255
176 208 255
176 208 255
176 208 255
176 208 255
176 208 255
176 208 255
177 208 255
177 208 255
177 208 255
177 208 255
177 208 255
177 208 255
177 208 255
177 208 255
177 208 255
177 208 255
177 208 255
177 208 255
177 209 255
177 209 255
177 209 255
177 209 255
177 209 255
177 209 255
177 209 255
178 209 255
178 209 255
178 209 255
178 209 255
178 209 255
178 209 255
178 209 255
178 209 255
178 209 255
177 209 255
177 209 255
177 209 255
177 209 255
177 209 255
177 209 255
177 209 255
177 208 255
177 208 255
177 208 255
177 208 255
177 208 255
177 208 255
177 208 255
177 208 255
177 208 255
177 208 255
177 208 255
177 208 255
176 208 255
176 208 255
176 208 255
176 208 255
176 208 255
176 208 255
176 208 255
176 208 255
176 208 255
176 208 255
176 208 255
176 208 255
176 208 255
176 208 255
176 208 255
176 208 255
175 207 255
175 207 255
175 207 255
175 207 255
175 207 255
175 207 255
175 207 255
175 207 255
175 207 255
175 207 255
175 207 255
175 207 255
175 207 255
175 207 255
175 207 255
174 207 255
174 207 255
174 207 255
174 207 255
174 207 255
174 207 255
174 207 255
174 207 255
174 207 255
174 207 255
174 206 255
174 206 255
174 206 255
174 206 255
174 206 255
173 206 255
173 206 255
173 206 255
173 206 255
173 206 255
173 206 255
173 206 255
173 206 255
173 206 255
173 206 255
173 206 255
173 206 255
173 206 255
172 206 255
172 206 255
172 206 255
172 206 255
172 205 255
172 205 255
172 205 255
172 205 255
172 205 255
172 205 255
172 205 255
172 205 255
172 205 255
171 205 255
171 205 255
171 205 255
171 205 255
171 205 255
171 205 255
171 205 255
171 205 255
171 205 255
171 205 255
171 205 255
171 205 255
170 204 255
170 204 255
170 204 255
170 204 255
170 204 255
170 204 255
170 204 255
170 204 255
170 204 255
170 204 255
170 204 255
170 204 255
170 204 255
169 204 255
169 204 255
169 204 255
169 204 255
169 204 255
169 204 255
169 204 255
169 204 255
169 203 255
169 203 255
169 203 255
169 203 255
168 203 255
168 203 255
168 203 255
168 203 255
168 203 255
168 203 255
168 203 255
168 203 255
168 203 255
168 203 255
168 203 255
168 203 255
168 203 255
168 203 255
167 203 255
167 203 255
167 203 255
167 203 255
167 203 255
167 202 255
167 202 255
167 202 255
167 202 255
124 151 191
54 68 89
50 64 83
54 68 89
56 70 89
55 68 87
53 66 86
55 69 89
54 69 90
57 71 92
57 71 91
53 66 85
54 68 89
54 67 85
54 67 87
52 66 87
54 67 85
56 69 88
49 61 80
57 70 91
50 62 80
54 67 87
52 65 85
53 67 87
52 65 84
58 72 92
51 65 86
55 69 89
55 68 89
53 67 88
55 69 89
51 65 85
51 65 85
56 69 89
51 64 84
51 64 83
49 61 80
52 64 83
53 67 86
51 64 83
52 65 84
56 70 90
50 61 79
49 62 81
54 67 87
52 65 84
56 70 91
56 69 89
58 72 94
56 69 89
46 58 76
50 63 82
50 62 80
54 67 86
56 69 90
54 67 87
52 64 83
55 67 84
54 68 88
52 65 84
51 63 82
57 70 91
54 67 87
50 63 82
51 63 81
56 70 91
49 62 80
58 73 94
58 71 91
51 63 82
55 69 89
52 65 84
52 65 83
57 71 93
55 68 88
54 68 89
57 70 90
53 67 87
60 75 97
53 65 83
52 64 82
55 69 89
62 76 98
106 130 165
166 201 254
167 202 255
167 202 255
167 202 255
167 203 255
167 203 255
167 203 255
167 203 255
167 203 255
168 203 255
168 203 255
168 203 255
168 203 255
168 203 255
168 203 255
168 203 255
168 203 255
168 203 255
168 203 255
168 203 255
168 203 255
168 203 255
168 203 255
169 203 255
169 203 255
169 203 255
169 203 255
169 204 255
169 204 255
169 204 255
169 204 255
169 204 255
169 204 255
169 204 255
169 204 255
169 204 255
170 204 255
170 204 255
170 204 255
170 204 255
170 204 255
170 204 255
170 204 255
170 204 255
170 204 255
170 204 255
170 204 255
170 204 255
171 205 255
171 205 255
171 205 255
171 205 255
171 205 255
171 205 255
171 205 255
171 205 255
171 205 255
171 205 255
171 205 255
171 205 255
172 205 255
172 205 255
172 205 255
172 205 255
172 205 255
172 205 255
172 205 255
172 205 255
172 205 255
172 206 255
172 206 255
172 206 255
172 206 255
173 206 255
173 206 255
173 206 255
173 206 255
173 206 255
173 206 255
173 206 255
173 206 255
173 206 255
173 206 255
173 206 255
173 206 255
173 206 255
174 206 255
174 206 255
174 206 255
174 206 255
174 206 255
174 207 255
174 207 255
174 207 255
174 207 255
174 207 255
174 207 255
174 207 255
174 207 255
174 207 255
175 207 255
175 207 255
175 207 255
175 207 255
175 207 255
175 207 255
175 207 255
175 207 255
175 207 255
175 207 255
175 207 255
175 207 255
175 207 255
175 207 255
175 207 255
175 207 255
176 208 255
176 208 255
176 208 255
176 208 255
176 208 255
176 208 255
176 208 255
176 208 255
176 208 255
176 208 255
176 208 255
176 208 255
176 208 255
176 208 255
176 208 255
176 208 255
177 208 255
177 208 255
177 208 255
177 208 255
177 208 255
177 208 255
177 208 255
177 208 255
177 208 255
177 208 255
177 208 255
177 208 255
177 209 255
177 209 255
177 209 255
177 209 255
177 209 255
177 209 255
177 209 255
178 209 255
178 209 255
178 209 255
178 209 255
178 209 255
178 209 255
178 209 255
178 209 255
178 209 255
178 209 255
178 209 255
178 209 255
178 209 255
178 209 255
178 209 255
178 209 255
178 209 255
178 209 255
178 209 255
178 209 255
177 209 255
177 209 255
177 209 255
177 209 255
177 209 255
177 209 255
177 208 255
177 208 255
177 208 255
177 208 255
177 208 255
177 208 255
177 208 255
177 208 255
177 208 255
177 208 255
177 208 255
177 208 255
176 208 255
176 208 255
176 208 255
176 208 255
176 208 255
176 208 255
176 208 255
176 208 255
176 208 255
176 208 255
176 208 255
176 208 255
176 208 255
176 208 255
176 208 255
176 208 255
175 207 255
175 207 255
175 207 255
175 207 255
175 207 255
175 207 255
175 207 255
175 207 255
175 207 255
175 207 255
175 207 255
175 207 255
175 207 255
175 207 255
175 207 255
174 207 255
174 207 255
174 207 255
174 207 255
174 207 255
174 207 255
174 207 255
174 207 255
174 207 255
174 207 255
174 206 255
174 206 255
174 206 255
174 206 255
173 206 255
173 206 255
173 206 255
173 206 255
173 206 255
173 206 255
173 206 255
173 206 255
173 206 255
173 206 255
173 206 255
173 206 255
173 206 255
173 206 255
172 206 255
172 206 255
172 206 255
172 206 255
172 205 255
172 205 255
172 205 255
172 205 255
172 205 255
172 205 255
172 205 255
172 205 255
171 205 255
171 205 255
171 205 255
171 205 255
171 205 255
171 205 255
171 205 255
171 205 255
171 205 255
171 205 255
171 205 255
171 205 255
171 205 255
170 204 255
170 204 255
170 204 255
170 204 255
170 204 255
170 204 255
170 204 255
170 204 255
170 204 255
170 204 255
170 204 255
170 204 255
169 204 255
169 204 255
169 204 255
169 204 255
169 204 255
169 204 255
169 204 255
169 204 255
169 204 255
169 203 255
169 203 255
169 203 255
169 203 255
169 203 255
168 203 255
168 203 255
168 203 255
168 203 255
168 203 255
168 203 255
168 203 255
168 203 255
168 203 255
168 203 255
168 203 255
168 203 255
168 203 255
168 203 255
167 203 255
167 203 255
100 123 156
51 64 84
55 69 90
54 68 87
56 69 89
54 67 86
53 66 86
52 66 85
52 66 85
56 70 91
52 65 84
54 67 86
52 66 86
50 62 81
55 69 90
56 70 90
56 69 88
59 73 93
61 75 95
49 62 80
52 65 84
58 71 91
54 67 88
50 62 80
53 66 85
56 69 89
50 63 81
54 68 89
52 64 83
51 65 84
55 69 90
52 65 84
51 64 83
53 66 86
52 64 82
54 68 87
53 66 84
54 67 87
58 71 91
45 57 75
47 59 76
49 62 80
51 64 83
49 62 81
50 63 82
52 66 85
50 63 82
52 65 85
52 64 83
47 59 77
55 67 86
54 67 87
58 71 91
54 68 88
58 72 93
55 69 90
53 67 87
52 65 84
58 72 93
52 66 85
62 76 97
53 66 86
50 62 81
47 60 79
48 60 78
53 66 85
54 67 87
53 66 86
49 60 78
51 64 83
52 65 84
52 65 85
52 65 84
56 70 91
52 64 83
54 68 88
51 64 84
52 65 84
56 70 90
56 70 91
53 65 84
59 74 95
55 69 90
55 68 89
54 67 86
97 119 152
165 200 252
168 203 255
168 203 255
168 203 255
168 203 255
168 203 255
168 203 255
168 203 255
168 203 255
168 203 255
168 203 255
168 203 255
168 203 255
168 203 255
168 203 255
168 203 255
169 203 255
169 203 255
169 203 255
169 203 255
169 203 255
169 204 255
169 204 255
169 204 255
169 204 255
169 204 255
169 204 255
169 204 255
169 204 255
169 204 255
170 204 255
170 204 255
170 204 255
170 204 255
170 204 255
170 204 255
170 204 255
170 204 255
170 204 255
170 204 255
170 204 255
170 204 255
171 205 255
171 205 255
171 205 255
171 205 255
171 205 255
171 205 255
171 205 255
171 205 255
171 205 255
171 205 255
171 205 255
171 205 255
171 205 255
172 205 255
172 205 255
172 205 255
172 205 255
172 205 255
172 205 255
172 205 255
172 205 255
172 206 255
172 206 255
172 206 255
172 206 255
173 206 255
173 206 255
173 206 255
173 206 255
173 206 255
173 206 255
173 206 255
173 206 255
173 206 255
173 206 255
173 206 255
173 206 255
173 206 255
173 206 255
174 206 255
174 206 255
174 206 255
174 206 255
174 207 255
174 207 255
174 207 255
174 207 255
174 207 255
174 207 255
174 207 255
174 207 255
174 207 255
174 207 255
175 207 255
175 207 255
175 207 255
175 207 255
175 207 255
175 207 255
175 207 255
175 207 255
175 207 255
175 207 255
175 207 255
175 207 255
175 207 255
175 207 255
175 207 255
176 208 255
176 208 255
176 208 255
176 208 255
176 208 255
176 208 255
176 208 255
176 208 255
176 208 255
176 208 255
176 208 255
176 208 255
176 208 255
176 208 255
176 208 255
176 208 255
176 208 255
177 208 255
177 208 255
177 208 255
177 208 255
177 208 255
177 208 255
177 208 255
177 208 255
177 208 255
177 208 255
177 208 255
177 209 255
177 209 255
177 209 255
177 209 255
177 209 255
177 209 255
178 209 255
178 209 255
178 209 255
178 209 255
178 209 255
178 209 255
178 209 255
178 209 255
178 209 255
178 209 255
178 209 255
178 209 255
178 209 255
178 209 255
178 209 255
178 209 255
178 209 255
178 209 255
178 209 255
178 209 255
178 209 255
178 209 255
178 209 255
178 209 255
178 209 255
178 209 255
178 209 255
178 209 255
178 209 255
178 209 255
178 209 255
177 209 255
177 209 255
177 209 255
177 209 255
177 209 255
177 209 255
177 208 255
177 208 255
177 208 255
177 208 255
177 208 255
177 208 255
177 208 255
177 208 255
177 208 255
177 208 255
177 208 255
177 208 255
176 208 255
176 208 255
176 208 255
176 208 255
176 208 255
176 208 255
176 208 255
176 208 255
176 208 255
176 208 255
176 208 255
176 208 255
176 208 255
176 208 255
176 208 255
176 208 255
175 207 255
175 207 255
175 207 255
175 207 255
175 207 255
175 207 255
175 207 255
175 207 255
175 207 255
175 207 255
175 207 255
175 207 255
175 207 255
175 207 255
175 207 255
174 207 255
174 207 255
174 207 255
174 207 255
174 207 255
174 207 255
174 207 255
174 207 255
174 207 255
174 206 255
174 206 255
174 206 255
174 206 255
174 206 255
173 206 255
173 206 255
173 206 255
173 206 255
173 206 255
173 206 255
173 206 255
173 206 255
173 206 255
173 206 255
173 206 255
173 206 255
173 206 255
172 206 255
172 206 255
172 206 255
172 206 255
172 205 255
172 205 255
172 205 255
172 205 255
172 205 255
172 205 255
172 205 255
172 205 255
172 205 255
171 205 255
171 205 255
171 205 255
171 205 255
171 205 255
171 205 255
171 205 255
171 205 255
171 205 255
171 205 255
171 205 255
171 205 255
171 205 255
170 204 255
170 204 255
170 204 255
170 204 255
170 204 255
170 204 255
170 204 255
170 204 255
170 204 255
170 204 255
170 204 255
170 204 255
170 204 255
169 204 255
169 204 255
169 204 255
169 204 255
169 204 255
169 204 255
169 204 255
169 204 255
169 204 255
169 203 255
169 203 255
169 203 255
169 203 255
168 203 255
168 203 255
168 203 255
168 203 255
168 203 255
168 203 255
168 203 255
168 203 255
168 203 255
162 196 247
81 99 127
56 70 91
55 68 88
52 66 86
54 68 89
50 62 81
49 61 79
56 69 88
55 68 87
54 67 86
57 71 92
54 66 84
52 64 83
50 63 84
49 61 80
52 65 84
56 69 89
47 59 76
53 67 86
52 65 84
49 62 82
52 64 82
49 62 81
46 58 76
56 70 91
55 67 87
52 65 85
53 65 84
54 68 87
53 65 84
50 62 80
46 57 73
48 60 78
49 62 80
52 66 86
48 60 78
54 67 86
52 65 84
52 65 84
51 64 83
53 67 88
53 66 86
55 67 87
56 69 87
53 65 84
52 65 85
58 71 91
53 66 85
47 59 77
53 65 83
48 60 78
56 69 88
49 60 77
54 67 87
52 64 82
52 64 83
52 65 85
52 64 83
50 63 81
50 63 81
55 69 90
54 67 86
57 72 93
55 70 91
52 65 85
51 65 85
53 66 85
54 67 87
54 67 86
51 64 82
52 64 82
52 65 84
57 71 92
52 65 86
53 66 86
54 66 84
55 68 88
51 64 83
53 66 86
55 68 89
53 66 85
56 70 90
52 64 83
56 70 90
54 67 86
53 66 85
53 66 87
87 106 135
165 199 251
168 203 255
168 203 255
168 203 255
168 203 255
168 203 255
168 203 255
168 203 255
168 203 255
168 203 255
169 203 255
169 203 255
169 203 255
169 203 255
169 203 255
169 204 255
169 204 255
169 204 255
169 204 255
169 204 255
169 204 255
169 204 255
169 204 255
170 204 255
170 204 255
170 204 255
170 204 255
170 204 255
170 204 255
170 204 255
170 204 255
170 204 255
170 204 255
170 204 255
170 204 255
170 204 255
171 205 255
171 205 255
171 205 255
171 205 255
171 205 255
171 205 255
171 205 255
171 205 255
171 205 255
171 205 255
171 205 255
171 205 255
171 205 255
172 205 255
172 205 255
172 205 255
172 205 255
172 205 255
172 205 255
172 205 255
172 205 255
172 206 255
172 206 255
172 206 255
172 206 255
172 206 255
173 206 255
173 206 255
173 206 255
173 206 255
173 206 255
173 206 255
173 206 255
173 206 255
173 206 255
173 206 255
173 206 255
173 206 255
173 206 255
174 206 255
174 206 255
174 206 255
174 206 255
174 206 255
174 207 255
174 207 255
174 207 255
174 207 255
174 207 255
174 207 255
174 207 255
174 207 255
174 207 255
175 207 255
175 207 255
175 207 255
175 207 255
175 207 255
175 207 255
175 207 255
175 207 255
175 207 255
175 207 255
175 207 255
175 207 255
175 207 255
175 207 255
175 207 255
176 208 255
176 208 255
176 208 255
176 208 255
176 208 255
176 208 255
176 208 255
176 208 255
176 208 255
176 208 255
176 208 255
176 208 255
176 208 255
176 208 255
176 208 255
176 208 255
177 208 255
177 208 255
177 208 255
177 208 255
177 208 255
177 208 255
177 208 255
177 208 255
177 208 255
177 208 255
177 208 255
177 208 255
177 209 255
177 209 255
177 209 255
177 209 255
177 209 255
177 209 255
178 209 255
178 209 255
178 209 255
178 209 255
178 209 255
178 209 255
178 209 255
178 209 255
178 209 255
178 209 255
178 209 255
178 209 255
178 209 255
178 209 255
178 209 255
178 209 255
178 209 255
178 209 255
179 209 255
179 209 255
179 209 255
178 209 255
178 209 255
178 209 255
178 209 255
178 209 255
178 209 255
178 209 255
178 209 255
178 209 255
178 209 255
178 209 255
178 209 255
178 209 255
178 209 255
178 209 255
178 209 255
178 209 255
178 209 255
178 209 255
178 209 255
177 209 255
177 209 255
177 209 255
177 209 255
177 209 255
177 209 255
177 208 255
177 208 255
177 208 255
177 208 255
177 208 255
177 208 255
177 208 255
177 208 255
177 208 255
177 208 255
177 208 255
177 208 255
176 208 255
176 208 255
176 208 255
176 208 255
176 208 255
176 208 255
176 208 255
176 208 255
176 208 255
176 208 255
176 208 255
176 208 255
176 208 255
176 208 255
176 208 255
176 208 255
175 207 255
175 207 255
175 207 255
175 207 255
175 207 255
175 207 255
175 207 255
175 207 255
175 207 255
175 207 255
175 207 255
175 207 255
175 207 255
175 207 255
175 207 255
174 207 255
174 207 255
174 207 255
174 207 255
174 207 255
174 207 255
174 207 255
174 207 255
174 207 255
174 206 255
174 206 255
174 206 255
174 206 255
174 206 255
173 206 255
173 206 255
173 206 255
173 206 255
173 206 255
173 206 255
173 206 255
173 206 255
173 206 255
173 206 255
173 206 255
173 206 255
173 206 255
172 206 255
172 206 255
172 206 255
172 206 255
172 205 255
172 205 255
172 205 255
172 205 255
172 205 255
172 205 255
172 205 255
172 205 255
172 205 255
171 205 255
171 205 255
171 205 255
171 205 255
171 205 255
171 205 255
171 205 255
171 205 255
171 205 255
171 205 255
171 205 255
171 205 255
171 205 255
170 204 255
170 204 255
170 204 255
170 204 255
170 204 255
170 204 255
170 204 255
170 204 255
170 204 255
170 204 255
170 204 255
170 204 255
170 204 255
169 204 255
169 204 255
169 204 255
169 204 255
169 204 255
169 204 255
169 204 255
169 204 255
169 204 255
169 203 255
169 203 255
169 203 255
169 203 255
169 203 255
169 203 255
168 203 255
160 194 244
77 95 121
54 67 88
53 67 87
56 69 89
56 70 91
55 69 89
58 72 93
53 66 86
56 70 90
51 64 82
54 68 87
48 59 76
56 69 88
56 69 90
55 68 88
54 67 87
51 64 83
47 58 76
58 72 94
53 66 85
51 64 83
55 69 89
50 62 81
52 64 84
55 69 89
58 72 92
49 61 80
51 63 82
55 69 88
52 65 84
47 58 75
51 64 83
50 62 81
52 64 83
58 72 93
54 66 85
46 58 77
53 66 86
49 61 79
50 62 81
52 66 86
49 61 78
49 61 80
51 64 82
56 69 89
49 61 78
59 73 94
53 66 85
53 65 84
54 68 88
45 57 75
51 64 82
50 61 79
53 66 86
53 66 85
51 64 82
52 64 82
53 66 87
47 59 76
55 69 88
50 62 80
51 63 82
54 67 86
54 68 90
49 61 80
48 60 77
51 65 85
54 67 86
58 71 90
54 67 87
53 65 83
54 67 87
52 65 84
51 64 84
51 63 81
53 65 84
54 68 89
50 62 81
48 61 80
55 69 89
56 69 90
51 63 82
54 68 89
49 61 80
51 64 82
55 68 87
56 69 89
56 70 91
56 70 90
89 109 139
163 197 247
168 203 255
168 203 255
169 203 255
169 203 255
169 203 255
169 203 255
169 203 255
169 204 255
169 204 255
169 204 255
169 204 255
169 204 255
169 204 255
169 204 255
169 204 255
169 204 255
170 204 255
170 204 255
170 204 255
170 204 255
170 204 255
170 204 255
170 204 255
170 204 255
170 204 255
170 204 255
170 204 255
170 204 255
170 204 255
171 205 255
171 205 255
171 205 255
171 205 255
171 205 255
171 205 255
171 205 255
171 205 255
171 205 255
171 205 255
171 205 255
171 205 255
171 205 255
172 205 255
172 205 255
172 205 255
172 205 255
172 205 255
172 205 255
172 205 255
172 205 255
172 205 255
172 206 255
172 206 255
172 206 255
172 206 255
173 206 255
173 206 255
173 206 255
173 206 255
173 206 255
173 206 255
173 206 255
173 206 255
173 206 255
173 206 255
173 206 255
173 206 255
173 206 255
174 206 255
174 206 255
174 206 255
174 206 255
174 206 255
174 207 255
174 207 255
174 207 255
174 207 255
174 207 255
174 207 255
174 207 255
174 207 255
174 207 255
175 207 255
175 207 255
175 207 255
175 207 255
175 207 255
175 207 255
175 207 255
175 207 255
175 207 255
175 207 255
175 207 255
175 207 255
175 207 255
175 207 255
175 207 255
176 208 255
176 208 255
176 208 255
176 208 255
176 208 255
176 208 255
176 208 255
176 208 255
176 208 255
176 208 255
176 208 255
176 208 255
176 208 255
176 208 255
176 208 255
176 208 255
177 208 255
177 208 255
177 208 255
177 208 255
177 208 255
177 208 255
177 208 255
177 208 255
177 208 255
177 208 255
177 208 255
177 208 255
177 209 255
177 209 255
177 209 255
177 209 255
177 209 255
177 209 255
178 209 255
178 209 255
178 209 255
178 209 255
178 209 255
178 209 255
178 209 255
178 209 255
178 209 255
178 209 255
178 209 255
178 209 255
178 209 255
178 209 255
178 209 255
178 209 255
178 209 255
178 209 255
178 209 255
178 209 255
179 209 255
179 209 255
179 209 255
179 210 255
179 210 255
179 209 255
179 209 255
179 209 255
179 209 255
179 209 255
179 209 255
179 209 255
178 209 255
178 209 255
178 209 255
178 209 255
178 209 255
178 209 255
178 209 255
178 209 255
178 209 255
178 209 255
178 209 255
178 209 255
178 209 255
178 209 255
178 209 255
178 209 255
178 209 255
178 209 255
178 209 255
178 209 255
177 209 255
177 209 255
177 209 255
177 209 255
177 209 255
177 209 255
177 208 255
177 208 255
177 208 255
177 208 255
177 208 255
177 208 255
177 208 255
177 208 255
177 208 255
177 208 255
177 208 255
176 208 255
176 208 255
176 208 255
176 208 255
176 208 255
176 208 255
176 208 255
176 208 255
176 208 255
176 208 255
176 208 255
176 208 255
176 208 255
176 208 255
176 208 255
176 208 255
175 207 255
175 207 255
175 207 255
175 207 255
175 207 255
175 207 255
175 207 255
175 207 255
175 207 255
175 207 255
175 207 255
175 207 255
175 207 255
175 207 255
175 207 255
174 207 255
174 207 255
174 207 255
174 207 255
174 207 255
174 207 255
174 207 255
174 207 255
174 207 255
174 206 255
174 206 255
174 206 255
174 206 255
174 206 255
173 206 255
173 206 255
173 206 255
173 206 255
173 206 255
173 206 255
173 206 255
173 206 255
173 206 255
173 206 255
173 206 255
173 206 255
173 206 255
172 206 255
172 206 255
172 206 255
172 206 255
172 205 255
172 205 255
172 205 255
172 205 255
172 205 255
172 205 255
172 205 255
172 205 255
172 205 255
171 205 255
171 205 255
171 205 255
171 205 255
171 205 255
171 205 255
171 205 255
171 205 255
171 205 255
171 205 255
171 205 255
171 205 255
171 205 255
170 204 255
170 204 255
170 204 255
170 204 255
170 204 255
170 204 255
170 204 255
170 204 255
170 204 255
170 204 255
170 204 255
170 204 255
170 204 255
170 204 255
169 204 255
169 204 255
169 204 255
169 204 255
169 204 255
169 204 255
169 204 255
169 204 255
169 204 255
161 194 244
78 95 121
58 73 94
56 70 90
51 64 83
54 68 87
53 66 85
54 66 85
56 70 91
50 64 83
50 62 80
53 67 88
53 66 85
52 65 84
54 67 86
51 63 82
54 67 85
57 70 90
54 68 89
55 68 87
55 68 89
50 62 80
50 62 80
51 64 84
51 63 83
53 67 88
60 74 95
48 61 81
49 60 77
49 60 78
50 63 82
47 60 78
54 66 84
47 58 76
55 67 86
50 62 81
49 60 78
54 66 86
53 65 84
52 65 83
48 59 75
56 69 89
54 67 87
52 64 83
50 63 82
55 69 89
49 61 79
49 61 79
49 61 79
48 60 77
55 68 88
56 70 90
54 67 86
47 59 77
52 64 82
46 58 75
51 64 84
49 61 79
53 66 85
51 64 82
52 65 83
50 63 81
49 60 78
54 67 87
54 68 89
52 64 82
49 61 79
49 61 80
52 66 86
52 64 83
48 61 80
47 58 74
51 65 85
55 69 89
50 62 81
53 66 85
50 62 79
58 72 93
51 64 84
57 70 90
53 66 85
51 63 80
55 68 87
55 68 87
52 64 82
54 67 85
56 68 87
51 63 82
53 66 86
54 67 87
56 70 90
55 69 90
83 101 129
164 198 248
169 204 255
169 204 255
169 204 255
169 204 255
169 204 255
169 204 255
169 204 255
169 204 255
169 204 255
170 204 255
170 204 255
170 204 255
170 204 255
170 204 255
170 204 255
170 204 255
170 204 255
170 204 255
170 204 255
170 204 255
170 204 255
170 204 255
170 204 255
171 205 255
171 205 255
171 205 255
171 205 255
171 205 255
171 205 255
171 205 255
171 205 255
171 205 255
171 205 255
171 205 255
171 205 255
171 205 255
172 205 255
172 205 255
172 205 255
172 205 255
172 205 255
172 205 255
172 205 255
172 205 255
172 205 255
172 206 255
172 206 255
172 206 255
172 206 255
173 206 255
173 206 255
173 206 255
173 206 255
173 206 255
173 206 255
173 206 255
173 206 255
173 206 255
173 206 255
173 206 255
173 206 255
173 206 255
173 206 255
174 206 255
174 206 255
174 206 255
174 206 255
174 207 255
174 207 255
174 207 255
174 207 255
174 207 255
174 207 255
174 207 255
174 207 255
174 207 255
175 207 255
175 207 255
175 207 255
175 207 255
175 207 255
175 207 255
175 207 255
175 207 255
175 207 255
175 207 255
175 207 255
175 207 255
175 207 255
175 207 255
175 207 255
176 208 255
176 208 255
176 208 255
176 208 255
176 208 255
176 208 255
176 208 255
176 208 255
176 208 255
176 208 255
176 208 255
176 208 255
176 208 255
176 208 255
176 208 255
176 208 255
177 208 255
177 208 255
177 208 255
177 208 255
177 208 255
177 208 255
177 208 255
177 208 255
177 208 255
177 208 255
177 208 255
177 208 255
177 209 255
177 209 255
177 209 255
177 209 255
177 209 255
178 209 255
178 209 255
178 209 255
178 209 255
178 209 255
178 209 255
178 209 255
178 209 255
178 209 255
178 209 255
178 209 255
178 209 255
178 209 255
178 209 255
178 209 255
178 209 255
178 209 255
178 209 255
178 209 255
178 209 255
179 209 255
179 209 255
179 209 255
179 209 255
179 209 255
179 209 255
179 209 255
179 210 255
179 210 255
179 210 255
179 210 255
179 210 255
179 210 255
179 210 255
179 210 255
179 210 255
179 209 255
179 209 255
179 209 255
179 209 255
179 209 255
179 209 255
179 209 255
178 209 255
178 209 255
178 209 255
178 209 255
178 209 255
178 209 255
178 209 255
178 209 255
178 209 255
178 209 255
178 209 255
178 209 255
178 209 255
178 209 255
178 209 255
178 209 255
178 209 255
178 209 255
178 209 255
178 209 255
177 209 255
177 209 255
177 209 255
177 209 255
177 209 255
177 209 255
177 208 255
177 208 255
177 208 255
177 208 255
177 208 255
177 208 255
177 208 255
177 208 255
177 208 255
177 208 255
177 208 255
176 208 255
176 208 255
176 208 255
176 208 255
176 208 255
176 208 255
176 208 255
176 208 255
176 208 255
176 208 255
176 208 255
176 208 255
176 208 255
176 208 255
176 208 255
176 208 255
175 207 255
175 207 255
175 207 255
175 207 255
175 207 255
175 207 255
175 207 255
175 207 255
175 207 255
175 207 255
175 207 255
175 207 255
175 207 255
175 207 255
174 207 255
174 207 255
174 207 255
174 207 255
174 207 255
174 207 255
174 207 255
174 207 255
174 207 255
174 207 255
174 206 255
174 206 255
174 206 255
174 206 255
174 206 255
173 206 255
173 206 255
173 206 255
173 206 255
173 206 255
173 206 255
173 206 255
173 206 255
173 206 255
173 206 255
173 206 255
173 206 255
173 206 255
172 206 255
172 206 255
172 206 255
172 206 255
172 205 255
172 205 255
172 205 255
172 205 255
172 205 255
172 205 255
172 205 255
172 205 255
172 205 255
171 205 255
171 205 255
171 205 255
171 205 255
171 205 255
171 205 255
171 205 255
171 205 255
171 205 255
171 205 255
171 205 255
171 205 255
171 205 255
171 205 255
170 204 255
170 204 255
170 204 255
170 204 255
170 204 255
170 204 255
170 204 255
170 204 255
170 204 255
170 204 255
170 204 255
170 204 255
170 204 255
170 204 255
169 204 255
169 204 255
159 191 240
85 104 132
51 63 81
56 70 91
50 63 82
56 70 90
52 64 83
52 65 84
55 68 88
52 65 85
52 64 83
57 70 90
52 65 84
50 63 82
56 70 90
56 70 91
51 64 83
55 67 86
53 67 87
51 63 82
53 65 84
50 63 82
45 56 74
57 70 90
50 62 80
57 70 91
56 69 88
52 64 83
50 63 82
48 60 76
47 58 75
55 69 89
55 67 87
51 64 83
50 62 80
49 61 78
56 69 89
54 66 84
54 66 85
51 63 80
50 62 81
54 68 88
51 64 82
53 67 87
53 66 85
49 61 80
53 66 86
47 59 76
50 62 81
50 63 82
46 58 76
53 66 85
54 68 89
49 62 81
52 64 81
52 65 85
54 67 86
54 67 86
51 63 83
54 67 86
50 62 80
55 67 87
57 70 91
54 67 86
56 69 90
49 61 78
51 64 83
50 62 80
51 62 80
53 65 85
54 67 86
54 68 87
52 65 84
52 65 84
50 62 81
50 62 79
53 65 84
53 66 86
55 69 89
47 58 75
57 71 93
56 69 89
53 67 87
55 68 87
53 66 86
51 63 82
46 58 76
53 65 83
51 64 83
53 66 86
51 64 83
55 68 87
53 66 86
50 63 82
90 110 140
158 191 239
169 204 255
169 204 255
170 204 255
170 204 255
170 204 255
170 204 255
170 204 255
170 204 255
170 204 255
170 204 255
170 204 255
170 204 255
170 204 255
170 204 255
170 204 255
170 204 255
171 205 255
171 205 255
171 205 255
171 205 255
171 205 255
171 205 255
171 205 255
171 205 255
171 205 255
171 205 255
171 205 255
171 205 255
171 205 255
171 205 255
172 205 255
172 205 255
172 205 255
172 205 255
172 205 255
172 205 255
172 205 255
172 205 255
172 205 255
172 206 255
172 206 255
172 206 255
172 206 255
173 206 255
173 206 255
173 206 255
173 206 255
173 206 255
173 206 255
173 206 255
173 206 255
173 206 255
173 206 255
173 206 255
173 206 255
173 206 255
173 206 255
174 206 255
174 206 255
174 206 255
174 206 255
174 207 255
174 207 255
174 207 255
174 207 255
174 207 255
174 207 255
174 207 255
174 207 255
174 207 255
175 207 255
175 207 255
175 207 255
175 207 255
175 207 255
175 207 255
175 207 255
175 207 255
175 207 255
175 207 255
175 207 255
175 207 255
175 207 255
175 207 255
175 207 255
176 208 255
176 208 255
176 208 255
176 208 255
176 208 255
176 208 255
176 208 255
176 208 255
176 208 255
176 208 255
176 208 255
176 208 255
176 208 255
176 208 255
176 208 255
176 208 255
177 208 255
177 208 255
177 208 255
177 208 255
177 208 255
177 208 255
177 208 255
177 208 255
177 208 255
177 208 255
177 208 255
177 209 255
177 209 255
177 209 255
177 209 255
177 209 255
177 209 255
178 209 255
178 209 255
178 209 255
178 209 255
178 209 255
178 209 255
178 209 255
178 209 255
178 209 255
178 209 255
178 209 255
178 209 255
178 209 255
178 209 255
178 209 255
178 209 255
178 209 255
178 209 255
178 209 255
179 209 255
179 209 255
179 209 255
179 209 255
179 209 255
179 209 255
179 209 255
179 210 255
179 210 255
179 210 255
179 210 255
179 210 255
179 210 255
179 210 255
179 210 255
179 210 255
179 210 255
179 210 255
179 210 255
179 210 255
179 210 255
179 210 255
179 210 255
179 210 255
179 210 255
179 210 255
179 210 255
179 210 255
179 210 255
179 209 255
179 209 255
179 209 255
179 209 255
179 209 255
179 209 255
178 209 255
178 209 255
178 209 255
178 209 255
178 209 255
178 209 255
178 209 255
178 209 255
178 209 255
178 209 255
178 209 255
178 209 255
178 209 255
178 209 255
178 209 255
178 209 255
178 209 255
178 209 255
178 209 255
177 209 255
177 209 255
177 209 255
177 209 255
177 209 255
177 209 255
177 208 255
177 208 255
177 208 255
177 208 255
177 208 255
177 208 255
177 208 255
177 208 255
177 208 255
177 208 255
177 208 255
176 208 255
176 208 255
176 208 255
176 208 255
176 208 255
176 208 255
176 208 255
176 208 255
176 208 255
176 208 255
176 208 255
176 208 255
176 208 255
176 208 255
176 208 255
176 208 255
175 207 255
175 207 255
175 207 255
175 207 255
175 207 255
175 207 255
175 207 255
175 207 255
175 207 255
175 207 255
175 207 255
175 207 255
175 207 255
175 207 255
175 207 255
174 207 255
174 207 255
174 207 255
174 207 255
174 207 255
174 207 255
174 207 255
174 207 255
174 207 255
174 206 255
174 206 255
174 206 255
174 206 255
173 206 255
173 206 255
173 206 255
173 206 255
173 206 255
173 206 255
173 206 255
173 206 255
173 206 255
173 206 255
173 206 255
173 206 255
173 206 255
173 206 255
172 206 255
172 206 255
172 206 255
172 206 255
172 206 255
172 205 255
172 205 255
172 205 255
172 205 255
172 205 255
172 205 255
172 205 255
172 205 255
171 205 255
171 205 255
171 205 255
171 205 255
171 205 255
171 205 255
171 205 255
171 205 255
171 205 255
171 205 255
171 205 255
171 205 255
171 205 255
171 205 255
171 205 255
170 204 255
170 204 255
170 204 255
170 204 255
170 204 255
170 204 255
170 204 255
170 204 255
170 204 255
168 202 252
82 101 129
57 71 92
49 62 81
58 72 94
50 63 82
52 64 83
49 61 80
56 69 90
51 64 84
52 65 84
53 66 86
53 65 84
51 63 80
50 63 81
50 62 80
52 64 82
50 63 82
47 60 79
51 64 83
54 67 87
53 66 86
54 67 86
46 57 75
55 68 88
57 70 90
58 72 92
56 68 86
53 67 87
51 64 83
52 65 86
55 68 88
51 63 81
55 68 88
53 65 83
52 64 83
53 66 85
53 65 84
46 58 76
48 60 77
53 65 84
52 64 83
51 65 84
51 64 83
54 66 85
53 65 85
54 68 88
54 66 85
50 64 84
51 64 82
52 65 84
47 59 76
46 58 75
52 64 83
51 62 80
51 64 82
48 59 76
51 64 83
47 59 77
50 61 79
53 66 85
48 60 77
50 62 80
53 66 85
51 64 84
50 63 81
52 65 86
55 69 89
51 64 83
49 61 79
49 61 78
54 66 85
51 63 81
50 63 82
55 68 88
56 69 88
56 69 90
55 68 88
52 64 83
56 69 89
54 67 86
51 64 84
52 65 85
49 62 80
53 66 84
53 66 86
52 66 86
52 65 85
54 67 85
52 65 83
53 65 85
47 59 76
54 66 83
56 69 90
55 68 87
55 69 89
85 103 130
166 200 250
170 204 255
170 204 255
170 204 255
170 204 255
170 204 255
170 204 255
170 204 255
170 204 255
170 204 255
171 205 255
171 205 255
171 205 255
171 205 255
171 205 255
171 205 255
171 205 255
171 205 255
171 205 255
171 205 255
171 205 255
171 205 255
171 205 255
171 205 255
171 205 255
172 205 255
172 205 255
172 205 255
172 205 255
172 205 255
172 205 255
172 205 255
172 205 255
172 206 255
172 206 255
172 206 255
172 206 255
172 206 255
173 206 255
173 206 255
173 206 255
173 206 255
173 206 255
173 206 255
173 206 255
173 206 255
173 206 255
173 206 255
173 206 255
173 206 255
173 206 255
174 206 255
174 206 255
174 206 255
174 206 255
174 206 255
174 207 255
174 207 255
174 207 255
174 207 255
174 207 255
174 207 255
174 207 255
174 207 255
174 207 255
175 207 255
175 207 255
175 207 255
175 207 255
175 207 255
175 207 255
175 207 255
175 207 255
175 207 255
175 207 255
175 207 255
175 207 255
175 207 255
175 207 255
175 207 255
176 208 255
176 208 255
176 208 255
176 208 255
176 208 255
176 208 255
176 208 255
176 208 255
176 208 255
176 208 255
176 208 255
176 208 255
176 208 255
176 208 255
176 208 255
176 208 255
177 208 255
177 208 255
177 208 255
177 208 255
177 208 255
177 208 255
177 208 255
177 208 255
177 208 255
177 208 255
177 208 255
177 209 255
177 209 255
177 209 255
177 209 255
177 209 255
177 209 255
178 209 255
178 209 255
178 209 255
178 209 255
178 209 255
178 209 255
178 209 255
178 209 255
178 209 255
178 209 255
178 209 255
178 209 255
178 209 255
178 209 255
178 209 255
178 209 255
178 209 255
178 209 255
178 209 255
179 209 255
179 209 255
179 209 255
179 209 255
179 209 255
179 209 255
179 209 255
179 210 255
179 210 255
179 210 255
179 210 255
179 210 255
179 210 255
179 210 255
179 210 255
179 210 255
179 210 255
179 210 255
179 210 255
179 210 255
180 210 255
180 210 255
180 210 255
180 210 255
180 210 255
179 210 255
179 210 255
179 210 255
179 210 255
179 210 255
179 210 255
179 210 255
179 210 255
179 210 255
179 210 255
179 210 255
179 210 255
179 210 255
179 210 255
179 209 255
179 209 255
179 209 255
179 209 255
179 209 255
179 209 255
179 209 255
178 209 255
178 209 255
178 209 255
178 209 255
178 209 255
178 209 255
178 209 255
178 209 255
178 209 255
178 209 255
178 209 255
178 209 255
178 209 255
178 209 255
178 209 255
178 209 255
178 209 255
178 209 255
178 209 255
177 209 255
177 209 255
177 209 255
177 209 255
177 209 255
177 208 255
177 208 255
177 208 255
177 208 255
177 208 255
177 208 255
177 208 255
177 208 255
177 208 255
177 208 255
177 208 255
176 208 255
176 208 255
176 208 255
176 208 255
176 208 255
176 208 255
176 208 255
176 208 255
176 208 255
176 208 255
176 208 255
176 208 255
176 208 255
176 208 255
176 208 255
176 208 255
175 207 255
175 207 255
175 207 255
175 207 255
175 207 255
175 207 255
175 207 255
175 207 255
175 207 255
175 207 255
175 207 255
175 207 255
175 207 255
175 207 255
175 207 255
174 207 255
174 207 255
174 207 255
174 207 255
174 207 255
174 207 255
174 207 255
174 207 255
174 207 255
174 206 255
174 206 255
174 206 255
174 206 255
173 206 255
173 206 255
173 206 255
173 206 255
173 206 255
173 206 255
173 206 255
173 206 255
173 206 255
173 206 255
173 206 255
173 206 255
173 206 255
173 206 255
173 206 255
172 206 255
172 206 255
172 206 255
172 206 255
172 205 255
172 205 255
172 205 255
172 205 255
172 205 255
172 205 255
172 205 255
172 205 255
172 205 255
171 205 255
171 205 255
171 205 255
171 205 255
171 205 255
171 205 255
171 205 255
171 205 255
171 205 255
171 205 255
171 205 255
171 205 255
171 205 255
171 205 255
171 205 255
170 204 255
170 204 255
169 203 254
86 106 135
52 65 84
51 63 81
54 67 87
54 67 87
52 64 83
47 59 76
49 62 81
55 69 89
49 60 77
53 66 85
54 67 88
52 65 84
52 65 83
53 66 85
57 71 91
56 71 92
52 64 84
54 67 86
51 62 80
53 66 85
55 68 88
51 64 83
49 61 79
50 63 82
51 63 81
54 67 86
47 60 78
47 59 78
50 62 80
51 63 82
48 59 77
48 61 79
48 59 77
52 65 85
49 62 82
54 67 87
52 65 85
49 61 79
54 67 86
51 63 81
47 59 76
54 67 88
49 62 82
48 60 77
54 66 86
53 66 85
54 68 88
51 65 85
49 61 78
51 63 81
52 64 82
49 61 80
50 63 81
47 59 77
48 59 76
51 63 81
51 64 83
47 58 75
53 67 87
51 62 79
46 57 74
51 63 81
50 61 78
50 62 81
45 56 72
51 63 81
52 65 84
51 63 82
46 58 74
57 72 93
48 60 79
52 65 84
59 73 94
52 65 85
52 64 83
53 66 85
58 72 92
45 56 72
50 62 80
50 62 81
53 66 85
54 67 87
50 62 81
55 68 88
54 67 87
56 69 90
50 61 79
55 69 90
51 63 82
58 71 92
54 67 87
52 64 82
48 59 77
47 59 76
54 67 85
52 66 85
88 108 138
169 203 253
170 204 255
170 204 255
171 205 255
171 205 255
171 205 255
171 205 255
171 205 255
171 205 255
171 205 255
171 205 255
171 205 255
171 205 255
171 205 255
171 205 255
171 205 255
171 205 255
171 205 255
172 205 255
172 205 255
172 205 255
172 205 255
172 205 255
172 205 255
172 205 255
172 205 255
172 205 255
172 206 255
172 206 255
172 206 255
172 206 255
172 206 255
173 206 255
173 206 255
173 206 255
173 206 255
173 206 255
173 206 255
173 206 255
173 206 255
173 206 255
173 206 255
173 206 255
173 206 255
173 206 255
174 206 255
174 206 255
174 206 255
174 206 255
174 206 255
174 207 255
174 207 255
174 207 255
174 207 255
174 207 255
174 207 255
174 207 255
174 207 255
174 207 255
175 207 255
175 207 255
175 207 255
175 207 255
175 207 255
175 207 255
175 207 255
175 207 255
175 207 255
175 207 255
175 207 255
175 207 255
175 207 255
175 207 255
175 207 255
176 208 255
176 208 255
176 208 255
176 208 255
176 208 255
176 208 255
176 208 255
176 208 255
176 208 255
176 208 255
176 208 255
176 208 255
176 208 255
176 208 255
176 208 255
177 208 255
177 208 255
177 208 255
177 208 255
177 208 255
177 208 255
177 208 255
177 208 255
177 208 255
177 208 255
177 208 255
177 209 255
177 209 255
177 209 255
177 209 255
177 209 255
177 209 255
178 209 255
178 209 255
178 209 255
178 209 255
178 209 255
178 209 255
178 209 255
178 209 255
178 209 255
178 209 255
178 209 255
178 209 255
178 209 255
178 209 255
178 209 255
178 209 255
178 209 255
178 209 255
178 209 255
179 209 255
179 209 255
179 209 255
179 209 255
179 209 255
179 209 255
179 209 255
179 210 255
179 210 255
179 210 255
179 210 255
179 210 255
179 210 255
179 210 255
179 210 255
179 210 255
179 210 255
179 210 255
179 210 255
179 210 255
179 210 255
180 210 255
180 210 255
180 210 255
180 210 255
180 210 255
180 210 255
180 210 255
180 210 255
180 210 255
180 210 255
180 210 255
180 210 255
180 210 255
180 210 255
180 210 255
180 210 255
179 210 255
179 210 255
179 210 255
179 210 255
179 210 255
179 210 255
179 210 255
179 210 255
179 210 255
179 210 255
179 210 255
179 210 255
179 210 255
179 210 255
179 209 255
179 209 255
179 209 255
179 209 255
179 209 255
179 209 255
179 209 255
178 209 255
178 209 255
178 209 255
178 209 255
178 209 255
178 209 255
178 209 255
178 209 255
178 209 255
178 209 255
178 209 255
178 209 255
178 209 255
178 209 255
178 209 255
178 209 255
178 209 255
178 209 255
177 209 255
177 209 255
177 209 255
177 209 255
177 209 255
177 209 255
177 208 255
177 208 255
177 208 255
177 208 255
177 208 255
177 208 255
177 208 255
177 208 255
177 208 255
177 208 255
177 208 255
176 208 255
176 208 255
176 208 255
176 208 255
176 208 255
176 208 255
176 208 255
176 208 255
176 208 255
176 208 255
176 208 255
176 208 255
176 208 255
176 208 255
176 208 255
176 208 255
175 207 255
175 207 255
175 207 255
175 207 255
175 207 255
175 207 255
175 207 255
175 207 255
175 207 255
175 207 255
175 207 255
175 207 255
175 207 255
175 207 255
174 207 255
174 207 255
174 207 255
174 207 255
174 207 255
174 207 255
174 207 255
174 207 255
174 207 255
174 207 255
174 206 255
174 206 255
174 206 255
174 206 255
173 206 255
173 206 255
173 206 255
173 206 255
173 206 255
173 206 255
173 206 255
173 206 255
173 206 255
173 206 255
173 206 255
173 206 255
173 206 255
173 206 255
172 206 255
172 206 255
172 206 255
172 206 255
172 206 255
172 205 255
172 205 255
172 205 255
172 205 255
172 205 255
172 205 255
172 205 255
172 205 255
172 205 255
172 205 255
171 205 255
171 205 255
171 205 255
171 205 255
171 205 255
171 205 255
171 205 255
171 205 255
171 205 255
171 205 255
110 134 169
57 71 91
53 66 86
51 63 81
53 66 86
56 69 88
53 66 86
50 62 80
56 70 90
51 64 83
55 69 89
54 67 87
51 63 82
48 60 77
47 59 77
53 65 84
53 66 87
57 71 92
52 64 83
55 69 89
54 66 85
52 65 85
54 66 84
52 65 85
55 67 87
50 63 82
48 60 77
48 60 76
52 64 82
52 64 82
49 61 79
48 60 79
47 59 77
51 63 82
53 65 84
56 70 90
48 60 77
47 59 77
55 69 89
51 63 82
44 55 70
49 61 78
49 61 80
48 60 78
48 60 77
52 64 82
53 66 85
47 58 75
50 62 80
51 63 81
54 67 86
53 64 81
54 66 86
50 63 82
52 64 83
49 61 79
55 68 88
50 61 78
49 61 78
58 71 90
53 65 83
52 63 81
48 60 78
49 61 79
48 61 80
56 69 89
47 58 76
51 63 82
50 62 82
50 62 81
52 65 85
51 63 81
54 67 85
49 61 78
55 68 89
48 60 79
50 62 81
52 65 84
50 62 81
54 66 84
55 68 88
51 64 84
49 62 82
51 64 82
50 63 83
53 67 87
50 61 79
50 63 81
52 65 83
48 60 79
52 65 84
52 65 84
46 59 77
55 67 85
53 67 87
55 69 90
49 61 78
47 59 76
49 62 82
101 123 155
171 205 255
171 205 255
171 205 255
171 205 255
171 205 255
171 205 255
171 205 255
171 205 255
171 205 255
171 205 255
172 205 255
172 205 255
172 205 255
172 205 255
172 205 255
172 205 255
172 205 255
172 205 255
172 205 255
172 205 255
172 206 255
172 206 255
172 206 255
172 206 255
172 206 255
173 206 255
173 206 255
173 206 255
173 206 255
173 206 255
173 206 255
173 206 255
173 206 255
173 206 255
173 206 255
173 206 255
173 206 255
173 206 255
173 206 255
174 206 255
174 206 255
174 206 255
174 206 255
174 207 255
174 207 255
174 207 255
174 207 255
174 207 255
174 207 255
174 207 255
174 207 255
174 207 255
174 207 255
175 207 255
175 207 255
175 207 255
175 207 255
175 207 255
175 207 255
175 207 255
175 207 255
175 207 255
175 207 255
175 207 255
175 207 255
175 207 255
175 207 255
176 208 255
176 208 255
176 208 255
176 208 255
176 208 255
176 208 255
176 208 255
176 208 255
176 208 255
176 208 255
176 208 255
176 208 255
176 208 255
176 208 255
176 208 255
176 208 255
177 208 255
177 208 255
177 208 255
177 208 255
177 208 255
177 208 255
177 208 255
177 208 255
177 208 255
177 208 255
177 208 255
177 209 255
177 209 255
177 209 255
177 209 255
177 209 255
177 209 255
178 209 255
178 209 255
178 209 255
178 209 255
178 209 255
178 209 255
178 209 255
178 209 255
178 209 255
178 209 255
178 209 255
178 209 255
178 209 255
178 209 255
178 209 255
178 209 255
178 209 255
178 209 255
179 209 255
179 209 255
179 209 255
179 209 255
179 209 255
179 209 255
179 209 255
179 210 255
179 210 255
179 210 255
179 210 255
179 210 255
179 210 255
179 210 255
179 210 255
179 210 255
179 210 255
179 210 255
179 210 255
179 210 255
179 210 255
180 210 255
180 210 255
180 210 255
180 210 255
180 210 255
180 210 255
180 210 255
180 210 255
180 210 255
180 210 255
180 210 255
180 210 255
180 210 255
180 210 255
180 210 255
180 210 255
180 210 255
180 210 255
180 210 255
180 210 255
180 210 255
180 210 255
180 210 255
180 210 255
180 210 255
180 210 255
180 210 255
180 210 255
179 210 255
179 210 255
179 210 255
179 210 255
179 210 255
179 210 255
179 210 255
179 210 255
179 210 255
179 210 255
179 210 255
179 210 255
179 210 255
179 210 255
179 209 255
179 209 255
179 209 255
179 209 255
179 209 255
179 209 255
179 209 255
178 209 255
178 209 255
178 209 255
178 209 255
178 209 255
178 209 255
178 209 255
178 209 255
178 209 255
178 209 255
178 209 255
178 209 255
178 209 255
178 209 255
178 209 255
178 209 255
178 209 255
178 209 255
177 209 255
177 209 255
177 209 255
177 209 255
177 209 255
177 209 255
177 208 255
177 208 255
177 208 255
177 208 255
177 208 255
177 208 255
177 208 255
177 208 255
177 208 255
177 208 255
176 208 255
176 208 255
176 208 255
176 208 255
176 208 255
176 208 255
176 208 255
176 208 255
176 208 255
176 208 255
176 208 255
176 208 255
176 208 255
176 208 255
176 208 255
176 208 255
175 207 255
175 207 255
175 207 255
175 207 255
175 207 255
175 207 255
175 207 255
175 207 255
175 207 255
175 207 255
175 207 255
175 207 255
175 207 255
175 207 255
175 207 255
174 207 255
174 207 255
174 207 255
174 207 255
174 207 255
174 207 255
174 207 255
174 207 255
174 207 255
174 206 255
174 206 255
174 206 255
174 206 255
174 206 255
173 206 255
173 206 255
173 206 255
173 206 255
173 206 255
173 206 255
173 206 255
173 206 255
173 206 255
173 206 255
173 206 255
173 206 255
173 206 255
173 206 255
172 206 255
172 206 255
172 206 255
172 206 255
172 206 255
172 205 255
172 205 255
172 205 255
172 205 255
172 205 255
172 205 255
172 205 255
172 205 255
172 205 255
172 205 255
171 205 255
171 205 255
171 205 255
125 151 189
51 65 85
57 70 90
56 69 89
51 64 83
50 63 82
58 71 92
51 63 81
54 67 85
48 61 80
55 67 87
52 65 83
50 62 80
50 61 78
48 60 78
48 59 76
44 55 71
52 64 83
52 64 83
59 73 93
58 71 92
54 67 85
51 64 82
49 61 79
50 63 81
50 62 81
55 69 88
53 65 84
50 62 81
53 66 85
46 56 72
52 66 85
46 57 74
45 55 70
54 66 84
48 60 77
48 60 77
45 56 72
50 61 79
52 64 83
50 62 81
48 60 78
51 64 83
52 65 83
54 68 88
53 66 84
53 65 85
48 60 78
47 59 76
51 64 84
50 61 78
54 67 86
52 64 82
49 61 79
45 56 73
50 62 80
48 60 79
42 52 67
50 62 80
50 62 79
52 65 85
51 63 81
52 64 82
49 61 80
51 62 80
47 59 77
51 64 83
49 61 80
55 69 89
47 59 78
47 58 75
50 62 81
55 69 89
53 67 87
55 68 87
55 67 85
49 61 79
47 59 77
53 67 87
52 64 82
52 63 81
47 59 77
51 63 81
47 59 76
57 71 91
49 62 80
54 68 89
53 65 84
51 63 82
49 61 79
52 65 84
46 58 75
54 67 87
51 63 81
56 69 89
52 64 84
53 66 85
52 65 85
50 63 82
53 66 86
54 68 89
136 164 205
171 205 255
171 205 255
172 205 255
172 205 255
172 205 255
172 205 255
172 205 255
172 205 255
172 205 255
172 205 255
172 205 255
172 205 255
172 205 255
172 206 255
172 206 255
172 206 255
172 206 255
172 206 255
173 206 255
173 206 255
173 206 255
173 206 255
173 206 255
173 206 255
173 206 255
173 206 255
173 206 255
173 206 255
173 206 255
173 206 255
173 206 255
173 206 255
174 206 255
174 206 255
174 206 255
174 206 255
174 206 255
174 207 255
174 207 255
174 207 255
174 207 255
174 207 255
174 207 255
174 207 255
174 207 255
174 207 255
175 207 255
175 207 255
175 207 255
175 207 255
175 207 255
175 207 255
175 207 255
175 207 255
175 207 255
175 207 255
175 207 255
175 207 255
175 207 255
175 207 255
175 207 255
176 208 255
176 208 255
176 208 255
176 208 255
176 208 255
176 208 255
176 208 255
176 208 255
176 208 255
176 208 255
176 208 255
176 208 255
176 208 255
176 208 255
176 208 255
177 208 255
177 208 255
177 208 255
177 208 255
177 208 255
177 208 255
177 208 255
177 208 255
177 208 255
177 208 255
177 208 255
177 208 255
177 209 255
177 209 255
177 209 255
177 209 255
177 209 255
177 209 255
178 209 255
178 209 255
178 209 255
178 209 255
178 209 255
178 209 255
178 209 255
178 209 255
178 209 255
178 209 255
178 209 255
178 209 255
178 209 255
178 209 255
178 209 255
178 209 255
178 209 255
179 209 255
179 209 255
179 209 255
179 209 255
179 209 255
179 209 255
179 209 255
179 210 255
179 210 255
179 210 255
179 210 255
179 210 255
179 210 255
179 210 255
179 210 255
179 210 255
179 210 255
179 210 255
179 210 255
179 210 255
179 210 255
180 210 255
180 210 255
180 210 255
180 210 255
180 210 255
180 210 255
180 210 255
180 210 255
180 210 255
180 210 255
180 210 255
180 210 255
180 210 255
180 210 255
180 210 255
180 210 255
180 210 255
180 210 255
180 210 255
180 210 255
180 210 255
180 210 255
180 210 255
180 210 255
180 210 255
180 210 255
180 210 255
180 210 255
180 210 255
180 210 255
180 210 255
180 210 255
180 210 255
180 210 255
180 210 255
180 210 255
180 210 255
180 210 255
180 210 255
180 210 255
179 210 255
179 210 255
179 210 255
179 210 255
179 210 255
179 210 255
179 210 255
179 210 255
179 210 255
179 210 255
179 210 255
179 210 255
179 210 255
179 210 255
179 209 255
179 209 255
179 209 255
179 209 255
179 209 255
179 209 255
178 209 255
178 209 255
178 209 255
178 209 255
178 209 255
178 209 255
178 209 255
178 209 255
178 209 255
178 209 255
178 209 255
178 209 255
178 209 255
178 209 255
178 209 255
178 209 255
178 209 255
178 209 255
177 209 255
177 209 255
177 209 255
177 209 255
177 209 255
177 209 255
177 208 255
177 208 255
177 208 255
177 208 255
177 208 255
177 208 255
177 208 255
177 208 255
177 208 255
177 208 255
177 208 255
176 208 255
176 208 255
176 208 255
176 208 255
176 208 255
176 208 255
176 208 255
176 208 255
176 208 255
176 208 255
176 208 255
176 208 255
176 208 255
176 208 255
176 208 255
176 208 255
175 207 255
175 207 255
175 207 255
175 207 255
175 207 255
175 207 255
175 207 255
175 207 255
175 207 255
175 207 255
175 207 255
175 207 255
175 207 255
175 207 255
175 207 255
174 207 255
174 207 255
174 207 255
174 207 255
174 207 255
174 207 255
174 207 255
174 207 255
174 207 255
174 206 255
174 206 255
174 206 255
174 206 255
174 206 255
173 206 255
173 206 255
173 206 255
173 206 255
173 206 255
173 206 255
173 206 255
173 206 255
173 206 255
173 206 255
173 206 255
173 206 255
173 206 255
173 206 255
173 206 255
172 206 255
172 206 255
172 206 255
172 206 255
172 206 255
172 205 255
172 205 255
172 205 255
172 205 255
172 205 255
146 175 219
55 68 89
51 63 81
55 68 88
51 63 82
50 62 80
54 68 88
53 66 84
51 63 81
55 69 89
51 64 84
54 67 85
47 59 76
49 62 81
47 59 77
55 68 88
50 63 82
53 66 84
49 61 79
54 68 89
49 61 80
47 60 78
51 63 80
50 62 79
50 63 81
52 64 82
51 63 80
50 62 81
46 58 75
59 73 93
52 64 84
49 61 79
45 55 72
52 64 81
49 60 77
50 63 82
55 69 88
50 61 77
51 64 83
50 63 82
50 62 81
50 63 82
50 63 82
54 67 87
52 64 83
50 63 82
48 60 79
52 65 83
49 61 80
44 55 72
48 59 77
52 64 82
53 65 83
48 59 76
50 63 82
49 61 79
47 58 75
46 58 76
43 54 71
46 57 74
51 62 80
52 65 84
47 58 74
48 60 78
49 61 78
53 65 84
55 67 87
49 61 79
50 62 81
52 65 85
54 67 86
50 63 82
51 63 82
48 60 78
55 69 89
52 65 85
55 68 86
50 62 80
54 67 86
50 61 79
49 61 79
53 66 86
54 67 86
51 63 81
58 71 92
49 61 78
54 68 88
51 64 83
54 67 86
51 64 83
53 66 87
47 57 74
47 58 74
56 70 91
56 69 89
53 66 86
48 60 77
51 63 81
53 66 86
46 57 73
51 64 84
52 64 83
64 78 99
146 175 219
172 205 255
172 205 255
172 205 255
172 205 255
172 205 255
172 206 255
172 206 255
172 206 255
172 206 255
172 206 255
173 206 255
173 206 255
173 206 255
173 206 255
173 206 255
173 206 255
173 206 255
173 206 255
173 206 255
173 206 255
173 206 255
173 206 255
173 206 255
173 206 255
173 206 255
174 206 255
174 206 255
174 206 255
174 206 255
174 206 255
174 207 255
174 207 255
174 207 255
174 207 255
174 207 255
174 207 255
174 207 255
174 207 255
174 207 255
174 207 255
175 207 255
175 207 255
175 207 255
175 207 255
175 207 255
175 207 255
175 207 255
175 207 255
175 207 255
175 207 255
175 207 255
175 207 255
175 207 255
175 207 255
175 207 255
176 208 255
176 208 255
176 208 255
176 208 255
176 208 255
176 208 255
176 208 255
176 208 255
176 208 255
176 208 255
176 208 255
176 208 255
176 208 255
176 208 255
176 208 255
177 208 255
177 208 255
177 208 255
177 208 255
177 208 255
177 208 255
177 208 255
177 208 255
177 208 255
177 208 255
177 208 255
177 209 255
177 209 255
177 209 255
177 209 255
177 209 255
177 209 255
178 209 255
178 209 255
178 209 255
178 209 255
178 209 255
178 209 255
178 209 255
178 209 255
178 209 255
178 209 255
178 209 255
178 209 255
178 209 255
178 209 255
178 209 255
178 209 255
178 209 255
178 209 255
179 209 255
179 209 255
179 209 255
179 209 255
179 209 255
179 209 255
179 210 255
179 210 255
179 210 255
179 210 255
179 210 255
179 210 255
179 210 255
179 210 255
179 210 255
179 210 255
179 210 255
179 210 255
179 210 255
179 210 255
180 210 255
180 210 255
180 210 255
180 210 255
180 210 255
180 210 255
180 210 255
180 210 255
180 210 255
180 210 255
180 210 255
180 210 255
180 210 255
180 210 255
180 210 255
180 210 255
180 210 255
180 210 255
180 210 255
180 210 255
180 210 255
180 210 255
180 210 255
181 211 255
181 211 255
181 211 255
181 211 255
181 211 255
181 211 255
181 211 255
180 210 255
180 210 255
180 210 255
180 210 255
180 210 255
180 210 255
180 210 255
180 210 255
180 210 255
180 210 255
180 210 255
180 210 255
180 210 255
180 210 255
180 210 255
180 210 255
180 210 255
180 210 255
180 210 255
180 210 255
180 210 255
180 210 255
179 210 255
179 210 255
179 210 255
179 210 255
179 210 255
179 210 255
179 210 255
179 210 255
179 210 255
179 210 255
179 210 255
179 210 255
179 210 255
179 210 255
179 209 255
179 209 255
179 209 255
179 209 255
179 209 255
179 209 255
178 209 255
178 209 255
178 209 255
178 209 255
178 209 255
178 209 255
178 209 255
178 209 255
178 209 255
178 209 255
178 209 255
178 209 255
178 209 255
178 209 255
178 209 255
178 209 255
178 209 255
178 209 255
177 209 255
177 209 255
177 209 255
177 209 255
177 209 255
177 209 255
177 208 255
177 208 255
177 208 255
177 208 255
177 208 255
177 208 255
177 208 255
177 208 255
177 208 255
177 208 255
176 208 255
176 208 255
176 208 255
176 208 255
176 208 255
176 208 255
176 208 255
176 208 255
176 208 255
176 208 255
176 208 255
176 208 255
176 208 255
176 208 255
176 208 255
176 208 255
175 207 255
175 207 255
175 207 255
175 207 255
175 207 255
175 207 255
175 207 255
175 207 255
175 207 255
175 207 255
175 207 255
175 207 255
175 207 255
175 207 255
175 207 255
174 207 255
174 207 255
174 207 255
174 207 255
174 207 255
174 207 255
174 207 255
174 207 255
174 207 255
174 207 255
174 206 255
174 206 255
174 206 255
174 206 255
174 206 255
173 206 255
173 206 255
173 206 255
173 206 255
173 206 255
173 206 255
173 206 255
173 206 255
173 206 255
173 206 255
173 206 255
173 206 255
173 206 255
173 206 255
173 206 255
172 206 255
172 206 255
172 206 255
168 200 249
64 78 100
54 67 88
52 64 84
56 69 87
50 63 82
50 63 83
53 66 85
55 68 88
48 60 79
52 64 83
56 69 88
51 63 81
53 65 83
51 64 83
52 65 85
51 63 81
53 66 85
51 64 83
50 63 82
51 64 83
51 63 82
48 60 78
60 72 92
45 56 72
53 66 86
48 61 80
53 67 87
54 67 87
51 63 81
50 63 82
50 63 82
52 65 83
47 58 75
49 61 80
51 63 80
56 69 89
50 61 79
49 60 76
51 63 81
54 67 87
50 61 78
55 68 87
51 64 83
46 57 74
53 66 85
49 61 80
50 62 81
46 56 72
50 62 80
50 62 79
47 59 77
51 63 80
46 57 74
47 58 75
43 53 69
53 66 84
53 66 86
51 63 81
48 60 78
51 63 81
49 61 79
48 59 76
51 64 82
49 61 79
48 61 80
53 65 84
47 59 77
50 63 82
50 62 80
53 66 86
45 56 73
48 60 78
55 68 87
51 64 83
49 60 78
50 62 81
50 62 80
51 64 83
48 60 78
49 61 79
44 56 72
54 66 85
50 61 77
50 61 79
48 60 78
51 63 81
48 59 75
51 64 84
52 65 84
51 63 81
51 64 84
47 58 75
50 62 81
51 64 83
51 63 80
54 67 88
52 64 82
48 61 79
56 69 89
52 65 84
53 66 85
51 64 84
50 61 78
60 74 95
164 195 243
172 206 255
172 206 255
173 206 255
173 206 255
173 206 255
173 206 255
173 206 255
173 206 255
173 206 255
173 206 255
173 206 255
173 206 255
173 206 255
173 206 255
173 206 255
173 206 255
173 206 255
173 206 255
174 206 255
174 206 255
174 206 255
174 206 255
174 206 255
174 207 255
174 207 255
174 207 255
174 207 255
174 207 255
174 207 255
174 207 255
174 207 255
174 207 255
174 207 255
175 207 255
175 207 255
175 207 255
175 207 255
175 207 255
175 207 255
175 207 255
175 207 255
175 207 255
175 207 255
175 207 255
175 207 255
175 207 255
175 207 255
175 207 255
176 208 255
176 208 255
176 208 255
176 208 255
176 208 255
176 208 255
176 208 255
176 208 255
176 208 255
176 208 255
176 208 255
176 208 255
176 208 255
176 208 255
176 208 255
177 208 255
177 208 255
177 208 255
177 208 255
177 208 255
177 208 255
177 208 255
177 208 255
177 208 255
177 208 255
177 208 255
177 209 255
177 209 255
177 209 255
177 209 255
177 209 255
177 209 255
178 209 255
178 209 255
178 209 255
178 209 255
178 209 255
178 209 255
178 209 255
178 209 255
178 209 255
178 209 255
178 209 255
178 209 255
178 209 255
178 209 255
178 209 255
178 209 255
178 209 255
178 209 255
179 209 255
179 209 255
179 209 255
179 209 255
179 209 255
179 209 255
179 210 255
179 210 255
179 210 255
179 210 255
179 210 255
179 210 255
179 210 255
179 210 255
179 210 255
179 210 255
179 210 255
179 210 255
179 210 255
179 210 255
180 210 255
180 210 255
180 210 255
180 210 255
180 210 255
180 210 255
180 210 255
180 210 255
180 210 255
180 210 255
180 210 255
180 210 255
180 210 255
180 210 255
180 210 255
180 210 255
180 210 255
180 210 255
180 210 255
180 210 255
180 210 255
180 210 255
181 211 255
181 211 255
181 211 255
181 211 255
181 211 255
181 211 255
181 211 255
181 211 255
181 211 255
181 211 255
181 211 255
181 211 255
181 211 255
181 211 255
181 211 255
181 211 255
181 211 255
181 211 255
181 211 255
181 211 255
180 210 255
180 210 255
180 210 255
180 210 255
180 210 255
180 210 255
180 210 255
180 210 255
180 210 255
180 210 255
180 210 255
180 210 255
180 210 255
180 210 255
180 210 255
180 210 255
180 210 255
180 210 255
180 210 255
180 210 255
180 210 255
180 210 255
180 210 255
179 210 255
179 210 255
179 210 255
179 210 255
179 210 255
179 210 255
179 210 255
179 210 255
179 210 255
179 210 255
179 210 255
179 210 255
179 210 255
179 209 255
179 209 255
179 209 255
179 209 255
179 209 255
179 209 255
178 209 255
178 209 255
178 209 255
178 209 255
178 209 255
178 209 255
178 209 255
178 209 255
178 209 255
178 209 255
178 209 255
178 209 255
178 209 255
178 209 255
178 209 255
178 209 255
178 209 255
178 209 255
177 209 255
177 209 255
177 209 255
177 209 255
177 209 255
177 209 255
177 208 255
177 208 255
177 208 255
177 208 255
177 208 255
177 208 255
177 208 255
177 208 255
177 208 255
177 208 255
177 208 255
176 208 255
176 208 255
176 208 255
176 208 255
176 208 255
176 208 255
176 208 255
176 208 255
176 208 255
176 208 255
176 208 255
176 208 255
176 208 255
176 208 255
176 208 255
175 207 255
175 207 255
175 207 255
175 207 255
175 207 255
175 207 255
175 207 255
175 207 255
175 207 255
175 207 255
175 207 255
175 207 255
175 207 255
175 207 255
175 207 255
174 207 255
174 207 255
174 207 255
174 207 255
174 207 255
174 207 255
174 207 255
174 207 255
174 207 255
174 207 255
174 206 255
174 206 255
174 206 255
174 206 255
174 206 255
174 206 255
173 206 255
173 206 255
173 206 255
173 206 255
173 206 255
173 206 255
173 206 255
173 206 255
173 206 255
173 206 255
173 206 255
89 108 137
53 66 85
53 66 85
56 70 91
55 68 87
52 65 83
53 66 87
58 72 94
52 64 83
54 66 85
49 61 79
52 65 83
50 62 80
55 69 89
55 68 87
55 68 88
52 64 83
45 56 74
51 64 82
52 65 84
50 62 80
49 61 80
57 70 89
56 70 90
50 61 78
51 64 83
50 63 81
51 63 81
50 61 79
53 66 87
54 67 86
49 61 79
51 63 81
49 61 79
53 67 87
52 65 84
54 66 84
53 66 86
48 60 78
49 61 78
50 61 78
47 59 77
47 59 76
51 64 83
50 61 79
50 62 79
53 66 85
48 59 75
50 63 82
45 56 72
48 60 77
50 62 79
47 58 75
50 62 79
50 62 79
45 56 73
49 61 79
51 64 82
50 63 82
51 64 82
47 58 74
51 65 85
51 63 81
46 57 74
49 61 78
42 52 68
53 65 84
48 59 77
49 62 80
49 61 79
45 56 73
53 65 83
51 63 80
51 62 79
53 67 87
48 59 75
51 63 83
47 59 75
48 60 78
49 63 83
56 69 89
48 60 78
50 62 81
44 55 71
49 61 80
55 69 89
52 65 84
47 59 76
49 61 80
46 57 74
55 68 88
54 67 86
52 65 83
55 68 87
56 69 88
53 65 83
47 59 76
54 68 89
51 64 83
49 62 82
47 59 77
55 68 89
48 60 79
49 62 81
58 71 91
94 114 143
173 206 255
173 206 255
173 206 255
173 206 255
173 206 255
173 206 255
173 206 255
173 206 255
173 206 255
173 206 255
173 206 255
174 206 255
174 206 255
174 206 255
174 206 255
174 206 255
174 207 255
174 207 255
174 207 255
174 207 255
174 207 255
174 207 255
174 207 255
174 207 255
174 207 255
174 207 255
174 207 255
175 207 255
175 207 255
175 207 255
175 207 255
175 207 255
175 207 255
175 207 255
175 207 255
175 207 255
175 207 255
175 207 255
175 207 255
175 207 255
175 207 255
175 207 255
176 208 255
176 208 255
176 208 255
176 208 255
176 208 255
176 208 255
176 208 255
176 208 255
176 208 255
176 208 255
176 208 255
176 208 255
176 208 255
176 208 255
176 208 255
177 208 255
177 208 255
177 208 255
177 208 255
177 208 255
177 208 255
177 208 255
177 208 255
177 208 255
177 208 255
177 208 255
177 209 255
177 209 255
177 209 255
177 209 255
177 209 255
177 209 255
178 209 255
178 209 255
178 209 255
178 209 255
178 209 255
178 209 255
178 209 255
178 209 255
178 209 255
178 209 255
178 209 255
178 209 255
178 209 255
178 209 255
178 209 255
178 209 255
178 209 255
178 209 255
179 209 255
179 209 255
179 209 255
179 209 255
179 209 255
179 209 255
179 210 255
179 210 255
179 210 255
179 210 255
179 210 255
179 210 255
179 210 255
179 210 255
179 210 255
179 210 255
179 210 255
179 210 255
179 210 255
180 210 255
180 210 255
180 210 255
180 210 255
180 210 255
180 210 255
180 210 255
180 210 255
180 210 255
180 210 255
180 210 255
180 210 255
180 210 255
180 210 255
180 210 255
180 210 255
180 210 255
180 210 255
180 210 255
180 210 255
180 210 255
180 210 255
180 210 255
181 211 255
181 211 255
181 211 255
181 211 255
181 211 255
181 211 255
181 211 255
181 211 255
181 211 255
181 211 255
181 211 255
181 211 255
181 211 255
181 211 255
181 211 255
181 211 255
181 211 255
181 211 255
181 211 255
181 211 255
181 211 255
181 211 255
181 211 255
181 211 255
181 211 255
181 211 255
181 211 255
181 211 255
181 211 255
181 211 255
181 211 255
181 211 255
181 211 255
180 210 255
180 210 255
180 210 255
180 210 255
180 210 255
180 210 255
180 210 255
180 210 255
180 210 255
180 210 255
180 210 255
180 210 255
180 210 255
180 210 255
180 210 255
180 210 255
180 210 255
180 210 255
180 210 255
180 210 255
180 210 255
180 210 255
179 210 255
179 210 255
179 210 255
179 210 255
179 210 255
179 210 255
179 210 255
179 210 255
179 210 255
179 210 255
179 210 255
179 210 255
179 210 255
179 209 255
179 209 255
179 209 255
179 209 255
179 209 255
179 209 255
179 209 255
178 209 255
178 209 255
178 209 255
178 209 255
178 209 255
178 209 255
178 209 255
178 209 255
178 209 255
178 209 255
178 209 255
178 209 255
178 209 255
178 209 255
178 209 255
178 209 255
178 209 255
177 209 255
177 209 255
177 209 255
177 209 255
177 209 255
177 209 255
177 208 255
177 208 255
177 208 255
177 208 255
177 208 255
177 208 255
177 208 255
177 208 255
177 208 255
177 208 255
177 208 255
176 208 255
176 208 255
176 208 255
176 208 255
176 208 255
176 208 255
176 208 255
176 208 255
176 208 255
176 208 255
176 208 255
176 208 255
176 208 255
176 208 255
176 208 255
175 207 255
175 207 255
175 207 255
175 207 255
175 207 255
175 207 255
175 207 255
175 207 255
175 207 255
175 207 255
175 207 255
175 207 255
175 207 255
175 207 255
175 207 255
175 207 255
174 207 255
174 207 255
174 207 255
174 207 255
174 207 255
174 207 255
174 207 255
174 207 255
174 207 255
174 207 255
174 206 255
174 206 255
174 206 255
174 206 255
174 206 255
174 206 255
173 206 255
173 206 255
173 206 255
121 145 181
53 66 85
49 62 80
54 67 87
53 67 88
50 63 82
46 58 74
51 63 82
53 66 85
49 61 80
53 65 85
52 64 83
46 57 74
52 66 86
49 61 80
51 64 82
45 57 75
50 62 80
55 68 86
50 61 79
43 54 70
48 59 77
54 68 89
49 61 78
44 55 70
46 57 72
56 69 89
48 59 75
46 58 74
50 63 83
47 58 75
49 61 79
45 56 72
51 64 82
50 62 80
47 59 76
47 59 78
50 62 79
53 65 84
49 62 80
46 57 74
46 58 75
44 55 72
51 62 78
50 62 80
47 59 77
50 63 82
45 55 71
51 63 80
43 54 70
46 57 74
51 64 84
48 60 77
48 60 78
51 64 84
50 61 78
47 59 76
50 61 78
50 62 81
50 63 83
45 55 71
48 60 78
49 61 78
47 60 78
53 66 86
47 59 77
46 57 74
51 63 82
53 65 84
53 66 86
51 63 82
51 64 83
50 62 81
52 65 84
51 64 84
44 54 69
44 56 74
47 58 76
49 61 78
49 62 80
51 64 82
54 66 84
50 62 80
52 65 84
51 62 79
46 57 73
52 64 82
51 64 83
48 61 79
46 57 74
50 62 80
51 64 82
53 66 85
48 60 78
47 60 78
52 66 86
56 69 89
53 65 84
47 59 76
51 64 83
45 56 73
50 62 80
50 62 81
52 66 85
55 69 89
53 66 86
51 64 82
118 141 177
173 206 255
173 206 255
173 206 255
174 206 255
174 206 255
174 206 255
174 206 255
174 206 255
174 207 255
174 207 255
174 207 255
174 207 255
174 207 255
174 207 255
174 207 255
174 207 255
174 207 255
174 207 255
174 207 255
175 207 255
175 207 255
175 207 255
175 207 255
175 207 255
175 207 255
175 207 255
175 207 255
175 207 255
175 207 255
175 207 255
175 207 255
175 207 255
175 207 255
175 207 255
175 207 255
176 208 255
176 208 255
176 208 255
176 208 255
176 208 255
176 208 255
176 208 255
176 208 255
176 208 255
176 208 255
176 208 255
176 208 255
176 208 255
176 208 255
176 208 255
176 208 255
177 208 255
177 208 255
177 208 255
177 208 255
177 208 255
177 208 255
177 208 255
177 208 255
177 208 255
177 208 255
177 209 255
177 209 255
177 209 255
177 209 255
177 209 255
177 209 255
178 209 255
178 209 255
178 209 255
178 209 255
178 209 255
178 209 255
178 209 255
178 209 255
178 209 255
178 209 255
178 209 255
178 209 255
178 209 255
178 209 255
178 209 255
178 209 255
178 209 255
178 209 255
179 209 255
179 209 255
179 209 255
179 209 255
179 209 255
179 209 255
179 210 255
179 210 255
179 210 255
179 210 255
179 210 255
179 210 255
179 210 255
179 210 255
179 210 255
179 210 255
179 210 255
179 210 255
179 210 255
180 210 255
180 210 255
180 210 255
180 210 255
180 210 255
180 210 255
180 210 255
180 210 255
180 210 255
180 210 255
180 210 255
180 210 255
180 210 255
180 210 255
180 210 255
180 210 255
180 210 255
180 210 255
180 210 255
180 210 255
180 210 255
180 210 255
181 211 255
181 211 255
181 211 255
181 211 255
181 211 255
181 211 255
181 211 255
181 211 255
181 211 255
181 211 255
181 211 255
181 211 255
181 211 255
181 211 255
181 211 255
181 211 255
181 211 255
181 211 255
181 211 255
181 211 255
182 211 255
182 211 255
181 211 255
181 211 255
181 211 255
181 211 255
181 211 255
181 211 255
181 211 255
181 211 255
181 211 255
181 211 255
181 211 255
181 211 255
181 211 255
181 211 255
181 211 255
181 211 255
181 211 255
181 211 255
181 211 255
181 211 255
181 211 255
181 211 255
181 211 255
181 211 255
181 211 255
180 210 255
180 210 255
180 210 255
180 210 255
180 210 255
180 210 255
180 210 255
180 210 255
180 210 255
180 210 255
180 210 255
180 210 255
180 210 255
180 210 255
180 210 255
180 210 255
180 210 255
180 210 255
180 210 255
180 210 255
180 210 255
179 210 255
179 210 255
179 210 255
179 210 255
179 210 255
179 210 255
179 210 255
179 210 255
179 210 255
179 210 255
179 210 255
179 210 255
179 210 255
179 210 255
179 209 255
179 209 255
179 209 255
179 209 255
179 209 255
179 209 255
178 209 255
178 209 255
178 209 255
178 209 255
178 209 255
178 209 255
178 209 255
178 209 255
178 209 255
178 209 255
178 209 255
178 209 255
178 209 255
178 209 255
178 209 255
178 209 255
178 209 255
177 209 255
177 209 255
177 209 255
177 209 255
177 209 255
177 209 255
177 208 255
177 208 255
177 208 255
177 208 255
177 208 255
177 208 255
177 208 255
177 208 255
177 208 255
177 208 255
177 208 255
176 208 255
176 208 255
176 208 255
176 208 255
176 208 255
176 208 255
176 208 255
176 208 255
176 208 255
176 208 255
176 208 255
176 208 255
176 208 255
176 208 255
176 208 255
176 207 255
175 207 255
175 207 255
175 207 255
175 207 255
175 207 255
175 207 255
175 207 255
175 207 255
175 207 255
175 207 255
175 207 255
175 207 255
175 207 255
175 207 255
175 207 255
175 207 255
174 207 255
174 207 255
174 207 255
174 207 255
174 207 255
174 207 255
174 207 255
174 207 255
174 207 255
174 207 255
174 207 255
153 183 227
51 64 84
53 67 86
49 61 78
51 64 84
51 64 82
53 66 85
49 61 78
48 59 76
49 62 80
49 61 79
52 64 83
48 60 78
51 62 79
55 68 89
50 63 81
45 56 73
49 61 80
54 67 86
54 67 87
49 59 75
48 61 79
51 64 83
48 60 79
51 62 79
47 59 76
51 63 81
48 61 79
48 59 76
57 71 92
47 58 75
54 66 86
46 57 74
47 59 76
46 57 75
54 67 86
50 63 82
51 63 83
43 54 70
50 62 79
50 63 81
45 55 71
47 59 75
50 62 81
47 59 76
50 62 79
42 53 68
48 59 76
44 55 71
50 61 78
52 64 83
51 63 82
45 56 73
52 62 78
45 56 72
54 68 89
54 68 89
50 63 81
48 60 77
53 65 83
45 56 72
47 59 77
43 53 68
48 58 75
44 55 71
54 67 87
51 63 82
54 66 85
50 62 80
51 63 81
50 62 80
48 60 78
52 64 83
52 65 84
52 65 84
51 63 81
48 59 76
52 64 82
48 60 77
51 63 81
53 66 85
53 66 85
53 66 84
49 61 78
47 59 76
48 59 77
54 67 85
54 66 83
53 65 82
54 66 86
52 64 82
55 68 87
50 62 80
49 61 78
48 61 79
49 61 79
51 63 81
54 67 86
46 57 74
46 58 77
56 68 87
50 61 79
53 65 83
56 69 89
52 66 86
49 61 79
54 68 87
56 70 91
50 63 82
159 189 233
174 206 255
174 207 255
174 207 255
174 207 255
174 207 255
174 207 255
174 207 255
174 207 255
174 207 255
174 207 255
174 207 255
174 207 255
175 207 255
175 207 255
175 207 255
175 207 255
175 207 255
175 207 255
175 207 255
175 207 255
175 207 255
175 207 255
175 207 255
175 207 255
175 207 255
175 207 255
175 207 255
176 208 255
176 208 255
176 208 255
176 208 255
176 208 255
176 208 255
176 208 255
176 208 255
176 208 255
176 208 255
176 208 255
176 208 255
176 208 255
176 208 255
176 208 255
176 208 255
177 208 255
177 208 255
177 208 255
177 208 255
177 208 255
177 208 255
177 208 255
177 208 255
177 208 255
177 208 255
177 208 255
177 209 255
177 209 255
177 209 255
177 209 255
177 209 255
177 209 255
178 209 255
178 209 255
178 209 255
178 209 255
178 209 255
178 209 255
178 209 255
178 209 255
178 209 255
178 209 255
178 209 255
178 209 255
178 209 255
178 209 255
178 209 255
178 209 255
178 209 255
179 209 255
179 209 255
179 209 255
179 209 255
179 209 255
179 209 255
179 210 255
179 210 255
179 210 255
179 210 255
179 210 255
179 210 255
179 210 255
179 210 255
179 210 255
179 210 255
179 210 255
179 210 255
179 210 255
180 210 255
180 210 255
180 210 255
180 210 255
180 210 255
180 210 255
180 210 255
180 210 255
180 210 255
180 210 255
180 210 255
180 210 255
180 210 255
180 210 255
180 210 255
180 210 255
180 210 255
180 210 255
180 210 255
180 210 255
180 210 255
180 210 255
181 211 255
181 211 255
181 211 255
181 211 255
181 211 255
181 211 255
181 211 255
181 211 255
181 211 255
181 211 255
181 211 255
181 211 255
181 211 255
181 211 255
181 211 255
181 211 255
181 211 255
181 211 255
181 211 255
181 211 255
181 211 255
181 211 255
181 211 255
181 211 255
181 211 255
182 211 255
182 211 255
182 211 255
182 211 255
182 211 255
182 211 255
182 211 255
182 211 255
182 211 255
182 211 255
182 211 255
182 211 255
181 211 255
181 211 255
181 211 255
181 211 255
181 211 255
181 211 255
181 211 255
181 211 255
181 211 255
181 211 255
181 211 255
181 211 255
181 211 255
181 211 255
181 211 255
181 211 255
181 211 255
181 211 255
181 211 255
181 211 255
181 211 255
181 211 255
181 211 255
181 211 255
180 210 255
180 210 255
180 210 255
180 210 255
180 210 255
180 210 255
180 210 255
180 210 255
180 210 255
180 210 255
180 210 255
180 210 255
180 210 255
180 210 255
180 210 255
180 210 255
180 210 255
180 210 255
180 210 255
180 210 255
180 210 255
179 210 255
179 210 255
179 210 255
179 210 255
179 210 255
179 210 255
179 210 255
179 210 255
179 210 255
179 210 255
179 210 255
179 210 255
179 210 255
179 209 255
179 209 255
179 209 255
179 209 255
179 209 255
179 209 255
178 209 255
178 209 255
178 209 255
178 209 255
178 209 255
178 209 255
178 209 255
178 209 255
178 209 255
178 209 255
178 209 255
178 209 255
178 209 255
178 209 255
178 209 255
178 209 255
178 209 255
178 209 255
177 209 255
177 209 255
177 209 255
177 209 255
177 209 255
177 208 255
177 208 255
177 208 255
177 208 255
177 208 255
177 208 255
177 208 255
177 208 255
177 208 255
177 208 255
177 208 255
176 208 255
176 208 255
176 208 255
176 208 255
176 208 255
176 208 255
176 208 255
176 208 255
176 208 255
176 208 255
176 208 255
176 208 255
176 208 255
176 208 255
176 208 255
176 208 255
175 207 255
175 207 255
175 207 255
175 207 255
175 207 255
175 207 255
175 207 255
175 207 255
175 207 255
175 207 255
175 207 255
175 207 255
175 207 255
175 207 255
175 207 255
175 207 255
175 207 255
174 207 255
174 207 255
174 207 255
174 207 255
88 106 134
52 64 83
55 68 88
49 62 81
52 65 86
50 62 80
49 62 81
52 64 82
52 65 85
49 61 79
52 64 83
53 66 87
48 61 79
53 66 85
56 69 88
51 63 82
54 66 86
59 74 95
52 64 83
53 65 83
50 63 81
46 57 74
51 63 82
48 59 76
53 65 84
51 62 79
49 61 79
44 56 72
53 66 85
48 60 77
51 64 84
50 61 78
51 64 84
46 57 74
51 62 80
45 56 72
53 66 84
48 59 77
46 58 75
55 67 87
47 58 74
53 66 84
49 61 78
42 53 69
48 59 76
46 58 75
46 57 74
50 62 80
47 59 76
45 56 72
48 59 75
42 53 68
46 57 73
46 57 74
48 59 76
50 62 80
52 64 82
48 59 76
51 62 79
48 59 76
44 55 71
56 69 89
49 61 78
48 59 75
46 58 75
52 64 82
43 53 68
52 65 85
48 59 77
53 65 83
42 53 69
45 56 73
50 62 79
42 53 69
57 71 91
49 61 79
53 64 82
51 63 82
49 61 79
48 59 75
50 63 82
53 65 84
47 58 75
51 64 83
49 61 78
49 61 79
49 61 78
49 62 82
54 66 84
52 65 84
51 63 81
53 65 84
51 63 80
55 68 87
47 59 77
49 60 78
50 63 82
56 70 91
51 64 83
51 63 82
51 63 81
53 65 84
47 58 75
48 60 78
56 69 90
51 63 82
51 64 83
58 71 91
54 67 86
91 110 139
174 207 255
174 207 255
174 207 255
174 207 255
175 207 255
175 207 255
175 207 255
175 207 255
175 207 255
175 207 255
175 207 255
175 207 255
175 207 255
175 207 255
175 207 255
175 207 255
175 207 255
175 207 255
175 207 255
175 207 255
175 207 255
176 208 255
176 208 255
176 208 255
176 208 255
176 208 255
176 208 255
176 208 255
176 208 255
176 208 255
176 208 255
176 208 255
176 208 255
176 208 255
176 208 255
176 208 255
176 208 255
177 208 255
177 208 255
177 208 255
177 208 255
177 208 255
177 208 255
177 208 255
177 208 255
177 208 255
177 208 255
177 208 255
177 209 255
177 209 255
177 209 255
177 209 255
177 209 255
178 209 255
178 209 255
178 209 255
178 209 255
178 209 255
178 209 255
178 209 255
178 209 255
178 209 255
178 209 255
178 209 255
178 209 255
178 209 255
178 209 255
178 209 255
178 209 255
178 209 255
178 209 255
179 209 255
179 209 255
179 209 255
179 209 255
179 209 255
179 209 255
179 210 255
179 210 255
179 210 255
179 210 255
179 210 255
179 210 255
179 210 255
179 210 255
179 210 255
179 210 255
179 210 255
179 210 255
180 210 255
180 210 255
180 210 255
180 210 255
180 210 255
180 210 255
180 210 255
180 210 255
180 210 255
180 210 255
180 210 255
180 210 255
180 210 255
180 210 255
180 210 255
180 210 255
180 210 255
180 210 255
180 210 255
180 210 255
180 210 255
180 210 255
181 211 255
181 211 255
181 211 255
181 211 255
181 211 255
181 211 255
181 211 255
181 211 255
181 211 255
181 211 255
181 211 255
181 211 255
181 211 255
181 211 255
181 211 255
181 211 255
181 211 255
181 211 255
181 211 255
181 211 255
181 211 255
181 211 255
181 211 255
181 211 255
181 211 255
182 211 255
182 211 255
182 211 255
182 211 255
182 211 255
182 211 255
182 211 255
182 211 255
182 211 255
182 211 255
182 211 255
182 211 255
182 211 255
182 211 255
182 211 255
182 211 255
182 211 255
182 211 255
182 211 255
182 211 255
182 211 255
182 211 255
182 211 255
182 211 255
182 211 255
182 211 255
181 211 255
181 211 255
181 211 255
181 211 255
181 211 255
181 211 255
181 211 255
181 211 255
181 211 255
181 211 255
181 211 255
181 211 255
181 211 255
181 211 255
181 211 255
181 211 255
181 211 255
181 211 255
181 211 255
181 211 255
181 211 255
181 211 255
181 211 255
181 211 255
180 210 255
180 210 255
180 210 255
180 210 255
180 210 255
180 210 255
180 210 255
180 210 255
180 210 255
180 210 255
180 210 255
180 210 255
180 210 255
180 210 255
180 210 255
180 210 255
180 210 255
180 210 255
180 210 255
180 210 255
180 210 255
179 210 255
179 210 255
179 210 255
179 210 255
179 210 255
179 210 255
179 210 255
179 210 255
179 210 255
179 210 255
179 210 255
179 210 255
179 209 255
179 209 255
179 209 255
179 209 255
179 209 255
179 209 255
179 209 255
178 209 255
178 209 255
178 209 255
178 209 255
178 209 255
178 209 255
178 209 255
178 209 255
178 209 255
178 209 255
178 209 255
178 209 255
178 209 255
178 209 255
178 209 255
178 209 255
178 209 255
178 209 255
177 209 255
177 209 255
177 209 255
177 209 255
177 209 255
177 208 255
177 208 255
177 208 255
177 208 255
177 208 255
177 208 255
177 208 255
177 208 255
177 208 255
177 208 255
177 208 255
176 208 255
176 208 255
176 208 255
176 208 255
176 208 255
176 208 255
176 208 255
176 208 255
176 208 255
176 208 255
176 208 255
176 208 255
176 208 255
176 208 255
176 208 255
176 208 255
176 208 255
175 207 255
175 207 255
175 207 255
175 207 255
175 207 255
175 207 255
175 207 255
175 207 255
175 207 255
175 207 255
175 207 255
175 207 255
109 131 163
55 68 88
51 64 83
50 62 81
54 68 89
49 62 80
51 64 84
53 66 84
53 66 85
49 61 80
43 54 71
53 67 88
53 66 85
57 71 91
51 64 83
53 65 84
52 64 83
51 63 81
49 60 77
49 61 78
51 63 80
52 64 83
52 64 84
46 57 73
50 62 81
49 61 80
51 64 83
52 65 84
51 64 82
52 65 84
48 60 78
49 60 77
50 61 78
48 60 78
53 66 84
48 61 79
51 63 81
51 63 82
49 62 81
51 63 82
49 61 78
55 67 86
48 60 77
54 66 84
45 56 72
50 63 82
42 52 67
51 63 81
49 60 76
48 60 77
51 63 82
45 56 73
46 57 73
42 53 69
50 63 81
49 60 78
53 67 88
49 61 79
52 65 84
49 61 80
50 62 79
48 60 77
49 60 77
46 57 74
44 55 70
50 62 81
47 59 76
53 66 86
44 55 71
47 57 73
43 55 72
48 59 76
55 68 87
56 68 88
51 63 80
51 64 82
47 59 76
47 58 74
50 62 79
53 66 85
48 59 75
52 64 82
48 60 77
43 54 70
51 64 82
55 67 85
52 64 83
54 67 86
51 64 83
48 60 78
52 65 85
51 62 80
56 69 88
51 62 80
51 63 82
49 62 80
47 59 77
50 62 80
50 62 81
48 59 77
51 64 84
54 67 85
51 63 82
53 64 82
50 61 78
51 63 82
52 65 85
49 61 79
54 68 88
52 65 84
53 66 84
130 156 194
175 207 255
175 207 255
175 207 255
175 207 255
175 207 255
175 207 255
175 207 255
175 207 255
175 207 255
175 207 255
175 207 255
175 207 255
176 208 255
176 208 255
176 208 255
176 208 255
176 208 255
176 208 255
176 208 255
176 208 255
176 208 255
176 208 255
176 208 255
176 208 255
176 208 255
176 208 255
176 208 255
176 208 255
176 208 255
177 208 255
177 208 255
177 208 255
177 208 255
177 208 255
177 208 255
177 208 255
177 208 255
177 208 255
177 208 255
177 208 255
177 209 255
177 209 255
177 209 255
177 209 255
177 209 255
177 209 255
178 209 255
178 209 255
178 209 255
178 209 255
178 209 255
178 209 255
178 209 255
178 209 255
178 209 255
178 209 255
178 209 255
178 209 255
178 209 255
178 209 255
178 209 255
178 209 255
178 209 255
179 209 255
179 209 255
179 209 255
179 209 255
179 209 255
179 209 255
179 210 255
179 210 255
179 210 255
179 210 255
179 210 255
179 210 255
179 210 255
179 210 255
179 210 255
179 210 255
179 210 255
179 210 255
179 210 255
180 210 255
180 210 255
180 210 255
180 210 255
180 210 255
180 210 255
180 210 255
180 210 255
180 210 255
180 210 255
180 210 255
180 210 255
180 210 255
180 210 255
180 210 255
180 210 255
180 210 255
180 210 255
180 210 255
180 210 255
180 210 255
181 211 255
181 211 255
181 211 255
181 211 255
181 211 255
181 211 255
181 211 255
181 211 255
181 211 255
181 211 255
181 211 255
181 211 255
181 211 255
181 211 255
181 211 255
181 211 255
181 211 255
181 211 255
181 211 255
181 211 255
181 211 255
181 211 255
181 211 255
181 211 255
182 211 255
182 211 255
182 211 255
182 211 255
182 211 255
182 211 255
182 211 255
182 211 255
182 211 255
182 211 255
182 211 255
182 211 255
182 211 255
182 211 255
182 211 255
182 211 255
182 211 255
182 212 255
182 212 255
182 212 255
182 212 255
182 212 255
182 212 255
182 211 255
182 211 255
182 211 255
182 211 255
182 211 255
182 211 255
182 211 255
182 211 255
182 211 255
182 211 255
182 211 255
182 211 255
182 211 255
182 211 255
182 211 255
182 211 255
182 211 255
182 211 255
181 211 255
181 211 255
181 211 255
181 211 255
181 211 255
181 211 255
181 211 255
181 211 255
181 211 255
181 211 255
181 211 255
181 211 255
181 211 255
181 211 255
181 211 255
181 211 255
181 211 255
181 211 255
181 211 255
181 211 255
181 211 255
181 211 255
181 211 255
181 211 255
180 210 255
180 210 255
180 210 255
180 210 255
180 210 255
180 210 255
180 210 255
180 210 255
180 210 255
180 210 255
180 210 255
180 210 255
180 210 255
180 210 255
180 210 255
180 210 255
180 210 255
180 210 255
180 210 255
180 210 255
180 210 255
179 210 255
179 210 255
179 210 255
179 210 255
179 210 255
179 210 255
179 210 255
179 210 255
179 210 255
179 210 255
179 210 255
179 210 255
179 210 255
179 209 255
179 209 255
179 209 255
179 209 255
179 209 255
178 209 255
178 209 255
178 209 255
178 209 255
178 209 255
178 209 255
178 209 255
178 209 255
178 209 255
178 209 255
178 209 255
178 209 255
178 209 255
178 209 255
178 209 255
178 209 255
178 209 255
178 209 255
177 209 255
177 209 255
177 209 255
177 209 255
177 209 255
177 209 255
177 208 255
177 208 255
177 208 255
177 208 255
177 208 255
177 208 255
177 208 255
177 208 255
177 208 255
177 208 255
177 208 255
176 208 255
176 208 255
176 208 255
176 208 255
176 208 255
176 208 255
176 208 255
176 208 255
176 208 255
176 208 255
176 208 255
176 208 255
176 208 255
176 208 255
176 208 255
176 208 255
176 208 255
176 208 255
175 207 255
175 207 255
175 207 255
167 198 245
68 83 105
52 65 85
59 72 91
52 65 85
48 61 79
53 65 84
47 58 76
52 65 85
55 68 88
51 64 83
49 60 78
58 72 93
49 61 79
48 59 76
53 65 83
44 55 72
54 67 87
49 61 79
51 63 81
52 64 83
47 60 78
50 63 82
53 66 85
50 62 81
55 69 89
51 64 83
49 61 80
46 57 74
50 63 81
52 64 82
48 60 78
46 57 75
42 53 69
52 65 84
54 67 86
46 57 75
47 59 76
47 58 75
46 58 76
49 61 78
45 56 72
52 64 83
49 60 77
49 60 76
47 59 76
49 61 77
47 58 75
46 57 73
44 55 71
45 55 71
51 63 80
48 60 78
43 54 69
44 55 71
48 60 78
44 54 69
46 57 73
45 56 71
52 65 84
47 59 76
54 66 83
48 59 75
52 65 83
42 53 69
50 63 82
46 57 74
46 58 76
52 64 81
47 59 76
52 64 83
49 61 77
50 62 80
45 56 73
49 60 77
45 56 74
49 61 78
46 58 77
48 60 77
50 62 80
50 62 79
50 62 80
46 58 76
54 68 88
49 62 81
48 59 76
53 65 85
54 67 88
50 61 79
48 60 77
49 61 78
53 66 86
49 61 78
51 64 83
49 61 78
50 61 78
48 60 78
56 69 88
51 63 80
55 68 87
49 60 78
50 62 80
55 68 87
50 62 81
52 64 83
50 62 80
49 62 80
48 59 76
56 70 90
45 57 75
49 60 78
54 67 87
63 78 100
167 198 244
175 207 255
175 207 255
175 207 255
175 207 255
176 208 255
176 208 255
176 208 255
176 208 255
176 208 255
176 208 255
176 208 255
176 208 255
176 208 255
176 208 255
176 208 255
176 208 255
176 208 255
176 208 255
176 208 255
176 208 255
176 208 255
177 208 255
177 208 255
177 208 255
177 208 255
177 208 255
177 208 255
177 208 255
177 208 255
177 208 255
177 208 255
177 208 255
177 209 255
177 209 255
177 209 255
177 209 255
177 209 255
177 209 255
178 209 255
178 209 255
178 209 255
178 209 255
178 209 255
178 209 255
178 209 255
178 209 255
178 209 255
178 209 255
178 209 255
178 209 255
178 209 255
178 209 255
178 209 255
178 209 255
178 209 255
179 209 255
179 209 255
179 209 255
179 209 255
179 209 255
179 209 255
179 210 255
179 210 255
179 210 255
179 210 255
179 210 255
179 210 255
179 210 255
179 210 255
179 210 255
179 210 255
179 210 255
179 210 255
179 210 255
180 210 255
180 210 255
180 210 255
180 210 255
180 210 255
180 210 255
180 210 255
180 210 255
180 210 255
180 210 255
180 210 255
180 210 255
180 210 255
180 210 255
180 210 255
180 210 255
180 210 255
180 210 255
180 210 255
180 210 255
180 210 255
181 211 255
181 211 255
181 211 255
181 211 255
181 211 255
181 211 255
181 211 255
181 211 255
181 211 255
181 211 255
181 211 255
181 211 255
181 211 255
181 211 255
181 211 255
181 211 255
181 211 255
181 211 255
181 211 255
181 211 255
181 211 255
181 211 255
181 211 255
181 211 255
182 211 255
182 211 255
182 211 255
182 211 255
182 211 255
182 211 255
182 211 255
182 211 255
182 211 255
182 211 255
182 211 255
182 211 255
182 211 255
182 211 255
182 211 255
182 211 255
182 211 255
182 211 255
182 212 255
182 212 255
182 212 255
182 212 255
182 212 255
182 212 255
183 212 255
183 212 255
183 212 255
183 212 255
183 212 255
182 212 255
182 212 255
182 212 255
182 212 255
182 212 255
182 212 255
182 212 255
182 212 255
182 212 255
182 211 255
182 211 255
182 211 255
182 211 255
182 211 255
182 211 255
182 211 255
182 211 255
182 211 255
182 211 255
182 211 255
182 211 255
182 211 255
182 211 255
182 211 255
182 211 255
182 211 255
182 211 255
181 211 255
181 211 255
181 211 255
181 211 255
181 211 255
181 211 255
181 211 255
181 211 255
181 211 255
181 211 255
181 211 255
181 211 255
181 211 255
181 211 255
181 211 255
181 211 255
181 211 255
181 211 255
181 211 255
181 211 255
181 211 255
181 211 255
181 211 255
180 210 255
180 210 255
180 210 255
180 210 255
180 210 255
180 210 255
180 210 255
180 210 255
180 210 255
180 210 255
180 210 255
180 210 255
180 210 255
180 210 255
180 210 255
180 210 255
180 210 255
180 210 255
180 210 255
180 210 255
179 210 255
179 210 255
179 210 255
179 210 255
179 210 255
179 210 255
179 210 255
179 210 255
179 210 255
179 210 255
179 210 255
179 210 255
179 210 255
179 210 255
179 209 255
179 209 255
179 209 255
179 209 255
179 209 255
179 209 255
178 209 255
178 209 255
178 209 255
178 209 255
178 209 255
178 209 255
178 209 255
178 209 255
178 209 255
178 209 255
178 209 255
178 209 255
178 209 255
178 209 255
178 209 255
178 209 255
178 209 255
177 209 255
177 209 255
177 209 255
177 209 255
177 209 255
177 208 255
177 208 255
177 208 255
177 208 255
177 208 255
177 208 255
177 208 255
177 208 255
177 208 255
177 208 255
177 208 255
177 208 255
177 208 255
176 208 255
176 208 255
176 208 255
176 208 255
176 208 255
176 208 255
176 208 255
176 208 255
176 208 255
176 208 255
176 208 255
176 208 255
176 208 255
104 124 155
51 64 84
47 58 74
47 59 77
48 60 79
47 58 76
50 63 82
52 64 83
58 72 93
50 62 79
54 67 86
50 61 79
49 61 79
53 65 84
48 60 77
51 63 82
50 63 82
48 60 78
50 61 78
44 55 70
45 55 70
57 70 89
50 62 79
55 68 87
50 60 76
48 61 79
48 59 76
51 63 80
51 64 83
50 62 80
46 56 72
45 55 70
46 56 72
44 54 70
54 67 87
44 55 73
44 54 71
43 53 70
43 54 70
44 56 73
49 61 78
48 60 78
48 60 78
50 62 78
46 58 74
45 56 72
47 58 74
43 53 68
44 54 70
51 63 81
47 58 74
42 52 68
49 60 78
48 59 75
40 51 66
50 62 80
44 55 72
42 52 68
48 59 76
48 59 77
42 53 68
47 58 75
50 61 79
44 56 74
48 60 77
53 65 82
48 59 77
48 59 76
44 55 71
51 62 78
46 57 74
50 62 80
47 58 74
44 53 68
47 58 75
49 60 78
50 61 79
49 61 78
49 61 80
49 60 77
46 58 77
47 58 74
51 64 82
49 60 78
50 63 81
48 59 77
48 60 77
54 67 86
50 62 80
53 65 83
51 64 82
49 61 79
52 65 84
51 63 82
54 68 88
54 66 85
47 58 74
51 64 82
51 63 81
51 64 83
51 64 83
53 65 83
52 65 84
47 59 78
49 61 79
52 65 85
49 61 77
55 68 88
48 60 78
50 63 82
57 70 90
51 64 83
50 62 81
104 125 156
176 208 255
176 208 255
176 208 255
176 208 255
176 208 255
176 208 255
176 208 255
176 208 255
176 208 255
176 208 255
176 208 255
176 208 255
176 208 255
177 208 255
177 208 255
177 208 255
177 208 255
177 208 255
177 208 255
177 208 255
177 208 255
177 208 255
177 208 255
177 208 255
177 208 255
177 209 255
177 209 255
177 209 255
177 209 255
177 209 255
177 209 255
178 209 255
178 209 255
178 209 255
178 209 255
178 209 255
178 209 255
178 209 255
178 209 255
178 209 255
178 209 255
178 209 255
178 209 255
178 209 255
178 209 255
178 209 255
178 209 255
178 209 255
179 209 255
179 209 255
179 209 255
179 209 255
179 209 255
179 209 255
179 209 255
179 210 255
179 210 255
179 210 255
179 210 255
179 210 255
179 210 255
179 210 255
179 210 255
179 210 255
179 210 255
179 210 255
179 210 255
180 210 255
180 210 255
180 210 255
180 210 255
180 210 255
180 210 255
180 210 255
180 210 255
180 210 255
180 210 255
180 210 255
180 210 255
180 210 255
180 210 255
180 210 255
180 210 255
180 210 255
180 210 255
180 210 255
180 210 255
180 210 255
181 211 255
181 211 255
181 211 255
181 211 255
181 211 255
181 211 255
181 211 255
181 211 255
181 211 255
181 211 255
181 211 255
181 211 255
181 211 255
181 211 255
181 211 255
181 211 255
181 211 255
181 211 255
181 211 255
181 211 255
181 211 255
181 211 255
181 211 255
182 211 255
182 211 255
182 211 255
182 211 255
182 211 255
182 211 255
182 211 255
182 211 255
182 211 255
182 211 255
182 211 255
182 211 255
182 211 255
182 211 255
182 211 255
182 211 255
182 211 255
182 211 255
182 212 255
182 212 255
182 212 255
182 212 255
182 212 255
182 212 255
182 212 255
182 212 255
182 212 255
183 212 255
183 212 255
183 212 255
183 212 255
183 212 255
183 212 255
183 212 255
183 212 255
183 212 255
183 212 255
183 212 255
183 212 255
183 212 255
183 212 255
183 212 255
183 212 255
183 212 255
183 212 255
182 212 255
182 212 255
182 212 255
182 212 255
182 212 255
182 212 255
182 212 255
182 212 255
182 212 255
182 212 255
182 211 255
182 211 255
182 211 255
182 211 255
182 211 255
182 211 255
182 211 255
182 211 255
182 211 255
182 211 255
182 211 255
182 211 255
182 211 255
182 211 255
182 211 255
182 211 255
181 211 255
181 211 255
181 211 255
181 211 255
181 211 255
181 211 255
181 211 255
181 211 255
181 211 255
181 211 255
181 211 255
181 211 255
181 211 255
181 211 255
181 211 255
181 211 255
181 211 255
181 211 255
181 211 255
181 211 255
181 211 255
181 211 255
181 211 255
180 210 255
180 210 255
180 210 255
180 210 255
180 210 255
180 210 255
180 210 255
180 210 255
180 210 255
180 210 255
180 210 255
180 210 255
180 210 255
180 210 255
180 210 255
180 210 255
180 210 255
180 210 255
180 210 255
180 210 255
179 210 255
179 210 255
179 210 255
179 210 255
179 210 255
179 210 255
179 210 255
179 210 255
179 210 255
179 210 255
179 210 255
179 210 255
179 210 255
179 209 255
179 209 255
179 209 255
179 209 255
179 209 255
179 209 255
179 209 255
178 209 255
178 209 255
178 209 255
178 209 255
178 209 255
178 209 255
178 209 255
178 209 255
178 209 255
178 209 255
178 209 255
178 209 255
178 209 255
178 209 255
178 209 255
178 209 255
178 209 255
178 209 255
177 209 255
177 209 255
177 209 255
177 209 255
177 209 255
177 209 255
177 208 255
177 208 255
177 208 255
177 208 255
177 208 255
177 208 255
177 208 255
177 208 255
177 208 255
177 208 255
177 208 255
177 208 255
176 208 255
176 208 255
176 208 255
176 208 255
163 193 237
52 65 84
51 64 83
55 68 88
48 60 77
48 60 78
49 60 77
49 60 78
58 72 92
50 62 80
51 63 81
53 66 84
52 64 83
53 66 84
51 62 78
53 66 85
56 69 89
47 59 77
45 56 73
50 63 82
49 62 80
44 55 71
46 57 74
51 63 82
53 65 82
49 59 75
54 67 88
48 59 76
47 58 74
50 61 78
55 67 85
47 58 73
45 56 73
47 59 77
48 59 77
48 59 76
48 59 77
47 58 74
50 62 79
52 64 83
49 61 79
49 61 78
47 59 76
55 69 89
50 62 79
41 51 66
42 53 69
43 55 72
46 57 73
47 59 77
49 61 79
43 54 70
52 63 81
48 59 76
47 59 76
43 53 68
43 53 69
49 61 78
48 60 77
43 54 71
47 58 75
47 59 77
47 58 75
45 56 73
45 57 73
51 63 82
54 67 87
43 54 69
42 53 68
47 58 74
44 55 72
49 59 75
49 61 79
54 67 85
48 59 76
51 63 81
47 59 76
55 68 88
50 62 79
48 60 78
49 60 77
45 56 72
42 52 68
50 62 81
50 62 80
46 58 76
44 55 71
53 66 86
53 65 83
45 56 72
50 63 81
51 63 82
47 58 76
53 65 83
49 61 78
48 59 76
50 62 80
53 65 84
51 64 83
52 63 81
47 58 76
49 61 78
52 65 84
48 59 77
54 67 87
46 58 75
54 67 86
54 66 85
52 65 84
48 60 77
54 67 86
56 69 90
50 63 83
53 66 87
56 69 89
160 189 233
176 208 255
176 208 255
176 208 255
176 208 255
177 208 255
177 208 255
177 208 255
177 208 255
177 208 255
177 208 255
177 208 255
177 208 255
177 208 255
177 208 255
177 208 255
177 208 255
177 208 255
177 209 255
177 209 255
177 209 255
177 209 255
177 209 255
178 209 255
178 209 255
178 209 255
178 209 255
178 209 255
178 209 255
178 209 255
178 209 255
178 209 255
178 209 255
178 209 255
178 209 255
178 209 255
178 209 255
178 209 255
178 209 255
178 209 255
178 209 255
179 209 255
179 209 255
179 209 255
179 209 255
179 209 255
179 209 255
179 209 255
179 210 255
179 210 255
179 210 255
179 210 255
179 210 255
179 210 255
179 210 255
179 210 255
179 210 255
179 210 255
179 210 255
179 210 255
180 210 255
180 210 255
180 210 255
180 210 255
180 210 255
180 210 255
180 210 255
180 210 255
180 210 255
180 210 255
180 210 255
180 210 255
180 210 255
180 210 255
180 210 255
180 210 255
180 210 255
180 210 255
180 210 255
180 210 255
180 210 255
181 211 255
181 211 255
181 211 255
181 211 255
181 211 255
181 211 255
181 211 255
181 211 255
181 211 255
181 211 255
181 211 255
181 211 255
181 211 255
181 211 255
181 211 255
181 211 255
181 211 255
181 211 255
181 211 255
181 211 255
181 211 255
181 211 255
182 211 255
182 211 255
182 211 255
182 211 255
182 211 255
182 211 255
182 211 255
182 211 255
182 211 255
182 211 255
182 211 255
182 211 255
182 211 255
182 211 255
182 211 255
182 211 255
182 211 255
182 211 255
182 212 255
182 212 255
182 212 255
182 212 255
182 212 255
182 212 255
182 212 255
182 212 255
182 212 255
183 212 255
183 212 255
183 212 255
183 212 255
183 212 255
183 212 255
183 212 255
183 212 255
183 212 255
183 212 255
183 212 255
183 212 255
183 212 255
183 212 255
183 212 255
183 212 255
183 212 255
183 212 255
183 212 255
183 212 255
183 212 255
183 212 255
183 212 255
183 212 255
183 212 255
183 212 255
183 212 255
183 212 255
183 212 255
183 212 255
183 212 255
183 212 255
183 212 255
183 212 255
182 212 255
182 212 255
182 212 255
182 212 255
182 212 255
182 212 255
182 212 255
182 212 255
182 212 255
182 211 255
182 211 255
182 211 255
182 211 255
182 211 255
182 211 255
182 211 255
182 211 255
182 211 255
182 211 255
182 211 255
182 211 255
182 211 255
182 211 255
182 211 255
182 211 255
182 211 255
181 211 255
181 211 255
181 211 255
181 211 255
181 211 255
181 211 255
181 211 255
181 211 255
181 211 255
181 211 255
181 211 255
181 211 255
181 211 255
181 211 255
181 211 255
181 211 255
181 211 255
181 211 255
181 211 255
181 211 255
181 211 255
181 211 255
181 211 255
180 210 255
180 210 255
180 210 255
180 210 255
180 210 255
180 210 255
180 210 255
180 210 255
180 210 255
180 210 255
180 210 255
180 210 255
180 210 255
180 210 255
180 210 255
180 210 255
180 210 255
180 210 255
180 210 255
180 210 255
179 210 255
179 210 255
179 210 255
179 210 255
179 210 255
179 210 255
179 210 255
179 210 255
179 210 255
179 210 255
179 210 255
179 210 255
179 210 255
179 209 255
179 209 255
179 209 255
179 209 255
179 209 255
178 209 255
178 209 255
178 209 255
178 209 255
178 209 255
178 209 255
178 209 255
178 209 255
178 209 255
178 209 255
178 209 255
178 209 255
178 209 255
178 209 255
178 209 255
178 209 255
178 209 255
178 209 255
178 209 255
178 209 255
177 209 255
177 209 255
177 209 255
177 209 255
177 209 255
177 209 255
177 208 255
177 208 255
177 208 255
177 208 255
177 208 255
177 208 255
177 208 255
177 208 255
104 124 154
49 61 79
52 65 84
56 69 89
53 65 84
52 66 85
47 59 76
51 64 84
58 71 91
50 62 81
50 62 80
55 69 90
52 65 84
50 61 77
58 72 93
51 63 80
48 59 76
48 59 76
47 58 75
49 60 77
53 65 83
49 61 79
50 63 82
43 53 69
42 53 68
53 67 87
50 62 80
47 59 76
49 60 77
49 61 79
49 61 79
51 62 80
48 59 75
45 56 72
48 59 75
49 60 77
53 65 83
48 59 75
52 63 81
49 60 77
49 61 78
44 55 70
38 47 60
46 56 72
46 57 73
43 54 70
47 58 75
45 55 71
47 59 77
47 58 75
46 57 73
48 60 77
47 59 76
45 56 74
43 54 70
43 54 70
52 64 82
52 64 83
47 58 75
48 59 76
47 58 75
45 56 73
51 62 79
48 59 75
46 56 72
42 52 67
51 63 80
50 63 82
48 60 77
47 58 75
48 59 77
50 62 80
50 62 79
47 58 75
51 63 82
46 57 75
46 57 74
46 57 74
46 57 75
45 56 73
50 61 79
52 65 84
44 55 72
44 55 72
52 64 83
46 57 74
51 63 82
45 56 72
48 60 79
41 52 67
51 63 82
47 59 77
48 60 76
48 60 77
50 62 80
50 62 80
53 66 84
50 62 79
54 68 87
57 71 92
52 64 83
49 59 76
49 60 77
50 62 79
48 59 76
51 63 81
49 61 79
47 57 74
56 69 88
48 60 79
50 61 79
53 65 84
53 65 83
56 68 87
51 63 81
107 128 161
177 208 255
177 208 255
177 208 255
177 208 255
177 208 255
177 208 255
177 208 255
177 208 255
177 209 255
177 209 255
177 209 255
177 209 255
177 209 255
177 209 255
178 209 255
178 209 255
178 209 255
178 209 255
178 209 255
178 209 255
178 209 255
178 209 255
178 209 255
178 209 255
178 209 255
178 209 255
178 209 255
178 209 255
178 209 255
178 209 255
178 209 255
178 209 255
178 209 255
179 209 255
179 209 255
179 209 255
179 209 255
179 209 255
179 209 255
179 210 255
179 210 255
179 210 255
179 210 255
179 210 255
179 210 255
179 210 255
179 210 255
179 210 255
179 210 255
179 210 255
179 210 255
179 210 255
180 210 255
180 210 255
180 210 255
180 210 255
180 210 255
180 210 255
180 210 255
180 210 255
180 210 255
180 210 255
180 210 255
180 210 255
180 210 255
180 210 255
180 210 255
180 210 255
180 210 255
180 210 255
180 210 255
180 210 255
181 211 255
181 211 255
181 211 255
181 211 255
181 211 255
181 211 255
181 211 255
181 211 255
181 211 255
181 211 255
181 211 255
181 211 255
181 211 255
181 211 255
181 211 255
181 211 255
181 211 255
181 211 255
181 211 255
181 211 255
181 211 255
181 211 255
181 211 255
182 211 255
182 211 255
182 211 255
182 211 255
182 211 255
182 211 255
182 211 255
182 211 255
182 211 255
182 211 255
182 211 255
182 211 255
182 211 255
182 211 255
182 211 255
182 211 255
182 211 255
182 212 255
182 212 255
182 212 255
182 212 255
182 212 255
182 212 255
182 212 255
182 212 255
182 212 255
183 212 255
183 212 255
183 212 255
183 212 255
183 212 255
183 212 255
183 212 255
183 212 255
183 212 255
183 212 255
183 212 255
183 212 255
183 212 255
183 212 255
183 212 255
183 212 255
183 212 255
183 212 255
183 212 255
183 212 255
183 212 255
183 212 255
183 212 255
183 212 255
183 212 255
183 212 255
183 212 255
183 212 255
183 212 255
183 212 255
183 212 255
183 212 255
183 212 255
183 212 255
183 212 255
183 212 255
183 212 255
183 212 255
183 212 255
183 212 255
183 212 255
183 212 255
183 212 255
183 212 255
183 212 255
183 212 255
183 212 255
183 212 255
183 212 255
183 212 255
183 212 255
182 212 255
182 212 255
182 212 255
182 212 255
182 212 255
182 212 255
182 212 255
182 212 255
182 211 255
182 211 255
182 211 255
182 211 255
182 211 255
182 211 255
182 211 255
182 211 255
182 211 255
182 211 255
182 211 255
182 211 255
182 211 255
182 211 255
182 211 255
182 211 255
182 211 255
181 211 255
181 211 255
181 211 255
181 211 255
181 211 255
181 211 255
181 211 255
181 211 255
181 211 255
181 211 255
181 211 255
181 211 255
181 211 255
181 211 255
181 211 255
181 211 255
181 211 255
181 211 255
181 211 255
181 211 255
181 211 255
181 211 255
181 211 255
180 210 255
180 210 255
180 210 255
180 210 255
180 210 255
180 210 255
180 210 255
180 210 255
180 210 255
180 210 255
180 210 255
180 210 255
180 210 255
180 210 255
180 210 255
180 210 255
180 210 255
180 210 255
180 210 255
180 210 255
179 210 255
179 210 255
179 210 255
179 210 255
179 210 255
179 210 255
179 210 255
179 210 255
179 210 255
179 210 255
179 210 255
179 210 255
179 209 255
179 209 255
179 209 255
179 209 255
179 209 255
179 209 255
179 209 255
178 209 255
178 209 255
178 209 255
178 209 255
178 209 255
178 209 255
178 209 255
178 209 255
178 209 255
178 209 255
178 209 255
178 209 255
178 209 255
178 209 255
178 209 255
178 209 255
178 209 255
178 209 255
178 209 255
177 209 255
177 209 255
177 209 255
177 209 255
177 209 255
164 193 237
53 66 86
52 65 85
48 61 80
54 67 86
49 61 78
48 60 77
49 61 78
54 67 87
48 60 77
46 57 74
52 65 83
48 60 77
52 64 83
51 63 81
52 65 85
47 58 75
54 67 85
45 55 71
53 65 85
53 65 82
52 65 84
44 55 72
47 60 79
51 64 83
51 64 83
49 61 78
49 61 78
43 54 70
44 54 69
46 57 72
50 62 80
49 61 79
49 61 80
50 62 81
42 52 66
45 55 70
52 64 82
44 54 70
46 56 72
47 60 78
49 62 80
39 49 63
45 56 72
52 65 84
47 57 73
41 51 67
46 56 72
48 60 77
49 61 79
49 61 79
44 54 70
52 65 83
49 61 79
44 55 71
48 59 76
46 56 73
45 55 70
48 59 76
49 60 78
46 58 75
46 57 73
48 59 76
45 57 73
48 60 77
42 52 68
48 60 77
47 58 74
50 62 80
49 61 79
47 57 73
50 62 79
47 58 75
50 61 79
47 58 75
47 58 73
47 58 75
42 52 66
46 57 74
48 59 76
51 62 79
47 59 76
49 61 78
49 61 80
49 60 78
51 63 82
43 53 68
51 64 82
52 64 83
50 62 81
52 65 85
46 57 74
46 57 74
51 63 81
48 60 78
54 67 86
55 68 87
51 63 80
53 65 84
52 64 83
54 66 85
47 58 75
48 59 77
51 64 83
55 68 87
55 69 89
48 60 78
51 63 82
52 65 83
49 61 79
44 55 72
46 56 72
53 67 87
54 66 84
50 62 81
45 57 75
50 62 79
158 186 229
177 209 255
177 209 255
177 209 255
177 209 255
178 209 255
178 209 255
178 209 255
178 209 255
178 209 255
178 209 255
178 209 255
178 209 255
178 209 255
178 209 255
178 209 255
178 209 255
178 209 255
178 209 255
178 209 255
178 209 255
178 209 255
178 209 255
178 209 255
178 209 255
179 209 255
179 209 255
179 209 255
179 209 255
179 209 255
179 209 255
179 210 255
179 210 255
179 210 255
179 210 255
179 210 255
179 210 255
179 210 255
179 210 255
179 210 255
179 210 255
179 210 255
179 210 255
179 210 255
180 210 255
180 210 255
180 210 255
180 210 255
180 210 255
180 210 255
180 210 255
180 210 255
180 210 255
180 210 255
180 210 255
180 210 255
180 210 255
180 210 255
180 210 255
180 210 255
180 210 255
180 210 255
180 210 255
180 210 255
181 210 255
181 211 255
181 211 255
181 211 255
181 211 255
181 211 255
181 211 255
181 211 255
181 211 255
181 211 255
181 211 255
181 211 255
181 211 255
181 211 255
181 211 255
181 211 255
181 211 255
181 211 255
181 211 255
181 211 255
181 211 255
181 211 255
181 211 255
182 211 255
182 211 255
182 211 255
182 211 255
182 211 255
182 211 255
182 211 255
182 211 255
182 211 255
182 211 255
182 211 255
182 211 255
182 211 255
182 211 255
182 211 255
182 211 255
182 211 255
182 212 255
182 212 255
182 212 255
182 212 255
182 212 255
182 212 255
182 212 255
182 212 255
182 212 255
183 212 255
183 212 255
183 212 255
183 212 255
183 212 255
183 212 255
183 212 255
183 212 255
183 212 255
183 212 255
183 212 255
183 212 255
183 212 255
183 212 255
183 212 255
183 212 255
183 212 255
183 212 255
183 212 255
183 212 255
183 212 255
183 212 255
183 212 255
183 212 255
183 212 255
183 212 255
183 212 255
183 212 255
183 212 255
184 212 255
184 212 255
184 212 255
184 212 255
184 212 255
184 212 255
184 212 255
184 212 255
183 212 255
183 212 255
183 212 255
183 212 255
183 212 255
183 212 255
183 212 255
183 212 255
183 212 255
183 212 255
183 212 255
183 212 255
183 212 255
183 212 255
183 212 255
183 212 255
183 212 255
183 212 255
183 212 255
183 212 255
183 212 255
183 212 255
183 212 255
183 212 255
183 212 255
183 212 255
183 212 255
183 212 255
183 212 255
183 212 255
182 212 255
182 212 255
182 212 255
182 212 255
182 212 255
182 212 255
182 212 255
182 212 255
182 212 255
182 211 255
182 211 255
182 211 255
182 211 255
182 211 255
182 211 255
182 211 255
182 211 255
182 211 255
182 211 255
182 211 255
182 211 255
182 211 255
182 211 255
182 211 255
182 211 255
181 211 255
181 211 255
181 211 255
181 211 255
181 211 255
181 211 255
181 211 255
181 211 255
181 211 255
181 211 255
181 211 255
181 211 255
181 211 255
181 211 255
181 211 255
181 211 255
181 211 255
181 211 255
181 211 255
181 211 255
181 211 255
181 211 255
180 210 255
180 210 255
180 210 255
180 210 255
180 210 255
180 210 255
180 210 255
180 210 255
180 210 255
180 210 255
180 210 255
180 210 255
180 210 255
180 210 255
180 210 255
180 210 255
180 210 255
180 210 255
180 210 255
180 210 255
180 210 255
179 210 255
179 210 255
179 210 255
179 210 255
179 210 255
179 210 255
179 210 255
179 210 255
179 210 255
179 210 255
179 210 255
179 210 255
179 210 255
179 209 255
179 209 255
179 209 255
179 209 255
179 209 255
179 209 255
179 209 255
178 209 255
178 209 255
178 209 255
178 209 255
178 209 255
178 209 255
178 209 255
178 209 255
178 209 255
178 209 255
178 209 255
178 209 255
178 209 255
178 209 255
178 209 255
107 129 161
51 65 84
51 62 80
51 63 81
54 67 86
49 62 80
53 65 84
52 65 84
52 64 82
47 59 76
53 64 82
50 61 79
51 63 81
51 63 81
47 59 76
55 69 90
49 61 77
52 64 83
52 64 82
52 65 85
51 62 80
46 57 74
45 56 71
50 62 80
47 58 74
47 58 74
48 59 77
48 59 75
46 56 72
46 56 71
52 63 81
52 65 85
47 57 74
49 61 78
45 56 73
45 56 72
47 58 76
53 66 86
49 59 75
52 64 81
52 64 83
44 55 71
50 61 79
50 61 78
48 59 76
47 58 75
49 60 78
45 56 73
46 57 75
47 58 75
44 55 72
54 66 84
47 59 76
51 62 79
50 62 81
43 53 68
50 60 77
48 59 77
51 63 82
41 51 66
46 57 74
44 54 71
46 57 73
44 55 71
47 58 74
50 62 80
41 51 65
44 55 72
44 54 70
47 58 75
47 59 76
43 53 68
41 51 67
51 63 81
48 59 76
42 52 68
47 58 75
49 61 79
54 66 85
48 59 76
42 52 65
52 63 81
43 55 71
45 56 71
54 66 85
46 57 73
44 55 73
51 64 82
47 57 73
51 62 79
46 56 72
54 67 87
48 59 77
50 62 79
46 57 74
49 62 80
51 63 81
51 63 82
50 62 80
46 57 74
51 63 81
46 56 71
47 59 77
49 61 79
52 64 83
54 66 83
47 59 77
51 62 79
51 63 82
51 63 81
49 60 78
55 67 86
53 66 86
50 61 78
51 63 81
51 62 80
53 66 86
99 117 145
178 209 255
178 209 255
178 209 255
178 209 255
178 209 255
178 209 255
178 209 255
178 209 255
178 209 255
178 209 255
178 209 255
178 209 255
178 209 255
178 209 255
178 209 255
178 209 255
179 209 255
179 209 255
179 209 255
179 209 255
179 209 255
179 209 255
179 210 255
179 210 255
179 210 255
179 210 255
179 210 255
179 210 255
179 210 255
179 210 255
179 210 255
179 210 255
179 210 255
179 210 255
179 210 255
180 210 255
180 210 255
180 210 255
180 210 255
180 210 255
180 210 255
180 210 255
180 210 255
180 210 255
180 210 255
180 210 255
180 210 255
180 210 255
180 210 255
180 210 255
180 210 255
180 210 255
180 210 255
180 210 255
180 210 255
180 210 255
181 211 255
181 211 255
181 211 255
181 211 255
181 211 255
181 211 255
181 211 255
181 211 255
181 211 255
181 211 255
181 211 255
181 211 255
181 211 255
181 211 255
181 211 255
181 211 255
181 211 255
181 211 255
181 211 255
181 211 255
181 211 255
181 211 255
182 211 255
182 211 255
182 211 255
182 211 255
182 211 255
182 211 255
182 211 255
182 211 255
182 211 255
182 211 255
182 211 255
182 211 255
182 211 255
182 211 255
182 211 255
182 211 255
182 212 255
182 212 255
182 212 255
182 212 255
182 212 255
182 212 255
182 212 255
182 212 255
182 212 255
183 212 255
183 212 255
183 212 255
183 212 255
183 212 255
183 212 255
183 212 255
183 212 255
183 212 255
183 212 255
183 212 255
183 212 255
183 212 255
183 212 255
183 212 255
183 212 255
183 212 255
183 212 255
183 212 255
183 212 255
183 212 255
183 212 255
183 212 255
183 212 255
183 212 255
183 212 255
183 212 255
183 212 255
183 212 255
184 212 255
184 212 255
184 212 255
184 212 255
184 212 255
184 212 255
184 212 255
184 212 255
184 212 255
184 213 255
184 213 255
184 213 255
184 213 255
184 213 255
184 213 255
184 212 255
184 212 255
184 212 255
184 212 255
184 212 255
184 212 255
184 212 255
184 212 255
184 212 255
184 212 255
184 212 255
183 212 255
183 212 255
183 212 255
183 212 255
183 212 255
183 212 255
183 212 255
183 212 255
183 212 255
183 212 255
183 212 255
183 212 255
183 212 255
183 212 255
183 212 255
183 212 255
183 212 255
183 212 255
183 212 255
183 212 255
183 212 255
183 212 255
183 212 255
183 212 255
183 212 255
183 212 255
183 212 255
183 212 255
183 212 255
183 212 255
182 212 255
182 212 255
182 212 255
182 212 255
182 212 255
182 212 255
182 212 255
182 212 255
182 212 255
182 211 255
182 211 255
182 211 255
182 211 255
182 211 255
182 211 255
182 211 255
182 211 255
182 211 255
182 211 255
182 211 255
182 211 255
182 211 255
182 211 255
182 211 255
181 211 255
181 211 255
181 211 255
181 211 255
181 211 255
181 211 255
181 211 255
181 211 255
181 211 255
181 211 255
181 211 255
181 211 255
181 211 255
181 211 255
181 211 255
181 211 255
181 211 255
181 211 255
181 211 255
181 211 255
181 211 255
181 211 255
180 210 255
180 210 255
180 210 255
180 210 255
180 210 255
180 210 255
180 210 255
180 210 255
180 210 255
180 210 255
180 210 255
180 210 255
180 210 255
180 210 255
180 210 255
180 210 255
180 210 255
180 210 255
180 210 255
180 210 255
180 210 255
180 210 255
179 210 255
179 210 255
179 210 255
179 210 255
179 210 255
179 210 255
179 210 255
179 210 255
179 210 255
179 210 255
179 210 255
179 210 255
179 210 255
179 209 255
179 209 255
179 209 255
179 209 255
179 209 255
179 209 255
178 209 255
178 209 255
178 209 255
178 209 255
178 209 255
178 209 255
166 195 238
50 62 79
59 72 91
51 63 82
50 62 80
50 63 83
48 60 78
52 65 84
45 55 71
51 64 83
49 61 79
48 60 77
46 57 73
51 64 83
53 66 86
51 63 81
52 65 85
49 61 78
45 56 73
44 55 72
44 55 71
50 63 81
48 60 77
42 53 68
50 62 80
50 62 80
52 64 83
56 69 88
52 64 83
49 61 79
50 61 78
51 63 81
47 59 76
54 67 86
54 67 86
47 58 76
45 56 72
46 56 72
44 55 71
48 60 77
52 64 82
47 58 74
49 60 77
45 56 72
52 64 82
48 61 80
49 61 80
51 62 79
48 59 75
49 60 76
43 54 69
43 53 68
44 55 71
46 56 72
45 56 71
46 56 71
49 60 77
47 58 74
47 59 76
46 57 74
47 58 74
46 57 75
48 59 77
50 62 80
44 54 69
48 59 75
51 64 83
47 58 75
44 54 70
47 58 74
46 58 74
46 58 75
52 65 83
39 48 63
50 62 80
46 56 71
51 64 84
46 57 74
47 58 75
50 62 80
48 59 75
46 57 73
50 61 77
49 61 78
50 62 80
48 59 77
48 59 77
53 65 83
51 63 81
46 57 75
51 63 81
49 61 77
45 56 72
53 65 84
50 62 81
49 59 75
44 55 71
49 61 78
49 61 78
51 63 81
50 62 81
51 62 79
48 60 78
50 61 79
55 69 89
57 70 89
50 61 78
49 61 79
53 66 85
53 66 85
50 62 80
47 59 76
50 62 80
48 60 77
53 66 85
52 64 82
53 64 81
49 61 79
55 68 87
168 197 241
178 209 255
178 209 255
178 209 255
178 209 255
178 209 255
178 209 255
179 209 255
179 209 255
179 209 255
179 209 255
179 209 255
179 209 255
179 210 255
179 210 255
179 210 255
179 210 255
179 210 255
179 210 255
179 210 255
179 210 255
179 210 255
179 210 255
179 210 255
179 210 255
179 210 255
179 210 255
180 210 255
180 210 255
180 210 255
180 210 255
180 210 255
180 210 255
180 210 255
180 210 255
180 210 255
180 210 255
180 210 255
180 210 255
180 210 255
180 210 255
180 210 255
180 210 255
180 210 255
180 210 255
180 210 255
180 210 255
181 211 255
181 211 255
181 211 255
181 211 255
181 211 255
181 211 255
181 211 255
181 211 255
181 211 255
181 211 255
181 211 255
181 211 255
181 211 255
181 211 255
181 211 255
181 211 255
181 211 255
181 211 255
181 211 255
181 211 255
181 211 255
181 211 255
182 211 255
182 211 255
182 211 255
182 211 255
182 211 255
182 211 255
182 211 255
182 211 255
182 211 255
182 211 255
182 211 255
182 211 255
182 211 255
182 211 255
182 211 255
182 211 255
182 212 255
182 212 255
182 212 255
182 212 255
182 212 255
182 212 255
182 212 255
182 212 255
182 212 255
183 212 255
183 212 255
183 212 255
183 212 255
183 212 255
183 212 255
183 212 255
183 212 255
183 212 255
183 212 255
183 212 255
183 212 255
183 212 255
183 212 255
183 212 255
183 212 255
183 212 255
183 212 255
183 212 255
183 212 255
183 212 255
183 212 255
183 212 255
183 212 255
183 212 255
183 212 255
183 212 255
183 212 255
183 212 255
183 212 255
184 212 255
184 212 255
184 212 255
184 212 255
184 212 255
184 212 255
184 212 255
184 212 255
184 212 255
184 212 255
184 213 255
184 213 255
184 213 255
184 213 255
184 213 255
184 213 255
184 213 255
184 213 255
184 213 255
184 213 255
184 213 255
184 213 255
184 213 255
184 213 255
184 213 255
184 213 255
184 213 255
184 213 255
184 213 255
184 213 255
184 213 255
184 213 255
184 213 255
184 212 255
184 212 255
184 212 255
184 212 255
184 212 255
184 212 255
184 212 255
184 212 255
184 212 255
184 212 255
184 212 255
183 212 255
183 212 255
183 212 255
183 212 255
183 212 255
183 212 255
183 212 255
183 212 255
183 212 255
183 212 255
183 212 255
183 212 255
183 212 255
183 212 255
183 212 255
183 212 255
183 212 255
183 212 255
183 212 255
183 212 255
183 212 255
183 212 255
183 212 255
183 212 255
183 212 255
183 212 255
183 212 255
183 212 255
183 212 255
182 212 255
182 212 255
182 212 255
182 212 255
182 212 255
182 212 255
182 212 255
182 212 255
182 211 255
182 211 255
182 211 255
182 211 255
182 211 255
182 211 255
182 211 255
182 211 255
182 211 255
182 211 255
182 211 255
182 211 255
182 211 255
182 211 255
182 211 255
182 211 255
181 211 255
181 211 255
181 211 255
181 211 255
181 211 255
181 211 255
181 211 255
181 211 255
181 211 255
181 211 255
181 211 255
181 211 255
181 211 255
181 211 255
181 211 255
181 211 255
181 211 255
181 211 255
181 211 255
181 211 255
181 211 255
181 211 255
180 210 255
180 210 255
180 210 255
180 210 255
180 210 255
180 210 255
180 210 255
180 210 255
180 210 255
180 210 255
180 210 255
180 210 255
180 210 255
180 210 255
180 210 255
180 210 255
180 210 255
180 210 255
180 210 255
180 210 255
180 210 255
179 210 255
179 210 255
179 210 255
179 210 255
179 210 255
179 210 255
179 210 255
179 210 255
179 210 255
179 210 255
179 210 255
179 210 255
179 210 255
179 210 255
179 209 255
179 209 255
179 209 255
123 146 181
50 62 80
54 67 87
53 65 82
53 67 87
52 64 83
51 64 82
49 61 79
50 62 80
51 64 84
50 62 81
55 67 87
55 68 87
55 67 86
49 61 79
50 62 80
52 64 82
49 60 78
46 57 75
54 66 84
46 56 73
47 58 75
49 60 77
52 65 84
51 64 82
51 63 80
49 60 76
52 64 82
50 62 80
51 64 82
47 59 77
46 57 74
50 61 79
45 55 71
46 57 73
50 61 78
47 59 77
46 58 74
50 61 78
48 59 77
49 61 79
45 56 72
49 60 77
46 57 74
46 58 74
44 54 70
48 59 76
49 60 77
47 60 79
47 58 75
47 58 75
48 59 75
46 58 75
47 58 74
40 50 65
41 50 65
47 59 76
46 57 73
39 49 63
45 56 71
46 57 74
47 58 74
42 53 68
44 55 71
44 54 69
44 54 68
47 58 76
45 56 72
46 57 74
37 47 61
47 58 75
43 53 68
43 52 67
46 58 76
47 59 76
45 55 71
48 60 76
47 58 74
49 61 79
44 55 72
43 54 71
49 61 79
45 55 71
51 63 80
49 60 76
46 57 74
46 58 75
47 59 76
52 65 83
43 54 70
48 59 76
48 59 76
50 61 78
45 56 72
45 56 71
48 59 77
52 64 82
54 67 85
49 61 80
52 64 82
49 60 78
53 66 85
52 66 86
46 57 75
48 60 78
52 65 84
49 61 79
50 62 80
51 64 83
50 61 79
49 61 78
54 66 84
45 55 72
53 66 85
47 59 76
47 59 77
53 65 82
54 67 87
52 64 83
116 137 170
179 209 255
179 209 255
179 210 255
179 210 255
179 210 255
179 210 255
179 210 255
179 210 255
179 210 255
179 210 255
179 210 255
179 210 255
179 210 255
179 210 255
179 210 255
179 210 255
179 210 255
180 210 255
180 210 255
180 210 255
180 210 255
180 210 255
180 210 255
180 210 255
180 210 255
180 210 255
180 210 255
180 210 255
180 210 255
180 210 255
180 210 255
180 210 255
180 210 255
180 210 255
180 210 255
180 210 255
180 210 255
180 210 255
181 211 255
181 211 255
181 211 255
181 211 255
181 211 255
181 211 255
181 211 255
181 211 255
181 211 255
181 211 255
181 211 255
181 211 255
181 211 255
181 211 255
181 211 255
181 211 255
181 211 255
181 211 255
181 211 255
181 211 255
181 211 255
181 211 255
182 211 255
182 211 255
182 211 255
182 211 255
182 211 255
182 211 255
182 211 255
182 211 255
182 211 255
182 211 255
182 211 255
182 211 255
182 211 255
182 211 255
182 211 255
182 211 255
182 212 255
182 212 255
182 212 255
182 212 255
182 212 255
182 212 255
182 212 255
182 212 255
183 212 255
183 212 255
183 212 255
183 212 255
183 212 255
183 212 255
183 212 255
183 212 255
183 212 255
183 212 255
183 212 255
183 212 255
183 212 255
183 212 255
183 212 255
183 212 255
183 212 255
183 212 255
183 212 255
183 212 255
183 212 255
183 212 255
183 212 255
183 212 255
183 212 255
183 212 255
183 212 255
183 212 255
183 212 255
184 212 255
184 212 255
184 212 255
184 212 255
184 212 255
184 212 255
184 212 255
184 212 255
184 212 255
184 212 255
184 212 255
184 213 255
184 213 255
184 213 255
184 213 255
184 213 255
184 213 255
184 213 255
184 213 255
184 213 255
184 213 255
184 213 255
184 213 255
184 213 255
184 213 255
184 213 255
184 213 255
185 213 255
185 213 255
184 213 255
184 213 255
184 213 255
184 213 255
184 213 255
184 213 255
184 213 255
184 213 255
184 213 255
184 213 255
184 213 255
184 213 255
184 213 255
184 213 255
184 213 255
184 213 255
184 213 255
184 213 255
184 213 255
184 213 255
184 213 255
184 213 255
184 213 255
184 213 255
184 212 255
184 212 255
184 212 255
184 212 255
184 212 255
184 212 255
184 212 255
184 212 255
184 212 255
184 212 255
183 212 255
183 212 255
183 212 255
183 212 255
183 212 255
183 212 255
183 212 255
183 212 255
183 212 255
183 212 255
183 212 255
183 212 255
183 212 255
183 212 255
183 212 255
183 212 255
183 212 255
183 212 255
183 212 255
183 212 255
183 212 255
183 212 255
183 212 255
183 212 255
183 212 255
183 212 255
183 212 255
183 212 255
182 212 255
182 212 255
182 212 255
182 212 255
182 212 255
182 212 255
182 212 255
182 212 255
182 212 255
182 211 255
182 211 255
182 211 255
182 211 255
182 211 255
182 211 255
182 211 255
182 211 255
182 211 255
182 211 255
182 211 255
182 211 255
182 211 255
182 211 255
182 211 255
182 211 255
181 211 255
181 211 255
181 211 255
181 211 255
181 211 255
181 211 255
181 211 255
181 211 255
181 211 255
181 211 255
181 211 255
181 211 255
181 211 255
181 211 255
181 211 255
181 211 255
181 211 255
181 211 255
181 211 255
181 211 255
181 211 255
181 211 255
180 210 255
180 210 255
180 210 255
180 210 255
180 210 255
180 210 255
180 210 255
180 210 255
180 210 255
180 210 255
180 210 255
180 210 255
180 210 255
180 210 255
180 210 255
180 210 255
180 210 255
180 210 255
180 210 255
180 210 255
180 210 255
180 210 255
179 210 255
179 210 255
179 210 255
179 210 255
179 210 255
179 210 255
179 210 255
63 77 97
48 60 78
54 67 86
53 66 85
55 67 87
56 70 91
51 63 81
49 60 75
45 56 72
48 59 75
55 68 88
48 60 78
55 68 87
46 57 74
50 63 81
48 59 77
45 56 73
48 59 76
47 57 73
47 58 75
48 59 77
52 64 82
47 59 77
44 55 71
46 56 72
51 62 79
44 56 73
48 60 77
47 58 74
48 59 75
45 55 71
42 52 68
50 61 77
51 63 80
45 55 71
45 55 71
48 59 76
52 64 82
49 61 79
44 55 70
51 63 80
45 56 73
42 52 66
50 61 79
44 55 71
44 54 71
46 57 73
47 58 74
53 65 84
50 61 78
43 54 69
47 58 74
39 48 63
47 58 74
45 55 71
44 55 70
47 58 74
49 59 75
43 53 69
47 57 74
43 53 68
49 62 81
47 58 75
45 56 72
42 52 67
43 54 70
49 59 75
44 55 72
44 55 70
52 64 82
45 55 71
41 51 66
47 58 74
45 56 73
43 54 70
46 56 73
48 59 75
42 52 68
44 56 73
52 64 82
42 52 66
47 57 74
44 55 71
44 55 72
49 60 76
45 56 73
46 57 74
47 58 74
46 57 74
45 56 73
49 60 77
54 67 87
51 63 80
51 64 83
45 56 73
48 60 78
45 56 73
49 61 79
47 58 74
48 60 79
49 61 79
51 64 83
49 61 79
50 62 80
52 64 82
47 59 76
47 58 75
51 62 80
50 63 82
55 68 88
49 61 79
52 64 83
48 59 76
48 60 78
51 64 83
54 67 87
48 60 77
45 57 74
49 60 78
62 76 97
176 205 250
179 210 255
179 210 255
179 210 255
179 210 255
179 210 255
179 210 255
180 210 255
180 210 255
180 210 255
180 210 255
180 210 255
180 210 255
180 210 255
180 210 255
180 210 255
180 210 255
180 210 255
180 210 255
180 210 255
180 210 255
180 210 255
180 210 255
180 210 255
180 210 255
180 210 255
180 210 255
180 210 255
181 211 255
181 211 255
181 211 255
181 211 255
181 211 255
181 211 255
181 211 255
181 211 255
181 211 255
181 211 255
181 211 255
181 211 255
181 211 255
181 211 255
181 211 255
181 211 255
181 211 255
181 211 255
181 211 255
181 211 255
181 211 255
181 211 255
181 211 255
182 211 255
182 211 255
182 211 255
182 211 255
182 211 255
182 211 255
182 211 255
182 211 255
182 211 255
182 211 255
182 211 255
182 211 255
182 211 255
182 211 255
182 211 255
182 211 255
182 212 255
182 212 255
182 212 255
182 212 255
182 212 255
182 212 255
182 212 255
182 212 255
182 212 255
183 212 255
183 212 255
183 212 255
183 212 255
183 212 255
183 212 255
183 212 255
183 212 255
183 212 255
183 212 255
183 212 255
183 212 255
183 212 255
183 212 255
183 212 255
183 212 255
183 212 255
183 212 255
183 212 255
183 212 255
183 212 255
183 212 255
183 212 255
183 212 255
183 212 255
183 212 255
183 212 255
184 212 255
184 212 255
184 212 255
184 212 255
184 212 255
184 212 255
184 212 255
184 212 255
184 212 255
184 212 255
184 212 255
184 213 255
184 213 255
184 213 255
184 213 255
184 213 255
184 213 255
184 213 255
184 213 255
184 213 255
184 213 255
184 213 255
184 213 255
184 213 255
184 213 255
184 213 255
184 213 255
184 213 255
184 213 255
184 213 255
184 213 255
184 213 255
184 213 255
184 213 255
184 213 255
185 213 255
185 213 255
185 213 255
185 213 255
185 213 255
185 213 255
185 213 255
185 213 255
185 213 255
185 213 255
185 213 255
185 213 255
185 213 255
185 213 255
185 213 255
184 213 255
184 213 255
184 213 255
184 213 255
184 213 255
184 213 255
184 213 255
184 213 255
184 213 255
184 213 255
184 213 255
184 213 255
184 213 255
184 213 255
184 213 255
184 213 255
184 213 255
184 213 255
184 213 255
184 213 255
184 213 255
184 213 255
184 213 255
184 212 255
184 212 255
184 212 255
184 212 255
184 212 255
184 212 255
184 212 255
184 212 255
184 212 255
184 212 255
183 212 255
183 212 255
183 212 255
183 212 255
183 212 255
183 212 255
183 212 255
183 212 255
183 212 255
183 212 255
183 212 255
183 212 255
183 212 255
183 212 255
183 212 255
183 212 255
183 212 255
183 212 255
183 212 255
183 212 255
183 212 255
183 212 255
183 212 255
183 212 255
183 212 255
183 212 255
183 212 255
183 212 255
182 212 255
182 212 255
182 212 255
182 212 255
182 212 255
182 212 255
182 212 255
182 212 255
182 211 255
182 211 255
182 211 255
182 211 255
182 211 255
182 211 255
182 211 255
182 211 255
182 211 255
182 211 255
182 211 255
182 211 255
182 211 255
182 211 255
182 211 255
182 211 255
181 211 255
181 211 255
181 211 255
181 211 255
181 211 255
181 211 255
181 211 255
181 211 255
181 211 255
181 211 255
181 211 255
181 211 255
181 211 255
181 211 255
181 211 255
181 211 255
181 211 255
181 211 255
181 211 255
181 211 255
181 211 255
181 211 255
181 211 255
180 210 255
180 210 255
180 210 255
180 210 255
180 210 255
180 210 255
180 210 255
180 210 255
180 210 255
180 210 255
180 210 255
180 210 255
180 210 255
180 210 255
180 210 255
180 210 255
180 210 255
180 210 255
132 155 191
52 64 82
52 65 84
50 62 81
50 61 79
53 65 84
50 62 80
51 64 83
50 62 81
49 61 79
47 58 74
50 62 81
53 65 84
50 62 80
54 66 85
48 59 77
49 61 79
51 63 80
48 61 80
45 56 73
43 54 69
42 53 69
48 60 77
45 56 72
48 60 77
51 63 82
50 62 81
48 59 75
55 67 85
48 59 76
48 60 77
50 63 82
48 59 76
45 56 73
41 51 66
40 50 65
46 57 73
51 63 82
49 62 80
44 55 71
48 60 77
47 59 76
47 59 76
48 60 77
48 59 76
49 60 77
45 56 72
47 59 77
47 59 78
43 53 67
45 57 75
42 52 67
43 52 66
42 53 70
45 56 73
44 55 72
46 57 74
46 58 75
43 54 70
41 51 66
47 58 75
45 56 72
43 53 68
48 60 78
48 60 77
48 60 77
46 57 73
45 55 71
43 54 69
44 55 70
45 55 71
44 55 71
46 57 74
46 56 72
43 54 70
43 53 68
49 61 78
50 61 77
47 58 75
52 64 82
44 55 70
46 57 73
51 64 82
45 56 72
45 55 71
44 55 70
47 59 76
47 59 76
49 60 77
42 53 68
45 55 71
45 57 73
48 59 77
48 60 77
49 60 76
56 69 89
49 61 79
47 59 77
50 62 80
51 63 82
48 59 76
49 61 78
48 59 76
47 58 75
44 54 70
49 60 77
46 58 76
48 59 76
49 60 77
51 64 82
52 65 84
51 63 81
52 65 84
50 62 80
50 62 81
49 60 77
48 60 77
50 62 80
45 56 73
51 64 83
46 56 72
137 162 200
180 210 255
180 210 255
180 210 255
180 210 255
180 210 255
180 210 255
180 210 255
180 210 255
180 210 255
180 210 255
180 210 255
180 210 255
180 210 255
180 210 255
180 210 255
180 210 255
180 210 255
180 210 255
180 210 255
181 211 255
181 211 255
181 211 255
181 211 255
181 211 255
181 211 255
181 211 255
181 211 255
181 211 255
181 211 255
181 211 255
181 211 255
181 211 255
181 211 255
181 211 255
181 211 255
181 211 255
181 211 255
181 211 255
181 211 255
181 211 255
182 211 255
182 211 255
182 211 255
182 211 255
182 211 255
182 211 255
182 211 255
182 211 255
182 211 255
182 211 255
182 211 255
182 211 255
182 211 255
182 211 255
182 211 255
182 211 255
182 211 255
182 212 255
182 212 255
182 212 255
182 212 255
182 212 255
182 212 255
182 212 255
182 212 255
183 212 255
183 212 255
183 212 255
183 212 255
183 212 255
183 212 255
183 212 255
183 212 255
183 212 255
183 212 255
183 212 255
183 212 255
183 212 255
183 212 255
183 212 255
183 212 255
183 212 255
183 212 255
183 212 255
183 212 255
183 212 255
183 212 255
183 212 255
183 212 255
183 212 255
183 212 255
183 212 255
184 212 255
184 212 255
184 212 255
184 212 255
184 212 255
184 212 255
184 212 255
184 212 255
184 212 255
184 212 255
184 212 255
184 213 255
184 213 255
184 213 255
184 213 255
184 213 255
184 213 255
184 213 255
184 213 255
184 213 255
184 213 255
184 213 255
184 213 255
184 213 255
184 213 255
184 213 255
184 213 255
184 213 255
184 213 255
184 213 255
184 213 255
184 213 255
184 213 255
185 213 255
185 213 255
185 213 255
185 213 255
185 213 255
185 213 255
185 213 255
185 213 255
185 213 255
185 213 255
185 213 255
185 213 255
185 213 255
185 213 255
185 213 255
185 213 255
185 213 255
185 213 255
185 213 255
185 213 255
185 213 255
185 213 255
185 213 255
185 213 255
185 213 255
185 213 255
185 213 255
185 213 255
185 213 255
185 213 255
185 213 255
185 213 255
185 213 255
185 213 255
185 213 255
185 213 255
185 213 255
185 213 255
184 213 255
184 213 255
184 213 255
184 213 255
184 213 255
184 213 255
184 213 255
184 213 255
184 213 255
184 213 255
184 213 255
184 213 255
184 213 255
184 213 255
184 213 255
184 213 255
184 213 255
184 213 255
184 213 255
184 213 255
184 213 255
184 213 255
184 212 255
184 212 255
184 212 255
184 212 255
184 212 255
184 212 255
184 212 255
184 212 255
184 212 255
184 212 255
183 212 255
183 212 255
183 212 255
183 212 255
183 212 255
183 212 255
183 212 255
183 212 255
183 212 255
183 212 255
183 212 255
183 212 255
183 212 255
183 212 255
183 212 255
183 212 255
183 212 255
183 212 255
183 212 255
183 212 255
183 212 255
183 212 255
183 212 255
183 212 255
183 212 255
183 212 255
183 212 255
182 212 255
182 212 255
182 212 255
182 212 255
182 212 255
182 212 255
182 212 255
182 212 255
182 211 255
182 211 255
182 211 255
182 211 255
182 211 255
182 211 255
182 211 255
182 211 255
182 211 255
182 211 255
182 211 255
182 211 255
182 211 255
182 211 255
182 211 255
182 211 255
182 211 255
181 211 255
181 211 255
181 211 255
181 211 255
181 211 255
181 211 255
181 211 255
181 211 255
181 211 255
181 211 255
181 211 255
181 211 255
181 211 255
181 211 255
181 211 255
181 211 255
181 211 255
181 211 255
181 211 255
181 211 255
181 211 255
181 211 255
181 211 255
180 210 255
180 210 255
180 210 255
180 210 255
180 210 255
180 210 255
180 210 255
180 210 255
82 99 124
51 64 82
50 62 80
48 60 76
55 68 86
50 61 79
51 63 81
55 68 86
46 57 74
47 59 77
52 64 81
55 68 88
49 61 79
55 68 87
49 61 78
48 60 77
47 59 76
51 64 83
45 55 71
51 64 82
45 56 72
46 58 76
50 62 79
46 57 72
52 64 82
49 60 77
45 56 73
51 63 80
52 65 84
50 61 77
52 63 81
47 59 76
42 51 66
44 54 68
44 53 68
51 63 82
48 60 77
45 56 72
47 58 75
49 60 77
47 58 76
46 57 73
41 51 66
49 61 78
51 62 79
46 57 74
48 59 76
46 57 73
43 53 67
45 56 73
47 59 76
46 57 73
46 56 73
51 62 79
43 54 71
48 58 74
52 63 80
44 54 70
50 61 77
40 50 64
42 51 66
45 56 73
42 52 67
43 52 67
41 52 68
44 55 71
50 61 79
48 59 77
43 53 68
45 56 72
48 60 77
44 54 70
43 53 70
46 57 74
44 55 71
42 52 67
44 55 70
43 53 69
48 60 77
47 58 74
45 56 72
48 60 77
45 56 72
47 57 72
48 58 74
48 60 78
46 56 72
51 63 82
44 55 71
48 59 75
47 58 74
47 58 75
51 64 83
49 61 80
47 59 76
48 59 76
47 59 75
48 58 74
45 55 70
46 56 72
50 62 80
48 59 76
49 60 77
49 61 78
47 59 75
45 56 72
49 60 78
48 59 76
44 54 69
53 65 83
48 59 76
50 62 80
47 59 76
54 67 86
48 60 77
50 62 81
47 58 76
54 68 88
51 63 82
52 64 83
50 63 82
81 98 123
180 210 255
180 210 255
180 210 255
180 210 255
180 210 255
180 210 255
180 210 255
180 210 255
181 211 255
181 211 255
181 211 255
181 211 255
181 211 255
181 211 255
181 211 255
181 211 255
181 211 255
181 211 255
181 211 255
181 211 255
181 211 255
181 211 255
181 211 255
181 211 255
181 211 255
181 211 255
181 211 255
181 211 255
181 211 255
181 211 255
181 211 255
182 211 255
182 211 255
182 211 255
182 211 255
182 211 255
182 211 255
182 211 255
182 211 255
182 211 255
182 211 255
182 211 255
182 211 255
182 211 255
182 211 255
182 211 255
182 211 255
182 212 255
182 212 255
182 212 255
182 212 255
182 212 255
182 212 255
182 212 255
182 212 255
182 212 255
183 212 255
183 212 255
183 212 255
183 212 255
183 212 255
183 212 255
183 212 255
183 212 255
183 212 255
183 212 255
183 212 255
183 212 255
183 212 255
183 212 255
183 212 255
183 212 255
183 212 255
183 212 255
183 212 255
183 212 255
183 212 255
183 212 255
183 212 255
183 212 255
183 212 255
183 212 255
183 212 255
184 212 255
184 212 255
184 212 255
184 212 255
184 212 255
184 212 255
184 212 255
184 212 255
184 212 255
184 212 255
184 213 255
184 213 255
184 213 255
184 213 255
184 213 255
184 213 255
184 213 255
184 213 255
184 213 255
184 213 255
184 213 255
184 213 255
184 213 255
184 213 255
184 213 255
184 213 255
184 213 255
184 213 255
184 213 255
184 213 255
184 213 255
184 213 255
185 213 255
185 213 255
185 213 255
185 213 255
185 213 255
185 213 255
185 213 255
185 213 255
185 213 255
185 213 255
185 213 255
185 213 255
185 213 255
185 213 255
185 213 255
185 213 255
185 213 255
185 213 255
185 213 255
185 213 255
185 213 255
185 213 255
185 213 255
185 213 255
185 213 255
185 213 255
185 213 255
185 213 255
185 213 255
185 213 255
185 213 255
185 213 255
185 213 255
185 213 255
185 213 255
185 213 255
185 213 255
185 213 255
185 213 255
185 213 255
185 213 255
185 213 255
185 213 255
185 213 255
185 213 255
185 213 255
185 213 255
185 213 255
185 213 255
185 213 255
185 213 255
185 213 255
185 213 255
185 213 255
185 213 255
185 213 255
185 213 255
185 213 255
185 213 255
184 213 255
184 213 255
184 213 255
184 213 255
184 213 255
184 213 255
184 213 255
184 213 255
184 213 255
184 213 255
184 213 255
184 213 255
184 213 255
184 213 255
184 213 255
184 213 255
184 213 255
184 213 255
184 213 255
184 213 255
184 213 255
184 213 255
184 212 255
184 212 255
184 212 255
184 212 255
184 212 255
184 212 255
184 212 255
184 212 255
184 212 255
184 212 255
183 212 255
183 212 255
183 212 255
183 212 255
183 212 255
183 212 255
183 212 255
183 212 255
183 212 255
183 212 255
183 212 255
183 212 255
183 212 255
183 212 255
183 212 255
183 212 255
183 212 255
183 212 255
183 212 255
183 212 255
183 212 255
183 212 255
183 212 255
183 212 255
183 212 255
183 212 255
183 212 255
182 212 255
182 212 255
182 212 255
182 212 255
182 212 255
182 212 255
182 212 255
182 212 255
182 211 255
182 211 255
182 211 255
182 211 255
182 211 255
182 211 255
182 211 255
182 211 255
182 211 255
182 211 255
182 211 255
182 211 255
182 211 255
182 211 255
182 211 255
182 211 255
181 211 255
181 211 255
181 211 255
181 211 255
181 211 255
181 211 255
181 211 255
181 211 255
181 211 255
181 211 255
181 211 255
181 211 255
181 211 255
181 211 255
181 211 255
181 211 255
181 211 255
181 211 255
181 211 255
181 211 255
165 192 234
50 62 81
45 56 71
50 61 78
46 58 76
48 60 76
50 61 79
47 59 77
48 60 77
47 59 76
49 61 79
51 63 81
50 62 80
51 64 84
49 60 78
48 60 77
50 61 78
47 59 76
49 61 79
51 63 81
54 66 85
50 61 78
50 63 82
47 59 77
48 60 77
50 61 79
43 54 70
46 57 74
45 56 72
48 59 76
52 64 82
51 63 82
48 60 77
42 52 66
47 58 75
47 58 75
47 58 75
42 53 69
42 52 68
45 55 71
48 59 76
47 58 74
48 60 77
46 56 71
46 58 75
48 60 78
49 61 78
47 57 72
42 53 69
45 56 72
42 52 68
47 58 75
46 57 74
42 53 69
51 64 83
49 61 80
45 56 72
46 57 73
45 56 72
42 51 66
47 58 75
47 59 77
49 60 77
50 61 78
43 53 70
41 51 67
43 54 70
46 56 72
51 62 80
42 53 68
48 60 77
45 56 73
47 58 75
43 53 69
45 56 72
45 56 72
46 57 74
48 60 78
43 54 69
50 62 79
43 54 70
47 58 76
48 59 75
47 59 75
49 60 76
44 55 71
43 54 70
47 58 74
46 57 74
47 58 74
50 62 79
46 57 74
42 52 68
55 68 87
46 56 72
45 56 73
49 61 79
41 51 66
45 56 73
46 56 72
44 54 69
45 56 72
45 56 73
46 57 73
49 60 77
51 63 82
49 61 79
48 59 76
47 57 73
52 65 85
46 57 73
50 62 79
50 63 82
49 62 80
43 54 69
53 65 84
47 58 75
47 59 77
52 65 85
53 66 84
51 63 80
46 57 72
45 56 72
163 190 231
181 211 255
181 211 255
181 211 255
181 211 255
181 211 255
181 211 255
181 211 255
181 211 255
181 211 255
181 211 255
181 211 255
181 211 255
181 211 255
181 211 255
181 211 255
181 211 255
181 211 255
181 211 255
181 211 255
181 211 255
181 211 255
182 211 255
182 211 255
182 211 255
182 211 255
182 211 255
182 211 255
182 211 255
182 211 255
182 211 255
182 211 255
182 211 255
182 211 255
182 211 255
182 211 255
182 211 255
182 212 255
182 212 255
182 212 255
182 212 255
182 212 255
182 212 255
182 212 255
182 212 255
182 212 255
183 212 255
183 212 255
183 212 255
183 212 255
183 212 255
183 212 255
183 212 255
183 212 255
183 212 255
183 212 255
183 212 255
183 212 255
183 212 255
183 212 255
183 212 255
183 212 255
183 212 255
183 212 255
183 212 255
183 212 255
183 212 255
183 212 255
183 212 255
183 212 255
183 212 255
183 212 255
184 212 255
184 212 255
184 212 255
184 212 255
184 212 255
184 212 255
184 212 255
184 212 255
184 212 255
184 212 255
184 212 255
184 213 255
184 213 255
184 213 255
184 213 255
184 213 255
184 213 255
184 213 255
184 213 255
184 213 255
184 213 255
184 213 255
184 213 255
184 213 255
184 213 255
184 213 255
184 213 255
184 213 255
184 213 255
184 213 255
184 213 255
184 213 255
185 213 255
185 213 255
185 213 255
185 213 255
185 213 255
185 213 255
185 213 255
185 213 255
185 213 255
185 213 255
185 213 255
185 213 255
185 213 255
185 213 255
185 213 255
185 213 255
185 213 255
185 213 255
185 213 255
185 213 255
185 213 255
185 213 255
185 213 255
185 213 255
185 213 255
185 213 255
185 213 255
185 213 255
185 213 255
185 213 255
185 213 255
185 213 255
185 213 255
185 213 255
185 213 255
186 214 255
186 214 255
186 214 255
186 214 255
186 214 255
186 214 255
186 214 255
186 214 255
185 213 255
185 213 255
185 213 255
185 213 255
185 213 255
185 213 255
185 213 255
185 213 255
185 213 255
185 213 255
185 213 255
185 213 255
185 213 255
185 213 255
185 213 255
185 213 255
185 213 255
185 213 255
185 213 255
185 213 255
185 213 255
185 213 255
185 213 255
185 213 255
185 213 255
185 213 255
185 213 255
185 213 255
185 213 255
185 213 255
185 213 255
185 213 255
185 213 255
185 213 255
185 213 255
185 213 255
185 213 255
184 213 255
184 213 255
184 213 255
184 213 255
184 213 255
184 213 255
184 213 255
184 213 255
184 213 255
184 213 255
184 213 255
184 213 255
184 213 255
184 213 255
184 213 255
184 213 255
184 213 255
184 213 255
184 213 255
184 213 255
184 213 255
184 213 255
184 212 255
184 212 255
184 212 255
184 212 255
184 212 255
184 212 255
184 212 255
184 212 255
184 212 255
184 212 255
183 212 255
183 212 255
183 212 255
183 212 255
183 212 255
183 212 255
183 212 255
183 212 255
183 212 255
183 212 255
183 212 255
183 212 255
183 212 255
183 212 255
183 212 255
183 212 255
183 212 255
183 212 255
183 212 255
183 212 255
183 212 255
183 212 255
183 212 255
183 212 255
183 212 255
183 212 255
183 212 255
182 212 255
182 212 255
182 212 255
182 212 255
182 212 255
182 212 255
182 212 255
182 212 255
182 212 255
182 211 255
182 211 255
182 211 255
182 211 255
182 211 255
182 211 255
182 211 255
182 211 255
182 211 255
182 211 255
182 211 255
182 211 255
182 211 255
182 211 255
182 211 255
182 211 255
182 211 255
181 211 255
181 211 255
181 211 255
181 211 255
181 211 255
181 211 255
181 211 255
181 211 255
121 143 175
54 67 85
51 62 80
53 65 82
49 60 77
50 62 79
45 57 75
49 61 79
50 63 81
51 63 80
52 64 82
47 58 75
49 60 77
46 57 74
48 59 76
47 59 77
49 61 78
49 60 78
46 57 73
50 62 79
46 57 73
45 55 70
45 56 73
51 62 78
47 58 74
52 64 81
48 58 75
49 61 77
45 57 74
47 58 73
48 61 79
41 50 65
47 59 77
45 56 72
51 63 80
43 54 69
45 56 72
48 60 78
46 57 74
48 60 77
51 63 82
46 58 75
45 57 74
40 50 65
47 58 75
46 56 72
42 52 67
40 50 65
44 54 68
47 58 75
47 58 75
39 49 63
47 57 74
44 54 70
45 56 71
45 55 71
39 49 63
45 56 72
42 52 67
50 61 78
48 59 76
51 63 81
42 51 65
44 55 71
44 55 71
44 55 71
45 56 73
43 53 69
43 54 69
44 55 70
41 51 66
43 54 70
41 50 64
52 64 83
46 56 72
45 55 71
44 55 71
48 59 76
52 64 82
48 59 76
52 64 82
45 56 72
47 60 78
54 65 82
48 59 74
46 57 72
49 61 79
45 57 74
46 57 74
46 57 73
48 59 76
48 59 75
49 61 79
46 57 73
44 54 70
49 61 78
48 59 77
49 60 77
49 60 77
48 60 78
46 58 75
50 62 80
53 65 84
55 68 88
47 59 77
52 64 81
43 53 69
52 64 83
50 62 81
54 66 85
51 63 81
55 69 89
50 62 80
54 66 86
54 67 86
52 63 81
51 63 82
53 66 85
49 61 79
50 61 78
45 56 72
48 60 77
52 63 79
123 145 177
181 211 255
181 211 255
181 211 255
181 211 255
181 211 255
181 211 255
181 211 255
181 211 255
181 211 255
182 211 255
182 211 255
182 211 255
182 211 255
182 211 255
182 211 255
182 211 255
182 211 255
182 211 255
182 211 255
182 211 255
182 211 255
182 211 255
182 211 255
182 211 255
182 211 255
182 211 255
182 212 255
182 212 255
182 212 255
182 212 255
182 212 255
182 212 255
182 212 255
182 212 255
183 212 255
183 212 255
183 212 255
183 212 255
183 212 255
183 212 255
183 212 255
183 212 255
183 212 255
183 212 255
183 212 255
183 212 255
183 212 255
183 212 255
183 212 255
183 212 255
183 212 255
183 212 255
183 212 255
183 212 255
183 212 255
183 212 255
183 212 255
183 212 255
183 212 255
183 212 255
183 212 255
184 212 255
184 212 255
184 212 255
184 212 255
184 212 255
184 212 255
184 212 255
184 212 255
184 212 255
184 212 255
184 213 255
184 213 255
184 213 255
184 213 255
184 213 255
184 213 255
184 213 255
184 213 255
184 213 255
184 213 255
184 213 255
184 213 255
184 213 255
184 213 255
184 213 255
184 213 255
184 213 255
184 213 255
184 213 255
184 213 255
184 213 255
185 213 255
185 213 255
185 213 255
185 213 255
185 213 255
185 213 255
185 213 255
185 213 255
185 213 255
185 213 255
185 213 255
185 213 255
185 213 255
185 213 255
185 213 255
185 213 255
185 213 255
185 213 255
185 213 255
185 213 255
185 213 255
185 213 255
185 213 255
185 213 255
185 213 255
185 213 255
185 213 255
185 213 255
185 213 255
185 213 255
185 213 255
185 213 255
185 213 255
185 213 255
185 213 255
185 213 255
185 213 255
185 213 255
185 213 255
186 214 255
186 214 255
186 214 255
186 214 255
186 214 255
186 214 255
186 214 255
186 214 255
186 214 255
186 214 255
186 214 255
186 214 255
186 214 255
186 214 255
186 214 255
186 214 255
186 214 255
186 214 255
186 214 255
186 214 255
186 214 255
186 214 255
186 214 255
186 214 255
186 214 255
186 214 255
185 213 255
185 213 255
185 213 255
185 213 255
185 213 255
185 213 255
185 213 255
185 213 255
185 213 255
185 213 255
185 213 255
185 213 255
185 213 255
185 213 255
185 213 255
185 213 255
185 213 255
185 213 255
185 213 255
185 213 255
185 213 255
185 213 255
185 213 255
185 213 255
185 213 255
185 213 255
185 213 255
185 213 255
185 213 255
185 213 255
185 213 255
185 213 255
185 213 255
185 213 255
185 213 255
185 213 255
185 213 255
185 213 255
184 213 255
184 213 255
184 213 255
184 213 255
184 213 255
184 213 255
184 213 255
184 213 255
184 213 255
184 213 255
184 213 255
184 213 255
184 213 255
184 213 255
184 213 255
184 213 255
184 213 255
184 213 255
184 213 255
184 213 255
184 212 255
184 212 255
184 212 255
184 212 255
184 212 255
184 212 255
184 212 255
184 212 255
184 212 255
184 212 255
184 212 255
183 212 255
183 212 255
183 212 255
183 212 255
183 212 255
183 212 255
183 212 255
183 212 255
183 212 255
183 212 255
183 212 255
183 212 255
183 212 255
183 212 255
183 212 255
183 212 255
183 212 255
183 212 255
183 212 255
183 212 255
183 212 255
183 212 255
183 212 255
183 212 255
183 212 255
183 212 255
183 212 255
183 212 255
182 212 255
182 212 255
182 212 255
182 212 255
182 212 255
182 212 255
182 212 255
182 212 255
182 211 255
182 211 255
182 211 255
182 211 255
182 211 255
182 211 255
182 211 255
182 211 255
182 211 255
182 211 255
182 211 255
182 211 255
182 211 255
182 211 255
88 105 131
55 68 88
51 63 81
49 60 77
49 61 78
51 63 82
53 65 83
53 66 86
53 66 85
46 57 73
48 59 77
52 65 84
47 58 74
51 63 82
46 57 72
53 66 86
52 65 83
52 64 82
47 58 75
48 59 76
42 52 68
48 61 79
44 55 71
54 66 83
50 61 79
47 58 74
51 62 78
46 57 74
45 57 73
46 57 75
40 50 65
47 58 74
45 56 71
49 61 78
40 50 65
43 53 68
47 59 76
48 59 76
42 52 67
46 57 73
45 56 73
43 54 70
42 53 69
42 53 69
48 60 77
47 59 76
41 51 65
50 61 78
45 55 71
47 58 74
44 54 70
48 58 75
43 53 69
51 63 81
41 51 65
46 58 75
45 56 74
43 54 69
46 57 73
41 52 67
45 55 69
44 54 69
45 55 71
48 59 76
47 58 75
47 58 75
42 53 70
44 55 70
45 55 70
42 51 66
48 60 78
48 59 75
44 54 70
42 52 67
40 50 65
47 58 75
42 52 66
42 53 68
44 55 72
44 54 70
45 56 73
44 55 72
45 56 72
44 55 72
50 62 79
45 57 76
43 54 70
51 63 82
47 59 76
49 60 75
43 53 68
42 52 66
48 59 76
45 56 72
46 57 73
44 54 70
44 55 72
48 58 73
52 64 82
52 65 84
49 61 79
53 65 82
45 56 72
53 65 84
54 67 86
50 62 80
49 60 77
50 61 79
47 58 74
53 65 84
53 66 84
50 62 78
54 66 85
48 59 76
49 61 78
48 59 76
49 59 76
52 63 80
45 56 72
48 59 75
51 63 82
48 59 76
47 58 75
79 96 120
182 211 255
182 211 255
182 211 255
182 211 255
182 211 255
182 211 255
182 211 255
182 211 255
182 211 255
182 211 255
182 211 255
182 211 255
182 211 255
182 211 255
182 212 255
182 212 255
182 212 255
182 212 255
182 212 255
182 212 255
182 212 255
182 212 255
183 212 255
183 212 255
183 212 255
183 212 255
183 212 255
183 212 255
183 212 255
183 212 255
183 212 255
183 212 255
183 212 255
183 212 255
183 212 255
183 212 255
183 212 255
183 212 255
183 212 255
183 212 255
183 212 255
183 212 255
183 212 255
183 212 255
183 212 255
183 212 255
183 212 255
183 212 255
183 212 255
183 212 255
184 212 255
184 212 255
184 212 255
184 212 255
184 212 255
184 212 255
184 212 255
184 212 255
184 212 255
184 212 255
184 213 255
184 213 255
184 213 255
184 213 255
184 213 255
184 213 255
184 213 255
184 213 255
184 213 255
184 213 255
184 213 255
184 213 255
184 213 255
184 213 255
184 213 255
184 213 255
184 213 255
184 213 255
184 213 255
184 213 255
184 213 255
185 213 255
185 213 255
185 213 255
185 213 255
185 213 255
185 213 255
185 213 255
185 213 255
185 213 255
185 213 255
185 213 255
185 213 255
185 213 255
185 213 255
185 213 255
185 213 255
185 213 255
185 213 255
185 213 255
185 213 255
185 213 255
185 213 255
185 213 255
185 213 255
185 213 255
185 213 255
185 213 255
185 213 255
185 213 255
185 213 255
185 213 255
185 213 255
185 213 255
185 213 255
185 213 255
185 213 255
185 213 255
186 214 255
186 214 255
186 214 255
186 214 255
186 214 255
186 214 255
186 214 255
186 214 255
186 214 255
186 214 255
186 214 255
186 214 255
186 214 255
186 214 255
186 214 255
186 214 255
186 214 255
186 214 255
186 214 255
186 214 255
186 214 255
186 214 255
186 214 255
186 214 255
186 214 255
186 214 255
186 214 255
186 214 255
186 214 255
186 214 255
186 214 255
186 214 255
186 214 255
186 214 255
186 214 255
186 214 255
186 214 255
186 214 255
186 214 255
186 214 255
186 214 255
186 214 255
186 214 255
186 214 255
186 214 255
186 214 255
186 214 255
186 214 255
186 214 255
186 214 255
186 214 255
186 214 255
186 214 255
185 213 255
185 213 255
185 213 255
185 213 255
185 213 255
185 213 255
185 213 255
185 213 255
185 213 255
185 213 255
185 213 255
185 213 255
185 213 255
185 213 255
185 213 255
185 213 255
185 213 255
185 213 255
185 213 255
185 213 255
185 213 255
185 213 255
185 213 255
185 213 255
185 213 255
185 213 255
185 213 255
185 213 255
185 213 255
185 213 255
185 213 255
185 213 255
185 213 255
185 213 255
185 213 255
185 213 255
184 213 255
184 213 255
184 213 255
184 213 255
184 213 255
184 213 255
184 213 255
184 213 255
184 213 255
184 213 255
184 213 255
184 213 255
184 213 255
184 213 255
184 213 255
184 213 255
184 213 255
184 213 255
184 213 255
184 213 255
184 212 255
184 213 255
184 212 255
184 212 255
184 212 255
184 212 255
184 212 255
184 212 255
184 212 255
184 212 255
184 212 255
183 212 255
183 212 255
183 212 255
183 212 255
183 212 255
183 212 255
183 212 255
183 212 255
183 212 255
183 212 255
183 212 255
183 212 255
183 212 255
183 212 255
183 212 255
183 212 255
183 212 255
183 212 255
183 212 255
183 212 255
183 212 255
183 212 255
183 212 255
183 212 255
183 212 255
183 212 255
183 212 255
182 212 255
182 212 255
182 212 255
182 212 255
182 212 255
182 212 255
182 212 255
182 212 255
182 212 255
182 212 255
165 192 232
53 65 84
48 59 75
51 63 82
47 58 74
51 63 80
50 61 78
49 61 78
41 51 66
47 59 78
48 59 76
48 60 79
52 64 82
49 60 78
46 57 73
46 57 73
51 64 82
48 60 77
52 64 83
50 62 80
44 56 72
45 56 72
47 58 75
48 59 76
46 57 74
50 62 79
49 60 77
43 53 68
49 61 78
45 56 72
48 59 76
48 60 77
48 60 77
49 61 79
51 64 82
49 60 78
44 54 69
41 51 66
49 61 77
41 51 67
47 58 75
51 63 81
46 56 72
47 58 74
49 60 76
49 61 78
46 56 72
47 58 75
47 58 75
47 58 75
43 53 68
45 55 71
46 56 72
46 57 74
41 51 65
45 55 70
47 58 75
40 50 64
44 55 72
45 55 69
46 56 72
44 55 71
47 58 75
41 51 66
46 57 73
46 57 74
48 60 77
45 56 72
46 56 72
46 57 73
40 50 65
50 62 80
46 56 72
44 54 69
49 61 78
44 55 71
42 52 67
43 54 70
46 57 73
47 58 75
43 53 67
48 58 74
51 62 80
49 59 76
46 57 74
46 56 72
44 55 70
45 55 70
44 55 70
46 58 75
50 62 80
46 56 72
47 57 73
42 52 67
46 56 71
47 58 74
48 59 76
47 58 75
49 61 78
50 61 78
46 57 73
47 59 77
50 63 81
42 52 66
47 58 74
46 57 73
47 58 74
49 61 78
50 61 79
49 61 79
47 58 75
42 53 70
46 57 74
48 59 76
52 64 83
46 58 75
53 65 83
49 61 78
54 67 87
52 64 82
51 63 82
51 63 82
54 67 87
49 61 79
49 60 78
159 185 224
182 212 255
182 212 255
182 212 255
182 212 255
182 212 255
182 212 255
182 212 255
182 212 255
182 212 255
182 212 255
183 212 255
183 212 255
183 212 255
183 212 255
183 212 255
183 212 255
183 212 255
183 212 255
183 212 255
183 212 255
183 212 255
183 212 255
183 212 255
183 212 255
183 212 255
183 212 255
183 212 255
183 212 255
183 212 255
183 212 255
183 212 255
183 212 255
183 212 255
183 212 255
183 212 255
183 212 255
183 212 255
184 212 255
184 212 255
184 212 255
184 212 255
184 212 255
184 212 255
184 212 255
184 212 255
184 212 255
184 212 255
184 213 255
184 213 255
184 213 255
184 213 255
184 213 255
184 213 255
184 213 255
184 213 255
184 213 255
184 213 255
184 213 255
184 213 255
184 213 255
184 213 255
184 213 255
184 213 255
184 213 255
184 213 255
184 213 255
184 213 255
184 213 255
185 213 255
185 213 255
185 213 255
185 213 255
185 213 255
185 213 255
185 213 255
185 213 255
185 213 255
185 213 255
185 213 255
185 213 255
185 213 255
185 213 255
185 213 255
185 213 255
185 213 255
185 213 255
185 213 255
185 213 255
185 213 255
185 213 255
185 213 255
185 213 255
185 213 255
185 213 255
185 213 255
185 213 255
185 213 255
185 213 255
185 213 255
185 213 255
185 213 255
185 213 255
185 213 255
185 213 255
185 213 255
186 214 255
186 214 255
186 214 255
186 214 255
186 214 255
186 214 255
186 214 255
186 214 255
186 214 255
186 214 255
186 214 255
186 214 255
186 214 255
186 214 255
186 214 255
186 214 255
186 214 255
186 214 255
186 214 255
186 214 255
186 214 255
186 214 255
186 214 255
186 214 255
186 214 255
186 214 255
186 214 255
186 214 255
186 214 255
186 214 255
186 214 255
186 214 255
186 214 255
186 214 255
186 214 255
186 214 255
186 214 255
186 214 255
186 214 255
186 214 255
186 214 255
186 214 255
186 214 255
186 214 255
186 214 255
186 214 255
186 214 255
186 214 255
186 214 255
186 214 255
186 214 255
186 214 255
186 214 255
186 214 255
186 214 255
186 214 255
186 214 255
186 214 255
186 214 255
186 214 255
186 214 255
186 214 255
186 214 255
186 214 255
186 214 255
186 214 255
186 214 255
186 214 255
186 214 255
186 214 255
186 214 255
186 214 255
186 214 255
186 214 255
186 214 255
186 214 255
186 214 255
186 214 255
185 213 255
185 213 255
185 213 255
185 213 255
185 213 255
185 213 255
185 213 255
185 213 255
185 213 255
185 213 255
185 213 255
185 213 255
185 213 255
185 213 255
185 213 255
185 213 255
185 213 255
185 213 255
185 213 255
185 213 255
185 213 255
185 213 255
185 213 255
185 213 255
185 213 255
185 213 255
185 213 255
185 213 255
185 213 255
185 213 255
185 213 255
185 213 255
185 213 255
185 213 255
185 213 255
184 213 255
184 213 255
184 213 255
184 213 255
184 213 255
184 213 255
184 213 255
184 213 255
184 213 255
184 213 255
184 213 255
184 213 255
184 213 255
184 213 255
184 213 255
184 213 255
184 213 255
184 213 255
184 213 255
184 213 255
184 213 255
184 212 255
184 212 255
184 212 255
184 212 255
184 212 255
184 212 255
184 212 255
184 212 255
184 212 255
184 212 255
184 212 255
183 212 255
183 212 255
183 212 255
183 212 255
183 212 255
183 212 255
183 212 255
183 212 255
183 212 255
183 212 255
183 212 255
183 212 255
183 212 255
183 212 255
183 212 255
183 212 255
183 212 255
183 212 255
183 212 255
183 212 255
183 212 255
183 212 255
183 212 255
183 212 255
124 145 178
52 65 85
47 58 74
47 58 75
48 60 77
49 61 78
48 59 77
49 61 79
47 58 75
47 59 75
48 59 76
45 55 71
51 63 82
49 61 78
46 58 76
49 61 78
47 58 75
49 61 78
50 61 78
51 64 83
49 61 78
51 63 80
51 62 80
51 63 80
51 64 84
50 62 80
45 56 73
48 60 77
46 56 72
43 53 68
50 61 79
45 55 70
44 54 70
50 61 79
47 58 75
46 57 74
51 63 80
47 58 75
46 56 71
48 59 76
48 59 77
48 59 77
40 49 63
46 58 75
41 50 65
49 60 77
49 61 78
43 54 70
46 56 73
49 61 77
42 53 68
50 62 80
41 50 64
42 51 65
47 58 74
43 53 67
44 55 72
46 56 71
41 52 67
43 53 68
42 52 66
42 52 66
44 54 70
44 55 71
48 59 75
49 60 78
43 54 69
45 56 72
49 61 78
46 57 74
40 50 65
46 56 71
47 58 75
42 52 67
43 54 71
44 54 70
44 55 71
43 53 68
45 55 71
53 66 86
46 57 73
44 54 70
42 53 70
49 60 77
48 60 77
46 57 73
43 53 69
41 50 65
46 57 73
43 54 71
47 58 75
50 61 77
44 55 72
49 60 77
48 60 77
47 58 74
50 62 81
40 50 64
51 62 79
51 63 80
48 58 74
42 52 66
50 62 80
43 53 69
44 54 69
45 56 72
49 61 79
52 65 83
47 57 72
43 54 69
51 62 80
52 64 82
50 62 79
51 63 82
46 57 74
48 61 79
50 63 82
50 61 79
51 63 81
50 62 79
50 62 79
49 60 78
51 63 81
47 59 76
56 69 89
133 155 189
183 212 255
183 212 255
183 212 255
183 212 255
183 212 255
183 212 255
183 212 255
183 212 255
183 212 255
183 212 255
183 212 255
183 212 255
183 212 255
183 212 255
183 212 255
183 212 255
183 212 255
183 212 255
183 212 255
183 212 255
183 212 255
183 212 255
183 212 255
183 212 255
183 212 255
184 212 255
184 212 255
184 212 255
184 212 255
184 212 255
184 212 255
184 212 255
184 212 255
184 212 255
184 212 255
184 213 255
184 213 255
184 213 255
184 213 255
184 213 255
184 213 255
184 213 255
184 213 255
184 213 255
184 213 255
184 213 255
184 213 255
184 213 255
184 213 255
184 213 255
184 213 255
184 213 255
184 213 255
184 213 255
184 213 255
184 213 255
185 213 255
185 213 255
185 213 255
185 213 255
185 213 255
185 213 255
185 213 255
185 213 255
185 213 255
185 213 255
185 213 255
185 213 255
185 213 255
185 213 255
185 213 255
185 213 255
185 213 255
185 213 255
185 213 255
185 213 255
185 213 255
185 213 255
185 213 255
185 213 255
185 213 255
185 213 255
185 213 255
185 213 255
185 213 255
185 213 255
185 213 255
185 213 255
185 213 255
185 213 255
185 213 255
185 213 255
186 214 255
186 214 255
186 214 255
186 214 255
186 214 255
186 214 255
186 214 255
186 214 255
186 214 255
186 214 255
186 214 255
186 214 255
186 214 255
186 214 255
186 214 255
186 214 255
186 214 255
186 214 255
186 214 255
186 214 255
186 214 255
186 214 255
186 214 255
186 214 255
186 214 255
186 214 255
186 214 255
186 214 255
186 214 255
186 214 255
186 214 255
186 214 255
186 214 255
186 214 255
186 214 255
186 214 255
186 214 255
186 214 255
186 214 255
186 214 255
186 214 255
186 214 255
186 214 255
186 214 255
186 214 255
187 214 255
187 214 255
187 214 255
187 214 255
187 214 255
187 214 255
187 214 255
187 214 255
187 214 255
187 214 255
187 214 255
187 214 255
187 214 255
187 214 255
186 214 255
186 214 255
186 214 255
186 214 255
186 214 255
186 214 255
186 214 255
186 214 255
186 214 255
186 214 255
186 214 255
186 214 255
186 214 255
186 214 255
186 214 255
186 214 255
186 214 255
186 214 255
186 214 255
186 214 255
186 214 255
186 214 255
186 214 255
186 214 255
186 214 255
186 214 255
186 214 255
186 214 255
186 214 255
186 214 255
186 214 255
186 214 255
186 214 255
186 214 255
186 214 255
186 214 255
186 214 255
186 214 255
186 214 255
186 214 255
186 214 255
186 214 255
186 214 255
186 214 255
186 214 255
185 213 255
185 213 255
185 213 255
185 213 255
185 213 255
185 213 255
185 213 255
185 213 255
185 213 255
185 213 255
185 213 255
185 213 255
185 213 255
185 213 255
185 213 255
185 213 255
185 213 255
185 213 255
185 213 255
185 213 255
185 213 255
185 213 255
185 213 255
185 213 255
185 213 255
185 213 255
185 213 255
185 213 255
185 213 255
185 213 255
185 213 255
185 213 255
185 213 255
185 213 255
185 213 255
184 213 255
184 213 255
184 213 255
184 213 255
184 213 255
184 213 255
184 213 255
184 213 255
184 213 255
184 213 255
184 213 255
184 213 255
184 213 255
184 213 255
184 213 255
184 213 255
184 213 255
184 213 255
184 213 255
184 213 255
184 213 255
184 212 255
184 212 255
184 212 255
184 212 255
184 212 255
184 212 255
184 212 255
184 212 255
184 212 255
184 212 255
183 212 255
183 212 255
183 212 255
183 212 255
183 212 255
183 212 255
183 212 255
183 212 255
183 212 255
183 212 255
183 212 255
183 212 255
98 116 144
49 59 75
48 60 77
54 67 86
53 65 84
53 66 85
53 66 87
49 61 78
47 59 76
49 61 80
49 61 79
55 69 89
50 62 80
47 58 76
51 63 80
51 63 81
46 57 73
43 54 70
50 62 80
49 61 79
49 61 79
50 61 79
48 59 76
46 56 72
46 57 74
46 57 74
45 55 69
49 62 80
47 59 77
47 58 75
43 54 69
40 50 64
45 56 72
49 60 76
48 60 77
49 61 78
42 52 68
43 53 68
44 54 69
45 56 73
52 65 84
53 65 82
46 58 74
45 55 70
46 56 72
43 54 69
51 64 82
48 60 77
44 54 69
43 54 70
41 52 67
51 64 82
45 55 71
45 55 69
44 54 69
46 56 72
44 55 71
52 63 81
48 59 76
43 54 69
41 50 64
44 55 71
45 55 71
42 51 65
45 56 71
39 49 63
37 46 59
46 57 74
48 59 76
43 52 67
46 58 75
38 48 62
47 58 75
40 50 65
48 60 77
46 57 74
43 53 68
44 55 70
44 54 70
38 47 60
45 55 70
48 58 74
49 60 76
49 60 78
44 54 70
47 59 76
43 53 69
40 49 64
46 56 72
46 56 70
47 58 74
45 56 73
45 55 70
46 57 74
46 57 73
47 58 75
46 57 74
46 57 73
45 56 72
45 56 72
49 61 78
44 54 70
48 60 78
51 62 80
47 59 75
47 58 75
49 60 77
42 52 68
54 67 85
42 52 67
56 69 88
54 67 86
49 61 78
45 55 71
47 57 74
48 60 77
46 57 74
45 56 73
49 60 77
50 63 81
51 63 81
52 64 83
51 63 81
53 66 85
53 65 84
110 130 159
183 212 255
183 212 255
183 212 255
183 212 255
183 212 255
183 212 255
183 212 255
183 212 255
183 212 255
183 212 255
183 212 255
184 212 255
184 212 255
184 212 255
184 212 255
184 212 255
184 212 255
184 212 255
184 212 255
184 212 255
184 212 255
184 212 255
184 213 255
184 213 255
184 213 255
184 213 255
184 213 255
184 213 255
184 213 255
184 213 255
184 213 255
184 213 255
184 213 255
184 213 255
184 213 255
184 213 255
184 213 255
184 213 255
184 213 255
184 213 255
184 213 255
184 213 255
184 213 255
185 213 255
185 213 255
185 213 255
185 213 255
185 213 255
185 213 255
185 213 255
185 213 255
185 213 255
185 213 255
185 213 255
185 213 255
185 213 255
185 213 255
185 213 255
185 213 255
185 213 255
185 213 255
185 213 255
185 213 255
185 213 255
185 213 255
185 213 255
185 213 255
185 213 255
185 213 255
185 213 255
185 213 255
185 213 255
185 213 255
185 213 255
185 213 255
185 213 255
185 213 255
185 213 255
185 213 255
186 214 255
186 214 255
186 214 255
186 214 255
186 214 255
186 214 255
186 214 255
186 214 255
186 214 255
186 214 255
186 214 255
186 214 255
186 214 255
186 214 255
186 214 255
186 214 255
186 214 255
186 214 255
186 214 255
186 214 255
186 214 255
186 214 255
186 214 255
186 214 255
186 214 255
186 214 255
186 214 255
186 214 255
186 214 255
186 214 255
186 214 255
186 214 255
186 214 255
186 214 255
186 214 255
186 214 255
186 214 255
186 214 255
186 214 255
186 214 255
186 214 255
186 214 255
186 214 255
186 214 255
187 214 255
187 214 255
187 214 255
187 214 255
187 214 255
187 214 255
187 214 255
187 214 255
187 214 255
187 214 255
187 214 255
187 214 255
187 214 255
187 214 255
187 214 255
187 214 255
187 214 255
187 214 255
187 214 255
187 214 255
187 214 255
187 214 255
187 214 255
187 214 255
187 214 255
187 214 255
187 214 255
187 214 255
187 214 255
187 214 255
187 214 255
187 214 255
187 214 255
187 214 255
187 214 255
187 214 255
187 214 255
187 214 255
187 214 255
187 214 255
187 214 255
187 214 255
187 214 255
187 214 255
186 214 255
186 214 255
186 214 255
186 214 255
186 214 255
186 214 255
186 214 255
186 214 255
186 214 255
186 214 255
186 214 255
186 214 255
186 214 255
186 214 255
186 214 255
186 214 255
186 214 255
186 214 255
186 214 255
186 214 255
186 214 255
186 214 255
186 214 255
186 214 255
186 214 255
186 214 255
186 214 255
186 214 255
186 214 255
186 214 255
186 214 255
186 214 255
186 214 255
186 214 255
186 214 255
186 214 255
186 214 255
186 214 255
186 214 255
186 214 255
186 214 255
186 214 255
185 213 255
185 213 255
185 213 255
185 213 255
185 213 255
185 213 255
185 213 255
185 213 255
185 213 255
185 213 255
185 213 255
185 213 255
185 213 255
185 213 255
185 213 255
185 213 255
185 213 255
185 213 255
185 213 255
185 213 255
185 213 255
185 213 255
185 213 255
185 213 255
185 213 255
185 213 255
185 213 255
185 213 255
185 213 255
185 213 255
185 213 255
185 213 255
185 213 255
185 213 255
185 213 255
185 213 255
184 213 255
184 213 255
184 213 255
184 213 255
184 213 255
184 213 255
184 213 255
184 213 255
184 213 255
184 213 255
184 213 255
184 213 255
184 213 255
184 213 255
184 213 255
184 213 255
184 213 255
184 213 255
184 213 255
184 213 255
184 213 255
184 213 255
184 212 255
184 212 255
184 212 255
184 212 255
184 212 255
184 212 255
182 211 254
57 70 89
48 59 76
48 60 79
53 65 82
47 58 73
46 57 74
54 67 87
50 61 78
50 61 78
51 62 79
52 64 82
49 60 77
51 63 80
48 59 75
52 64 81
47 58 75
49 62 80
51 64 83
45 56 72
43 53 69
47 58 75
43 53 69
45 56 72
39 49 63
48 60 76
46 56 72
43 54 69
49 61 78
41 51 67
46 57 73
48 59 77
45 56 73
48 60 77
48 59 75
48 60 78
44 54 70
44 55 72
47 58 74
47 59 75
45 55 70
47 57 72
48 61 79
40 49 64
41 52 67
43 53 68
48 59 75
42 52 66
47 58 74
43 55 72
46 56 73
45 55 70
44 54 70
40 49 62
42 52 67
48 59 77
47 58 75
44 55 72
46 56 72
45 55 71
46 56 72
37 46 59
46 56 71
48 58 74
42 52 68
41 52 69
44 54 69
48 59 76
49 59 76
51 62 78
41 51 65
47 57 72
46 57 74
41 51 65
42 52 68
46 57 73
43 53 69
43 52 67
42 52 67
40 50 64
41 52 67
42 52 68
46 57 74
45 56 73
54 66 84
48 59 75
43 53 68
45 57 75
48 60 77
41 51 66
46 57 73
49 60 77
44 55 70
49 60 78
44 55 72
49 60 76
46 57 73
43 54 70
50 62 80
43 54 70
46 56 72
48 59 76
48 59 76
46 56 73
45 56 72
45 56 72
53 65 83
48 59 76
43 53 68
44 54 69
47 59 76
53 66 85
48 59 76
51 63 81
50 62 79
51 63 80
47 59 78
53 66 85
43 54 71
49 60 77
51 62 79
48 60 77
51 63 81
47 59 76
50 61 79
44 55 71
59 72 91
184 212 255
184 212 255
184 212 255
184 212 255
184 212 255
184 212 255
184 212 255
184 212 255
184 213 255
184 213 255
184 213 255
184 213 255
184 213 255
184 213 255
184 213 255
184 213 255
184 213 255
184 213 255
184 213 255
184 213 255
184 213 255
184 213 255
184 213 255
184 213 255
184 213 255
184 213 255
184 213 255
184 213 255
184 213 255
185 213 255
185 213 255
185 213 255
185 213 255
185 213 255
185 213 255
185 213 255
185 213 255
185 213 255
185 213 255
185 213 255
185 213 255
185 213 255
185 213 255
185 213 255
185 213 255
185 213 255
185 213 255
185 213 255
185 213 255
185 213 255
185 213 255
185 213 255
185 213 255
185 213 255
185 213 255
185 213 255
185 213 255
185 213 255
185 213 255
185 213 255
185 213 255
185 213 255
185 213 255
185 213 255
185 213 255
186 214 255
186 214 255
186 214 255
186 214 255
186 214 255
186 214 255
186 214 255
186 214 255
186 214 255
186 214 255
186 214 255
186 214 255
186 214 255
186 214 255
186 214 255
186 214 255
186 214 255
186 214 255
186 214 255
186 214 255
186 214 255
186 214 255
186 214 255
186 214 255
186 214 255
186 214 255
186 214 255
186 214 255
186 214 255
186 214 255
186 214 255
186 214 255
186 214 255
186 214 255
186 214 255
186 214 255
186 214 255
186 214 255
186 214 255
186 214 255
186 214 255
186 214 255
187 214 255
187 214 255
187 214 255
187 214 255
187 214 255
187 214 255
187 214 255
187 214 255
187 214 255
187 214 255
187 214 255
187 214 255
187 214 255
187 214 255
187 214 255
187 214 255
187 214 255
187 214 255
187 214 255
187 214 255
187 214 255
187 214 255
187 214 255
187 214 255
187 214 255
187 214 255
187 214 255
187 214 255
187 214 255
187 214 255
187 215 255
187 215 255
187 215 255
187 215 255
187 215 255
187 215 255
187 215 255
187 215 255
187 215 255
187 215 255
187 214 255
187 214 255
187 214 255
187 214 255
187 214 255
187 214 255
187 214 255
187 214 255
187 214 255
187 214 255
187 214 255
187 214 255
187 214 255
187 214 255
187 214 255
187 214 255
187 214 255
187 214 255
187 214 255
187 214 255
187 214 255
187 214 255
187 214 255
187 214 255
187 214 255
187 214 255
187 214 255
187 214 255
187 214 255
187 214 255
187 214 255
187 214 255
187 214 255
187 214 255
187 214 255
186 214 255
186 214 255
186 214 255
186 214 255
186 214 255
186 214 255
186 214 255
186 214 255
186 214 255
186 214 255
186 214 255
186 214 255
186 214 255
186 214 255
186 214 255
186 214 255
186 214 255
186 214 255
186 214 255
186 214 255
186 214 255
186 214 255
186 214 255
186 214 255
186 214 255
186 214 255
186 214 255
186 214 255
186 214 255
186 214 255
186 214 255
186 214 255
186 214 255
186 214 255
186 214 255
186 214 255
186 214 255
186 214 255
186 214 255
186 214 255
186 214 255
186 214 255
185 213 255
185 213 255
185 213 255
185 213 255
185 213 255
185 213 255
185 213 255
185 213 255
185 213 255
185 213 255
185 213 255
185 213 255
185 213 255
185 213 255
185 213 255
185 213 255
185 213 255
185 213 255
185 213 255
185 213 255
185 213 255
185 213 255
185 213 255
185 213 255
185 213 255
185 213 255
185 213 255
185 213 255
185 213 255
185 213 255
185 213 255
185 213 255
185 213 255
185 213 255
185 213 255
185 213 255
184 213 255
184 213 255
184 213 255
184 213 255
184 213 255
184 213 255
184 213 255
184 213 255
184 213 255
184 213 255
184 213 255
184 213 255
184 213 255
157 183 221
51 63 82
53 66 86
50 62 80
54 66 85
51 64 83
51 63 82
52 64 82
47 57 73
48 59 76
49 61 79
47 58 74
49 61 79
51 63 80
49 61 80
50 61 79
51 63 81
49 61 78
40 50 65
45 56 73
48 59 76
50 61 78
45 57 75
48 59 76
45 56 73
50 61 79
45 55 71
46 57 74
50 61 78
50 63 81
45 56 73
48 58 75
47 58 74
40 49 62
54 66 85
43 53 67
45 55 71
45 56 72
48 59 76
52 64 82
50 62 80
43 53 68
45 56 71
47 58 75
44 55 71
47 57 73
45 55 69
44 54 69
49 60 77
46 57 74
43 54 70
36 45 57
41 51 66
48 59 75
44 54 69
44 54 69
43 53 68
41 51 65
42 53 68
41 50 65
41 50 64
42 52 67
43 53 69
46 57 73
45 56 72
42 52 68
40 50 65
44 55 72
48 59 75
42 53 69
39 48 63
47 59 77
45 56 73
45 56 72
43 54 69
44 54 70
44 55 70
44 55 71
44 55 71
47 59 76
46 56 72
43 53 68
41 52 67
44 54 69
47 58 75
42 53 68
49 61 78
46 57 74
43 54 69
42 52 67
42 52 67
50 62 79
38 48 63
42 51 66
46 57 73
47 58 74
46 57 74
48 59 75
45 56 73
51 63 81
49 60 76
46 57 74
48 59 75
52 64 83
51 63 79
49 60 78
47 59 76
46 57 74
47 58 74
48 59 75
51 63 80
49 60 77
42 52 68
52 64 81
50 62 80
51 63 81
52 65 83
51 63 81
48 59 75
50 62 80
51 63 81
52 63 80
47 58 74
48 59 76
49 61 79
52 64 81
48 60 78
164 189 228
184 213 255
184 213 255
184 213 255
184 213 255
184 213 255
184 213 255
184 213 255
184 213 255
184 213 255
184 213 255
184 213 255
184 213 255
184 213 255
184 213 255
185 213 255
185 213 255
185 213 255
185 213 255
185 213 255
185 213 255
185 213 255
185 213 255
185 213 255
185 213 255
185 213 255
185 213 255
185 213 255
185 213 255
185 213 255
185 213 255
185 213 255
185 213 255
185 213 255
185 213 255
185 213 255
185 213 255
185 213 255
185 213 255
185 213 255
185 213 255
185 213 255
185 213 255
185 213 255
185 213 255
185 213 255
185 213 255
185 213 255
185 213 255
186 214 255
186 214 255
186 214 255
186 214 255
186 214 255
186 214 255
186 214 255
186 214 255
186 214 255
186 214 255
186 214 255
186 214 255
186 214 255
186 214 255
186 214 255
186 214 255
186 214 255
186 214 255
186 214 255
186 214 255
186 214 255
186 214 255
186 214 255
186 214 255
186 214 255
186 214 255
186 214 255
186 214 255
186 214 255
186 214 255
186 214 255
186 214 255
186 214 255
186 214 255
186 214 255
186 214 255
186 214 255
186 214 255
186 214 255
186 214 255
186 214 255
186 214 255
186 214 255
187 214 255
187 214 255
187 214 255
187 214 255
187 214 255
187 214 255
187 214 255
187 214 255
187 214 255
187 214 255
187 214 255
187 214 255
187 214 255
187 214 255
187 214 255
187 214 255
187 214 255
187 214 255
187 214 255
187 214 255
187 214 255
187 214 255
187 214 255
187 214 255
187 214 255
187 214 255
187 214 255
187 214 255
187 214 255
187 214 255
187 214 255
187 214 255
187 214 255
187 214 255
187 214 255
187 214 255
187 215 255
187 215 255
187 215 255
187 215 255
187 215 255
187 215 255
187 215 255
187 215 255
187 215 255
188 215 255
188 215 255
188 215 255
188 215 255
188 215 255
188 215 255
188 215 255
187 215 255
187 215 255
187 215 255
187 215 255
187 215 255
187 215 255
187 215 255
187 215 255
187 215 255
187 215 255
187 215 255
187 215 255
187 215 255
187 215 255
187 215 255
187 215 255
187 215 255
187 215 255
187 215 255
187 215 255
187 214 255
187 214 255
187 214 255
187 214 255
187 214 255
187 214 255
187 214 255
187 214 255
187 214 255
187 214 255
187 214 255
187 214 255
187 214 255
187 214 255
187 214 255
187 214 255
187 214 255
187 214 255
187 214 255
187 214 255
187 214 255
187 214 255
187 214 255
187 214 255
187 214 255
187 214 255
187 214 255
187 214 255
187 214 255
187 214 255
187 214 255
187 214 255
187 214 255
187 214 255
186 214 255
186 214 255
186 214 255
186 214 255
186 214 255
186 214 255
186 214 255
186 214 255
186 214 255
186 214 255
186 214 255
186 214 255
186 214 255
186 214 255
186 214 255
186 214 255
186 214 255
186 214 255
186 214 255
186 214 255
186 214 255
186 214 255
186 214 255
186 214 255
186 214 255
186 214 255
186 214 255
186 214 255
186 214 255
186 214 255
186 214 255
186 214 255
186 214 255
186 214 255
186 214 255
186 214 255
186 214 255
186 214 255
186 214 255
186 214 255
186 214 255
186 214 255
185 213 255
185 213 255
185 213 255
185 213 255
185 213 255
185 213 255
185 213 255
185 213 255
185 213 255
185 213 255
185 213 255
185 213 255
185 213 255
185 213 255
185 213 255
185 213 255
185 213 255
185 213 255
185 213 255
185 213 255
185 213 255
185 213 255
185 213 255
185 213 255
185 213 255
185 213 255
185 213 255
185 213 255
185 213 255
185 213 255
185 213 255
185 213 255
185 213 255
124 145 177
51 63 81
49 60 77
47 59 76
46 57 73
45 56 72
50 61 79
50 62 80
49 60 77
43 54 71
48 60 78
48 59 76
49 61 78
48 60 76
51 64 83
49 60 76
48 60 78
54 66 83
47 58 74
55 68 87
44 54 70
47 58 74
50 62 80
46 57 73
50 61 78
47 58 74
49 60 77
46 57 73
48 60 77
52 64 81
47 58 75
49 61 79
46 56 71
47 58 75
44 53 68
45 56 72
43 54 70
47 57 73
46 57 73
46 57 73
47 58 75
44 54 70
49 61 79
43 52 67
47 58 76
46 57 72
45 56 73
50 62 80
46 57 73
47 57 74
45 56 73
47 58 74
48 60 77
42 53 68
41 52 67
41 50 65
41 51 65
41 50 64
45 56 72
44 55 71
42 52 68
40 48 61
38 47 60
44 54 69
44 54 68
44 55 71
40 50 64
45 55 71
50 62 81
49 60 77
48 59 75
43 52 67
51 63 81
42 52 66
51 62 79
47 58 73
45 55 71
48 60 78
42 52 67
48 60 77
47 58 75
42 52 67
43 54 70
42 52 66
44 54 69
44 54 69
45 55 71
44 53 68
45 57 73
47 58 75
39 48 63
45 56 72
43 53 68
49 61 78
46 56 73
46 57 73
39 48 62
44 54 70
41 51 65
48 58 75
45 56 72
47 59 76
49 60 78
49 60 78
47 58 75
45 55 71
48 60 78
43 53 68
45 56 73
45 54 69
53 66 86
46 56 71
45 56 73
44 54 70
47 59 77
47 59 76
51 64 83
54 67 85
46 57 74
47 59 77
55 68 87
49 60 77
47 59 76
38 49 64
45 56 72
44 55 71
51 63 81
128 150 182
185 213 255
185 213 255
185 213 255
185 213 255
185 213 255
185 213 255
185 213 255
185 213 255
185 213 255
185 213 255
185 213 255
185 213 255
185 213 255
185 213 255
185 213 255
185 213 255
185 213 255
185 213 255
185 213 255
185 213 255
185 213 255
185 213 255
185 213 255
185 213 255
185 213 255
185 213 255
185 213 255
185 213 255
185 213 255
185 213 255
185 213 255
185 213 255
185 213 255
185 213 255
186 214 255
186 214 255
186 214 255
186 214 255
186 214 255
186 214 255
186 214 255
186 214 255
186 214 255
186 214 255
186 214 255
186 214 255
186 214 255
186 214 255
186 214 255
186 214 255
186 214 255
186 214 255
186 214 255
186 214 255
186 214 255
186 214 255
186 214 255
186 214 255
186 214 255
186 214 255
186 214 255
186 214 255
186 214 255
186 214 255
186 214 255
186 214 255
186 214 255
186 214 255
186 214 255
186 214 255
186 214 255
186 214 255
186 214 255
186 214 255
186 214 255
187 214 255
187 214 255
187 214 255
187 214 255
187 214 255
187 214 255
187 214 255
187 214 255
187 214 255
187 214 255
187 214 255
187 214 255
187 214 255
187 214 255
187 214 255
187 214 255
187 214 255
187 214 255
187 214 255
187 214 255
187 214 255
187 214 255
187 214 255
187 214 255
187 214 255
187 214 255
187 214 255
187 214 255
187 214 255
187 214 255
187 214 255
187 214 255
187 214 255
187 215 255
187 215 255
187 215 255
187 215 255
187 215 255
187 215 255
187 215 255
187 215 255
187 215 255
187 215 255
187 215 255
187 215 255
187 215 255
187 215 255
187 215 255
187 215 255
187 215 255
187 215 255
187 215 255
187 215 255
187 215 255
187 215 255
188 215 255
188 215 255
188 215 255
188 215 255
188 215 255
188 215 255
188 215 255
188 215 255
188 215 255
188 215 255
188 215 255
188 215 255
188 215 255
188 215 255
188 215 255
188 215 255
188 215 255
188 215 255
188 215 255
188 215 255
188 215 255
188 215 255
188 215 255
188 215 255
188 215 255
188 215 255
188 215 255
188 215 255
188 215 255
188 215 255
188 215 255
188 215 255
187 215 255
187 215 255
187 215 255
187 215 255
187 215 255
187 215 255
187 215 255
187 215 255
187 215 255
187 215 255
187 215 255
187 215 255
187 215 255
187 215 255
187 215 255
187 215 255
187 215 255
187 215 255
187 215 255
187 214 255
187 214 255
187 214 255
187 214 255
187 214 255
187 214 255
187 214 255
187 214 255
187 214 255
187 214 255
187 214 255
187 214 255
187 214 255
187 214 255
187 214 255
187 214 255
187 214 255
187 214 255
187 214 255
187 214 255
187 214 255
187 214 255
187 214 255
187 214 255
187 214 255
187 214 255
187 214 255
187 214 255
187 214 255
187 214 255
187 214 255
187 214 255
187 214 255
186 214 255
186 214 255
186 214 255
186 214 255
186 214 255
186 214 255
186 214 255
186 214 255
186 214 255
186 214 255
186 214 255
186 214 255
186 214 255
186 214 255
186 214 255
186 214 255
186 214 255
186 214 255
186 214 255
186 214 255
186 214 255
186 214 255
186 214 255
186 214 255
186 214 255
186 214 255
186 214 255
186 214 255
186 214 255
186 214 255
186 214 255
186 214 255
186 214 255
186 214 255
186 214 255
186 214 255
186 214 255
186 214 255
186 214 255
186 214 255
186 214 255
186 214 255
185 213 255
185 213 255
185 213 255
185 213 255
185 213 255
185 213 255
185 213 255
185 213 255
185 213 255
185 213 255
185 213 255
185 213 255
185 213 255
185 213 255
185 213 255
185 213 255
100 118 145
50 61 79
47 59 76
44 55 72
49 60 76
54 68 87
51 63 81
54 68 88
50 61 78
54 66 84
49 61 78
51 63 80
49 60 76
47 58 74
47 59 76
48 60 78
48 59 75
42 52 67
49 61 78
51 62 80
41 50 64
50 62 80
45 56 72
45 56 72
49 61 78
46 56 71
45 56 73
46 57 73
49 61 78
45 55 70
49 59 76
48 58 74
42 52 66
46 57 73
46 57 72
45 57 75
44 55 71
50 63 81
43 54 69
41 50 64
41 51 67
51 61 77
42 52 67
49 61 78
38 47 61
44 55 72
42 53 69
44 55 71
41 50 65
51 63 80
47 58 75
45 56 73
38 48 62
46 57 73
47 57 73
49 60 77
48 59 76
44 53 68
39 47 60
44 55 72
42 52 67
47 58 73
47 57 73
46 57 74
48 59 75
39 48 63
48 59 76
48 58 74
47 59 76
42 52 67
45 55 71
50 62 79
44 54 69
36 46 59
41 50 63
44 55 71
39 49 63
39 49 63
42 52 67
49 60 77
43 53 67
52 64 83
40 51 66
40 50 64
42 52 66
40 50 64
42 51 65
45 56 72
40 49 62
47 58 74
37 45 58
43 53 68
45 56 72
43 54 70
45 55 71
48 60 77
51 62 80
47 57 73
41 50 65
46 57 72
50 61 78
48 59 76
47 59 76
42 51 65
46 57 73
47 57 72
47 57 74
52 64 82
46 57 74
51 63 80
48 59 75
46 57 74
43 53 68
52 63 79
48 59 75
45 57 74
51 64 83
50 62 80
49 60 77
50 61 78
49 61 79
53 65 83
47 58 75
53 65 83
49 61 78
46 57 74
52 63 81
109 127 155
185 213 255
185 213 255
185 213 255
185 213 255
185 213 255
185 213 255
185 213 255
185 213 255
185 213 255
185 213 255
185 213 255
185 213 255
185 213 255
185 213 255
185 213 255
185 213 255
185 213 255
186 214 255
186 214 255
186 214 255
186 214 255
186 214 255
186 214 255
186 214 255
186 214 255
186 214 255
186 214 255
186 214 255
186 214 255
186 214 255
186 214 255
186 214 255
186 214 255
186 214 255
186 214 255
186 214 255
186 214 255
186 214 255
186 214 255
186 214 255
186 214 255
186 214 255
186 214 255
186 214 255
186 214 255
186 214 255
186 214 255
186 214 255
186 214 255
186 214 255
186 214 255
186 214 255
186 214 255
186 214 255
186 214 255
186 214 255
186 214 255
186 214 255
186 214 255
187 214 255
187 214 255
187 214 255
187 214 255
187 214 255
187 214 255
187 214 255
187 214 255
187 214 255
187 214 255
187 214 255
187 214 255
187 214 255
187 214 255
187 214 255
187 214 255
187 214 255
187 214 255
187 214 255
187 214 255
187 214 255
187 214 255
187 214 255
187 214 255
187 214 255
187 214 255
187 214 255
187 214 255
187 214 255
187 214 255
187 214 255
187 214 255
187 215 255
187 215 255
187 215 255
187 215 255
187 215 255
187 215 255
187 215 255
187 215 255
187 215 255
187 215 255
187 215 255
187 215 255
187 215 255
187 215 255
187 215 255
187 215 255
187 215 255
187 215 255
187 215 255
188 215 255
188 215 255
188 215 255
188 215 255
188 215 255
188 215 255
188 215 255
188 215 255
188 215 255
188 215 255
188 215 255
188 215 255
188 215 255
188 215 255
188 215 255
188 215 255
188 215 255
188 215 255
188 215 255
188 215 255
188 215 255
188 215 255
188 215 255
188 215 255
188 215 255
188 215 255
188 215 255
188 215 255
188 215 255
188 215 255
188 215 255
188 215 255
188 215 255
188 215 255
188 215 255
188 215 255
188 215 255
188 215 255
188 215 255
188 215 255
188 215 255
188 215 255
188 215 255
188 215 255
188 215 255
188 215 255
188 215 255
188 215 255
188 215 255
188 215 255
188 215 255
188 215 255
188 215 255
188 215 255
188 215 255
188 215 255
188 215 255
188 215 255
188 215 255
188 215 255
188 215 255
188 215 255
188 215 255
188 215 255
188 215 255
188 215 255
188 215 255
188 215 255
188 215 255
188 215 255
188 215 255
187 215 255
187 215 255
187 215 255
187 215 255
187 215 255
187 215 255
187 215 255
187 215 255
187 215 255
187 215 255
187 215 255
187 215 255
187 215 255
187 215 255
187 215 255
187 215 255
187 215 255
187 215 255
187 214 255
187 214 255
187 214 255
187 214 255
187 214 255
187 214 255
187 214 255
187 214 255
187 214 255
187 214 255
187 214 255
187 214 255
187 214 255
187 214 255
187 214 255
187 214 255
187 214 255
187 214 255
187 214 255
187 214 255
187 214 255
187 214 255
187 214 255
187 214 255
187 214 255
187 214 255
187 214 255
187 214 255
187 214 255
187 214 255
187 214 255
187 214 255
187 214 255
186 214 255
186 214 255
186 214 255
186 214 255
186 214 255
186 214 255
186 214 255
186 214 255
186 214 255
186 214 255
186 214 255
186 214 255
186 214 255
186 214 255
186 214 255
186 214 255
186 214 255
186 214 255
186 214 255
186 214 255
186 214 255
186 214 255
186 214 255
186 214 255
186 214 255
186 214 255
186 214 255
186 214 255
186 214 255
186 214 255
186 214 255
186 214 255
186 214 255
186 214 255
186 214 255
186 214 255
186 214 255
186 214 255
186 214 255
186 214 255
72 86 107
47 57 73
51 62 80
49 61 78
53 64 82
47 58 74
47 58 74
45 55 71
50 63 81
44 55 70
45 55 71
49 59 76
46 56 72
49 60 77
50 62 79
52 65 83
46 58 75
45 56 72
52 64 82
50 62 80
43 53 68
43 53 68
43 54 70
42 52 66
42 51 65
50 61 79
52 64 82
51 64 83
45 56 71
45 56 72
46 58 75
48 59 75
47 58 74
44 54 70
50 61 77
41 51 66
46 58 75
45 55 71
44 54 70
45 55 70
42 53 69
43 53 69
47 58 75
45 55 70
50 62 79
44 54 69
44 54 70
45 56 72
42 52 66
51 62 79
46 57 74
49 60 76
47 57 71
54 66 85
45 55 70
43 54 70
45 56 72
44 54 70
44 54 70
40 50 65
41 51 65
47 57 73
44 55 71
41 50 64
40 50 64
41 51 66
42 52 67
44 54 69
44 54 69
44 54 70
47 58 75
47 59 76
43 54 70
43 53 68
42 53 69
42 52 67
41 51 65
43 53 68
42 53 68
47 58 75
43 54 70
41 51 66
49 61 79
47 57 73
44 55 71
43 53 67
46 57 73
45 55 71
41 52 67
48 59 77
40 50 64
45 55 70
44 55 71
47 58 74
49 60 78
44 55 71
51 63 82
45 54 69
48 58 74
47 58 74
39 49 62
48 60 77
47 58 75
47 58 74
37 46 60
47 57 73
47 57 73
46 57 73
43 53 69
45 56 72
46 58 75
48 60 77
49 61 79
48 59 76
53 66 84
49 60 77
47 59 78
52 64 82
49 60 77
48 59 76
47 59 77
50 63 81
47 58 75
47 57 73
48 58 74
45 55 71
50 62 79
75 90 112
186 214 255
186 214 255
186 214 255
186 214 255
186 214 255
186 214 255
186 214 255
186 214 255
186 214 255
186 214 255
186 214 255
186 214 255
186 214 255
186 214 255
186 214 255
186 214 255
186 214 255
186 214 255
186 214 255
186 214 255
186 214 255
186 214 255
186 214 255
186 214 255
186 214 255
186 214 255
186 214 255
186 214 255
186 214 255
186 214 255
186 214 255
186 214 255
186 214 255
186 214 255
186 214 255
186 214 255
186 214 255
186 214 255
186 214 255
186 214 255
187 214 255
187 214 255
187 214 255
187 214 255
187 214 255
187 214 255
187 214 255
187 214 255
187 214 255
187 214 255
187 214 255
187 214 255
187 214 255
187 214 255
187 214 255
187 214 255
187 214 255
187 214 255
187 214 255
187 214 255
187 214 255
187 214 255
187 214 255
187 214 255
187 214 255
187 214 255
187 214 255
187 214 255
187 214 255
187 214 255
187 214 255
187 214 255
187 214 255
187 215 255
187 215 255
187 215 255
187 215 255
187 215 255
187 215 255
187 215 255
187 215 255
187 215 255
187 215 255
187 215 255
187 215 255
187 215 255
187 215 255
187 215 255
187 215 255
187 215 255
188 215 255
188 215 255
188 215 255
188 215 255
188 215 255
188 215 255
188 215 255
188 215 255
188 215 255
188 215 255
188 215 255
188 215 255
188 215 255
188 215 255
188 215 255
188 215 255
188 215 255
188 215 255
188 215 255
188 215 255
188 215 255
188 215 255
188 215 255
188 215 255
188 215 255
188 215 255
188 215 255
188 215 255
188 215 255
188 215 255
188 215 255
188 215 255
188 215 255
188 215 255
188 215 255
188 215 255
188 215 255
188 215 255
188 215 255
188 215 255
188 215 255
188 215 255
188 215 255
188 215 255
188 215 255
188 215 255
188 215 255
188 215 255
188 215 255
188 215 255
188 215 255
188 215 255
188 215 255
188 215 255
188 215 255
188 215 255
188 215 255
188 215 255
188 215 255
188 215 255
188 215 255
188 215 255
188 215 255
188 215 255
188 215 255
188 215 255
188 215 255
188 215 255
188 215 255
188 215 255
188 215 255
188 215 255
188 215 255
188 215 255
188 215 255
188 215 255
188 215 255
188 215 255
188 215 255
188 215 255
188 215 255
188 215 255
188 215 255
188 215 255
188 215 255
188 215 255
188 215 255
188 215 255
188 215 255
188 215 255
188 215 255
188 215 255
188 215 255
188 215 255
188 215 255
188 215 255
188 215 255
188 215 255
188 215 255
188 215 255
188 215 255
188 215 255
188 215 255
188 215 255
188 215 255
188 215 255
188 215 255
188 215 255
188 215 255
188 215 255
187 215 255
187 215 255
187 215 255
187 215 255
187 215 255
187 215 255
187 215 255
187 215 255
187 215 255
187 215 255
187 215 255
187 215 255
187 215 255
187 215 255
187 215 255
187 215 255
187 215 255
187 215 255
187 215 255
187 214 255
187 214 255
187 214 255
187 214 255
187 214 255
187 214 255
187 214 255
187 214 255
187 214 255
187 214 255
187 214 255
187 214 255
187 214 255
187 214 255
187 214 255
187 214 255
187 214 255
187 214 255
187 214 255
187 214 255
187 214 255
187 214 255
187 214 255
187 214 255
187 214 255
187 214 255
187 214 255
187 214 255
187 214 255
187 214 255
187 214 255
187 214 255
187 214 255
186 214 255
186 214 255
186 214 255
186 214 255
186 214 255
186 214 255
186 214 255
186 214 255
186 214 255
186 214 255
186 214 255
186 214 255
186 214 255
186 214 255
186 214 255
186 214 255
186 214 255
186 214 255
186 214 255
182 210 250
51 62 78
49 61 78
51 63 81
41 51 66
48 58 74
51 62 80
46 57 73
50 61 78
47 57 73
51 62 79
46 57 74
48 59 76
47 58 74
47 58 73
46 57 74
44 54 70
47 58 75
48 59 74
50 62 81
46 57 72
49 60 77
43 53 67
46 57 74
46 57 73
42 52 67
45 56 72
50 61 78
51 62 80
41 51 65
44 55 71
44 55 71
48 59 76
49 60 77
43 52 67
47 58 75
46 56 72
50 62 80
43 52 67
38 47 60
39 49 63
36 44 57
48 60 77
40 49 63
39 49 63
45 56 72
42 52 67
41 51 66
46 57 72
41 51 65
37 46 59
42 51 66
45 55 71
39 49 63
43 54 69
46 55 70
43 54 70
48 58 74
41 50 65
48 59 74
39 48 62
42 52 67
42 52 67
43 54 69
43 53 68
41 50 65
41 51 65
45 56 72
43 53 68
41 51 66
46 57 73
40 50 65
44 54 69
43 53 67
44 55 70
43 53 68
41 51 65
41 51 66
42 53 68
43 53 68
43 53 69
42 52 67
43 53 67
44 54 69
42 52 67
42 51 66
43 53 67
43 53 67
46 57 73
40 49 63
40 50 64
50 61 78
44 54 69
45 56 71
52 63 80
44 55 71
43 53 69
42 51 65
51 63 81
45 56 72
43 53 69
50 62 80
48 59 75
44 54 70
48 60 77
42 52 68
45 56 72
56 69 89
48 59 76
45 55 71
48 60 77
45 55 71
49 60 77
46 57 74
49 61 78
45 56 72
55 67 86
53 66 84
44 55 71
55 68 87
48 59 77
49 61 78
46 56 71
50 62 79
51 63 82
50 62 79
50 61 78
46 56 72
50 62 79
183 210 251
186 214 255
186 214 255
186 214 255
186 214 255
186 214 255
186 214 255
186 214 255
186 214 255
186 214 255
186 214 255
186 214 255
186 214 255
186 214 255
186 214 255
186 214 255
186 214 255
186 214 255
186 214 255
187 214 255
186 214 255
187 214 255
187 214 255
187 214 255
187 214 255
187 214 255
187 214 255
187 214 255
187 214 255
187 214 255
187 214 255
187 214 255
187 214 255
187 214 255
187 214 255
187 214 255
187 214 255
187 214 255
187 214 255
187 214 255
187 214 255
187 214 255
187 214 255
187 214 255
187 214 255
187 214 255
187 214 255
187 214 255
187 214 255
187 214 255
187 214 255
187 214 255
187 215 255
187 215 255
187 215 255
187 215 255
187 215 255
187 215 255
187 215 255
187 215 255
187 215 255
187 215 255
187 215 255
187 215 255
187 215 255
187 215 255
187 215 255
187 215 255
187 215 255
187 215 255
187 215 255
188 215 255
188 215 255
188 215 255
188 215 255
188 215 255
188 215 255
188 215 255
188 215 255
188 215 255
188 215 255
188 215 255
188 215 255
188 215 255
188 215 255
188 215 255
188 215 255
188 215 255
188 215 255
188 215 255
188 215 255
188 215 255
188 215 255
188 215 255
188 215 255
188 215 255
188 215 255
188 215 255
188 215 255
188 215 255
188 215 255
188 215 255
188 215 255
188 215 255
188 215 255
188 215 255
188 215 255
188 215 255
188 215 255
188 215 255
188 215 255
188 215 255
188 215 255
188 215 255
188 215 255
188 215 255
188 215 255
188 215 255
188 215 255
188 215 255
188 215 255
188 215 255
188 215 255
188 215 255
188 215 255
188 215 255
188 215 255
188 215 255
188 215 255
188 215 255
188 215 255
188 215 255
188 215 255
188 215 255
188 215 255
188 215 255
189 215 255
189 215 255
189 215 255
189 215 255
189 215 255
189 215 255
189 215 255
189 215 255
189 215 255
189 215 255
189 215 255
189 215 255
189 215 255
189 215 255
189 215 255
189 215 255
189 215 255
189 215 255
189 215 255
188 215 255
188 215 255
188 215 255
188 215 255
188 215 255
188 215 255
188 215 255
188 215 255
188 215 255
188 215 255
188 215 255
188 215 255
188 215 255
188 215 255
188 215 255
188 215 255
188 215 255
188 215 255
188 215 255
188 215 255
188 215 255
188 215 255
188 215 255
188 215 255
188 215 255
188 215 255
188 215 255
188 215 255
188 215 255
188 215 255
188 215 255
188 215 255
188 215 255
188 215 255
188 215 255
188 215 255
188 215 255
188 215 255
188 215 255
188 215 255
188 215 255
188 215 255
188 215 255
188 215 255
188 215 255
188 215 255
188 215 255
188 215 255
188 215 255
188 215 255
188 215 255
188 215 255
188 215 255
188 215 255
188 215 255
188 215 255
188 215 255
188 215 255
188 215 255
188 215 255
188 215 255
188 215 255
188 215 255
188 215 255
188 215 255
188 215 255
188 215 255
188 215 255
187 215 255
187 215 255
187 215 255
187 215 255
187 215 255
187 215 255
187 215 255
187 215 255
187 215 255
187 215 255
187 215 255
187 215 255
187 215 255
187 215 255
187 215 255
187 215 255
187 215 255
187 214 255
187 214 255
187 214 255
187 214 255
187 214 255
187 214 255
187 214 255
187 214 255
187 214 255
187 214 255
187 214 255
187 214 255
187 214 255
187 214 255
187 214 255
187 214 255
187 214 255
187 214 255
187 214 255
187 214 255
187 214 255
187 214 255
187 214 255
187 214 255
187 214 255
187 214 255
187 214 255
187 214 255
187 214 255
187 214 255
187 214 255
163 188 225
51 63 80
44 54 70
54 67 85
49 60 77
52 65 84
47 59 75
42 53 69
47 57 72
54 66 84
45 55 70
51 62 79
46 58 75
44 54 70
44 54 70
49 61 77
52 64 81
51 63 81
48 60 78
47 58 75
47 57 73
48 59 75
44 54 69
48 60 77
47 58 74
47 57 73
47 58 75
48 59 75
44 54 69
49 60 76
47 58 73
49 60 76
47 58 75
46 57 74
49 60 76
48 59 74
44 54 69
46 58 75
46 57 73
48 59 77
44 55 71
41 51 66
49 61 79
43 53 69
46 56 71
41 51 66
43 53 69
43 53 68
38 47 60
45 56 72
45 56 73
46 57 73
42 52 67
40 49 64
38 48 62
46 56 71
45 55 71
39 49 64
40 49 62
48 59 74
42 52 67
46 56 72
42 52 68
42 51 66
47 58 73
44 54 69
40 50 65
42 51 65
43 52 65
39 49 64
42 53 69
42 53 70
45 55 72
37 46 59
37 46 59
44 54 69
49 60 76
50 62 81
43 53 69
42 52 67
40 50 64
43 53 68
42 53 68
45 55 71
47 57 73
42 52 67
47 58 75
44 54 70
43 53 69
45 57 74
44 55 71
48 60 77
45 55 70
43 53 68
45 56 73
42 52 67
49 60 77
53 66 84
49 61 79
45 56 71
49 60 77
47 57 73
46 56 72
43 53 68
45 55 71
47 58 74
46 57 73
47 59 77
49 60 76
50 61 78
45 55 70
42 52 67
47 58 75
46 57 72
48 60 77
47 58 74
46 57 72
47 58 75
52 64 82
47 59 76
48 60 77
49 60 77
47 58 76
50 63 83
42 52 68
52 64 82
49 60 77
49 60 78
46 57 72
164 189 226
187 214 255
187 214 255
187 214 255
187 214 255
187 214 255
187 214 255
187 214 255
187 214 255
187 214 255
187 214 255
187 214 255
187 214 255
187 214 255
187 214 255
187 214 255
187 214 255
187 214 255
187 214 255
187 214 255
187 214 255
187 214 255
187 214 255
187 214 255
187 214 255
187 214 255
187 214 255
187 214 255
187 214 255
187 214 255
187 214 255
187 215 255
187 215 255
187 215 255
187 215 255
187 215 255
187 215 255
187 215 255
187 215 255
187 215 255
187 215 255
187 215 255
187 215 255
187 215 255
187 215 255
187 215 255
187 215 255
187 215 255
187 215 255
188 215 255
188 215 255
188 215 255
188 215 255
188 215 255
188 215 255
188 215 255
188 215 255
188 215 255
188 215 255
188 215 255
188 215 255
188 215 255
188 215 255
188 215 255
188 215 255
188 215 255
188 215 255
188 215 255
188 215 255
188 215 255
188 215 255
188 215 255
188 215 255
188 215 255
188 215 255
188 215 255
188 215 255
188 215 255
188 215 255
188 215 255
188 215 255
188 215 255
188 215 255
188 215 255
188 215 255
188 215 255
188 215 255
188 215 255
188 215 255
188 215 255
188 215 255
188 215 255
188 215 255
188 215 255
188 215 255
188 215 255
188 215 255
188 215 255
188 215 255
188 215 255
188 215 255
188 215 255
188 215 255
188 215 255
188 215 255
188 215 255
188 215 255
188 215 255
188 215 255
188 215 255
188 215 255
188 215 255
188 215 255
188 215 255
188 215 255
188 215 255
189 215 255
189 215 255
189 215 255
189 215 255
189 215 255
189 215 255
189 215 255
189 215 255
189 215 255
189 215 255
189 215 255
189 215 255
189 215 255
189 215 255
189 215 255
189 215 255
189 215 255
189 215 255
189 215 255
189 215 255
189 216 255
189 216 255
189 216 255
189 216 255
189 216 255
189 216 255
189 216 255
189 216 255
189 216 255
189 216 255
189 216 255
189 216 255
189 216 255
189 216 255
189 216 255
189 215 255
189 215 255
189 215 255
189 215 255
189 215 255
189 215 255
189 215 255
189 215 255
189 215 255
189 215 255
189 215 255
189 215 255
189 215 255
189 215 255
189 215 255
189 215 255
189 215 255
189 215 255
189 215 255
189 215 255
189 215 255
189 215 255
189 215 255
189 215 255
189 215 255
189 215 255
189 215 255
189 215 255
188 215 255
189 215 255
188 215 255
188 215 255
188 215 255
188 215 255
188 215 255
188 215 255
188 215 255
188 215 255
188 215 255
188 215 255
188 215 255
188 215 255
188 215 255
188 215 255
188 215 255
188 215 255
188 215 255
188 215 255
188 215 255
188 215 255
188 215 255
188 215 255
188 215 255
188 215 255
188 215 255
188 215 255
188 215 255
188 215 255
188 215 255
188 215 255
188 215 255
188 215 255
188 215 255
188 215 255
188 215 255
188 215 255
188 215 255
188 215 255
188 215 255
188 215 255
188 215 255
188 215 255
188 215 255
188 215 255
188 215 255
188 215 255
188 215 255
188 215 255
188 215 255
188 215 255
188 215 255
188 215 255
188 215 255
188 215 255
188 215 255
188 215 255
188 215 255
188 215 255
188 215 255
188 215 255
188 215 255
188 215 255
188 215 255
188 215 255
188 215 255
187 215 255
187 215 255
187 215 255
187 215 255
187 215 255
187 215 255
187 215 255
187 215 255
187 215 255
187 215 255
187 215 255
187 215 255
187 215 255
187 215 255
187 215 255
187 215 255
187 215 255
187 215 255
187 215 255
187 215 255
187 214 255
187 214 255
187 214 255
187 214 255
187 214 255
133 154 186
52 64 82
52 65 83
48 59 75
47 58 76
53 64 81
51 64 82
53 65 84
46 57 73
51 63 81
48 59 76
52 64 82
49 60 77
45 56 72
45 57 75
46 57 73
49 60 76
55 68 87
44 54 70
47 58 75
43 53 68
42 51 66
47 58 73
47 59 76
43 53 69
44 54 69
48 59 76
43 53 68
45 56 72
45 56 72
42 51 65
46 57 73
43 52 67
44 54 68
46 56 72
50 62 80
48 58 74
48 59 76
47 58 73
49 60 77
45 56 71
41 50 64
40 50 65
44 56 74
49 60 76
41 50 65
41 50 64
42 52 66
49 60 77
48 59 76
48 59 76
44 54 70
44 54 69
42 53 68
43 52 65
46 57 74
44 55 70
40 49 64
41 51 65
44 55 71
45 55 70
40 50 64
43 54 70
40 49 63
40 49 63
43 54 70
43 53 68
40 49 63
48 59 76
41 51 66
41 50 64
45 56 72
38 48 63
43 54 70
45 57 74
43 54 69
47 59 76
43 53 67
38 47 62
50 61 78
41 50 64
37 46 60
47 58 74
44 54 70
49 60 76
47 58 75
37 46 59
43 54 69
45 55 72
42 52 65
45 56 71
39 48 61
47 58 75
50 62 79
51 63 82
47 58 73
43 54 70
46 57 73
50 62 80
45 56 73
40 50 64
41 51 65
45 55 70
42 52 66
48 58 74
50 62 79
43 52 66
45 55 71
41 51 65
47 58 75
50 61 79
42 53 68
41 52 67
46 57 74
48 60 78
45 55 70
41 50 65
49 59 75
49 61 79
50 61 79
45 56 71
46 57 74
50 62 81
50 61 78
50 62 81
51 62 80
53 65 82
51 62 80
47 58 75
140 162 196
187 214 255
187 214 255
187 214 255
187 214 255
187 214 255
187 214 255
187 215 255
187 215 255
187 215 255
187 215 255
187 215 255
187 215 255
187 215 255
187 215 255
187 215 255
187 215 255
187 215 255
187 215 255
187 215 255
187 215 255
187 215 255
187 215 255
187 215 255
187 215 255
187 215 255
188 215 255
188 215 255
188 215 255
188 215 255
188 215 255
188 215 255
188 215 255
188 215 255
188 215 255
188 215 255
188 215 255
188 215 255
188 215 255
188 215 255
188 215 255
188 215 255
188 215 255
188 215 255
188 215 255
188 215 255
188 215 255
188 215 255
188 215 255
188 215 255
188 215 255
188 215 255
188 215 255
188 215 255
188 215 255
188 215 255
188 215 255
188 215 255
188 215 255
188 215 255
188 215 255
188 215 255
188 215 255
188 215 255
188 215 255
188 215 255
188 215 255
188 215 255
188 215 255
188 215 255
188 215 255
188 215 255
188 215 255
188 215 255
188 215 255
188 215 255
188 215 255
188 215 255
188 215 255
188 215 255
188 215 255
188 215 255
188 215 255
188 215 255
188 215 255
188 215 255
188 215 255
188 215 255
188 215 255
188 215 255
188 215 255
188 215 255
189 215 255
189 215 255
189 215 255
189 215 255
189 215 255
189 215 255
189 215 255
189 215 255
189 215 255
189 215 255
189 215 255
189 215 255
189 215 255
189 215 255
189 215 255
189 215 255
189 215 255
189 215 255
189 215 255
189 215 255
189 215 255
189 215 255
189 215 255
189 215 255
189 215 255
189 215 255
189 215 255
189 215 255
189 215 255
189 216 255
189 216 255
189 216 255
189 216 255
189 216 255
189 216 255
189 216 255
189 216 255
189 216 255
189 216 255
189 216 255
189 216 255
189 216 255
189 216 255
189 216 255
189 216 255
189 216 255
189 216 255
189 216 255
189 216 255
189 216 255
189 216 255
189 216 255
189 216 255
189 216 255
189 216 255
189 216 255
189 216 255
189 216 255
189 216 255
189 216 255
189 216 255
189 216 255
189 216 255
189 216 255
189 216 255
189 216 255
189 216 255
189 216 255
189 216 255
189 216 255
189 216 255
189 216 255
189 216 255
189 216 255
189 216 255
189 216 255
189 216 255
189 216 255
189 216 255
189 216 255
189 216 255
189 216 255
189 216 255
189 216 255
189 216 255
189 216 255
189 216 255
189 215 255
189 215 255
189 215 255
189 215 255
189 215 255
189 215 255
189 215 255
189 215 255
189 215 255
189 215 255
189 215 255
189 215 255
189 215 255
189 215 255
189 215 255
189 215 255
189 215 255
189 215 255
189 215 255
189 215 255
189 215 255
189 215 255
189 215 255
189 215 255
189 215 255
189 215 255
189 215 255
189 215 255
189 215 255
189 215 255
188 215 255
188 215 255
188 215 255
188 215 255
188 215 255
188 215 255
188 215 255
188 215 255
188 215 255
188 215 255
188 215 255
188 215 255
188 215 255
188 215 255
188 215 255
188 215 255
188 215 255
188 215 255
188 215 255
188 215 255
188 215 255
188 215 255
188 215 255
188 215 255
188 215 255
188 215 255
188 215 255
188 215 255
188 215 255
188 215 255
188 215 255
188 215 255
188 215 255
188 215 255
188 215 255
188 215 255
188 215 255
188 215 255
188 215 255
188 215 255
188 215 255
188 215 255
188 215 255
188 215 255
188 215 255
188 215 255
188 215 255
188 215 255
188 215 255
188 215 255
188 215 255
188 215 255
188 215 255
188 215 255
188 215 255
188 215 255
188 215 255
188 215 255
188 215 255
188 215 255
188 215 255
188 215 255
115 134 162
47 57 72
47 59 77
50 62 80
48 59 75
46 57 72
43 53 68
47 58 75
53 66 84
56 68 87
51 64 84
50 61 79
42 52 68
52 64 81
44 55 70
46 55 70
47 58 73
49 62 80
47 58 76
47 58 75
45 56 71
51 63 81
46 57 74
42 52 68
48 60 76
47 58 74
47 58 75
44 55 71
45 55 71
47 58 74
48 59 76
45 55 70
42 51 64
47 58 75
44 54 68
51 63 80
48 58 73
47 58 74
38 47 61
44 55 70
46 57 74
44 54 70
45 56 72
46 56 73
49 61 78
41 51 66
45 56 71
41 52 67
41 51 65
46 57 74
40 50 64
44 54 70
42 52 66
43 53 68
40 49 63
39 47 59
45 56 71
46 57 73
42 52 67
42 52 67
38 47 60
43 53 67
48 59 76
43 54 70
42 53 68
43 53 68
44 54 69
44 54 69
43 54 70
44 54 70
43 53 68
40 49 63
46 57 72
41 52 67
42 51 65
49 60 77
40 50 65
45 56 72
45 56 71
46 57 74
41 51 66
45 55 70
44 55 71
46 57 73
45 56 73
50 62 79
42 52 67
38 47 61
45 56 71
40 50 64
44 55 70
41 52 68
43 53 69
43 53 67
42 52 67
45 55 69
50 61 79
48 58 73
45 55 70
38 48 62
44 55 72
46 57 73
43 54 70
44 55 70
50 62 79
45 55 70
44 55 71
46 57 73
43 52 67
40 49 64
46 56 72
40 49 63
44 55 71
46 57 74
50 62 80
42 52 67
49 61 78
52 64 81
47 58 74
44 54 70
51 63 81
49 61 79
46 57 74
41 51 65
46 57 73
47 57 73
49 61 79
45 55 71
49 62 80
131 152 184
188 215 255
188 215 255
188 215 255
188 215 255
188 215 255
188 215 255
188 215 255
188 215 255
188 215 255
188 215 255
188 215 255
188 215 255
188 215 255
188 215 255
188 215 255
188 215 255
188 215 255
188 215 255
188 215 255
188 215 255
188 215 255
188 215 255
188 215 255
188 215 255
188 215 255
188 215 255
188 215 255
188 215 255
188 215 255
188 215 255
188 215 255
188 215 255
188 215 255
188 215 255
188 215 255
188 215 255
188 215 255
188 215 255
188 215 255
188 215 255
188 215 255
188 215 255
188 215 255
188 215 255
188 215 255
188 215 255
188 215 255
188 215 255
188 215 255
188 215 255
188 215 255
188 215 255
188 215 255
188 215 255
188 215 255
188 215 255
188 215 255
188 215 255
188 215 255
188 215 255
188 215 255
188 215 255
189 215 255
189 215 255
189 215 255
189 215 255
189 215 255
189 215 255
189 215 255
189 215 255
189 215 255
189 215 255
189 215 255
189 215 255
189 215 255
189 215 255
189 215 255
189 215 255
189 215 255
189 215 255
189 215 255
189 215 255
189 215 255
189 215 255
189 215 255
189 215 255
189 215 255
189 215 255
189 215 255
189 215 255
189 216 255
189 216 255
189 216 255
189 216 255
189 216 255
189 216 255
189 216 255
189 216 255
189 216 255
189 216 255
189 216 255
189 216 255
189 216 255
189 216 255
189 216 255
189 216 255
189 216 255
189 216 255
189 216 255
189 216 255
189 216 255
189 216 255
189 216 255
189 216 255
189 216 255
189 216 255
189 216 255
189 216 255
189 216 255
189 216 255
189 216 255
189 216 255
189 216 255
189 216 255
189 216 255
189 216 255
189 216 255
189 216 255
189 216 255
189 216 255
189 216 255
189 216 255
189 216 255
189 216 255
189 216 255
190 216 255
190 216 255
190 216 255
190 216 255
190 216 255
189 216 255
189 216 255
189 216 255
189 216 255
189 216 255
189 216 255
189 216 255
189 216 255
189 216 255
189 216 255
189 216 255
189 216 255
189 216 255
189 216 255
189 216 255
189 216 255
189 216 255
189 216 255
189 216 255
189 216 255
189 216 255
189 216 255
189 216 255
189 216 255
189 216 255
189 216 255
189 216 255
189 216 255
189 216 255
189 216 255
189 216 255
189 216 255
189 216 255
189 216 255
189 216 255
189 216 255
189 216 255
189 216 255
189 216 255
189 216 255
189 216 255
189 216 255
189 216 255
189 216 255
189 216 255
189 216 255
189 216 255
189 216 255
189 216 255
189 216 255
189 216 255
189 216 255
189 216 255
189 216 255
189 216 255
189 216 255
189 216 255
189 216 255
189 216 255
189 216 255
189 216 255
189 216 255
189 216 255
189 216 255
189 216 255
189 216 255
189 216 255
189 216 255
189 216 255
189 216 255
189 216 255
189 215 255
189 215 255
189 215 255
189 215 255
189 215 255
189 215 255
189 215 255
189 215 255
189 215 255
189 215 255
189 215 255
189 215 255
189 215 255
189 215 255
189 215 255
189 215 255
189 215 255
189 215 255
189 215 255
189 215 255
189 215 255
189 215 255
189 215 255
189 215 255
189 215 255
188 215 255
188 215 255
188 215 255
188 215 255
188 215 255
188 215 255
188 215 255
188 215 255
188 215 255
188 215 255
188 215 255
188 215 255
188 215 255
188 215 255
188 215 255
188 215 255
188 215 255
188 215 255
188 215 255
188 215 255
188 215 255
188 215 255
188 215 255
188 215 255
188 215 255
188 215 255
188 215 255
188 215 255
188 215 255
188 215 255
188 215 255
188 215 255
188 215 255
188 215 255
110 128 155
49 61 79
50 61 79
46 57 73
57 70 89
51 63 81
45 55 71
45 56 72
52 64 82
51 63 80
51 63 81
52 62 77
45 56 72
48 60 78
46 57 74
48 59 76
44 55 71
42 51 66
49 61 78
42 52 67
41 51 66
41 51 65
52 63 81
48 60 77
43 52 66
44 54 70
49 60 77
39 49 63
50 61 78
42 51 65
47 58 74
42 52 67
42 52 67
42 51 65
47 57 73
51 62 78
38 47 60
42 52 67
47 59 75
50 61 77
42 52 67
50 62 80
49 59 74
41 50 63
39 49 63
43 52 67
43 54 69
44 54 69
40 49 62
43 53 68
41 50 64
46 56 72
42 52 66
40 50 64
43 53 68
46 56 72
41 51 65
46 57 72
40 48 61
39 47 60
40 50 64
43 51 65
40 49 63
41 51 66
49 60 76
42 51 66
42 52 67
42 52 67
47 57 73
40 50 64
43 53 69
41 51 65
38 47 60
43 54 70
47 57 73
48 59 76
48 59 76
42 52 68
41 51 66
43 52 66
40 50 66
45 57 73
45 55 71
44 54 69
43 53 68
47 58 76
44 54 69
40 50 64
47 58 74
39 48 61
45 55 70
41 50 65
44 55 71
46 57 73
46 57 73
46 57 73
43 53 68
47 58 74
44 54 69
44 55 71
47 58 75
44 54 69
45 55 70
45 55 71
50 61 78
43 53 67
43 53 68
47 58 74
50 61 78
47 58 75
47 58 75
44 54 69
51 62 79
51 63 81
42 52 68
51 63 81
45 56 73
47 58 73
50 62 79
47 58 76
47 58 75
47 57 73
53 66 86
51 63 80
50 62 80
43 54 69
52 65 84
51 63 81
52 63 80
101 118 143
188 215 255
188 215 255
188 215 255
188 215 255
188 215 255
188 215 255
188 215 255
188 215 255
188 215 255
188 215 255
188 215 255
188 215 255
188 215 255
188 215 255
188 215 255
188 215 255
188 215 255
188 215 255
188 215 255
188 215 255
188 215 255
188 215 255
188 215 255
188 215 255
188 215 255
188 215 255
188 215 255
188 215 255
188 215 255
188 215 255
188 215 255
188 215 255
189 215 255
188 215 255
189 215 255
189 215 255
189 215 255
189 215 255
189 215 255
189 215 255
189 215 255
189 215 255
189 215 255
189 215 255
189 215 255
189 215 255
189 215 255
189 215 255
189 215 255
189 215 255
189 215 255
189 215 255
189 215 255
189 215 255
189 215 255
189 215 255
189 215 255
189 215 255
189 215 255
189 216 255
189 216 255
189 216 255
189 216 255
189 216 255
189 216 255
189 216 255
189 216 255
189 216 255
189 216 255
189 216 255
189 216 255
189 216 255
189 216 255
189 216 255
189 216 255
189 216 255
189 216 255
189 216 255
189 216 255
189 216 255
189 216 255
189 216 255
189 216 255
189 216 255
189 216 255
189 216 255
189 216 255
189 216 255
189 216 255
189 216 255
189 216 255
189 216 255
189 216 255
189 216 255
189 216 255
189 216 255
189 216 255
189 216 255
189 216 255
189 216 255
189 216 255
189 216 255
189 216 255
189 216 255
189 216 255
189 216 255
189 216 255
189 216 255
189 216 255
189 216 255
189 216 255
189 216 255
189 216 255
189 216 255
189 216 255
189 216 255
189 216 255
189 216 255
189 216 255
189 216 255
189 216 255
189 216 255
189 216 255
189 216 255
189 216 255
189 216 255
189 216 255
189 216 255
189 216 255
189 216 255
190 216 255
190 216 255
190 216 255
190 216 255
190 216 255
190 216 255
190 216 255
190 216 255
190 216 255
190 216 255
190 216 255
190 216 255
190 216 255
190 216 255
190 216 255
190 216 255
190 216 255
190 216 255
190 216 255
190 216 255
190 216 255
190 216 255
190 216 255
190 216 255
190 216 255
190 216 255
190 216 255
190 216 255
190 216 255
190 216 255
190 216 255
190 216 255
190 216 255
190 216 255
190 216 255
190 216 255
190 216 255
190 216 255
190 216 255
190 216 255
190 216 255
190 216 255
190 216 255
190 216 255
190 216 255
190 216 255
190 216 255
190 216 255
190 216 255
189 216 255
189 216 255
189 216 255
189 216 255
189 216 255
189 216 255
189 216 255
189 216 255
189 216 255
189 216 255
189 216 255
189 216 255
189 216 255
189 216 255
189 216 255
189 216 255
189 216 255
189 216 255
189 216 255
189 216 255
189 216 255
189 216 255
189 216 255
189 216 255
189 216 255
189 216 255
189 216 255
189 216 255
189 216 255
189 216 255
189 216 255
189 216 255
189 216 255
189 216 255
189 216 255
189 216 255
189 216 255
189 216 255
189 216 255
189 216 255
189 216 255
189 216 255
189 216 255
189 216 255
189 216 255
189 216 255
189 216 255
189 216 255
189 216 255
189 216 255
189 216 255
189 216 255
189 216 255
189 216 255
189 216 255
189 216 255
189 216 255
189 216 255
189 216 255
189 216 255
189 216 255
189 216 255
189 216 255
189 216 255
189 216 255
189 216 255
189 216 255
189 215 255
189 215 255
189 215 255
189 215 255
189 215 255
189 215 255
189 215 255
189 215 255
189 215 255
189 215 255
189 215 255
189 215 255
189 215 255
189 215 255
189 215 255
189 215 255
189 215 255
189 215 255
189 215 255
189 215 255
189 215 255
189 215 255
189 215 255
189 215 255
91 107 130
51 63 81
49 60 77
47 59 76
46 57 72
47 58 76
50 62 79
56 68 88
53 65 82
47 59 77
44 55 71
46 57 75
45 56 71
49 61 79
45 57 73
46 57 74
52 64 82
48 60 77
46 56 72
44 53 68
47 59 76
49 60 78
44 54 69
47 58 76
49 60 77
47 58 75
43 54 70
44 55 71
46 56 72
51 63 81
44 55 70
44 54 69
48 59 75
41 50 65
46 57 74
39 48 62
44 55 70
47 57 73
46 57 73
45 57 74
48 58 75
46 56 73
49 60 76
41 50 64
44 54 69
45 56 71
43 53 68
43 53 68
48 59 76
40 50 63
38 46 59
39 48 62
42 52 67
39 48 62
39 47 59
39 47 60
46 56 71
46 57 74
44 54 69
43 54 71
41 50 65
42 51 65
42 53 68
40 50 65
39 48 61
46 56 72
43 53 68
44 54 70
43 53 68
48 59 75
39 49 63
43 53 69
37 46 59
48 59 76
42 52 67
46 56 72
44 53 68
38 46 60
48 58 74
45 56 73
42 52 66
43 53 69
48 59 76
47 58 74
45 56 72
46 56 71
42 51 66
44 55 72
40 50 64
46 56 70
43 53 68
42 52 67
44 54 69
44 53 68
44 54 68
42 52 67
44 55 71
43 53 67
45 55 70
48 59 75
44 55 71
41 51 66
39 49 63
44 54 69
47 57 73
47 58 75
41 51 66
43 52 65
43 53 68
47 57 72
51 62 79
46 56 72
51 62 80
52 65 84
45 56 72
51 63 80
43 53 69
47 59 76
47 57 73
47 58 74
49 60 76
49 61 79
46 57 73
45 55 71
50 61 78
50 62 78
50 61 78
49 60 77
47 58 76
93 109 134
189 215 255
189 215 255
189 215 255
189 215 255
189 215 255
189 215 255
189 215 255
189 215 255
189 215 255
189 215 255
189 215 255
189 215 255
189 215 255
189 215 255
189 215 255
189 215 255
189 215 255
189 215 255
189 215 255
189 215 255
189 215 255
189 215 255
189 215 255
189 215 255
189 215 255
189 215 255
189 216 255
189 216 255
189 216 255
189 216 255
189 216 255
189 216 255
189 216 255
189 216 255
189 216 255
189 216 255
189 216 255
189 216 255
189 216 255
189 216 255
189 216 255
189 216 255
189 216 255
189 216 255
189 216 255
189 216 255
189 216 255
189 216 255
189 216 255
189 216 255
189 216 255
189 216 255
189 216 255
189 216 255
189 216 255
189 216 255
189 216 255
189 216 255
189 216 255
189 216 255
189 216 255
189 216 255
189 216 255
189 216 255
189 216 255
189 216 255
189 216 255
189 216 255
189 216 255
189 216 255
189 216 255
189 216 255
189 216 255
189 216 255
189 216 255
189 216 255
189 216 255
189 216 255
189 216 255
189 216 255
189 216 255
189 216 255
189 216 255
189 216 255
189 216 255
189 216 255
189 216 255
189 216 255
189 216 255
189 216 255
190 216 255
189 216 255
190 216 255
190 216 255
190 216 255
190 216 255
190 216 255
190 216 255
190 216 255
190 216 255
190 216 255
190 216 255
190 216 255
190 216 255
190 216 255
190 216 255
190 216 255
190 216 255
190 216 255
190 216 255
190 216 255
190 216 255
190 216 255
190 216 255
190 216 255
190 216 255
190 216 255
190 216 255
190 216 255
190 216 255
190 216 255
190 216 255
190 216 255
190 216 255
190 216 255
190 216 255
190 216 255
190 216 255
190 216 255
190 216 255
190 216 255
190 216 255
190 216 255
190 216 255
190 216 255
190 216 255
190 216 255
190 216 255
190 216 255
190 216 255
190 216 255
190 216 255
190 216 255
190 216 255
190 216 255
190 216 255
190 216 255
190 216 255
190 216 255
190 216 255
190 216 255
190 216 255
190 216 255
190 216 255
190 216 255
190 216 255
190 216 255
190 216 255
190 216 255
190 216 255
190 216 255
190 216 255
190 216 255
190 216 255
190 216 255
190 216 255
190 216 255
190 216 255
190 216 255
190 216 255
190 216 255
190 216 255
190 216 255
190 216 255
190 216 255
190 216 255
190 216 255
190 216 255
190 216 255
190 216 255
190 216 255
190 216 255
190 216 255
190 216 255
190 216 255
190 216 255
190 216 255
190 216 255
190 216 255
190 216 255
190 216 255
190 216 255
190 216 255
190 216 255
190 216 255
190 216 255
190 216 255
190 216 255
190 216 255
190 216 255
190 216 255
190 216 255
190 216 255
190 216 255
190 216 255
190 216 255
190 216 255
190 216 255
190 216 255
190 216 255
190 216 255
190 216 255
190 216 255
190 216 255
190 216 255
190 216 255
190 216 255
190 216 255
190 216 255
190 216 255
190 216 255
189 216 255
189 216 255
189 216 255
189 216 255
189 216 255
189 216 255
189 216 255
189 216 255
189 216 255
189 216 255
189 216 255
189 216 255
189 216 255
189 216 255
189 216 255
189 216 255
189 216 255
189 216 255
189 216 255
189 216 255
189 216 255
189 216 255
189 216 255
189 216 255
189 216 255
189 216 255
189 216 255
189 216 255
189 216 255
189 216 255
189 216 255
189 216 255
189 216 255
189 216 255
189 216 255
189 216 255
189 216 255
189 216 255
189 216 255
189 216 255
189 216 255
189 216 255
189 216 255
189 216 255
189 216 255
189 216 255
189 216 255
189 216 255
189 216 255
69 82 102
44 54 69
45 56 73
50 62 78
50 61 78
48 59 75
51 63 80
49 61 78
52 64 82
49 59 75
46 57 73
50 61 79
45 56 72
44 55 71
46 56 72
48 59 76
47 58 75
41 50 64
46 57 73
43 52 66
43 54 69
42 53 69
44 54 69
44 54 70
48 59 75
41 51 66
49 61 78
45 55 70
47 58 75
48 60 76
41 50 64
46 57 74
45 54 69
38 47 61
48 59 76
45 55 70
44 54 68
39 48 62
43 53 69
42 52 66
44 55 71
45 56 72
41 51 66
40 50 65
43 53 68
44 54 69
45 55 71
41 50 65
43 53 67
48 58 74
38 47 61
39 49 64
47 58 74
43 53 68
40 50 64
48 59 76
41 51 66
39 48 62
41 51 66
45 54 69
39 49 63
43 53 69
43 52 67
42 51 66
45 56 72
43 54 69
47 57 74
43 53 69
42 51 65
41 51 66
46 57 74
36 45 59
50 61 78
40 51 66
47 58 75
45 56 71
42 52 68
39 48 61
38 47 60
45 55 71
44 54 68
48 59 76
48 59 77
45 56 72
48 58 74
45 56 72
46 57 74
43 54 69
43 53 68
48 59 76
45 56 71
42 52 66
46 57 73
45 55 70
47 57 73
52 63 80
41 51 66
47 58 73
43 53 67
47 58 75
38 47 61
46 57 74
40 50 65
44 54 69
46 57 74
45 56 72
44 54 69
42 52 68
49 61 78
46 57 74
46 57 73
43 54 70
46 57 73
43 52 67
52 64 83
43 53 68
46 57 72
48 59 76
54 67 86
48 58 74
47 58 74
47 59 77
50 61 77
48 60 77
52 63 79
48 60 78
47 59 76
47 58 75
48 60 76
74 87 108
189 216 255
189 216 255
189 216 255
189 216 255
189 216 255
189 216 255
189 216 255
189 216 255
189 216 255
189 216 255
189 216 255
189 216 255
189 216 255
189 216 255
189 216 255
189 216 255
189 216 255
189 216 255
189 216 255
189 216 255
189 216 255
189 216 255
189 216 255
189 216 255
189 216 255
189 216 255
189 216 255
189 216 255
189 216 255
189 216 255
189 216 255
189 216 255
189 216 255
189 216 255
189 216 255
189 216 255
189 216 255
189 216 255
189 216 255
189 216 255
189 216 255
189 216 255
189 216 255
189 216 255
189 216 255
189 216 255
189 216 255
189 216 255
189 216 255
190 216 255
190 216 255
190 216 255
190 216 255
190 216 255
190 216 255
190 216 255
190 216 255
190 216 255
190 216 255
190 216 255
190 216 255
190 216 255
190 216 255
190 216 255
190 216 255
190 216 255
190 216 255
190 216 255
190 216 255
190 216 255
190 216 255
190 216 255
190 216 255
190 216 255
190 216 255
190 216 255
190 216 255
190 216 255
190 216 255
190 216 255
190 216 255
190 216 255
190 216 255
190 216 255
190 216 255
190 216 255
190 216 255
190 216 255
190 216 255
190 216 255
190 216 255
190 216 255
190 216 255
190 216 255
190 216 255
190 216 255
190 216 255
190 216 255
190 216 255
190 216 255
190 216 255
190 216 255
190 216 255
190 216 255
190 216 255
190 216 255
190 216 255
190 216 255
190 216 255
190 216 255
190 216 255
190 216 255
190 216 255
190 216 255
190 216 255
190 216 255
190 216 255
190 216 255
190 216 255
190 216 255
190 216 255
190 216 255
190 216 255
190 216 255
190 216 255
190 216 255
190 216 255
190 216 255
190 216 255
190 216 255
190 216 255
190 216 255
190 216 255
190 216 255
190 216 255
190 216 255
190 216 255
190 216 255
190 216 255
190 216 255
190 216 255
190 216 255
190 216 255
190 216 255
190 216 255
190 216 255
190 216 255
190 216 255
190 216 255
190 216 255
190 216 255
190 216 255
190 216 255
190 216 255
190 216 255
190 216 255
190 216 255
190 216 255
190 216 255
190 216 255
190 216 255
190 216 255
190 216 255
190 216 255
190 216 255
190 216 255
190 216 255
190 216 255
190 216 255
190 216 255
190 216 255
190 216 255
190 216 255
190 216 255
190 216 255
190 216 255
190 216 255
190 216 255
190 216 255
190 216 255
190 216 255
190 216 255
190 216 255
190 216 255
190 216 255
190 216 255
190 216 255
190 216 255
190 216 255
190 216 255
190 216 255
190 216 255
190 216 255
190 216 255
190 216 255
190 216 255
190 216 255
190 216 255
190 216 255
190 216 255
190 216 255
190 216 255
190 216 255
190 216 255
190 216 255
190 216 255
190 216 255
190 216 255
190 216 255
190 216 255
190 216 255
190 216 255
190 216 255
190 216 255
190 216 255
190 216 255
190 216 255
190 216 255
190 216 255
190 216 255
190 216 255
190 216 255
190 216 255
190 216 255
190 216 255
190 216 255
190 216 255
190 216 255
190 216 255
190 216 255
190 216 255
190 216 255
190 216 255
190 216 255
190 216 255
190 216 255
190 216 255
190 216 255
190 216 255
190 216 255
190 216 255
190 216 255
190 216 255
190 216 255
190 216 255
190 216 255
190 216 255
190 216 255
190 216 255
190 216 255
190 216 255
190 216 255
190 216 255
190 216 255
190 216 255
190 216 255
190 216 255
190 216 255
190 216 255
190 216 255
190 216 255
190 216 255
190 216 255
190 216 255
190 216 255
190 216 255
190 216 255
190 216 255
190 216 255
190 216 255
79 95 118
47 58 74
48 59 77
52 64 82
48 59 76
48 58 74
48 59 76
49 61 79
45 57 74
47 57 73
44 55 71
52 64 82
47 58 75
45 56 72
51 62 79
45 57 73
54 67 85
51 62 79
44 54 68
44 54 69
44 55 71
44 54 70
46 57 73
45 56 71
47 58 74
51 62 78
50 61 77
49 60 77
41 51 65
45 56 71
45 56 72
45 55 71
49 60 77
43 53 68
46 57 74
43 54 70
46 56 72
48 59 76
44 54 69
42 52 66
45 55 70
45 56 72
44 54 70
39 48 62
39 49 63
43 54 69
41 50 65
41 52 67
42 52 67
46 56 71
51 63 81
40 49 63
42 52 66
50 61 79
43 53 67
45 56 72
43 53 68
44 55 70
40 51 67
43 52 67
43 52 65
39 47 60
41 50 64
39 48 62
41 51 66
43 53 69
42 52 68
39 48 61
44 54 70
43 53 68
42 51 66
39 48 62
44 55 71
44 54 69
43 54 69
45 56 71
40 50 65
40 49 63
46 57 73
45 56 72
44 54 69
45 56 72
45 55 70
47 57 73
50 62 80
38 47 61
40 49 62
43 54 70
47 57 72
40 48 61
44 54 70
47 57 73
41 52 68
44 54 69
42 52 66
38 47 61
44 54 69
41 51 65
47 58 75
49 60 75
49 60 76
47 58 74
40 50 64
45 56 73
47 58 74
48 60 77
46 56 71
48 59 75
40 50 64
42 52 66
51 63 80
47 57 73
49 61 78
43 53 68
44 55 70
47 58 75
46 56 72
46 56 72
47 58 74
47 58 73
48 60 78
47 58 75
53 64 82
45 56 72
47 58 73
49 61 79
50 61 79
42 52 67
47 58 74
62 75 94
190 216 255
190 216 255
190 216 255
190 216 255
190 216 255
190 216 255
190 216 255
190 216 255
190 216 255
190 216 255
190 216 255
190 216 255
190 216 255
190 216 255
190 216 255
190 216 255
190 216 255
190 216 255
190 216 255
190 216 255
190 216 255
190 216 255
190 216 255
190 216 255
190 216 255
190 216 255
190 216 255
190 216 255
190 216 255
190 216 255
190 216 255
190 216 255
190 216 255
190 216 255
190 216 255
190 216 255
190 216 255
190 216 255
190 216 255
190 216 255
190 216 255
190 216 255
190 216 255
190 216 255
190 216 255
190 216 255
190 216 255
190 216 255
190 216 255
190 216 255
190 216 255
190 216 255
190 216 255
190 216 255
190 216 255
190 216 255
190 216 255
190 216 255
190 216 255
190 216 255
190 216 255
190 216 255
190 216 255
190 216 255
190 216 255
190 216 255
190 216 255
190 216 255
190 216 255
190 216 255
190 216 255
190 216 255
190 216 255
190 216 255
190 216 255
190 216 255
190 216 255
190 216 255
190 216 255
190 216 255
190 216 255
190 216 255
190 216 255
190 216 255
190 216 255
190 216 255
190 216 255
190 216 255
190 216 255
190 216 255
190 216 255
190 216 255
190 216 255
190 216 255
190 216 255
190 216 255
190 216 255
190 216 255
190 216 255
190 216 255
190 216 255
190 216 255
190 216 255
190 216 255
190 216 255
190 216 255
190 216 255
190 216 255
190 216 255
190 216 255
190 216 255
190 216 255
190 216 255
190 216 255
190 216 255
190 216 255
190 216 255
190 216 255
190 216 255
190 216 255
190 216 255
190 216 255
190 216 255
190 216 255
190 216 255
190 216 255
190 216 255
190 216 255
190 216 255
190 216 255
190 216 255
190 216 255
190 216 255
190 216 255
190 216 255
191 217 255
191 217 255
191 217 255
191 217 255
191 217 255
191 217 255
191 217 255
191 217 255
191 217 255
191 217 255
191 217 255
191 217 255
191 217 255
191 217 255
191 217 255
191 217 255
191 217 255
191 217 255
191 217 255
191 217 255
191 217 255
191 217 255
191 217 255
191 217 255
191 217 255
191 217 255
191 217 255
191 217 255
191 217 255
191 217 255
191 217 255
191 217 255
191 217 255
191 217 255
191 217 255
191 217 255
191 217 255
191 217 255
191 217 255
191 217 255
191 217 255
191 217 255
190 216 255
191 217 255
191 217 255
190 216 255
190 216 255
191 216 255
190 216 255
190 216 255
190 216 255
190 216 255
190 216 255
190 216 255
190 216 255
190 216 255
190 216 255
190 216 255
190 216 255
190 216 255
190 216 255
190 216 255
190 216 255
190 216 255
190 216 255
190 216 255
190 216 255
190 216 255
190 216 255
190 216 255
190 216 255
190 216 255
190 216 255
190 216 255
190 216 255
190 216 255
190 216 255
190 216 255
190 216 255
190 216 255
190 216 255
190 216 255
190 216 255
190 216 255
190 216 255
190 216 255
190 216 255
190 216 255
190 216 255
190 216 255
190 216 255
190 216 255
190 216 255
190 216 255
190 216 255
190 216 255
190 216 255
190 216 255
190 216 255
190 216 255
190 216 255
190 216 255
190 216 255
190 216 255
190 216 255
190 216 255
190 216 255
190 216 255
190 216 255
190 216 255
190 216 255
190 216 255
190 216 255
190 216 255
190 216 255
190 216 255
190 216 255
190 216 255
190 216 255
190 216 255
190 216 255
190 216 255
190 216 255
190 216 255
190 216 255
190 216 255
190 216 255
190 216 255
190 216 255
190 216 255
190 216 255
190 216 255
190 216 255
190 216 255
190 216 255
61 72 90
44 55 70
49 60 77
47 59 76
47 57 73
51 62 79
54 66 84
45 55 70
46 57 73
47 58 74
46 56 70
52 64 83
51 61 77
50 61 78
45 56 72
45 55 71
48 58 74
48 59 76
45 56 71
47 58 73
43 53 67
47 58 74
44 54 69
47 57 73
45 56 72
37 45 58
43 53 68
42 52 67
43 53 68
37 46 59
49 60 76
44 55 72
49 60 77
42 52 68
52 64 82
45 55 70
38 47 61
42 52 67
49 59 75
42 52 66
40 50 64
44 54 69
41 51 66
38 46 58
41 50 65
39 48 61
48 59 75
43 53 68
40 49 64
48 60 77
44 54 69
41 50 64
44 55 71
42 52 67
47 58 74
43 53 68
43 53 68
45 56 73
45 55 71
45 55 70
42 52 67
48 59 75
41 51 66
38 48 63
46 56 72
40 49 62
43 53 69
38 47 61
45 56 73
42 52 68
48 58 74
39 48 62
44 54 70
44 55 71
45 55 71
46 57 74
44 54 69
43 54 70
40 50 64
48 58 75
40 50 64
38 46 59
46 57 73
40 50 64
49 60 76
49 60 77
41 51 66
51 63 80
43 53 69
41 51 65
45 56 72
41 51 66
43 53 68
44 54 70
43 53 69
46 56 71
45 55 69
50 62 81
41 50 64
47 58 74
49 61 78
43 54 70
45 55 70
46 56 73
44 54 69
46 57 73
44 53 67
44 55 70
47 59 77
41 51 66
50 62 80
44 55 71
46 56 71
48 58 74
47 58 75
45 55 70
47 58 76
49 61 78
46 57 72
47 58 74
46 57 73
46 58 74
51 63 80
45 56 72
47 58 75
46 57 73
43 53 69
47 57 73
46 57 72
67 79 98
190 216 255
190 216 255
190 216 255
190 216 255
190 216 255
190 216 255
190 216 255
190 216 255
190 216 255
190 216 255
190 216 255
190 216 255
190 216 255
190 216 255
190 216 255
190 216 255
190 216 255
190 216 255
190 216 255
190 216 255
190 216 255
190 216 255
190 216 255
190 216 255
190 216 255
190 216 255
190 216 255
190 216 255
190 216 255
190 216 255
190 216 255
190 216 255
190 216 255
190 216 255
190 216 255
190 216 255
190 216 255
190 216 255
190 216 255
190 216 255
190 216 255
190 216 255
190 216 255
190 216 255
190 216 255
190 216 255
190 216 255
190 216 255
190 216 255
190 216 255
190 216 255
190 216 255
190 216 255
190 216 255
190 216 255
190 216 255
190 216 255
190 216 255
190 216 255
190 216 255
190 216 255
190 216 255
190 216 255
190 216 255
190 216 255
190 216 255
190 216 255
190 216 255
190 216 255
190 216 255
190 216 255
190 216 255
190 216 255
190 216 255
190 216 255
190 216 255
190 216 255
190 216 255
190 216 255
190 216 255
190 216 255
190 216 255
190 216 255
190 216 255
190 216 255
190 216 255
190 216 255
190 216 255
190 216 255
190 216 255
191 217 255
190 216 255
191 217 255
191 217 255
191 217 255
191 217 255
191 217 255
191 217 255
191 217 255
191 217 255
191 217 255
191 217 255
191 217 255
191 217 255
191 217 255
191 217 255
191 217 255
191 217 255
191 217 255
191 217 255
191 217 255
191 217 255
191 217 255
191 217 255
191 217 255
191 217 255
191 217 255
191 217 255
191 217 255
191 217 255
191 217 255
191 217 255
191 217 255
191 217 255
191 217 255
191 217 255
191 217 255
191 217 255
191 217 255
191 217 255
191 217 255
191 217 255
191 217 255
191 217 255
191 217 255
191 217 255
191 217 255
191 217 255
191 217 255
191 217 255
191 217 255
191 217 255
191 217 255
191 217 255
191 217 255
191 217 255
191 217 255
191 217 255
191 217 255
191 217 255
191 217 255
191 217 255
191 217 255
191 217 255
191 217 255
191 217 255
191 217 255
191 217 255
191 217 255
191 217 255
191 217 255
191 217 255
191 217 255
191 217 255
191 217 255
191 217 255
191 217 255
191 217 255
191 217 255
191 217 255
191 217 255
191 217 255
191 217 255
191 217 255
191 217 255
191 217 255
191 217 255
191 217 255
191 217 255
191 217 255
191 217 255
191 217 255
191 217 255
191 217 255
191 217 255
191 217 255
191 217 255
191 217 255
191 217 255
191 217 255
191 217 255
191 217 255
191 217 255
191 217 255
191 217 255
191 217 255
191 217 255
191 217 255
191 217 255
191 217 255
191 217 255
191 217 255
191 217 255
191 217 255
191 217 255
191 217 255
191 217 255
191 217 255
191 217 255
191 217 255
191 217 255
191 217 255
191 217 255
191 217 255
191 217 255
191 217 255
191 217 255
191 217 255
191 217 255
191 217 255
191 217 255
191 217 255
191 217 255
191 217 255
191 217 255
191 217 255
191 217 255
191 217 255
191 217 255
191 217 255
191 217 255
191 217 255
191 217 255
191 217 255
191 217 255
191 217 255
191 217 255
191 217 255
191 217 255
191 217 255
191 217 255
191 217 255
191 217 255
191 217 255
191 217 255
191 217 255
191 217 255
191 217 255
191 217 255
191 217 255
191 217 255
191 217 255
191 217 255
191 217 255
191 217 255
191 217 255
191 217 255
191 217 255
191 217 255
191 217 255
191 217 255
191 217 255
191 217 255
191 217 255
191 217 255
191 217 255
191 217 255
191 217 255
191 217 255
191 217 255
51 62 79
51 63 81
47 59 77
52 64 81
49 60 78
51 62 79
48 59 76
46 56 72
53 64 80
43 53 68
44 54 68
44 54 70
41 51 65
47 58 74
47 58 75
45 55 71
45 55 70
46 56 72
42 53 68
45 56 73
46 56 71
43 53 67
48 59 75
45 56 71
48 58 73
40 49 63
42 53 68
42 51 66
46 56 72
49 60 76
46 57 73
47 58 74
44 54 70
51 62 79
42 53 68
44 54 70
45 56 72
46 56 72
47 58 74
42 51 66
41 51 65
44 54 68
40 49 64
46 56 71
49 59 75
39 47 60
48 59 76
42 52 66
45 55 71
47 57 73
35 43 56
46 57 73
41 51 65
44 54 69
42 53 68
43 54 70
42 51 64
43 54 69
40 49 63
47 58 75
43 54 70
44 54 69
43 53 67
38 48 61
40 48 60
44 54 70
41 52 67
44 53 68
39 48 62
41 50 64
44 55 71
42 51 65
41 50 64
40 50 65
43 53 67
42 52 67
45 56 72
45 55 70
44 54 69
45 56 71
50 61 77
43 53 68
46 56 72
40 50 65
44 54 69
46 57 72
40 50 64
44 55 71
35 44 56
42 51 65
39 48 62
44 55 70
40 49 63
43 54 69
43 53 68
43 53 69
47 58 74
47 58 75
48 59 77
45 55 71
43 54 69
44 55 71
45 56 72
46 57 73
49 61 78
45 55 70
45 55 71
50 63 81
54 66 85
47 58 74
47 58 74
49 60 78
48 59 74
43 52 66
40 50 64
47 58 74
48 58 73
47 58 74
49 60 76
54 66 84
47 58 74
40 50 63
47 58 75
49 60 77
49 61 78
39 48 61
50 61 78
50 61 78
47 58 74
57 70 88
191 217 255
191 217 255
191 217 255
191 217 255
191 217 255
191 217 255
191 217 255
191 217 255
191 217 255
191 217 255
191 217 255
191 217 255
191 217 255
191 217 255
191 217 255
191 217 255
191 217 255
191 217 255
191 217 255
191 217 255
191 217 255
191 217 255
191 217 255
191 217 255
191 217 255
191 217 255
191 217 255
191 217 255
191 217 255
191 217 255
191 217 255
191 217 255
191 217 255
191 217 255
191 217 255
191 217 255
191 217 255
191 217 255
191 217 255
191 217 255
191 217 255
191 217 255
191 217 255
191 217 255
191 217 255
191 217 255
191 217 255
191 217 255
191 217 255
191 217 255
191 217 255
191 217 255
191 217 255
191 217 255
191 217 255
191 217 255
191 217 255
191 217 255
191 217 255
191 217 255
191 217 255
191 217 255
191 217 255
191 217 255
191 217 255
191 217 255
191 217 255
191 217 255
191 217 255
191 217 255
191 217 255
191 217 255
191 217 255
191 217 255
191 217 255
191 217 255
191 217 255
191 217 255
191 217 255
191 217 255
191 217 255
191 217 255
191 217 255
191 217 255
191 217 255
191 217 255
191 217 255
191 217 255
191 217 255
191 217 255
191 217 255
191 217 255
191 217 255
191 217 255
191 217 255
191 217 255
191 217 255
191 217 255
191 217 255
191 217 255
191 217 255
191 217 255
191 217 255
191 217 255
191 217 255
191 217 255
191 217 255
191 217 255
191 217 255
191 217 255
191 217 255
191 217 255
191 217 255
191 217 255
191 217 255
191 217 255
191 217 255
191 217 255
191 217 255
191 217 255
191 217 255
191 217 255
191 217 255
191 217 255
191 217 255
191 217 255
191 217 255
191 217 255
191 217 255
191 217 255
191 217 255
191 217 255
191 217 255
191 217 255
191 217 255
191 217 255
191 217 255
191 217 255
191 217 255
191 217 255
191 217 255
191 217 255
191 217 255
191 217 255
191 217 255
191 217 255
191 217 255
191 217 255
191 217 255
191 217 255
191 217 255
191 217 255
191 217 255
191 217 255
191 217 255
191 217 255
191 217 255
191 217 255
191 217 255
191 217 255
191 217 255
191 217 255
191 217 255
191 217 255
191 217 255
191 217 255
191 217 255
191 217 255
191 217 255
191 217 255
191 217 255
191 217 255
191 217 255
191 217 255
191 217 255
191 217 255
191 217 255
191 217 255
191 217 255
191 217 255
191 217 255
191 217 255
191 217 255
191 217 255
191 217 255
191 217 255
191 217 255
191 217 255
191 217 255
191 217 255
191 217 255
191 217 255
191 217 255
191 217 255
191 217 255
191 217 255
191 217 255
191 217 255
191 217 255
191 217 255
191 217 255
191 217 255
191 217 255
191 217 255
191 217 255
191 217 255
191 217 255
191 217 255
191 217 255
191 217 255
191 217 255
191 217 255
191 217 255
191 217 255
191 217 255
191 217 255
191 217 255
191 217 255
191 217 255
191 217 255
191 217 255
191 217 255
191 217 255
191 217 255
191 217 255
191 217 255
191 217 255
191 217 255
191 217 255
191 217 255
191 217 255
191 217 255
191 217 255
191 217 255
191 217 255
191 217 255
191 217 255
191 217 255
191 217 255
191 217 255
191 217 255
191 217 255
191 217 255
191 217 255
191 217 255
191 217 255
191 217 255
191 217 255
191 217 255
191 217 255
191 217 255
191 217 255
191 217 255
191 217 255
191 217 255
191 217 255
191 217 255
191 217 255
191 217 255
191 217 255
191 217 255
191 217 255
191 217 255
191 217 255
191 217 255
191 217 255
191 217 255
191 217 255
191 217 255
191 217 255
56 69 87
50 61 78
45 55 71
46 57 74
45 55 71
49 60 78
45 55 70
44 55 71
47 58 74
46 57 73
47 58 75
47 59 76
45 56 72
53 65 83
48 59 76
45 56 73
48 59 75
45 55 70
41 51 65
48 59 77
46 57 73
43 53 68
49 60 78
39 50 65
45 56 71
45 55 71
44 54 70
44 54 70
41 51 64
43 53 68
45 56 72
51 62 78
48 59 75
42 51 65
42 52 67
41 51 65
40 49 63
44 55 73
38 47 60
44 54 69
47 58 74
41 49 63
42 52 66
37 46 59
49 61 78
42 52 67
41 51 65
47 58 74
43 52 66
40 49 63
43 53 68
42 53 68
42 52 67
43 52 67
42 51 64
46 57 74
39 48 62
40 50 63
39 48 62
41 50 63
45 55 71
42 52 67
43 53 68
40 50 64
44 54 70
41 51 65
41 50 65
44 54 68
40 49 64
45 55 71
41 51 65
44 54 69
42 52 67
42 51 64
36 45 57
47 57 74
39 48 62
44 54 70
47 58 74
46 57 72
48 60 77
46 57 74
44 54 70
41 50 65
45 55 72
47 58 74
41 51 65
46 57 72
39 49 65
44 54 69
46 56 71
42 52 67
44 55 71
43 53 68
44 54 69
43 53 68
41 50 63
44 54 70
45 55 71
43 53 68
42 53 68
46 56 72
44 54 69
44 54 70
44 55 72
46 56 72
39 48 61
43 53 69
44 54 70
51 63 81
43 54 71
41 51 67
43 53 69
45 56 73
49 60 77
46 56 72
49 59 75
48 59 76
44 54 70
48 59 76
47 58 75
50 62 80
54 67 85
45 56 73
46 57 73
49 60 78
42 52 67
48 60 77
46 57 73
53 65 82
191 217 255
191 217 255
191 217 255
191 217 255
191 217 255
191 217 255
191 217 255
191 217 255
191 217 255
191 217 255
191 217 255
191 217 255
191 217 255
191 217 255
191 217 255
191 217 255
191 217 255
191 217 255
191 217 255
191 217 255
191 217 255
191 217 255
191 217 255
191 217 255
191 217 255
191 217 255
191 217 255
191 217 255
191 217 255
191 217 255
191 217 255
191 217 255
191 217 255
191 217 255
191 217 255
191 217 255
191 217 255
191 217 255
191 217 255
191 217 255
191 217 255
191 217 255
191 217 255
191 217 255
191 217 255
191 217 255
191 217 255
191 217 255
191 217 255
191 217 255
191 217 255
191 217 255
191 217 255
191 217 255
191 217 255
191 217 255
191 217 255
191 217 255
191 217 255
191 217 255
191 217 255
191 217 255
191 217 255
191 217 255
191 217 255
191 217 255
191 217 255
191 217 255
191 217 255
191 217 255
191 217 255
191 217 255
191 217 255
191 217 255
191 217 255
191 217 255
191 217 255
191 217 255
191 217 255
191 217 255
191 217 255
191 217 255
191 217 255
191 217 255
191 217 255
191 217 255
191 217 255
191 217 255
191 217 255
191 217 255
191 217 255
191 217 255
191 217 255
191 217 255
191 217 255
191 217 255
191 217 255
191 217 255
191 217 255
191 217 255
191 217 255
191 217 255
191 217 255
191 217 255
191 217 255
191 217 255
191 217 255
191 217 255
191 217 255
191 217 255
191 217 255
191 217 255
191 217 255
191 217 255
191 217 255
191 217 255
191 217 255
191 217 255
191 217 255
191 217 255
191 217 255
191 217 255
191 217 255
191 217 255
191 217 255
191 217 255
191 217 255
191 217 255
191 217 255
191 217 255
191 217 255
191 217 255
191 217 255
191 217 255
191 217 255
192 217 255
191 217 255
192 217 255
191 217 255
192 217 255
192 217 255
192 217 255
191 217 255
192 217 255
192 217 255
192 217 255
191 217 255
192 217 255
192 217 255
191 217 255
191 217 255
192 217 255
192 217 255
191 217 255
191 217 255
192 217 255
192 217 255
192 217 255
192 217 255
191 217 255
191 217 255
191 217 255
192 217 255
192 217 255
191 217 255
191 217 255
191 217 255
192 217 255
191 217 255
192 217 255
192 217 255
191 217 255
192 217 255
192 217 255
192 217 255
192 217 255
192 217 255
192 217 255
191 217 255
191 217 255
192 217 255
191 217 255
192 217 255
192 217 255
191 217 255
192 217 255
192 217 255
191 217 255
191 217 255
192 217 255
191 217 255
191 217 255
192 217 255
192 217 255
191 217 255
191 217 255
192 217 255
192 217 255
191 217 255
192 217 255
191 217 255
191 217 255
191 217 255
191 217 255
192 217 255
191 217 255
191 217 255
192 217 255
191 217 255
192 217 255
191 217 255
191 217 255
191 217 255
191 217 255
191 217 255
191 217 255
191 217 255
191 217 255
191 217 255
192 217 255
192 217 255
191 217 255
191 217 255
191 217 255
192 217 255
191 217 255
192 217 255
191 217 255
191 217 255
191 217 255
191 217 255
191 217 255
192 217 255
192 217 255
192 217 255
191 217 255
191 217 255
191 217 255
191 217 255
192 217 255
192 217 255
192 217 255
191 217 255
191 217 255
192 217 255
192 217 255
192 217 255
191 217 255
191 217 255
192 217 255
191 217 255
191 217 255
191 217 255
191 217 255
191 217 255
192 217 255
191 217 255
192 217 255
192 217 255
192 217 255
192 217 255
192 217 255
191 217 255
191 217 255
191 217 255
191 217 255
191 217 255
192 217 255
192 217 255
192 217 255
56 69 88
49 60 77
48 59 75
44 55 71
50 62 80
45 55 70
45 55 70
52 64 82
43 53 68
50 61 78
42 51 65
42 53 68
45 57 74
47 58 74
47 58 75
48 59 76
43 53 68
43 53 68
48 59 75
43 54 69
47 57 72
46 57 74
45 55 70
47 58 75
37 47 61
41 50 65
42 53 68
38 47 61
43 52 65
47 57 73
38 48 62
44 54 69
44 54 69
40 49 63
43 53 67
42 52 68
40 49 64
46 56 71
42 52 67
40 49 63
40 50 65
43 53 67
46 57 74
44 54 69
44 54 70
49 60 76
52 63 81
43 53 68
42 51 65
45 56 73
47 57 72
45 55 69
44 53 68
40 50 64
42 53 68
39 49 63
39 47 61
38 47 61
42 52 67
44 54 69
45 56 72
38 47 60
41 50 64
36 44 57
42 51 65
42 52 67
43 53 68
39 48 61
34 42 54
40 49 62
38 47 61
42 51 66
39 48 61
41 51 66
37 46 59
43 53 68
42 51 65
47 58 73
48 59 75
44 55 70
43 53 67
40 50 64
43 54 69
43 53 68
47 57 73
40 50 65
41 51 65
36 44 57
48 58 74
48 59 75
41 51 64
41 52 68
41 50 64
45 55 71
40 49 64
40 50 64
48 59 76
40 49 63
45 56 72
44 55 71
47 58 74
45 56 72
47 57 73
48 59 75
44 54 68
41 50 64
49 61 78
48 59 77
46 56 72
45 56 72
45 55 71
41 51 67
42 53 69
49 60 77
44 54 69
50 61 78
48 59 75
45 55 70
47 58 74
48 60 77
46 57 74
47 57 73
50 62 80
47 58 74
45 55 70
54 67 86
45 55 71
44 54 69
48 59 77
53 64 80
192 217 255
192 217 255
191 217 255
192 217 255
191 217 255
192 217 255
192 217 255
192 217 255
191 217 255
192 217 255
192 217 255
191 217 255
191 217 255
191 217 255
191 217 255
191 217 255
192 217 255
191 217 255
191 217 255
191 217 255
192 217 255
191 217 255
191 217 255
191 217 255
191 217 255
191 217 255
192 217 255
192 217 255
191 217 255
191 217 255
191 217 255
192 217 255
191 217 255
191 217 255
192 217 255
191 217 255
192 217 255
192 217 255
192 217 255
192 217 255
192 217 255
191 217 255
191 217 255
191 217 255
191 217 255
191 217 255
191 217 255
191 217 255
192 217 255
192 217 255
192 217 255
191 217 255
192 217 255
192 217 255
191 217 255
191 217 255
191 217 255
192 217 255
192 217 255
191 217 255
191 217 255
192 217 255
191 217 255
191 217 255
191 217 255
192 217 255
191 217 255
191 217 255
192 217 255
191 217 255
192 217 255
191 217 255
192 217 255
191 217 255
191 217 255
191 217 255
191 217 255
192 217 255
192 217 255
191 217 255
192 217 255
192 217 255
192 217 255
192 217 255
191 217 255
192 217 255
192 217 255
192 217 255
192 217 255
191 217 255
192 217 255
191 217 255
192 217 255
192 217 255
191 217 255
191 217 255
192 217 255
192 217 255
191 217 255
191 217 255
192 217 255
192 217 255
191 217 255
192 217 255
191 217 255
191 217 255
191 217 255
192 217 255
191 217 255
191 217 255
191 217 255
192 217 255
191 217 255
192 217 255
192 217 255
192 217 255
192 217 255
191 217 255
191 217 255
192 217 255
191 217 255
192 217 255
191 217 255
191 217 255
192 217 255
192 217 255
192 217 255
191 217 255
192 217 255
191 217 255
191 217 255
192 217 255
192 217 255
191 217 255
192 217 255
192 217 255
192 217 255
192 217 255
192 217 255
192 217 255
192 217 255
192 217 255
192 217 255
192 217 255
192 217 255
192 217 255
192 217 255
192 217 255
192 217 255
192 217 255
192 217 255
192 217 255
192 217 255
192 217 255
192 217 255
192 217 255
192 217 255
192 217 255
192 217 255
192 217 255
192 217 255
192 217 255
192 217 255
192 217 255
192 217 255
192 217 255
192 217 255
192 217 255
192 217 255
192 217 255
192 217 255
192 217 255
192 217 255
192 217 255
192 217 255
192 217 255
192 217 255
192 217 255
192 217 255
192 217 255
192 217 255
192 217 255
192 217 255
192 217 255
192 217 255
192 217 255
192 217 255
192 217 255
192 217 255
192 217 255
192 217 255
192 217 255
192 217 255
192 217 255
192 217 255
192 217 255
192 217 255
192 217 255
192 217 255
192 217 255
192 217 255
192 217 255
192 217 255
192 217 255
192 217 255
192 217 255
192 217 255
192 217 255
192 217 255
192 217 255
192 217 255
192 217 255
192 217 255
192 217 255
192 217 255
192 217 255
192 217 255
192 217 255
192 217 255
192 217 255
192 217 255
192 217 255
192 217 255
192 217 255
192 217 255
192 217 255
192 217 255
192 217 255
192 217 255
192 217 255
192 217 255
192 217 255
192 217 255
192 217 255
192 217 255
192 217 255
192 217 255
192 217 255
192 217 255
192 217 255
192 217 255
192 217 255
192 217 255
192 217 255
192 217 255
192 217 255
192 217 255
192 217 255
192 217 255
192 217 255
192 217 255
192 217 255
192 217 255
192 217 255
192 217 255
192 217 255
192 217 255
192 217 255
192 217 255
192 217 255
192 217 255
192 217 255
192 217 255
192 217 255
192 217 255
192 217 255
192 217 255
192 217 255
192 217 255
192 217 255
52 63 80
56 69 88
44 54 69
49 61 78
48 59 75
46 57 73
49 61 78
49 60 77
48 59 77
49 61 78
46 56 72
46 57 72
45 56 74
48 60 78
45 56 73
45 55 70
52 64 81
46 56 71
48 59 76
40 50 64
38 47 60
47 58 74
48 58 74
50 62 79
48 59 76
41 50 64
50 62 79
48 59 76
43 53 69
40 50 64
40 50 65
40 50 64
49 60 77
47 57 73
48 59 77
44 54 69
41 51 65
40 50 65
41 51 65
46 57 74
39 47 61
46 57 73
44 54 68
41 50 64
40 49 62
45 54 69
44 53 68
38 48 62
46 56 71
36 45 57
43 54 69
37 46 60
39 49 63
44 54 68
41 51 65
43 54 69
42 52 67
34 42 54
40 49 62
49 61 79
48 60 77
47 57 73
46 56 71
41 50 63
41 50 64
42 51 66
48 59 76
38 46 58
46 57 73
44 54 68
43 53 68
47 58 75
39 48 61
48 58 73
40 50 65
39 48 62
37 44 56
45 56 72
40 50 64
46 56 72
41 51 65
44 54 70
36 45 58
45 55 71
43 53 68
41 51 65
43 53 68
43 53 69
46 57 74
45 55 70
41 51 65
40 49 62
47 58 73
45 55 71
43 52 67
41 51 65
43 53 69
38 47 61
47 58 73
44 54 70
45 55 70
46 57 73
44 54 69
38 47 59
41 49 63
44 55 71
48 59 75
50 61 78
48 58 73
41 51 65
52 64 82
44 54 69
45 56 72
42 52 66
43 53 68
44 55 70
49 61 79
46 57 73
49 60 78
42 53 68
45 56 72
46 57 74
43 54 71
51 62 78
50 60 76
48 59 75
48 58 75
47 58 75
48 59 76
49 60 76
192 217 255
192 217 255
192 217 255
192 217 255
192 217 255
192 217 255
192 217 255
192 217 255
192 217 255
192 217 255
192 217 255
192 217 255
192 217 255
192 217 255
192 217 255
192 217 255
192 217 255
192 217 255
192 217 255
192 217 255
192 217 255
192 217 255
192 217 255
192 217 255
192 217 255
192 217 255
192 217 255
192 217 255
192 217 255
192 217 255
192 217 255
192 217 255
192 217 255
192 217 255
192 217 255
192 217 255
192 217 255
192 217 255
192 217 255
192 217 255
192 217 255
192 217 255
192 217 255
192 217 255
192 217 255
192 217 255
192 217 255
192 217 255
192 217 255
192 217 255
192 217 255
192 217 255
192 217 255
192 217 255
192 217 255
192 217 255
192 217 255
192 217 255
192 217 255
192 217 255
192 217 255
192 217 255
192 217 255
192 217 255
192 217 255
192 217 255
192 217 255
192 217 255
192 217 255
192 217 255
192 217 255
192 217 255
192 217 255
192 217 255
192 217 255
192 217 255
192 217 255
192 217 255
192 217 255
192 217 255
192 217 255
192 217 255
192 217 255
192 217 255
192 217 255
192 217 255
192 217 255
192 217 255
192 217 255
192 217 255
192 217 255
192 217 255
192 217 255
192 217 255
192 217 255
192 217 255
192 217 255
192 217 255
192 217 255
192 217 255
192 217 255
192 217 255
192 217 255
192 217 255
192 217 255
192 217 255
192 217 255
192 217 255
192 217 255
192 217 255
192 217 255
192 217 255
192 217 255
192 217 255
192 217 255
192 217 255
192 217 255
192 217 255
192 217 255
192 217 255
192 217 255
192 217 255
192 217 255
192 217 255
192 217 255
192 217 255
192 217 255
192 217 255
192 217 255
192 217 255
192 217 255
192 217 255
192 217 255
192 217 255
192 217 255
192 217 255
192 217 255
192 217 255
192 217 255
192 217 255
192 217 255
192 217 255
192 217 255
192 217 255
192 217 255
192 217 255
192 217 255
192 217 255
192 217 255
192 217 255
192 217 255
192 217 255
192 217 255
192 217 255
192 217 255
192 217 255
192 217 255
192 217 255
192 217 255
192 217 255
192 217 255
192 217 255
192 217 255
192 217 255
192 217 255
192 217 255
192 217 255
192 217 255
192 217 255
192 217 255
192 217 255
192 217 255
192 217 255
192 217 255
192 217 255
192 217 255
192 217 255
192 217 255
192 218 255
192 218 255
192 218 255
192 218 255
192 217 255
192 218 255
192 218 255
192 218 255
192 218 255
192 218 255
192 218 255
192 218 255
192 218 255
192 218 255
192 218 255
192 218 255
192 218 255
192 218 255
192 218 255
192 218 255
192 218 255
192 218 255
192 218 255
192 218 255
192 218 255
192 218 255
192 218 255
192 218 255
192 218 255
192 218 255
192 218 255
192 218 255
192 218 255
192 218 255
192 218 255
192 218 255
192 218 255
192 218 255
192 218 255
192 218 255
192 218 255
192 218 255
192 218 255
192 218 255
192 218 255
192 218 255
192 218 255
192 218 255
192 218 255
192 218 255
192 218 255
192 218 255
192 218 255
192 218 255
192 218 255
192 218 255
192 218 255
192 218 255
192 218 255
192 218 255
192 218 255
192 218 255
192 218 255
192 218 255
192 218 255
192 218 255
192 218 255
192 218 255
192 218 255
192 218 255
192 218 255
192 218 255
192 218 255
192 218 255
192 218 255
192 218 255
192 218 255
192 218 255
192 218 255
192 218 255
192 218 255
192 218 255
192 218 255
192 218 255
192 218 255
192 218 255
192 218 255
192 218 255
192 218 255
192 218 255
192 218 255
192 218 255
70 83 102
51 62 80
50 62 79
50 61 78
49 61 78
49 59 75
45 57 73
45 55 71
48 59 76
47 58 75
46 57 73
47 57 73
47 58 75
44 53 68
48 59 76
47 57 73
44 54 69
48 59 76
43 53 68
47 57 72
39 49 63
46 57 73
47 59 75
53 65 83
48 59 75
47 57 73
43 53 67
43 53 69
47 59 76
44 54 68
46 57 72
45 55 71
41 50 64
46 57 73
46 56 71
39 48 62
43 53 67
45 55 70
40 49 63
46 56 71
47 58 74
46 57 75
46 56 72
43 53 68
37 46 58
46 56 71
39 48 61
38 47 61
42 51 65
43 52 66
44 54 68
41 51 66
43 52 67
40 50 65
42 51 65
38 47 60
41 51 65
41 50 63
44 54 69
36 44 56
43 52 67
40 50 64
42 52 66
42 51 65
44 54 69
42 52 66
41 50 65
38 47 60
33 42 54
42 51 65
38 46 60
41 50 64
41 51 66
39 49 63
45 55 70
41 50 65
36 44 57
49 61 77
41 52 68
37 45 58
48 59 76
37 46 60
42 51 65
41 50 63
38 47 62
39 49 62
39 48 62
42 53 68
47 58 75
42 52 67
41 50 65
40 49 63
47 58 74
39 48 62
40 49 62
44 54 69
40 49 63
40 49 63
41 51 66
43 52 66
49 60 76
45 55 70
38 47 60
43 52 67
41 50 64
45 56 72
41 50 64
46 56 72
42 52 67
47 58 73
48 59 75
47 57 73
51 63 80
43 54 69
43 53 69
43 53 68
49 61 78
46 57 74
52 64 81
46 58 75
49 60 77
44 55 71
51 63 81
44 54 70
43 54 69
44 54 70
49 61 78
43 54 70
47 58 75
57 69 88
192 218 255
192 218 255
192 218 255
192 218 255
192 218 255
192 218 255
192 218 255
192 218 255
192 218 255
192 218 255
192 218 255
192 218 255
192 218 255
192 218 255
192 218 255
192 218 255
192 218 255
192 218 255
192 218 255
192 218 255
192 218 255
192 218 255
192 218 255
192 218 255
192 218 255
192 218 255
192 218 255
192 218 255
192 218 255
192 218 255
192 218 255
192 218 255
192 218 255
192 218 255
192 218 255
192 218 255
192 218 255
192 218 255
192 218 255
192 218 255
192 218 255
192 218 255
192 218 255
192 218 255
192 218 255
192 218 255
192 218 255
192 218 255
192 218 255
192 218 255
192 218 255
192 218 255
192 218 255
192 218 255
192 218 255
192 218 255
192 218 255
192 218 255
192 218 255
192 218 255
192 218 255
192 218 255
192 218 255
192 218 255
192 218 255
192 218 255
192 218 255
192 218 255
192 218 255
192 218 255
192 218 255
192 218 255
192 218 255
192 218 255
192 218 255
192 218 255
192 218 255
192 218 255
192 218 255
192 218 255
192 218 255
192 218 255
192 218 255
192 218 255
192 218 255
192 218 255
192 218 255
192 218 255
192 218 255
192 218 255
192 217 255
192 218 255
192 217 255
192 217 255
192 217 255
192 217 255
192 217 255
192 217 255
192 217 255
192 217 255
192 217 255
192 217 255
192 217 255
192 217 255
192 217 255
192 217 255
192 217 255
192 217 255
192 217 255
192 217 255
192 217 255
192 217 255
192 217 255
192 217 255
192 217 255
192 217 255
192 217 255
192 217 255
192 217 255
192 217 255
192 217 255
192 217 255
192 217 255
192 217 255
192 217 255
192 217 255
192 217 255
192 217 255
192 217 255
192 217 255
192 217 255
192 217 255
192 217 255
192 217 255
192 217 255
192 218 255
192 218 255
192 218 255
192 218 255
192 218 255
192 218 255
192 218 255
192 218 255
192 218 255
192 218 255
192 218 255
192 218 255
192 218 255
192 218 255
192 218 255
192 218 255
192 218 255
192 218 255
192 218 255
192 218 255
192 218 255
192 218 255
192 218 255
192 218 255
192 218 255
192 218 255
192 218 255
192 218 255
192 218 255
192 218 255
192 218 255
192 218 255
192 218 255
192 218 255
192 218 255
192 218 255
192 218 255
192 218 255
192 218 255
192 218 255
192 218 255
192 218 255
192 218 255
192 218 255
192 218 255
192 218 255
193 218 255
193 218 255
193 218 255
193 218 255
193 218 255
193 218 255
193 218 255
193 218 255
193 218 255
193 218 255
193 218 255
193 218 255
193 218 255
193 218 255
193 218 255
193 218 255
193 218 255
193 218 255
193 218 255
193 218 255
193 218 255
193 218 255
193 218 255
193 218 255
193 218 255
193 218 255
193 218 255
193 218 255
193 218 255
193 218 255
193 218 255
193 218 255
193 218 255
193 218 255
193 218 255
193 218 255
193 218 255
193 218 255
193 218 255
193 218 255
193 218 255
193 218 255
193 218 255
193 218 255
193 218 255
193 218 255
193 218 255
193 218 255
193 218 255
193 218 255
193 218 255
193 218 255
193 218 255
193 218 255
193 218 255
193 218 255
193 218 255
193 218 255
193 218 255
193 218 255
193 218 255
193 218 255
193 218 255
193 218 255
193 218 255
193 218 255
193 218 255
193 218 255
193 218 255
193 218 255
193 218 255
193 218 255
193 218 255
193 218 255
193 218 255
193 218 255
193 218 255
193 218 255
193 218 255
193 218 255
193 218 255
193 218 255
193 218 255
193 218 255
193 218 255
193 218 255
193 218 255
193 218 255
193 218 255
49 59 75
44 55 72
47 58 74
43 52 66
47 58 75
50 62 80
47 59 76
51 63 80
47 58 75
48 58 74
48 60 77
46 57 73
43 53 68
48 59 75
48 59 76
44 55 70
46 57 73
43 53 68
45 55 70
44 54 69
46 57 73
45 54 69
46 57 75
45 56 72
43 54 69
46 56 73
43 53 68
49 61 79
47 59 75
48 59 75
44 54 69
43 52 67
45 56 73
47 57 72
45 55 70
44 54 68
47 57 73
42 52 66
41 50 65
36 44 57
46 57 73
52 63 80
45 55 71
43 52 67
41 50 63
45 55 70
43 52 66
39 49 63
42 52 66
43 52 67
40 49 64
39 48 62
44 54 68
46 56 70
37 46 59
43 53 68
39 49 64
38 46 59
45 55 70
39 48 62
39 48 62
46 58 74
39 48 62
39 48 63
49 59 75
37 46 59
42 52 67
38 47 61
42 52 67
43 52 66
49 60 76
45 54 69
41 51 66
41 51 65
43 53 68
45 55 70
46 56 71
43 52 67
44 54 70
40 50 64
36 45 58
39 49 62
49 61 78
40 49 62
52 64 81
40 50 65
41 51 65
44 54 69
43 53 68
35 44 56
40 49 63
50 61 77
44 54 69
44 54 69
43 53 68
37 46 60
41 50 63
39 50 65
47 57 73
43 53 67
42 52 67
46 56 71
40 50 65
47 58 74
49 61 78
40 50 64
41 51 65
42 52 66
45 55 71
40 50 65
41 51 66
44 54 68
48 59 75
47 57 73
46 57 73
45 55 70
45 55 71
45 56 72
48 59 76
47 58 74
45 56 71
47 59 77
48 59 75
41 51 66
40 50 65
45 55 71
47 58 75
50 61 77
51 63 81
63 75 94
193 218 255
193 218 255
193 218 255
193 218 255
193 218 255
193 218 255
193 218 255
193 218 255
193 218 255
193 218 255
193 218 255
193 218 255
193 218 255
193 218 255
193 218 255
193 218 255
193 218 255
193 218 255
193 218 255
193 218 255
193 218 255
193 218 255
193 218 255
193 218 255
193 218 255
193 218 255
193 218 255
193 218 255
193 218 255
193 218 255
193 218 255
193 218 255
193 218 255
193 218 255
193 218 255
193 218 255
193 218 255
193 218 255
193 218 255
193 218 255
193 218 255
193 218 255
193 218 255
193 218 255
193 218 255
193 218 255
193 218 255
193 218 255
193 218 255
193 218 255
193 218 255
193 218 255
193 218 255
193 218 255
193 218 255
193 218 255
193 218 255
193 218 255
193 218 255
193 218 255
193 218 255
193 218 255
193 218 255
193 218 255
193 218 255
193 218 255
193 218 255
193 218 255
193 218 255
193 218 255
193 218 255
193 218 255
193 218 255
193 218 255
193 218 255
193 218 255
193 218 255
193 218 255
193 218 255
193 218 255
193 218 255
193 218 255
193 218 255
193 218 255
193 218 255
193 218 255
193 218 255
193 218 255
192 218 255
192 218 255
192 218 255
193 218 255
192 218 255
192 218 255
192 218 255
192 218 255
192 218 255
192 218 255
192 218 255
192 218 255
192 218 255
192 218 255
192 218 255
192 218 255
192 218 255
192 218 255
192 218 255
192 218 255
192 218 255
192 218 255
192 218 255
192 218 255
192 218 255
192 218 255
192 218 255
192 218 255
192 218 255
192 218 255
192 218 255
192 218 255
192 218 255
192 218 255
192 218 255
192 218 255
192 218 255
192 218 255
192 218 255
192 218 255
192 218 255
192 218 255
192 218 255
192 218 255
192 218 255
192 218 255
192 218 255
193 218 255
193 218 255
193 218 255
193 218 255
193 218 255
193 218 255
193 218 255
193 218 255
193 218 255
193 218 255
193 218 255
193 218 255
193 218 255
193 218 255
193 218 255
193 218 255
193 218 255
193 218 255
193 218 255
193 218 255
193 218 255
193 218 255
193 218 255
193 218 255
193 218 255
193 218 255
193 218 255
193 218 255
193 218 255
193 218 255
193 218 255
193 218 255
193 218 255
193 218 255
193 218 255
193 218 255
193 218 255
193 218 255
193 218 255
193 218 255
193 218 255
193 218 255
193 218 255
193 218 255
193 218 255
193 218 255
193 218 255
193 218 255
193 218 255
193 218 255
193 218 255
193 218 255
193 218 255
193 218 255
193 218 255
193 218 255
193 218 255
193 218 255
193 218 255
193 218 255
193 218 255
193 218 255
193 218 255
193 218 255
193 218 255
193 218 255
193 218 255
193 218 255
193 218 255
193 218 255
193 218 255
193 218 255
193 218 255
193 218 255
193 218 255
193 218 255
193 218 255
193 218 255
193 218 255
193 218 255
193 218 255
193 218 255
193 218 255
193 218 255
193 218 255
193 218 255
193 218 255
193 218 255
193 218 255
193 218 255
193 218 255
193 218 255
193 218 255
193 218 255
193 218 255
193 218 255
193 218 255
193 218 255
193 218 255
193 218 255
193 218 255
193 218 255
193 218 255
193 218 255
193 218 255
193 218 255
193 218 255
193 218 255
193 218 255
193 218 255
193 218 255
193 218 255
193 218 255
193 218 255
193 218 255
193 218 255
193 218 255
193 218 255
193 218 255
193 218 255
193 218 255
193 218 255
193 218 255
193 218 255
193 218 255
193 218 255
193 218 255
193 218 255
193 218 255
193 218 255
193 218 255
193 218 255
193 218 255
193 218 255
193 218 255
76 89 110
50 62 80
48 58 74
45 56 71
44 54 70
51 62 78
49 59 75
45 55 70
41 52 67
46 57 73
51 63 80
51 63 81
42 51 65
47 58 73
44 55 71
45 56 71
46 57 72
46 56 71
42 52 66
44 54 70
47 57 72
48 59 76
47 57 73
48 59 76
43 53 68
41 51 66
46 57 73
43 53 67
44 54 69
49 60 77
40 50 64
40 50 65
45 56 72
41 51 66
40 49 63
46 56 71
44 54 70
41 51 67
41 50 64
45 56 71
39 48 62
44 54 70
47 58 74
43 53 67
44 54 69
40 49 63
41 51 66
43 53 68
43 54 69
44 53 67
45 55 71
42 52 66
38 46 59
44 55 71
43 52 66
41 51 65
42 52 66
44 53 68
41 51 66
40 49 63
38 47 61
42 51 65
44 55 70
40 49 62
42 52 67
43 53 69
42 52 67
46 55 70
43 53 68
44 54 69
41 51 65
41 50 64
41 50 63
40 49 62
42 51 65
43 52 67
37 46 59
45 55 72
43 54 69
45 56 72
46 56 71
43 54 69
41 51 65
43 54 70
40 49 62
43 54 69
42 52 66
41 50 64
43 52 66
42 51 65
40 49 62
40 49 64
46 57 73
46 57 72
42 52 67
37 46 59
43 52 67
46 57 74
46 58 75
43 53 67
45 55 71
35 44 56
43 53 68
44 53 67
44 55 71
45 56 72
41 50 64
44 54 69
40 49 63
44 53 67
44 54 70
42 52 66
49 60 76
44 55 71
40 49 63
50 61 77
46 56 71
42 52 68
46 57 73
47 58 74
49 60 76
48 59 76
50 60 77
45 55 71
41 51 65
42 52 67
50 62 80
49 61 78
45 55 71
66 79 98
193 218 255
193 218 255
193 218 255
193 218 255
193 218 255
193 218 255
193 218 255
193 218 255
193 218 255
193 218 255
193 218 255
193 218 255
193 218 255
193 218 255
193 218 255
193 218 255
193 218 255
193 218 255
193 218 255
193 218 255
193 218 255
193 218 255
193 218 255
193 218 255
193 218 255
193 218 255
193 218 255
193 218 255
193 218 255
193 218 255
193 218 255
193 218 255
193 218 255
193 218 255
193 218 255
193 218 255
193 218 255
193 218 255
193 218 255
193 218 255
193 218 255
193 218 255
193 218 255
193 218 255
193 218 255
193 218 255
193 218 255
193 218 255
193 218 255
193 218 255
193 218 255
193 218 255
193 218 255
193 218 255
193 218 255
193 218 255
193 218 255
193 218 255
193 218 255
193 218 255
193 218 255
193 218 255
193 218 255
193 218 255
193 218 255
193 218 255
193 218 255
193 218 255
193 218 255
193 218 255
193 218 255
193 218 255
193 218 255
193 218 255
193 218 255
193 218 255
193 218 255
193 218 255
193 218 255
193 218 255
193 218 255
193 218 255
193 218 255
193 218 255
193 218 255
193 218 255
193 218 255
193 218 255
193 218 255
193 218 255
193 218 255
193 218 255
193 218 255
193 218 255
193 218 255
193 218 255
193 218 255
193 218 255
193 218 255
193 218 255
193 218 255
193 218 255
193 218 255
193 218 255
193 218 255
193 218 255
193 218 255
193 218 255
193 218 255
193 218 255
193 218 255
193 218 255
193 218 255
193 218 255
193 218 255
193 218 255
193 218 255
193 218 255
193 218 255
193 218 255
193 218 255
193 218 255
193 218 255
193 218 255
193 218 255
193 218 255
193 218 255
193 218 255
193 218 255
193 218 255
193 218 255
193 218 255
193 218 255
193 218 255
193 218 255
193 218 255
193 218 255
193 218 255
193 218 255
193 218 255
193 218 255
193 218 255
193 218 255
193 218 255
193 218 255
193 218 255
193 218 255
193 218 255
193 218 255
193 218 255
193 218 255
193 218 255
193 218 255
193 218 255
193 218 255
193 218 255
193 218 255
193 218 255
193 218 255
193 218 255
193 218 255
193 218 255
193 218 255
193 218 255
193 218 255
193 218 255
193 218 255
193 218 255
193 218 255
193 218 255
193 218 255
193 218 255
193 218 255
193 218 255
193 218 255
193 218 255
193 218 255
193 218 255
193 218 255
193 218 255
193 218 255
193 218 255
193 218 255
193 218 255
193 218 255
193 218 255
193 218 255
193 218 255
193 218 255
193 218 255
193 218 255
193 218 255
193 218 255
193 218 255
193 218 255
193 218 255
193 218 255
193 218 255
193 218 255
193 218 255
193 218 255
193 218 255
193 218 255
193 218 255
193 218 255
193 218 255
193 218 255
193 218 255
193 218 255
193 218 255
193 218 255
193 218 255
193 218 255
193 218 255
193 218 255
193 218 255
193 218 255
193 218 255
193 218 255
193 218 255
193 218 255
194 218 255
194 218 255
193 218 255
194 218 255
194 218 255
194 218 255
194 218 255
194 218 255
194 218 255
194 218 255
194 218 255
194 218 255
194 218 255
194 218 255
194 218 255
194 218 255
194 218 255
194 218 255
194 218 255
194 218 255
194 218 255
194 218 255
194 218 255
194 218 255
194 218 255
194 218 255
194 218 255
194 218 255
194 218 255
194 218 255
194 218 255
194 218 255
194 218 255
194 218 255
194 218 255
194 218 255
194 218 255
194 219 255
194 219 255
194 219 255
194 219 255
194 219 255
194 219 255
194 219 255
194 219 255
194 219 255
194 219 255
194 219 255
194 219 255
78 92 111
50 62 80
44 53 68
46 57 73
45 55 70
44 54 70
44 54 69
42 52 67
47 57 73
44 54 69
47 58 75
46 56 71
43 53 68
44 54 69
49 60 77
46 57 73
49 60 75
52 64 81
48 59 75
40 50 64
42 52 66
41 50 64
44 54 68
46 57 72
44 55 70
46 57 73
41 51 64
46 56 72
46 56 71
41 50 64
45 56 72
45 56 71
43 53 68
42 52 67
45 56 71
35 43 55
41 50 64
43 53 67
40 48 62
45 54 68
46 57 73
47 58 75
39 48 61
39 48 61
42 52 66
45 55 70
47 57 73
42 51 65
34 43 55
42 50 64
45 56 71
44 53 68
41 50 65
39 48 62
40 49 62
40 49 63
47 58 74
45 54 69
39 48 62
43 52 67
36 44 57
44 54 69
39 48 62
42 52 66
40 49 63
42 53 68
45 55 69
40 50 64
38 47 62
43 52 67
44 55 70
35 44 57
41 50 64
41 51 65
44 54 69
36 44 56
44 55 71
40 49 63
44 55 71
39 48 62
41 51 66
49 60 77
45 55 70
43 53 67
36 45 58
42 51 65
45 54 69
44 55 71
40 49 62
39 48 61
41 50 65
46 55 70
44 54 68
41 51 65
38 47 60
42 52 65
41 51 65
42 53 68
42 52 66
45 57 73
46 56 72
46 56 71
44 55 70
47 57 73
43 53 67
43 52 67
44 55 70
47 57 72
45 55 70
43 54 70
38 47 60
41 50 64
49 59 75
47 57 72
44 54 70
43 53 68
43 55 71
48 59 77
48 59 76
46 56 72
46 56 72
52 64 81
51 63 81
49 61 79
45 56 71
47 58 76
42 51 65
43 53 69
53 64 82
81 96 117
194 219 255
194 219 255
194 219 255
194 219 255
194 219 255
194 219 255
194 219 255
194 219 255
194 219 255
194 219 255
194 219 255
194 218 255
194 219 255
194 219 255
194 218 255
194 218 255
194 218 255
194 218 255
194 218 255
194 218 255
194 218 255
194 218 255
194 218 255
194 218 255
194 218 255
194 218 255
194 218 255
194 218 255
194 218 255
194 218 255
194 218 255
194 218 255
194 218 255
194 218 255
194 218 255
194 218 255
194 218 255
194 218 255
194 218 255
194 218 255
194 218 255
194 218 255
194 218 255
194 218 255
194 218 255
194 218 255
194 218 255
194 218 255
193 218 255
193 218 255
193 218 255
193 218 255
193 218 255
193 218 255
193 218 255
193 218 255
193 218 255
193 218 255
193 218 255
193 218 255
193 218 255
193 218 255
193 218 255
193 218 255
193 218 255
193 218 255
193 218 255
193 218 255
193 218 255
193 218 255
193 218 255
193 218 255
193 218 255
193 218 255
193 218 255
193 218 255
193 218 255
193 218 255
193 218 255
193 218 255
193 218 255
193 218 255
193 218 255
193 218 255
193 218 255
193 218 255
193 218 255
193 218 255
193 218 255
193 218 255
193 218 255
193 218 255
193 218 255
193 218 255
193 218 255
193 218 255
193 218 255
193 218 255
193 218 255
193 218 255
193 218 255
193 218 255
193 218 255
193 218 255
193 218 255
193 218 255
193 218 255
193 218 255
193 218 255
193 218 255
193 218 255
193 218 255
193 218 255
193 218 255
193 218 255
193 218 255
193 218 255
193 218 255
193 218 255
193 218 255
193 218 255
193 218 255
193 218 255
193 218 255
193 218 255
193 218 255
193 218 255
193 218 255
193 218 255
193 218 255
193 218 255
193 218 255
193 218 255
193 218 255
193 218 255
193 218 255
193 218 255
193 218 255
193 218 255
193 218 255
193 218 255
193 218 255
193 218 255
193 218 255
193 218 255
193 218 255
193 218 255
193 218 255
193 218 255
193 218 255
193 218 255
193 218 255
193 218 255
193 218 255
193 218 255
193 218 255
193 218 255
193 218 255
193 218 255
193 218 255
193 218 255
193 218 255
193 218 255
193 218 255
193 218 255
193 218 255
193 218 255
193 218 255
193 218 255
193 218 255
193 218 255
193 218 255
193 218 255
193 218 255
193 218 255
193 218 255
193 218 255
193 218 255
193 218 255
193 218 255
194 218 255
194 218 255
194 218 255
194 218 255
194 218 255
194 218 255
194 218 255
194 218 255
194 218 255
194 218 255
194 218 255
194 218 255
194 218 255
194 218 255
194 218 255
194 218 255
194 218 255
194 218 255
194 218 255
194 218 255
194 218 255
194 218 255
194 218 255
194 218 255
194 218 255
194 218 255
194 218 255
194 218 255
194 218 255
194 218 255
194 218 255
194 218 255
194 218 255
194 218 255
194 219 255
194 219 255
194 218 255
194 219 255
194 219 255
194 219 255
194 219 255
194 219 255
194 219 255
194 219 255
194 219 255
194 219 255
194 219 255
194 219 255
194 219 255
194 219 255
194 219 255
194 219 255
194 219 255
194 219 255
194 219 255
194 219 255
194 219 255
194 219 255
194 219 255
194 219 255
194 219 255
194 219 255
194 219 255
194 219 255
194 219 255
194 219 255
194 219 255
194 219 255
194 219 255
194 219 255
194 219 255
194 219 255
194 219 255
194 219 255
194 219 255
194 219 255
194 219 255
194 219 255
194 219 255
194 219 255
194 219 255
194 219 255
194 219 255
194 219 255
194 219 255
194 219 255
194 219 255
194 219 255
194 219 255
194 219 255
87 101 123
47 58 74
48 59 75
45 57 73
50 61 77
51 63 80
46 57 73
50 61 78
43 53 69
49 60 76
46 57 73
45 55 69
45 55 70
50 62 80
47 57 73
46 56 72
52 63 80
42 51 65
47 58 75
46 56 71
50 61 79
38 48 61
47 58 75
39 48 61
45 55 70
48 59 76
44 55 70
46 56 70
42 52 66
48 58 74
41 51 64
45 56 71
37 45 59
43 54 69
42 53 69
39 48 62
41 50 64
39 48 61
46 56 72
49 59 75
38 47 60
37 45 56
38 46 59
35 44 57
46 56 72
43 53 69
42 51 65
45 56 72
41 49 62
41 50 64
41 50 64
44 54 70
47 57 72
45 55 69
43 52 66
44 54 69
40 50 64
43 53 68
41 51 65
35 43 56
38 47 61
48 59 75
41 51 66
42 52 66
40 50 65
43 54 69
39 48 61
35 43 56
42 51 65
44 54 70
45 55 69
40 50 65
40 50 63
42 51 66
46 56 71
38 47 60
45 56 72
48 59 76
44 53 68
39 47 60
47 57 73
43 52 67
47 58 75
38 47 60
36 44 57
44 53 67
41 50 64
45 56 71
43 53 68
42 52 66
44 53 68
45 55 71
46 56 71
44 54 69
40 49 62
41 51 67
50 61 78
47 57 72
39 48 62
43 52 67
44 55 71
44 54 68
45 55 71
41 51 66
46 57 73
44 54 70
42 53 68
41 50 64
41 50 64
41 50 63
41 51 65
40 50 65
50 61 78
43 53 68
41 51 67
46 57 73
39 48 60
55 67 85
48 59 76
49 61 78
52 63 79
46 56 71
45 56 71
41 50 64
47 58 74
46 57 72
46 57 73
45 55 70
51 63 81
80 94 116
194 219 255
194 219 255
194 219 255
194 219 255
194 219 255
194 219 255
194 219 255
194 219 255
194 219 255
194 219 255
194 219 255
194 219 255
194 219 255
194 219 255
194 219 255
194 219 255
194 219 255
194 219 255
194 219 255
194 219 255
194 219 255
194 219 255
194 219 255
194 219 255
194 219 255
194 219 255
194 219 255
194 219 255
194 219 255
194 219 255
194 219 255
194 219 255
194 219 255
194 219 255
194 219 255
194 219 255
194 219 255
194 219 255
194 219 255
194 219 255
194 219 255
194 219 255
194 219 255
194 219 255
194 219 255
194 219 255
194 219 255
194 219 255
194 219 255
194 219 255
194 219 255
194 219 255
194 219 255
194 219 255
194 219 255
194 218 255
194 218 255
194 218 255
194 218 255
194 218 255
194 218 255
194 218 255
194 218 255
194 218 255
194 218 255
194 218 255
194 218 255
194 218 255
194 218 255
194 218 255
194 218 255
194 218 255
194 218 255
194 218 255
194 218 255
194 218 255
194 218 255
194 218 255
194 218 255
194 218 255
194 218 255
194 218 255
194 218 255
194 218 255
194 218 255
194 218 255
194 218 255
194 218 255
194 218 255
194 218 255
193 218 255
193 218 255
193 218 255
193 218 255
193 218 255
193 218 255
193 218 255
193 218 255
193 218 255
193 218 255
193 218 255
193 218 255
193 218 255
193 218 255
193 218 255
193 218 255
193 218 255
193 218 255
193 218 255
193 218 255
193 218 255
193 218 255
193 218 255
193 218 255
193 218 255
193 218 255
193 218 255
193 218 255
193 218 255
193 218 255
193 218 255
193 218 255
193 218 255
193 218 255
193 218 255
193 218 255
193 218 255
193 218 255
193 218 255
193 218 255
193 218 255
193 218 255
193 218 255
193 218 255
193 218 255
193 218 255
193 218 255
193 218 255
193 218 255
193 218 255
193 218 255
194 218 255
194 218 255
194 218 255
194 218 255
194 218 255
194 218 255
194 218 255
194 218 255
194 218 255
194 218 255
194 218 255
194 218 255
194 218 255
194 218 255
194 218 255
194 218 255
194 218 255
194 218 255
194 218 255
194 218 255
194 218 255
194 218 255
194 218 255
194 218 255
194 218 255
194 218 255
194 218 255
194 218 255
194 218 255
194 218 255
194 218 255
194 218 255
194 218 255
194 218 255
194 218 255
194 218 255
194 218 255
194 218 255
194 219 255
194 218 255
194 219 255
194 219 255
194 219 255
194 219 255
194 219 255
194 219 255
194 219 255
194 219 255
194 219 255
194 219 255
194 219 255
194 219 255
194 219 255
194 219 255
194 219 255
194 219 255
194 219 255
194 219 255
194 219 255
194 219 255
194 219 255
194 219 255
194 219 255
194 219 255
194 219 255
194 219 255
194 219 255
194 219 255
194 219 255
194 219 255
194 219 255
194 219 255
194 219 255
194 219 255
194 219 255
194 219 255
194 219 255
194 219 255
194 219 255
194 219 255
194 219 255
194 219 255
194 219 255
194 219 255
194 219 255
194 219 255
194 219 255
194 219 255
194 219 255
194 219 255
194 219 255
194 219 255
194 219 255
194 219 255
194 219 255
195 219 255
195 219 255
195 219 255
195 219 255
195 219 255
195 219 255
195 219 255
195 219 255
195 219 255
195 219 255
195 219 255
195 219 255
195 219 255
195 219 255
195 219 255
195 219 255
195 219 255
195 219 255
195 219 255
195 219 255
195 219 255
195 219 255
195 219 255
195 219 255
195 219 255
195 219 255
195 219 255
195 219 255
195 219 255
195 219 255
195 219 255
195 219 255
195 219 255
195 219 255
112 129 154
47 58 74
44 55 70
46 57 74
44 54 69
41 51 65
49 61 78
48 59 76
44 54 70
47 57 72
38 47 60
49 61 78
41 52 67
46 56 71
47 58 74
42 52 67
49 60 77
47 57 72
44 54 68
48 60 77
43 53 68
44 54 70
46 56 71
47 59 76
41 51 66
40 50 64
45 55 70
43 53 68
41 51 65
43 54 70
44 55 70
47 57 73
41 50 63
44 55 70
48 59 74
46 56 72
41 50 64
46 56 73
47 58 74
48 59 76
39 48 61
41 51 66
45 56 72
41 50 64
45 55 70
40 49 62
40 49 63
46 56 71
42 52 65
40 48 61
42 52 67
36 44 57
48 58 74
40 48 61
44 54 69
44 54 69
41 50 64
40 49 63
38 48 62
41 51 66
43 53 68
41 50 64
42 52 66
41 50 64
38 47 61
45 55 69
45 55 70
47 57 72
38 47 61
43 53 69
33 41 53
39 49 62
48 60 77
40 49 63
41 50 64
39 48 61
36 45 58
40 49 63
44 54 69
42 52 66
43 53 68
42 52 66
40 49 63
52 63 80
40 50 64
39 48 62
46 57 72
42 52 67
37 45 57
38 47 59
42 52 67
45 55 71
40 49 63
45 56 71
41 51 65
43 52 67
40 49 63
44 55 70
42 52 67
40 49 63
42 52 66
43 53 68
46 56 72
46 56 72
50 61 78
44 54 68
45 56 72
44 55 71
43 53 68
42 52 67
49 60 77
39 48 62
41 51 66
43 53 67
48 58 74
48 59 75
45 56 73
45 54 69
45 56 73
47 57 73
45 56 72
44 55 72
48 59 75
42 52 68
42 52 66
46 57 73
50 62 79
44 54 69
42 51 65
111 128 152
195 219 255
195 219 255
195 219 255
195 219 255
195 219 255
195 219 255
195 219 255
195 219 255
195 219 255
195 219 255
195 219 255
195 219 255
195 219 255
195 219 255
195 219 255
195 219 255
195 219 255
195 219 255
195 219 255
195 219 255
195 219 255
195 219 255
195 219 255
195 219 255
195 219 255
195 219 255
195 219 255
195 219 255
195 219 255
195 219 255
195 219 255
195 219 255
195 219 255
195 219 255
194 219 255
194 219 255
194 219 255
194 219 255
194 219 255
194 219 255
194 219 255
194 219 255
194 219 255
194 219 255
194 219 255
194 219 255
194 219 255
194 219 255
194 219 255
194 219 255
194 219 255
194 219 255
194 219 255
194 219 255
194 219 255
194 219 255
194 219 255
194 219 255
194 219 255
194 219 255
194 219 255
194 219 255
194 219 255
194 219 255
194 219 255
194 219 255
194 219 255
194 219 255
194 219 255
194 219 255
194 219 255
194 219 255
194 219 255
194 219 255
194 219 255
194 219 255
194 219 255
194 219 255
194 219 255
194 219 255
194 219 255
194 219 255
194 219 255
194 219 255
194 219 255
194 219 255
194 219 255
194 219 255
194 219 255
194 219 255
194 218 255
194 219 255
194 218 255
194 218 255
194 218 255
194 218 255
194 218 255
194 218 255
194 218 255
194 218 255
194 218 255
194 218 255
194 218 255
194 218 255
194 218 255
194 218 255
194 218 255
194 218 255
194 218 255
194 218 255
194 218 255
194 218 255
194 218 255
194 218 255
194 218 255
194 218 255
194 218 255
194 218 255
194 218 255
194 218 255
194 218 255
194 218 255
194 218 255
194 218 255
194 218 255
194 218 255
194 218 255
194 218 255
194 218 255
193 218 255
193 218 255
193 218 255
193 218 255
193 218 255
193 218 255
194 218 255
194 218 255
194 218 255
194 218 255
194 218 255
194 218 255
194 218 255
194 218 255
194 218 255
194 218 255
194 218 255
194 219 255
194 219 255
194 218 255
194 219 255
194 219 255
194 219 255
194 219 255
194 219 255
194 219 255
194 219 255
194 219 255
194 219 255
194 219 255
194 219 255
194 219 255
194 219 255
194 219 255
194 219 255
194 219 255
194 219 255
194 219 255
194 219 255
194 219 255
194 219 255
194 219 255
194 219 255
194 219 255
194 219 255
194 219 255
194 219 255
194 219 255
194 219 255
194 219 255
194 219 255
194 219 255
194 219 255
194 219 255
194 219 255
194 219 255
194 219 255
194 219 255
194 219 255
194 219 255
194 219 255
194 219 255
194 219 255
194 219 255
194 219 255
194 219 255
194 219 255
194 219 255
194 219 255
194 219 255
194 219 255
194 219 255
194 219 255
194 219 255
194 219 255
194 219 255
194 219 255
194 219 255
195 219 255
195 219 255
195 219 255
195 219 255
195 219 255
195 219 255
195 219 255
195 219 255
195 219 255
195 219 255
195 219 255
195 219 255
195 219 255
195 219 255
195 219 255
195 219 255
195 219 255
195 219 255
195 219 255
195 219 255
195 219 255
195 219 255
195 219 255
195 219 255
195 219 255
195 219 255
195 219 255
195 219 255
195 219 255
195 219 255
195 219 255
195 219 255
195 219 255
195 219 255
195 219 255
195 219 255
195 219 255
195 219 255
195 219 255
195 219 255
195 219 255
195 219 255
195 219 255
195 219 255
195 219 255
195 219 255
195 219 255
195 219 255
195 219 255
195 219 255
195 219 255
195 219 255
195 219 255
195 219 255
195 219 255
195 219 255
195 219 255
195 219 255
195 219 255
195 219 255
195 219 255
195 219 255
195 219 255
125 143 170
50 61 77
48 58 73
44 54 69
45 56 73
43 52 67
44 54 69
43 53 67
41 50 64
45 57 73
50 61 77
47 58 73
46 56 72
48 59 75
48 59 76
46 57 72
40 49 63
44 55 71
39 48 62
45 55 71
41 51 66
43 52 67
43 53 67
39 49 63
39 48 61
43 53 67
44 53 67
43 53 67
45 55 69
45 55 70
45 55 71
47 58 73
39 48 61
45 55 70
45 55 71
47 57 73
44 54 70
46 56 70
39 49 63
41 51 66
37 45 57
41 50 63
41 50 65
38 47 61
41 51 67
41 50 63
43 53 67
43 52 66
43 52 67
42 52 67
41 50 64
43 53 68
41 50 64
45 55 69
44 54 69
44 54 70
36 44 56
49 60 76
37 46 58
45 55 70
42 51 65
34 42 54
46 56 70
37 46 59
38 47 60
43 52 67
38 47 60
43 53 68
42 53 68
39 48 62
38 47 61
44 54 69
45 55 70
39 48 62
45 55 70
47 57 71
42 52 67
40 49 63
42 52 68
37 45 58
39 47 60
41 50 64
42 52 67
45 55 71
43 53 68
44 54 68
42 51 65
40 49 63
40 50 65
46 55 70
44 55 70
46 56 72
44 54 68
40 50 64
46 57 73
41 50 64
38 47 60
51 62 78
48 60 76
39 48 62
45 55 71
39 47 60
41 50 63
43 53 68
46 56 72
45 55 71
43 53 68
47 58 74
43 52 66
45 55 70
44 55 70
45 55 69
44 54 69
50 62 79
48 58 74
47 57 72
49 60 78
46 56 71
47 57 72
46 56 71
40 49 62
44 54 68
46 56 72
48 59 76
45 55 70
43 53 68
48 59 76
48 59 75
45 55 71
124 141 167
195 219 255
195 219 255
195 219 255
195 219 255
195 219 255
195 219 255
195 219 255
195 219 255
195 219 255
195 219 255
195 219 255
195 219 255
195 219 255
195 219 255
195 219 255
195 219 255
195 219 255
195 219 255
195 219 255
195 219 255
195 219 255
195 219 255
195 219 255
195 219 255
195 219 255
195 219 255
195 219 255
195 219 255
195 219 255
195 219 255
195 219 255
195 219 255
195 219 255
195 219 255
195 219 255
195 219 255
195 219 255
195 219 255
195 219 255
195 219 255
195 219 255
195 219 255
195 219 255
195 219 255
195 219 255
195 219 255
195 219 255
195 219 255
195 219 255
195 219 255
195 219 255
195 219 255
195 219 255
195 219 255
195 219 255
195 219 255
195 219 255
195 219 255
195 219 255
195 219 255
195 219 255
195 219 255
195 219 255
194 219 255
194 219 255
194 219 255
194 219 255
194 219 255
194 219 255
194 219 255
194 219 255
194 219 255
194 219 255
194 219 255
194 219 255
194 219 255
194 219 255
194 219 255
194 219 255
194 219 255
194 219 255
194 219 255
194 219 255
194 219 255
194 219 255
194 219 255
194 219 255
194 219 255
194 219 255
194 219 255
194 219 255
194 219 255
194 219 255
194 219 255
194 219 255
194 219 255
194 219 255
194 219 255
194 219 255
194 219 255
194 219 255
194 219 255
194 219 255
194 219 255
194 219 255
194 219 255
194 219 255
194 219 255
194 219 255
194 219 255
194 219 255
194 219 255
194 219 255
194 219 255
194 219 255
194 219 255
194 219 255
194 219 255
194 219 255
194 219 255
194 219 255
194 219 255
194 219 255
194 218 255
194 218 255
194 218 255
194 218 255
194 218 255
194 218 255
194 218 255
194 218 255
194 218 255
194 218 255
194 218 255
194 218 255
194 219 255
194 219 255
194 219 255
194 219 255
194 219 255
194 219 255
194 219 255
194 219 255
194 219 255
194 219 255
194 219 255
194 219 255
194 219 255
194 219 255
194 219 255
194 219 255
194 219 255
194 219 255
194 219 255
194 219 255
194 219 255
194 219 255
194 219 255
194 219 255
194 219 255
194 219 255
194 219 255
194 219 255
194 219 255
194 219 255
194 219 255
194 219 255
194 219 255
194 219 255
194 219 255
194 219 255
194 219 255
194 219 255
194 219 255
194 219 255
194 219 255
194 219 255
194 219 255
194 219 255
195 219 255
195 219 255
195 219 255
195 219 255
195 219 255
195 219 255
195 219 255
195 219 255
195 219 255
195 219 255
195 219 255
195 219 255
195 219 255
195 219 255
195 219 255
195 219 255
195 219 255
195 219 255
195 219 255
195 219 255
195 219 255
195 219 255
195 219 255
195 219 255
195 219 255
195 219 255
195 219 255
195 219 255
195 219 255
195 219 255
195 219 255
195 219 255
195 219 255
195 219 255
195 219 255
195 219 255
195 219 255
195 219 255
195 219 255
195 219 255
195 219 255
195 219 255
195 219 255
195 219 255
195 219 255
195 219 255
195 219 255
195 219 255
195 219 255
195 219 255
195 219 255
195 219 255
195 219 255
195 219 255
195 219 255
195 219 255
195 219 255
195 219 255
195 219 255
195 219 255
195 219 255
195 219 255
195 219 255
195 219 255
195 219 255
195 219 255
195 219 255
196 220 255
196 220 255
196 220 255
196 220 255
196 220 255
196 220 255
196 220 255
196 220 255
196 220 255
196 220 255
196 220 255
196 220 255
196 220 255
196 220 255
196 220 255
196 220 255
196 220 255
196 220 255
196 220 255
196 220 255
196 220 255
196 220 255
196 220 255
196 220 255
147 166 195
41 50 64
46 57 74
47 57 72
45 56 73
44 55 70
42 52 66
47 59 75
45 55 70
43 52 66
48 59 76
47 57 73
45 56 72
46 56 72
44 53 68
43 53 69
41 52 67
44 55 71
52 63 81
43 53 68
46 56 72
43 53 66
42 52 67
43 53 69
41 51 66
41 50 64
43 53 67
41 51 65
41 51 65
42 52 67
46 56 71
36 45 58
39 48 61
45 55 70
43 52 66
44 55 71
41 51 67
44 54 69
41 52 67
49 60 76
43 54 69
42 51 66
43 52 66
41 51 66
44 56 72
46 56 71
35 44 56
40 49 62
41 50 65
44 54 68
39 48 61
42 52 66
41 51 65
40 49 64
44 54 68
38 47 59
44 53 68
42 52 66
45 55 70
43 53 69
39 48 62
40 50 64
41 50 64
41 51 65
39 48 62
39 49 63
35 43 55
46 56 71
45 55 70
43 53 68
42 52 66
44 53 68
42 51 65
47 58 75
39 48 62
35 43 56
45 55 71
49 59 75
42 52 66
39 48 61
40 50 65
40 49 62
39 48 62
44 54 70
41 50 64
41 50 65
46 56 71
41 49 63
45 56 72
42 52 66
41 51 67
38 47 60
38 47 61
42 51 64
46 55 69
41 51 66
45 55 71
45 55 70
42 52 67
38 47 60
47 57 73
39 49 62
41 51 65
44 54 68
46 56 71
41 50 63
44 54 70
47 57 73
43 53 68
54 66 85
41 51 65
47 58 74
43 53 68
44 54 69
50 62 78
44 54 70
45 55 70
44 55 70
45 55 70
41 51 66
46 57 73
49 60 77
46 56 72
43 53 68
51 62 79
41 51 65
45 55 70
47 57 73
41 50 63
124 141 166
196 220 255
196 220 255
196 220 255
196 220 255
196 220 255
196 220 255
196 220 255
196 220 255
196 220 255
196 220 255
196 220 255
196 220 255
196 220 255
196 220 255
196 220 255
196 220 255
196 220 255
196 220 255
196 220 255
196 220 255
196 220 255
196 220 255
196 220 255
196 220 255
195 219 255
195 219 255
195 219 255
195 219 255
195 219 255
195 219 255
195 219 255
195 219 255
195 219 255
195 219 255
195 219 255
195 219 255
195 219 255
195 219 255
195 219 255
195 219 255
195 219 255
195 219 255
195 219 255
195 219 255
195 219 255
195 219 255
195 219 255
195 219 255
195 219 255
195 219 255
195 219 255
195 219 255
195 219 255
195 219 255
195 219 255
195 219 255
195 219 255
195 219 255
195 219 255
195 219 255
195 219 255
195 219 255
195 219 255
195 219 255
195 219 255
195 219 255
195 219 255
195 219 255
195 219 255
195 219 255
195 219 255
195 219 255
195 219 255
195 219 255
195 219 255
195 219 255
195 219 255
195 219 255
195 219 255
195 219 255
195 219 255
195 219 255
195 219 255
195 219 255
195 219 255
195 219 255
195 219 255
195 219 255
195 219 255
195 219 255
195 219 255
194 219 255
194 219 255
194 219 255
194 219 255
194 219 255
194 219 255
194 219 255
194 219 255
194 219 255
194 219 255
194 219 255
194 219 255
194 219 255
194 219 255
194 219 255
194 219 255
194 219 255
194 219 255
194 219 255
194 219 255
194 219 255
194 219 255
194 219 255
194 219 255
194 219 255
194 219 255
194 219 255
194 219 255
194 219 255
194 219 255
194 219 255
194 219 255
194 219 255
194 219 255
194 219 255
194 219 255
194 219 255
194 219 255
194 219 255
194 219 255
194 219 255
194 219 255
194 219 255
194 219 255
194 219 255
194 219 255
194 219 255
194 219 255
194 219 255
194 219 255
194 219 255
194 219 255
194 219 255
194 219 255
194 219 255
194 219 255
194 219 255
194 219 255
194 219 255
194 219 255
194 219 255
194 219 255
194 219 255
194 219 255
195 219 255
195 219 255
195 219 255
195 219 255
195 219 255
195 219 255
195 219 255
195 219 255
195 219 255
195 219 255
195 219 255
195 219 255
195 219 255
195 219 255
195 219 255
195 219 255
195 219 255
195 219 255
195 219 255
195 219 255
195 219 255
195 219 255
195 219 255
195 219 255
195 219 255
195 219 255
195 219 255
195 219 255
195 219 255
195 219 255
195 219 255
195 219 255
195 219 255
195 219 255
195 219 255
195 219 255
195 219 255
195 219 255
195 219 255
195 219 255
195 219 255
195 219 255
195 219 255
195 219 255
195 219 255
195 219 255
195 219 255
195 219 255
195 219 255
195 219 255
195 219 255
195 219 255
195 219 255
195 219 255
195 219 255
195 219 255
195 219 255
195 219 255
195 219 255
195 219 255
195 219 255
195 219 255
195 219 255
195 219 255
195 219 255
195 219 255
196 220 255
196 220 255
196 220 255
196 220 255
196 220 255
196 220 255
196 220 255
196 220 255
196 220 255
196 220 255
196 220 255
196 220 255
196 220 255
196 220 255
196 220 255
196 220 255
196 220 255
196 220 255
196 220 255
196 220 255
196 220 255
196 220 255
196 220 255
196 220 255
196 220 255
196 220 255
196 220 255
196 220 255
196 220 255
196 220 255
196 220 255
196 220 255
196 220 255
196 220 255
196 220 255
196 220 255
196 220 255
196 220 255
196 220 255
196 220 255
196 220 255
196 220 255
196 220 255
196 220 255
196 220 255
196 220 255
196 220 255
196 220 255
196 220 255
175 196 229
44 55 70
42 52 66
46 57 73
49 60 77
45 55 71
45 54 69
41 51 66
44 54 70
43 53 68
47 58 74
45 55 71
48 59 75
45 56 71
46 57 73
43 53 69
44 55 71
42 51 66
44 54 70
42 51 65
41 52 67
45 56 71
47 57 73
41 51 66
41 50 63
45 55 69
46 57 74
43 52 67
40 49 62
43 53 67
41 50 64
38 46 59
43 52 66
43 53 68
46 57 73
44 54 70
45 55 70
44 54 70
39 49 63
41 50 64
42 52 66
44 54 68
45 55 71
43 53 68
42 52 67
40 49 63
48 60 77
43 52 66
40 50 64
45 55 71
44 54 69
43 53 68
38 47 61
42 52 67
44 53 68
44 53 68
38 47 61
38 47 60
38 47 60
38 47 59
40 50 63
36 44 56
39 48 62
42 52 66
38 47 60
44 54 69
39 47 60
44 53 68
44 53 68
38 47 61
32 40 52
42 52 66
41 51 64
43 52 66
43 53 68
39 48 61
43 52 66
47 57 71
42 51 65
40 49 63
41 50 63
42 51 66
46 56 72
48 59 75
43 53 69
39 47 60
47 57 73
44 54 69
47 57 73
41 50 63
39 48 62
48 59 75
39 48 61
41 51 65
46 56 72
42 51 65
42 52 67
40 48 61
44 53 67
45 55 70
47 57 72
49 59 75
45 55 70
47 57 74
42 51 65
45 55 69
45 55 70
46 56 71
46 56 72
49 60 77
46 57 74
43 52 66
43 53 68
42 52 67
45 55 71
47 59 76
43 53 68
47 57 74
45 55 70
42 51 65
51 63 80
48 59 76
43 52 66
37 45 58
48 59 74
41 51 65
44 54 69
44 55 70
42 51 66
178 200 232
196 220 255
196 220 255
196 220 255
196 220 255
196 220 255
196 220 255
196 220 255
196 220 255
196 220 255
196 220 255
196 220 255
196 220 255
196 220 255
196 220 255
196 220 255
196 220 255
196 220 255
196 220 255
196 220 255
196 220 255
196 220 255
196 220 255
196 220 255
196 220 255
196 220 255
196 220 255
196 220 255
196 220 255
196 220 255
196 220 255
196 220 255
196 220 255
196 220 255
196 220 255
196 220 255
196 220 255
196 220 255
196 220 255
196 220 255
196 220 255
196 220 255
196 220 255
196 220 255
196 220 255
196 220 255
196 220 255
196 220 255
196 220 255
195 219 255
195 219 255
195 219 255
195 219 255
195 219 255
195 219 255
195 219 255
195 219 255
195 219 255
195 219 255
195 219 255
195 219 255
195 219 255
195 219 255
195 219 255
195 219 255
195 219 255
195 219 255
195 219 255
195 219 255
195 219 255
195 219 255
195 219 255
195 219 255
195 219 255
195 219 255
195 219 255
195 219 255
195 219 255
195 219 255
195 219 255
195 219 255
195 219 255
195 219 255
195 219 255
195 219 255
195 219 255
195 219 255
195 219 255
195 219 255
195 219 255
195 219 255
195 219 255
195 219 255
195 219 255
195 219 255
195 219 255
195 219 255
195 219 255
195 219 255
195 219 255
195 219 255
195 219 255
195 219 255
195 219 255
195 219 255
195 219 255
195 219 255
195 219 255
195 219 255
195 219 255
195 219 255
195 219 255
195 219 255
195 219 255
195 219 255
195 219 255
195 219 255
194 219 255
194 219 255
194 219 255
194 219 255
194 219 255
194 219 255
194 219 255
194 219 255
194 219 255
194 219 255
194 219 255
194 219 255
194 219 255
194 219 255
194 219 255
194 219 255
194 219 255
194 219 255
194 219 255
195 219 255
195 219 255
195 219 255
195 219 255
195 219 255
195 219 255
195 219 255
195 219 255
195 219 255
195 219 255
195 219 255
195 219 255
195 219 255
195 219 255
195 219 255
195 219 255
195 219 255
195 219 255
195 219 255
195 219 255
195 219 255
195 219 255
195 219 255
195 219 255
195 219 255
195 219 255
195 219 255
195 219 255
195 219 255
195 219 255
195 219 255
195 219 255
195 219 255
195 219 255
195 219 255
195 219 255
195 219 255
195 219 255
195 219 255
195 219 255
195 219 255
195 219 255
195 219 255
195 219 255
195 219 255
195 219 255
195 219 255
195 219 255
195 219 255
195 219 255
195 219 255
195 219 255
195 219 255
195 219 255
195 219 255
195 219 255
195 219 255
195 219 255
195 219 255
195 219 255
195 219 255
195 219 255
195 219 255
195 219 255
195 219 255
196 220 255
196 220 255
196 220 255
196 220 255
196 220 255
196 220 255
196 220 255
196 220 255
196 220 255
196 220 255
196 220 255
196 220 255
196 220 255
196 220 255
196 220 255
196 220 255
196 220 255
196 220 255
196 220 255
196 220 255
196 220 255
196 220 255
196 220 255
196 220 255
196 220 255
196 220 255
196 220 255
196 220 255
196 220 255
196 220 255
196 220 255
196 220 255
196 220 255
196 220 255
196 220 255
196 220 255
196 220 255
196 220 255
196 220 255
196 220 255
196 220 255
196 220 255
196 220 255
196 220 255
196 220 255
196 220 255
196 220 255
196 220 255
196 220 255
196 220 255
196 220 255
197 220 255
197 220 255
197 220 255
197 220 255
197 220 255
197 220 255
197 220 255
197 220 255
197 220 255
197 220 255
197 220 255
197 220 255
197 220 255
197 220 255
197 220 255
197 220 255
197 220 255
197 220 255
197 220 255
189 212 246
52 63 78
47 57 73
44 54 68
45 55 70
44 54 68
47 57 73
46 57 73
42 51 65
48 59 76
44 55 71
40 50 65
42 53 69
50 60 76
38 47 61
46 56 72
47 57 72
43 52 66
49 62 80
45 56 71
44 54 69
42 52 67
45 55 71
49 60 76
44 53 67
43 52 66
45 55 70
44 54 68
43 53 67
46 56 72
40 50 65
42 51 65
39 48 61
43 53 67
43 53 68
42 52 66
42 51 66
43 53 68
44 55 70
40 49 63
45 55 70
47 57 72
40 49 63
40 49 62
42 52 68
48 59 76
38 46 59
41 51 65
43 54 69
40 50 64
44 55 70
43 54 70
42 51 65
37 45 57
42 52 66
42 52 66
42 51 64
35 44 57
40 50 65
41 50 64
39 48 61
44 54 68
41 51 64
38 47 60
42 52 66
42 52 67
41 51 66
45 56 71
39 48 62
46 56 72
48 59 76
44 54 70
46 56 72
46 57 73
41 51 65
43 53 69
40 48 60
41 52 68
45 56 72
43 53 68
37 45 57
38 48 62
39 48 62
43 53 68
42 52 66
39 48 62
38 47 61
41 50 64
45 55 71
46 55 70
41 50 65
41 50 63
52 63 80
46 56 71
40 49 62
48 58 73
44 53 68
43 53 68
46 56 70
47 58 75
48 60 76
43 52 65
35 44 57
43 54 69
42 51 65
43 53 68
39 48 62
46 56 71
44 54 69
45 55 70
47 57 73
41 49 63
46 56 71
41 50 64
48 58 74
41 51 67
42 52 67
44 54 69
44 55 70
52 63 81
48 59 76
44 53 67
42 51 65
53 65 82
47 58 73
44 54 69
49 61 78
45 56 72
48 59 75
195 219 254
197 220 255
197 220 255
197 220 255
197 220 255
197 220 255
197 220 255
197 220 255
197 220 255
197 220 255
197 220 255
197 220 255
197 220 255
197 220 255
197 220 255
197 220 255
197 220 255
197 220 255
197 220 255
197 220 255
196 220 255
196 220 255
196 220 255
196 220 255
196 220 255
196 220 255
196 220 255
196 220 255
196 220 255
196 220 255
196 220 255
196 220 255
196 220 255
196 220 255
196 220 255
196 220 255
196 220 255
196 220 255
196 220 255
196 220 255
196 220 255
196 220 255
196 220 255
196 220 255
196 220 255
196 220 255
196 220 255
196 220 255
196 220 255
196 220 255
196 220 255
196 220 255
196 220 255
196 220 255
196 220 255
196 220 255
196 220 255
196 220 255
196 220 255
196 220 255
196 220 255
196 220 255
196 220 255
196 220 255
196 220 255
196 220 255
196 220 255
196 220 255
196 220 255
196 220 255
196 220 255
195 219 255
195 219 255
195 219 255
195 219 255
195 219 255
195 219 255
195 219 255
195 219 255
195 219 255
195 219 255
195 219 255
195 219 255
195 219 255
195 219 255
195 219 255
195 219 255
195 219 255
195 219 255
195 219 255
195 219 255
195 219 255
195 219 255
195 219 255
195 219 255
195 219 255
195 219 255
195 219 255
195 219 255
195 219 255
195 219 255
195 219 255
195 219 255
195 219 255
195 219 255
195 219 255
195 219 255
195 219 255
195 219 255
195 219 255
195 219 255
195 219 255
195 219 255
195 219 255
195 219 255
195 219 255
195 219 255
195 219 255
195 219 255
195 219 255
195 219 255
195 219 255
195 219 255
195 219 255
195 219 255
195 219 255
195 219 255
195 219 255
195 219 255
195 219 255
195 219 255
195 219 255
195 219 255
195 219 255
195 219 255
195 219 255
195 219 255
195 219 255
195 219 255
195 219 255
195 219 255
195 219 255
195 219 255
195 219 255
195 219 255
195 219 255
195 219 255
195 219 255
195 219 255
195 219 255
195 219 255
195 219 255
195 219 255
195 219 255
195 219 255
195 219 255
195 219 255
195 219 255
195 219 255
195 219 255
195 219 255
195 219 255
195 219 255
195 219 255
195 219 255
195 219 255
195 219 255
195 219 255
195 219 255
195 219 255
195 219 255
195 219 255
195 219 255
195 219 255
195 219 255
195 219 255
195 219 255
195 219 255
195 219 255
195 219 255
195 219 255
196 220 255
196 220 255
196 220 255
196 220 255
196 220 255
196 220 255
196 220 255
196 220 255
196 220 255
196 220 255
196 220 255
196 220 255
196 220 255
196 220 255
196 220 255
196 220 255
196 220 255
196 220 255
196 220 255
196 220 255
196 220 255
196 220 255
196 220 255
196 220 255
196 220 255
196 220 255
196 220 255
196 220 255
196 220 255
196 220 255
196 220 255
196 220 255
196 220 255
196 220 255
196 220 255
196 220 255
196 220 255
196 220 255
196 220 255
196 220 255
196 220 255
196 220 255
196 220 255
196 220 255
196 220 255
196 220 255
196 220 255
196 220 255
196 220 255
196 220 255
196 220 255
197 220 255
197 220 255
197 220 255
197 220 255
197 220 255
197 220 255
197 220 255
197 220 255
197 220 255
197 220 255
197 220 255
197 220 255
197 220 255
197 220 255
197 220 255
197 220 255
197 220 255
197 220 255
197 220 255
197 220 255
197 220 255
197 220 255
197 220 255
197 220 255
197 220 255
197 220 255
197 220 255
197 220 255
196 219 254
187 210 244
177 200 234
173 195 229
170 192 225
164 185 217
158 179 211
133 152 182
149 170 201
133 154 185
133 153 183
126 146 175
52 62 79
47 58 76
45 56 72
42 51 64
41 50 65
43 54 70
47 58 74
48 60 76
44 54 70
44 54 69
43 53 69
49 60 77
43 52 67
44 55 70
42 52 66
45 56 71
49 60 76
46 57 74
41 51 66
42 51 65
41 51 66
40 50 64
42 52 67
44 53 68
39 48 61
37 46 58
49 60 77
47 58 75
47 58 75
46 56 71
47 57 73
43 53 68
38 46 59
43 53 68
47 57 72
39 48 60
44 53 67
44 54 69
42 52 66
45 55 70
38 47 61
41 50 64
43 52 67
38 47 61
40 50 64
43 53 68
36 45 58
43 53 68
44 54 70
45 56 73
37 46 58
41 51 65
39 48 60
40 49 62
45 55 70
48 58 75
41 51 64
40 49 62
42 52 66
44 54 69
41 50 63
38 46 59
40 49 63
39 47 59
46 56 71
34 43 55
41 51 66
43 53 67
39 49 63
35 44 56
40 50 63
37 46 59
36 45 58
46 56 71
38 47 59
34 42 54
40 49 63
48 59 76
41 50 63
36 45 58
36 44 57
42 51 64
43 53 69
39 48 62
38 46 59
38 48 62
42 52 66
42 51 66
44 54 70
41 50 63
40 49 62
45 55 71
37 46 59
39 48 61
43 52 66
43 52 66
43 54 71
42 52 66
45 54 69
46 57 73
45 55 70
43 53 67
49 60 76
45 56 72
45 55 70
43 53 67
49 59 74
48 58 74
44 54 68
45 55 69
43 54 70
49 60 78
46 56 72
44 54 70
47 57 73
46 56 72
42 51 66
41 50 64
48 59 76
41 50 64
43 52 67
43 53 68
46 56 71
41 50 65
47 58 75
43 53 68
46 56 72
54 67 86
119 139 168
128 147 177
142 163 195
146 167 199
147 168 199
158 179 211
158 180 213
174 196 230
185 208 243
187 210 245
192 215 250
196 219 254
197 220 255
197 220 255
197 220 255
197 220 255
197 220 255
197 220 255
197 220 255
197 220 255
197 220 255
197 220 255
197 220 255
197 220 255
197 220 255
197 220 255
197 220 255
197 220 255
197 220 255
197 220 255
197 220 255
197 220 255
197 220 255
197 220 255
197 220 255
197 220 255
197 220 255
197 220 255
197 220 255
197 220 255
196 220 255
196 220 255
196 220 255
196 220 255
196 220 255
196 220 255
196 220 255
196 220 255
196 220 255
196 220 255
196 220 255
196 220 255
196 220 255
196 220 255
196 220 255
196 220 255
196 220 255
196 220 255
196 220 255
196 220 255
196 220 255
196 220 255
196 220 255
196 220 255
196 220 255
196 220 255
196 220 255
196 220 255
196 220 255
196 220 255
196 220 255
196 220 255
196 220 255
196 220 255
196 220 255
196 220 255
196 220 255
196 220 255
196 220 255
196 220 255
196 220 255
196 220 255
196 220 255
196 220 255
196 220 255
196 220 255
196 220 255
196 220 255
196 220 255
196 220 255
196 220 255
195 219 255
195 219 255
195 219 255
195 219 255
195 219 255
195 219 255
195 219 255
195 219 255
195 219 255
195 219 255
195 219 255
195 219 255
195 219 255
195 219 255
195 219 255
195 219 255
195 219 255
195 219 255
195 219 255
195 219 255
195 219 255
195 219 255
195 219 255
195 219 255
195 219 255
195 219 255
195 219 255
195 219 255
195 219 255
195 219 255
195 219 255
195 219 255
195 219 255
195 219 255
195 219 255
195 219 255
195 219 255
195 219 255
195 219 255
195 219 255
195 219 255
195 219 255
195 219 255
195 219 255
195 219 255
195 219 255
195 219 255
195 219 255
195 219 255
195 219 255
195 219 255
195 219 255
195 219 255
195 219 255
195 219 255
195 219 255
195 219 255
195 219 255
195 219 255
195 219 255
195 219 255
195 219 255
195 219 255
195 219 255
195 219 255
195 219 255
195 219 255
195 219 255
195 219 255
195 219 255
195 219 255
195 219 255
196 220 255
196 220 255
196 220 255
196 220 255
196 220 255
196 220 255
196 220 255
196 220 255
196 220 255
196 220 255
196 220 255
196 220 255
196 220 255
196 220 255
196 220 255
196 220 255
196 220 255
196 220 255
196 220 255
196 220 255
196 220 255
196 220 255
196 220 255
196 220 255
196 220 255
196 220 255
196 220 255
196 220 255
196 220 255
196 220 255
196 220 255
196 220 255
196 220 255
196 220 255
196 220 255
196 220 255
196 220 255
196 220 255
196 220 255
196 220 255
196 220 255
196 220 255
196 220 255
196 220 255
196 220 255
196 220 255
196 220 255
196 220 255
196 220 255
196 220 255
196 220 255
197 220 255
197 220 255
197 220 255
197 220 255
197 220 255
197 220 255
197 220 255
197 220 255
197 220 255
197 220 255
197 220 255
197 220 255
197 220 255
197 220 255
197 220 255
197 220 255
197 220 255
197 220 255
197 220 255
197 220 255
197 220 255
197 220 255
197 220 255
197 220 255
197 220 255
197 220 255
197 220 255
197 220 255
197 221 255
197 221 255
195 218 252
178 200 234
178 200 234
164 186 219
168 190 223
155 176 208
144 164 195
139 160 192
139 160 190
126 145 175
119 139 168
103 122 151
101 119 147
86 103 129
81 99 125
78 95 121
77 96 124
71 87 111
70 88 114
75 92 119
71 88 115
68 85 111
69 87 112
71 88 114
70 87 113
70 87 112
69 85 110
74 92 120
55 68 87
47 58 74
47 58 74
49 60 75
42 51 66
44 54 69
49 60 76
44 54 68
44 55 70
45 55 70
48 58 74
49 60 76
45 55 70
47 58 75
50 60 76
48 58 74
47 58 75
46 56 71
46 56 71
42 52 68
45 55 69
44 54 70
43 52 66
42 52 67
44 55 70
44 53 66
45 56 71
39 49 64
45 56 71
40 49 63
43 52 66
42 52 65
39 48 62
35 43 56
40 50 65
41 51 66
45 55 71
47 58 73
43 52 66
40 50 63
47 56 71
45 55 70
40 49 63
43 53 67
39 48 61
41 51 65
42 52 67
43 52 67
43 52 66
46 56 72
42 51 65
43 53 67
40 49 62
36 44 56
45 55 70
44 55 70
40 49 63
41 50 64
40 49 62
42 51 65
39 48 61
41 50 63
35 44 56
45 55 71
38 47 60
45 55 70
41 50 63
41 51 65
42 51 65
42 51 65
40 49 64
37 47 61
44 54 69
40 48 62
42 51 65
43 52 66
41 51 65
42 52 66
38 47 60
38 47 59
44 54 70
42 52 68
44 54 68
43 52 66
43 53 67
41 51 66
40 49 62
43 53 67
40 50 65
43 53 68
42 52 66
42 52 67
41 50 63
44 54 68
42 52 66
49 60 76
39 48 62
43 52 65
39 48 61
44 55 70
41 50 65
47 57 71
48 58 74
45 55 71
44 54 69
44 54 69
44 54 69
38 47 60
39 48 61
44 54 70
44 55 71
48 58 74
43 53 68
47 57 73
39 48 62
47 57 72
49 60 77
46 57 73
43 53 67
45 56 72
44 54 70
44 54 70
41 50 64
40 50 64
51 62 79
47 58 73
47 58 74
55 69 89
72 90 117
71 88 114
70 87 113
71 88 114
70 88 115
72 88 113
74 92 118
75 92 119
71 88 114
71 89 117
73 90 116
73 90 117
74 91 117
90 107 133
99 117 144
101 119 145
118 137 166
114 134 163
121 140 169
133 153 183
143 163 194
131 151 181
151 172 203
166 188 220
183 205 239
180 202 236
186 209 243
196 219 254
197 221 255
197 220 255
197 220 255
197 220 255
197 220 255
197 220 255
197 220 255
197 220 255
197 220 255
197 220 255
197 220 255
197 220 255
197 220 255
197 220 255
197 220 255
197 220 255
197 220 255
197 220 255
197 220 255
197 220 255
197 220 255
197 220 255
197 220 255
197 220 255
197 220 255
197 220 255
197 220 255
197 220 255
197 220 255
197 220 255
196 220 255
196 220 255
196 220 255
196 220 255
196 220 255
196 220 255
196 220 255
196 220 255
196 220 255
196 220 255
196 220 255
196 220 255
196 220 255
196 220 255
196 220 255
196 220 255
196 220 255
196 220 255
196 220 255
196 220 255
196 220 255
196 220 255
196 220 255
196 220 255
196 220 255
196 220 255
196 220 255
196 220 255
196 220 255
196 220 255
196 220 255
196 220 255
196 220 255
196 220 255
196 220 255
196 220 255
196 220 255
196 220 255
196 220 255
196 220 255
196 220 255
196 220 255
196 220 255
196 220 255
196 220 255
196 220 255
196 220 255
196 220 255
196 220 255
196 220 255
196 220 255
196 220 255
195 219 255
195 219 255
195 219 255
195 219 255
195 219 255
195 219 255
195 219 255
195 219 255
195 219 255
195 219 255
195 219 255
195 219 255
195 219 255
195 219 255
195 219 255
195 219 255
195 219 255
195 219 255
195 219 255
195 219 255
195 219 255
195 219 255
195 219 255
195 219 255
195 219 255
195 219 255
195 219 255
195 219 255
195 219 255
195 219 255
195 219 255
195 219 255
195 219 255
196 220 255
196 220 255
196 220 255
196 220 255
196 220 255
196 220 255
196 220 255
196 220 255
196 220 255
196 220 255
196 220 255
196 220 255
196 220 255
196 220 255
196 220 255
196 220 255
196 220 255
196 220 255
196 220 255
196 220 255
196 220 255
196 220 255
196 220 255
196 220 255
196 220 255
196 220 255
196 220 255
196 220 255
196 220 255
196 220 255
196 220 255
196 220 255
196 220 255
196 220 255
196 220 255
196 220 255
196 220 255
196 220 255
196 220 255
196 220 255
196 220 255
196 220 255
196 220 255
196 220 255
196 220 255
196 220 255
196 220 255
196 220 255
196 220 255
196 220 255
196 220 255
196 220 255
196 220 255
196 220 255
196 220 255
197 220 255
197 220 255
197 220 255
197 220 255
197 220 255
197 220 255
197 220 255
197 220 255
197 220 255
197 220 255
197 220 255
197 220 255
197 220 255
197 220 255
197 220 255
197 220 255
197 220 255
197 220 255
197 220 255
197 220 255
197 220 255
197 220 255
197 220 255
197 220 255
197 220 255
197 220 255
197 220 255
197 220 255
197 221 255
197 221 255
197 221 255
190 213 247
188 211 245
178 200 234
154 175 207
144 165 196
158 179 211
142 163 194
136 157 187
125 145 175
105 124 152
111 130 158
98 116 143
87 105 131
84 101 127
74 91 117
68 85 111
71 88 115
67 85 112
69 86 112
70 87 113
69 86 112
73 89 114
66 83 109
72 89 115
72 90 117
72 88 113
72 90 117
71 88 114
73 91 118
70 88 114
72 89 115
72 90 118
74 91 117
72 88 114
71 88 114
68 85 110
73 90 116
71 88 114
71 89 117
68 84 108
73 90 116
70 87 113
69 86 111
61 76 99
38 46 59
50 62 78
39 48 62
41 51 65
40 50 65
48 58 73
41 50 64
45 55 70
42 51 65
42 52 67
48 58 74
44 54 70
44 54 70
43 53 67
46 56 72
42 52 67
45 56 73
48 58 73
39 48 62
42 52 66
43 53 68
41 51 66
47 58 73
41 50 64
44 53 68
42 51 64
42 51 65
47 57 72
47 58 74
45 56 72
43 53 69
41 51 65
44 53 68
44 54 69
43 53 68
44 53 67
46 56 72
41 50 64
38 47 61
46 56 71
41 50 64
48 59 75
45 55 70
39 47 60
43 52 66
39 48 61
43 53 68
40 49 64
42 51 65
43 52 66
41 50 64
41 51 67
50 61 77
43 52 65
35 43 56
43 52 67
43 53 68
33 41 54
43 52 66
48 58 74
35 44 56
36 44 56
40 49 63
41 50 64
39 48 61
40 50 63
37 45 59
41 51 65
42 51 64
39 47 60
42 52 66
44 54 68
41 50 64
45 55 70
38 47 61
34 42 54
37 45 57
41 51 66
40 49 63
45 55 70
40 48 61
43 52 67
38 46 58
40 49 63
43 53 68
44 53 67
40 50 64
38 46 58
49 60 77
38 47 60
38 46 59
45 55 69
43 52 65
40 49 63
42 52 67
45 55 71
44 54 69
44 54 68
42 52 67
47 58 74
43 53 69
42 51 65
47 57 73
42 51 65
44 54 68
37 46 58
39 49 63
48 59 75
46 57 73
47 57 72
46 56 72
41 50 64
43 53 67
47 58 74
40 50 65
43 53 67
43 53 68
42 51 65
47 58 73
42 52 67
43 53 67
45 55 71
45 56 73
43 53 68
45 55 70
43 52 67
59 72 92
70 87 113
70 87 113
72 88 113
69 86 112
69 87 113
67 83 109
69 86 112
73 91 117
70 86 111
73 90 117
72 89 114
73 90 117
71 88 113
72 89 114
73 90 117
72 89 115
71 89 115
71 88 113
68 84 108
71 88 113
73 91 117
71 88 113
73 91 118
71 88 115
71 89 115
70 87 113
70 87 112
69 86 112
72 89 115
90 109 137
95 114 142
111 131 160
104 123 151
114 133 161
128 147 177
133 153 183
147 168 200
143 164 195
160 182 215
167 188 220
175 197 231
189 212 247
191 214 248
197 221 255
197 221 255
197 221 255
197 220 255
197 220 255
197 220 255
197 220 255
197 220 255
197 220 255
197 220 255
197 220 255
197 220 255
197 220 255
197 220 255
197 220 255
197 220 255
197 220 255
197 220 255
197 220 255
197 220 255
197 220 255
197 220 255
197 220 255
197 220 255
197 220 255
197 220 255
197 220 255
197 220 255
197 220 255
197 220 255
197 220 255
196 220 255
196 220 255
196 220 255
196 220 255
196 220 255
196 220 255
196 220 255
196 220 255
196 220 255
196 220 255
196 220 255
196 220 255
196 220 255
196 220 255
196 220 255
196 220 255
196 220 255
196 220 255
196 220 255
196 220 255
196 220 255
196 220 255
196 220 255
196 220 255
196 220 255
196 220 255
196 220 255
196 220 255
196 220 255
196 220 255
196 220 255
196 220 255
196 220 255
196 220 255
196 220 255
196 220 255
196 220 255
196 220 255
196 220 255
196 220 255
196 220 255
196 220 255
196 220 255
196 220 255
196 220 255
196 220 255
196 220 255
196 220 255
196 220 255
196 220 255
196 220 255
196 220 255
196 220 255
196 220 255
196 220 255
195 219 255
195 219 255
195 219 255
195 219 255
195 219 255
195 219 255
195 219 255
196 220 255
196 220 255
196 220 255
196 220 255
196 220 255
196 220 255
196 220 255
196 220 255
196 220 255
196 220 255
196 220 255
196 220 255
196 220 255
196 220 255
196 220 255
196 220 255
196 220 255
196 220 255
196 220 255
196 220 255
196 220 255
196 220 255
196 220 255
196 220 255
196 220 255
196 220 255
196 220 255
196 220 255
196 220 255
196 220 255
196 220 255
196 220 255
196 220 255
196 220 255
196 220 255
196 220 255
196 220 255
196 220 255
196 220 255
196 220 255
196 220 255
196 220 255
196 220 255
196 220 255
196 220 255
197 220 255
197 220 255
197 220 255
197 220 255
197 220 255
197 220 255
197 220 255
197 220 255
197 220 255
197 220 255
197 220 255
197 220 255
197 220 255
197 220 255
197 220 255
197 220 255
197 220 255
197 220 255
197 220 255
197 220 255
197 220 255
197 220 255
197 220 255
197 220 255
197 220 255
197 220 255
197 220 255
197 220 255
197 220 255
197 220 255
197 221 255
197 221 255
197 221 255
197 221 255
192 215 249
188 211 245
178 200 233
167 188 220
156 178 209
147 168 200
138 159 191
120 139 168
109 128 155
115 135 164
103 122 151
96 115 143
77 95 121
75 91 116
70 87 113
71 87 112
72 90 116
71 87 111
73 91 118
70 87 113
72 91 119
71 90 117
72 88 113
70 87 112
70 88 114
72 88 113
72 90 118
70 87 113
71 88 113
69 85 111
73 90 116
71 88 114
70 86 111
67 85 112
73 91 118
66 83 108
74 93 120
70 87 113
73 90 116
69 87 114
68 85 111
69 85 110
68 86 111
72 90 117
71 87 113
70 87 112
70 86 111
72 89 115
70 88 115
71 88 113
73 91 117
69 86 112
70 87 113
70 87 112
68 84 108
69 86 112
70 86 111
63 78 101
48 58 74
42 51 65
43 53 67
44 54 68
47 57 73
45 56 72
43 53 68
46 55 70
43 53 68
42 51 65
45 55 69
45 56 71
40 50 64
49 60 75
48 59 75
43 53 68
47 57 72
41 50 64
48 58 74
46 57 73
42 51 65
42 52 67
45 55 70
41 51 65
43 52 66
50 61 77
44 53 67
44 53 68
43 53 68
46 57 73
47 57 73
40 50 64
44 54 68
38 47 60
40 50 64
44 55 71
43 53 69
42 52 68
39 48 61
38 47 60
44 54 69
41 51 65
41 51 65
48 60 77
38 47 61
46 57 73
39 48 62
43 53 68
35 44 57
44 55 70
32 39 50
40 50 63
39 49 63
39 49 64
39 47 59
38 47 61
40 49 62
46 56 71
40 49 63
45 54 68
39 48 61
44 53 67
46 56 72
44 53 68
38 46 58
41 51 65
41 50 64
44 55 71
42 52 66
37 46 59
39 48 61
40 50 65
37 46 59
35 43 55
41 50 64
42 52 67
39 48 61
36 45 57
42 51 66
48 60 77
39 48 61
43 53 67
41 50 64
40 49 62
36 45 58
44 54 69
46 57 73
49 60 76
42 51 65
46 57 72
37 45 58
42 52 67
40 49 63
46 56 71
42 51 65
40 49 62
37 46 58
43 54 70
40 49 62
47 58 74
42 51 65
45 55 69
39 48 61
44 53 67
47 57 72
41 51 66
42 51 65
42 52 67
45 55 70
46 57 72
45 55 71
47 57 72
45 56 73
49 60 76
52 63 81
45 55 71
44 53 67
48 58 73
41 51 65
45 55 70
43 53 68
44 54 68
46 56 72
46 56 71
43 54 70
44 54 70
67 84 109
70 88 114
67 83 107
73 91 117
70 86 111
70 87 112
71 89 115
74 91 117
70 87 112
73 91 118
73 91 117
71 88 113
71 88 113
71 89 115
68 85 110
72 89 115
71 88 114
71 89 115
74 92 119
66 83 107
73 90 115
73 90 116
69 87 113
68 85 109
73 90 116
71 87 112
74 91 117
73 90 115
72 89 115
69 86 112
72 89 116
71 88 114
68 85 110
71 89 115
72 89 114
72 90 117
71 88 113
67 83 108
72 90 117
69 86 111
73 90 115
71 89 115
73 91 117
70 88 114
76 93 119
80 97 122
88 106 134
95 114 142
113 132 161
111 131 160
127 148 178
134 153 183
162 183 215
147 169 200
164 185 217
172 194 227
175 197 231
192 215 249
197 221 255
197 221 255
197 221 255
197 221 255
197 221 255
197 220 255
197 220 255
197 220 255
197 220 255
197 220 255
197 220 255
197 220 255
197 220 255
197 220 255
197 220 255
197 220 255
197 220 255
197 220 255
197 220 255
197 220 255
197 220 255
197 220 255
197 220 255
197 220 255
197 220 255
197 220 255
197 220 255
197 220 255
197 220 255
197 220 255
197 220 255
197 220 255
197 220 255
197 220 255
196 220 255
196 220 255
196 220 255
196 220 255
196 220 255
196 220 255
196 220 255
196 220 255
196 220 255
196 220 255
196 220 255
196 220 255
196 220 255
196 220 255
196 220 255
196 220 255
196 220 255
196 220 255
196 220 255
196 220 255
196 220 255
196 220 255
196 220 255
196 220 255
196 220 255
196 220 255
196 220 255
196 220 255
196 220 255
196 220 255
196 220 255
196 220 255
196 220 255
196 220 255
196 220 255
196 220 255
196 220 255
196 220 255
196 220 255
196 220 255
196 220 255
196 220 255
196 220 255
196 220 255
196 220 255
196 220 255
196 220 255
196 220 255
196 220 255
196 220 255
196 220 255
196 220 255
196 220 255
196 220 255
196 220 255
196 220 255
196 220 255
196 220 255
196 220 255
196 220 255
196 220 255
196 220 255
196 220 255
196 220 255
196 220 255
196 220 255
196 220 255
196 220 255
196 220 255
196 220 255
196 220 255
196 220 255
196 220 255
196 220 255
197 220 255
197 220 255
197 220 255
197 220 255
197 220 255
197 220 255
197 220 255
197 220 255
197 220 255
197 220 255
197 220 255
197 220 255
197 220 255
197 220 255
197 220 255
197 220 255
197 220 255
197 220 255
197 220 255
197 220 255
197 220 255
197 220 255
197 220 255
197 220 255
197 220 255
197 220 255
197 220 255
197 220 255
197 220 255
197 220 255
197 221 255
197 221 255
197 221 255
197 221 255
197 221 255
197 221 255
197 221 255
192 215 250
174 196 229
169 190 222
150 171 202
158 180 211
136 156 186
138 159 189
114 134 163
110 129 157
101 119 147
88 106 133
80 98 124
74 92 118
68 86 113
71 89 115
72 90 116
70 88 114
69 85 110
73 91 119
75 92 118
71 88 114
69 86 111
71 88 115
71 86 110
72 89 116
70 87 113
73 90 117
72 90 117
73 90 116
71 89 115
72 90 118
70 87 113
67 85 111
68 85 110
72 89 113
73 91 117
69 87 113
74 91 117
68 85 111
69 87 113
71 89 115
69 86 112
70 88 114
70 87 111
70 86 111
70 87 114
72 89 116
73 91 117
70 88 114
68 84 109
70 87 112
70 87 113
70 88 114
70 88 115
71 87 112
73 89 115
71 88 113
70 87 113
70 86 111
72 89 115
73 91 119
68 85 110
72 89 115
70 87 112
72 88 113
70 87 113
73 91 117
71 89 116
71 88 115
68 85 110
72 89 115
42 52 67
43 53 67
41 51 66
49 61 79
44 53 68
45 55 69
43 53 68
48 59 75
46 57 72
47 58 74
45 55 70
41 51 65
43 53 69
45 55 71
45 56 72
45 55 70
48 58 74
43 52 66
45 55 71
42 52 68
48 59 76
38 47 60
42 51 65
41 49 62
50 61 77
42 52 65
45 55 71
36 44 56
50 60 76
43 53 68
38 45 56
46 56 72
38 47 60
41 51 65
46 56 71
40 48 61
46 56 71
40 50 64
41 51 66
39 48 61
46 56 71
41 50 64
40 49 62
39 48 62
40 49 62
39 48 62
38 47 60
39 49 62
43 53 67
41 51 65
35 43 55
42 52 67
38 47 60
42 51 65
44 54 69
40 49 63
46 56 71
39 47 61
35 42 54
41 50 64
41 51 66
39 48 61
43 52 67
37 45 58
41 51 65
39 48 62
42 51 65
39 49 63
35 43 55
42 52 66
40 48 61
41 51 65
38 46 60
37 44 56
44 54 69
38 47 60
40 49 63
43 54 70
43 53 67
42 51 65
40 48 62
41 50 63
39 48 62
46 56 73
42 51 65
45 54 69
40 48 62
41 50 64
42 52 67
38 47 59
44 54 70
48 59 76
32 39 51
45 55 70
44 54 70
42 52 66
42 52 65
47 58 74
40 50 64
41 50 64
43 53 66
38 47 60
45 55 70
44 54 69
45 55 70
43 53 68
39 49 63
42 51 65
38 48 61
45 55 70
45 55 70
42 51 65
40 49 62
42 51 65
44 55 71
50 61 78
44 54 70
46 57 72
45 55 71
44 54 70
48 60 76
49 60 77
42 52 67
46 56 71
42 52 67
48 59 74
66 82 107
68 85 111
73 91 117
72 89 115
72 90 117
68 84 109
71 88 113
70 87 111
72 89 115
68 85 110
72 89 116
70 87 112
71 88 114
72 89 114
68 85 110
70 87 114
71 88 113
73 90 117
69 86 111
68 85 110
72 90 116
71 89 115
67 84 110
71 88 114
69 86 112
69 86 111
68 85 110
68 84 108
70 88 114
70 88 114
70 87 113
71 89 115
70 87 113
70 87 112
71 88 113
70 88 114
68 85 111
69 85 110
71 89 115
71 89 115
69 86 112
69 85 110
69 86 113
70 87 114
67 84 110
72 88 113
68 85 109
71 87 112
70 87 113
68 86 112
71 87 112
69 85 110
69 85 111
71 89 116
71 88 113
68 86 112
74 91 117
73 90 115
77 94 120
91 110 137
94 113 141
103 122 149
113 133 163
131 150 179
132 153 183
139 159 189
159 180 213
160 182 214
166 188 221
172 193 226
193 216 251
195 218 253
197 221 255
197 221 255
197 221 255
197 221 255
197 221 255
197 221 255
197 220 255
197 220 255
197 220 255
197 220 255
197 220 255
197 220 255
197 220 255
197 220 255
197 220 255
197 220 255
197 220 255
197 220 255
197 220 255
197 220 255
197 220 255
197 220 255
197 220 255
197 220 255
197 220 255
197 220 255
197 220 255
197 220 255
197 220 255
197 220 255
197 220 255
197 220 255
197 220 255
197 220 255
197 220 255
197 220 255
196 220 255
196 220 255
196 220 255
196 220 255
196 220 255
196 220 255
196 220 255
196 220 255
196 220 255
196 220 255
196 220 255
196 220 255
196 220 255
196 220 255
196 220 255
196 220 255
196 220 255
196 220 255
196 220 255
196 220 255
196 220 255
196 220 255
196 220 255
196 220 255
196 220 255
196 220 255
196 220 255
196 220 255
196 220 255
196 220 255
196 220 255
196 220 255
196 220 255
196 220 255
196 220 255
196 220 255
196 220 255
196 220 255
196 220 255
196 220 255
196 220 255
196 220 255
196 220 255
196 220 255
197 220 255
197 220 255
197 220 255
197 220 255
197 220 255
197 220 255
197 220 255
197 220 255
197 220 255
197 220 255
197 220 255
197 220 255
197 220 255
197 220 255
197 220 255
197 220 255
197 220 255
197 220 255
197 220 255
197 220 255
197 220 255
197 220 255
197 220 255
197 220 255
197 220 255
197 220 255
197 220 255
197 220 255
197 220 255
197 220 255
197 221 255
197 221 255
197 221 255
197 221 255
197 221 255
197 221 255
197 221 255
197 221 255
194 217 252
181 203 237
162 183 215
161 183 215
149 170 201
143 163 193
130 150 180
121 140 170
111 129 158
104 123 152
95 114 142
80 97 123
74 91 117
68 85 111
70 88 114
73 91 119
68 85 110
72 91 118
70 87 112
72 90 116
72 89 115
72 89 115
73 91 117
69 87 114
72 89 115
68 85 112
69 86 112
70 86 111
71 89 116
71 88 112
71 88 113
68 86 111
70 88 115
70 87 112
69 86 110
73 91 117
68 84 108
71 88 114
74 92 119
72 89 115
69 86 111
72 90 115
72 89 116
71 89 116
74 91 116
69 85 109
73 91 117
68 85 110
74 91 117
71 87 112
70 86 111
73 91 117
72 90 117
67 83 108
74 91 117
72 89 114
69 86 111
71 87 112
69 86 112
72 89 114
69 86 111
70 88 115
69 85 110
71 88 112
72 90 116
74 91 117
73 90 117
68 85 111
75 93 119
70 87 112
69 86 111
75 93 121
70 88 113
75 92 118
72 89 114
73 90 117
74 91 117
70 87 111
70 87 112
69 86 112
71 88 114
72 88 112
66 83 107
71 88 113
49 60 76
43 52 67
48 59 76
44 54 70
41 51 65
42 52 66
44 53 68
48 59 75
44 54 69
43 53 68
40 49 63
50 61 77
42 51 66
45 56 72
42 52 67
45 55 70
47 58 75
41 51 66
40 49 63
45 55 70
46 56 72
42 51 65
42 51 65
41 50 63
49 60 77
42 52 67
48 59 75
38 47 61
42 52 67
43 52 66
46 56 72
40 49 62
39 47 60
42 52 67
42 51 65
44 54 69
40 49 64
46 57 73
37 45 57
42 52 67
46 57 72
42 52 67
37 45 57
40 49 62
41 50 63
39 48 61
40 49 62
44 55 70
44 54 69
44 54 69
40 48 61
38 48 62
40 48 61
40 48 61
36 43 55
41 50 64
39 48 62
38 46 58
35 44 57
43 53 70
44 54 69
42 50 64
40 49 63
37 46 59
44 53 66
36 45 57
40 48 62
36 45 58
45 54 69
41 50 64
39 48 62
39 49 62
41 51 65
40 49 62
39 48 62
42 52 66
40 49 62
39 49 63
44 53 68
44 55 70
39 48 61
41 50 63
45 54 68
41 51 64
45 55 70
43 53 68
45 55 70
43 53 68
48 58 73
41 51 65
39 48 61
44 54 68
40 50 65
37 46 59
40 49 62
41 51 66
46 55 70
44 54 70
43 53 68
47 57 73
41 50 63
41 50 64
46 56 71
40 49 62
42 52 66
43 52 65
38 47 61
46 56 72
43 53 68
45 56 72
49 60 77
45 55 70
45 56 72
44 55 71
44 53 67
46 56 72
49 60 77
46 56 72
46 57 73
46 57 73
44 54 69
49 58 73
45 56 71
41 50 64
44 54 69
55 68 87
67 84 110
71 88 115
68 85 111
70 88 114
71 88 113
68 85 110
72 90 117
70 88 115
66 83 108
71 88 114
69 85 111
71 88 115
67 84 109
69 86 111
72 89 115
69 86 111
70 86 111
74 92 119
71 88 114
75 93 121
72 88 112
72 88 114
67 84 109
71 88 114
69 87 113
70 86 111
73 90 115
69 86 111
70 87 114
74 92 119
71 88 112
69 85 109
69 87 113
72 90 116
73 91 118
71 88 114
70 88 114
71 88 115
72 89 115
70 87 112
70 86 111
72 90 116
69 86 111
71 88 114
71 90 117
70 88 114
66 83 107
73 90 116
73 91 117
70 86 110
71 89 115
71 88 113
71 88 114
74 91 118
70 88 113
72 89 115
69 86 111
69 87 113
70 88 113
69 87 114
70 87 113
70 87 113
71 87 113
72 89 114
70 87 112
71 89 115
70 87 111
69 85 110
71 88 113
72 89 115
73 90 116
70 88 114
83 101 127
86 104 131
104 123 151
112 132 162
134 155 185
118 138 167
140 160 190
151 172 204
162 184 216
165 187 219
188 210 245
192 215 249
197 221 255
197 221 255
197 221 255
197 221 255
197 221 255
197 221 255
197 221 255
197 221 255
197 220 255
197 220 255
197 220 255
197 220 255
197 220 255
197 220 255
197 220 255
197 220 255
197 220 255
197 220 255
197 220 255
197 220 255
197 220 255
197 220 255
197 220 255
197 220 255
197 220 255
197 220 255
197 220 255
197 220 255
197 220 255
197 220 255
197 220 255
197 220 255
197 220 255
197 220 255
197 220 255
197 220 255
197 220 255
197 220 255
197 220 255
196 220 255
196 220 255
196 220 255
196 220 255
196 220 255
196 220 255
196 220 255
196 220 255
196 220 255
196 220 255
196 220 255
196 220 255
196 220 255
196 220 255
197 220 255
197 220 255
197 220 255
197 220 255
197 220 255
197 220 255
197 220 255
197 220 255
197 220 255
197 220 255
197 220 255
197 220 255
197 220 255
197 220 255
197 220 255
197 220 255
197 220 255
197 220 255
197 220 255
197 220 255
197 220 255
197 220 255
197 220 255
197 220 255
197 220 255
197 220 255
197 220 255
197 220 255
197 220 255
197 220 255
197 220 255
197 220 255
197 221 255
197 221 255
197 221 255
197 221 255
197 221 255
197 221 255
197 221 255
197 221 255
197 221 255
188 211 245
172 194 227
175 197 231
150 171 202
151 172 204
133 153 183
137 158 188
104 123 151
102 121 149
95 113 139
83 101 129
74 92 118
67 83 108
72 89 115
72 90 117
73 90 116
72 90 115
71 90 117
74 92 119
71 89 114
70 86 111
74 91 117
70 87 112
71 87 111
70 86 111
68 86 112
68 85 110
72 89 115
71 88 112
72 89 115
73 90 115
72 89 114
70 88 115
69 85 110
66 83 107
70 86 111
72 90 116
68 86 112
73 90 115
72 88 113
68 85 110
70 88 114
72 89 116
70 88 114
72 89 114
74 91 118
72 90 117
75 92 118
71 89 115
67 84 110
72 89 115
71 89 114
72 89 114
71 88 113
68 85 110
71 87 112
72 90 117
71 87 113
71 87 111
73 90 115
70 88 114
71 88 113
73 90 117
72 89 114
69 86 112
70 88 114
67 83 107
69 86 111
72 90 117
70 88 113
71 88 114
70 88 115
70 88 114
73 90 117
72 89 115
71 89 117
71 89 116
72 90 116
68 84 109
71 89 115
69 86 112
70 88 114
69 86 110
69 86 112
69 85 110
72 89 114
68 84 109
70 86 112
71 89 116
71 89 115
72 90 116
72 89 115
71 88 114
67 84 110
71 88 115
71 88 113
63 77 98
44 54 69
40 50 64
39 49 63
42 51 66
48 58 73
43 52 66
44 55 70
43 52 67
42 52 66
41 51 66
46 56 71
45 55 70
43 52 67
46 56 71
45 55 70
45 55 70
43 52 66
41 50 64
46 56 72
46 56 72
40 49 62
44 54 68
45 55 70
42 52 66
43 52 67
40 49 63
42 51 65
49 60 76
44 54 68
41 50 62
46 57 72
45 55 70
38 47 60
42 51 65
46 56 71
45 55 71
43 53 68
45 55 71
39 48 61
41 51 65
39 48 62
43 53 68
42 50 63
49 59 76
36 44 56
43 52 67
38 47 60
43 52 66
42 51 65
39 49 63
44 54 68
38 47 60
41 50 64
42 52 67
37 45 58
38 47 60
43 53 67
40 49 62
44 53 68
45 54 69
41 50 63
40 48 61
41 50 62
35 43 55
39 48 62
39 47 61
42 51 66
42 51 65
39 47 60
35 44 57
45 55 70
42 51 65
38 48 62
42 52 67
41 51 65
42 52 67
43 52 67
41 50 63
40 49 62
40 50 64
45 56 72
44 54 69
40 49 62
42 53 68
33 40 51
45 56 71
44 53 67
40 49 63
40 49 61
39 47 61
45 55 71
46 57 73
46 57 73
46 56 72
40 50 64
46 56 71
40 49 63
42 52 66
39 49 62
43 53 68
43 53 67
45 56 71
44 53 68
48 58 75
42 51 65
48 59 75
49 59 74
45 55 70
40 49 62
40 50 64
44 55 70
48 59 76
38 47 59
42 52 66
50 61 78
40 49 62
50 61 78
40 50 64
43 53 69
50 61 78
43 53 67
47 57 73
48 58 73
38 47 60
58 71 92
69 86 110
65 82 107
68 84 108
71 87 111
70 87 113
73 90 116
67 84 110
68 86 112
70 87 113
68 85 110
68 85 110
72 90 117
68 85 110
69 86 111
70 87 114
68 84 108
71 87 112
69 85 109
71 88 113
69 85 110
68 85 110
70 88 114
72 89 115
70 88 114
69 86 110
69 86 112
70 87 112
69 87 113
69 85 111
70 86 112
69 86 111
68 84 109
67 83 107
73 91 117
73 90 116
69 85 110
71 88 115
70 88 114
70 88 113
73 91 117
70 87 112
71 87 111
73 91 117
72 89 115
70 87 112
72 90 116
69 86 111
70 88 113
72 88 113
67 84 110
68 85 110
71 88 114
74 92 119
70 87 113
73 90 115
71 88 114
72 90 116
71 88 113
67 84 109
71 88 114
69 85 111
69 87 113
69 86 112
72 89 115
70 87 113
70 88 114
71 87 113
68 85 110
71 89 115
69 85 110
71 89 115
74 92 118
69 86 111
71 88 114
71 89 115
74 92 119
70 88 115
73 91 118
68 85 110
69 86 111
69 86 111
70 87 113
74 91 117
69 87 114
77 95 122
89 107 134
104 123 151
99 117 145
114 133 162
125 144 172
140 160 190
153 174 206
154 176 208
168 190 223
177 200 234
185 207 241
196 219 254
197 221 255
197 221 255
197 221 255
197 221 255
197 221 255
197 221 255
197 221 255
197 221 255
197 220 255
197 220 255
197 220 255
197 220 255
197 220 255
197 220 255
197 220 255
197 220 255
197 220 255
197 220 255
197 220 255
197 220 255
197 220 255
197 220 255
197 220 255
197 220 255
197 220 255
197 220 255
197 220 255
197 220 255
197 220 255
197 220 255
197 220 255
197 220 255
197 220 255
197 220 255
197 220 255
197 220 255
197 220 255
197 220 255
197 220 255
197 220 255
197 220 255
197 220 255
197 220 255
197 220 255
197 220 255
197 220 255
197 220 255
197 220 255
197 220 255
197 220 255
197 220 255
197 220 255
197 220 255
197 220 255
197 220 255
197 220 255
197 220 255
197 220 255
197 221 255
197 221 255
197 221 255
197 221 255
197 221 255
197 221 255
197 221 255
197 221 255
197 221 255
197 221 255
197 221 255
190 213 248
182 205 239
167 189 222
153 175 207
135 155 186
140 161 192
120 140 169
114 134 165
102 120 147
93 111 139
82 99 125
72 89 114
71 88 114
70 86 110
70 86 111
71 89 115
73 90 116
70 87 112
74 91 117
70 87 111
71 88 113
72 89 114
73 90 115
74 92 118
72 88 113
73 90 117
71 88 114
72 89 115
70 87 113
73 90 117
69 86 111
73 91 118
71 88 114
72 88 113
73 91 117
70 87 113
67 84 111
70 88 114
73 90 116
68 85 110
67 83 108
71 88 113
73 91 117
67 83 108
68 84 108
71 88 113
71 87 113
74 92 118
71 86 110
71 89 115
73 90 116
71 89 115
73 90 116
71 89 115
70 87 111
70 86 111
68 85 110
68 85 110
73 89 115
71 88 114
71 89 115
72 88 113
72 88 114
69 86 111
70 87 112
69 86 111
69 86 111
73 90 116
66 82 106
71 88 114
71 87 112
70 88 114
69 86 112
70 88 114
70 87 112
68 85 111
71 88 113
69 86 111
68 85 110
72 90 116
68 86 112
73 91 118
70 87 112
68 86 113
72 89 113
70 87 113
71 89 115
70 87 113
67 84 110
72 89 114
68 85 109
66 82 107
68 84 109
69 85 110
70 87 112
71 89 116
67 83 108
67 84 110
71 88 112
72 89 115
72 89 115
71 88 113
66 83 107
70 87 113
72 89 116
67 83 107
71 89 115
69 85 109
69 85 109
43 53 66
39 47 60
45 55 70
47 57 72
44 53 67
46 57 73
44 54 69
42 51 66
47 57 72
44 54 69
48 59 76
48 59 75
45 54 69
41 50 64
50 60 75
47 57 73
39 48 61
40 50 65
42 51 65
39 48 61
47 58 73
41 50 64
48 59 75
40 49 62
44 54 68
41 50 64
44 54 69
41 49 63
46 56 71
40 49 63
47 57 73
43 53 69
41 50 64
44 54 68
42 52 66
41 51 66
48 58 74
42 51 66
41 51 65
42 52 66
39 48 61
45 56 71
42 52 66
40 49 63
40 49 63
40 49 63
43 52 66
41 50 64
41 51 65
38 47 60
37 45 57
43 54 69
40 49 63
41 50 64
40 50 64
39 48 61
38 46 59
44 53 67
38 47 60
41 50 64
41 50 64
34 41 53
41 50 63
40 49 62
43 52 67
39 48 62
40 49 63
41 51 65
40 49 62
36 44 56
40 49 62
35 43 54
43 53 68
39 48 62
41 49 62
42 51 65
44 55 71
37 46 58
40 49 62
42 51 65
35 43 56
37 45 58
39 48 62
41 49 62
45 55 70
44 54 69
41 50 64
43 52 66
41 50 64
42 51 65
45 55 69
36 45 57
44 53 67
43 53 67
41 50 65
44 54 68
38 47 60
46 56 71
46 57 73
46 57 74
44 54 68
47 58 74
42 52 66
50 62 79
43 54 69
46 57 73
47 58 74
40 49 63
46 56 70
42 52 68
50 60 75
43 53 68
44 54 69
47 57 72
44 54 70
45 55 70
42 51 65
45 55 70
44 54 69
49 60 77
45 55 71
44 54 69
44 54 69
40 48 62
64 80 103
66 82 107
69 86 112
71 87 112
71 88 115
72 89 115
72 90 117
71 89 116
73 89 115
71 89 115
67 84 110
71 87 111
69 86 111
71 87 113
71 88 114
71 89 115
71 87 113
68 86 113
74 91 117
70 87 112
71 88 114
70 87 112
70 86 111
68 85 110
70 88 114
68 85 110
68 84 108
73 90 117
71 88 115
71 87 112
70 88 115
71 88 114
70 87 112
71 88 114
69 86 112
73 90 115
72 89 114
74 91 117
68 85 111
71 88 114
71 88 114
72 89 115
68 86 112
71 88 113
71 88 113
69 86 111
71 88 113
71 89 115
71 87 112
68 85 110
68 86 112
73 91 117
71 89 115
69 86 111
71 88 114
71 89 117
72 88 114
70 87 113
71 88 114
69 86 112
69 86 112
70 87 111
72 89 115
73 90 115
71 89 115
72 89 115
72 89 115
72 89 114
71 88 114
67 84 109
66 83 109
72 89 114
74 91 117
71 89 115
69 87 113
70 86 111
75 92 118
71 89 116
75 92 119
70 87 113
72 89 114
68 84 109
72 90 117
69 87 113
70 88 115
72 90 116
70 87 114
71 87 112
71 89 115
71 88 114
69 86 113
69 87 114
69 86 112
68 85 110
71 88 113
70 87 114
71 87 111
74 91 117
85 103 129
90 108 136
99 117 145
111 130 158
119 138 168
150 170 200
142 163 195
157 177 209
165 187 220
178 200 234
189 211 246
196 220 254
197 221 255
197 221 255
197 221 255
197 221 255
197 221 255
197 221 255
197 221 255
197 221 255
197 221 255
197 221 255
197 220 255
197 220 255
197 220 255
197 220 255
197 220 255
197 220 255
197 220 255
197 220 255
197 220 255
197 220 255
197 220 255
197 220 255
197 220 255
197 220 255
197 220 255
197 220 255
197 220 255
197 220 255
197 220 255
197 220 255
197 220 255
197 220 255
197 220 255
197 221 255
197 221 255
197 221 255
197 221 255
197 221 255
197 221 255
197 221 255
197 221 255
197 221 255
197 221 255
197 221 255
197 221 255
192 215 249
178 200 234
168 190 223
146 168 199
150 170 201
142 163 194
130 150 179
111 129 157
105 124 152
96 114 142
71 88 114
74 91 117
69 86 112
70 87 113
71 87 111
73 91 117
68 85 111
70 86 111
74 92 118
69 85 110
73 91 117
71 88 114
72 89 115
69 86 113
70 87 113
67 84 109
74 91 118
73 91 117
72 90 116
73 90 117
72 89 115
69 86 111
70 87 112
67 84 109
72 89 115
71 90 117
70 87 114
72 88 113
69 86 112
71 88 113
69 85 110
72 89 115
72 89 116
71 88 114
71 88 115
70 88 113
72 89 114
72 89 114
73 90 115
70 87 113
68 84 109
70 87 113
72 89 115
71 89 114
70 88 114
67 84 108
69 86 111
69 86 111
68 85 110
71 89 116
68 85 110
70 88 115
71 89 115
73 90 116
68 85 110
70 87 111
70 87 112
69 87 113
69 88 116
69 87 113
73 90 116
70 87 112
68 86 112
70 87 112
71 89 115
70 87 113
69 86 111
73 92 120
70 86 111
70 87 113
71 88 114
66 83 108
72 89 114
71 88 114
74 91 117
68 86 113
70 87 113
69 87 114
69 86 111
71 88 115
70 87 113
71 88 113
71 89 116
71 88 113
69 87 112
72 90 117
69 86 112
70 87 112
71 88 114
68 85 110
66 82 107
73 90 117
67 83 108
70 88 115
67 85 112
68 85 111
70 87 112
69 86 112
74 92 119
70 87 113
70 87 112
72 89 115
71 88 113
69 86 111
74 92 119
70 87 113
72 88 113
73 90 116
68 85 110
68 85 110
69 85 110
47 58 74
45 55 69
51 62 78
45 55 70
39 48 62
46 56 71
44 54 69
40 49 63
42 51 65
48 58 73
47 57 73
43 53 68
40 49 63
45 55 70
40 49 62
45 55 71
39 48 62
39 49 62
42 52 66
41 50 63
44 54 69
47 57 72
45 54 69
43 53 68
43 53 68
45 55 71
43 52 66
37 46 58
43 53 68
46 57 73
44 54 70
44 54 69
45 55 70
44 55 70
41 51 64
43 53 68
45 55 69
43 53 68
40 50 64
41 50 65
38 47 59
39 48 61
42 51 65
39 48 61
43 52 65
43 52 66
37 46 59
38 46 59
42 52 66
41 50 63
37 46 59
39 48 62
39 48 62
45 55 70
42 52 65
38 46 59
36 45 58
39 48 61
45 55 70
38 46 59
44 53 67
39 48 61
46 56 70
44 54 69
41 52 67
38 47 60
36 44 55
39 47 59
41 51 65
37 47 60
40 49 64
37 45 57
40 49 63
40 49 62
45 55 70
35 42 53
43 51 65
36 44 56
43 52 66
44 53 68
41 51 65
39 48 61
39 48 61
40 49 63
39 48 62
37 46 58
42 51 65
42 52 67
44 53 68
46 56 71
37 46 59
44 55 71
41 50 63
42 51 66
45 55 70
42 51 65
43 53 68
42 51 66
42 51 65
41 50 64
40 49 63
45 55 69
40 48 61
46 56 72
43 53 67
43 52 65
45 55 70
44 55 70
45 55 70
46 56 70
42 52 67
46 56 71
47 57 72
48 59 76
41 49 63
46 55 70
44 53 67
41 50 64
46 56 72
42 53 68
41 51 66
39 48 61
41 49 63
47 58 75
68 85 112
65 81 105
70 88 114
68 85 110
70 88 115
72 89 116
69 86 111
71 87 112
69 86 112
68 84 109
68 86 111
72 89 116
70 87 113
70 87 114
70 87 113
69 86 113
71 87 112
69 85 110
69 86 111
72 90 117
72 90 117
68 85 110
70 87 113
69 86 112
69 86 111
71 88 113
68 85 110
69 86 112
70 86 112
69 87 113
71 89 116
70 87 111
67 84 108
71 87 112
68 85 111
71 88 113
74 90 115
70 86 112
69 86 112
68 85 109
70 87 113
71 89 115
71 88 113
72 89 115
72 89 114
70 87 112
71 87 112
70 86 112
72 89 115
70 88 114
69 85 109
75 92 117
71 89 114
72 89 114
71 88 115
67 83 108
72 90 116
70 88 114
69 86 111
69 87 113
69 86 112
72 89 115
70 87 112
71 88 114
68 85 111
70 87 112
69 87 113
70 87 113
67 83 108
69 86 111
71 89 115
70 88 114
69 86 112
70 88 115
72 90 117
68 85 111
69 85 109
69 86 111
67 83 108
71 88 113
69 85 110
72 90 116
69 86 112
72 89 116
73 91 119
69 86 111
72 89 114
74 91 118
70 87 113
69 86 111
73 91 117
69 86 112
70 87 113
74 92 119
67 84 110
68 85 110
72 89 116
73 90 116
69 86 111
69 86 111
69 86 111
73 90 116
70 87 111
70 88 114
71 88 114
70 87 113
71 87 112
67 84 109
69 88 115
71 88 113
83 101 127
90 108 135
100 118 145
113 132 161
126 145 174
142 162 193
144 165 196
168 190 223
171 193 226
172 194 227
191 214 249
197 221 255
197 221 255
197 221 255
197 221 255
197 221 255
197 221 255
197 221 255
197 221 255
197 221 255
197 221 255
197 221 255
197 220 255
197 220 255
197 220 255
197 220 255
197 220 255
197 220 255
197 221 255
197 221 255
197 221 255
197 221 255
197 221 255
195 218 252
180 202 235
161 183 215
161 182 214
147 167 199
129 150 181
127 146 174
117 136 165
109 128 156
96 114 140
84 102 128
79 97 124
71 88 115
72 89 114
71 89 115
72 90 115
72 90 116
72 89 114
72 91 119
71 87 112
68 85 110
72 90 116
70 88 114
68 85 111
73 89 114
70 87 114
70 86 111
72 89 114
72 90 117
72 89 115
70 86 111
71 89 115
72 89 116
66 83 108
73 90 116
69 86 112
73 91 117
71 87 112
72 90 117
68 86 112
71 88 113
73 90 115
72 90 118
71 89 115
73 91 118
71 88 114
68 85 110
68 85 110
73 91 117
70 87 113
70 87 113
73 90 117
71 89 115
69 86 112
69 87 113
71 88 115
70 87 112
69 86 112
73 91 117
68 84 108
70 87 113
74 92 119
71 88 115
72 89 115
70 88 114
71 87 112
70 87 112
73 91 117
74 92 120
70 87 112
70 87 112
73 90 115
74 92 119
71 87 112
75 92 117
72 89 114
68 85 111
71 87 113
68 86 111
70 87 111
72 89 116
71 89 116
71 89 115
72 89 115
71 88 114
68 85 109
72 89 116
68 85 112
70 88 114
69 86 112
73 90 116
71 89 116
67 84 110
70 87 113
70 86 111
72 89 115
71 88 113
73 91 117
66 83 109
72 89 115
71 88 115
68 86 113
74 91 117
68 84 109
65 82 107
69 86 112
72 89 116
73 90 117
71 89 115
70 87 112
69 86 111
69 86 112
68 85 110
73 91 118
69 85 110
67 84 110
71 88 115
67 84 110
66 83 108
68 85 111
66 82 106
70 86 111
73 92 119
71 89 114
69 86 112
70 87 112
65 81 105
66 83 107
71 89 115
72 90 116
72 89 115
70 87 113
68 86 112
56 69 88
40 50 63
45 55 70
45 55 70
42 52 67
40 48 62
40 48 61
43 53 68
42 51 65
43 53 67
44 54 69
42 52 66
46 56 71
44 54 68
43 52 66
46 55 70
41 49 62
47 57 72
43 54 69
40 49 62
47 57 73
38 47 59
47 58 75
42 51 65
45 56 72
43 52 66
44 54 68
46 56 70
41 50 64
40 50 64
48 58 73
46 57 73
40 49 62
44 53 67
45 55 69
38 47 60
43 52 66
43 53 67
42 52 67
38 46 58
42 52 66
37 46 60
36 45 58
40 50 65
41 51 66
40 49 62
47 58 73
42 51 65
36 45 57
40 49 62
45 56 71
40 49 62
38 46 59
39 48 61
37 46 60
43 53 69
43 52 65
41 51 65
40 50 64
42 51 65
39 47 61
44 54 70
44 54 69
41 50 65
46 56 72
42 52 67
41 49 62
39 47 61
40 49 63
42 52 66
44 53 68
45 54 69
40 50 64
42 51 66
33 41 53
38 46 59
36 44 57
36 44 56
39 48 62
49 59 75
38 46 59
42 52 67
44 55 70
46 56 71
41 50 64
37 45 58
46 56 71
45 55 69
47 58 74
45 55 71
48 59 74
42 51 65
41 50 64
42 51 64
41 50 64
46 56 71
39 49 63
40 49 64
41 51 65
47 58 74
44 54 68
42 52 67
42 51 65
41 50 63
43 54 69
46 56 70
44 54 69
39 48 61
43 53 68
41 50 64
47 57 72
42 51 65
44 53 68
39 49 62
43 52 66
48 58 73
46 57 72
43 52 66
44 55 70
47 57 72
44 53 68
45 55 69
45 54 69
56 69 89
69 87 113
65 80 103
68 85 110
70 87 113
68 84 108
69 87 113
70 88 113
72 89 114
68 85 109
73 91 119
67 83 108
70 86 111
68 85 110
71 89 115
70 87 113
69 85 109
70 87 113
71 88 113
70 87 112
69 86 112
69 85 111
71 88 114
71 88 113
72 91 119
70 87 112
67 84 108
70 87 112
69 85 110
67 84 109
67 84 110
70 88 114
69 85 110
69 86 111
65 82 108
69 87 113
69 87 114
69 86 112
68 85 111
72 89 115
71 89 116
75 92 119
69 86 111
70 87 113
71 88 114
72 89 115
71 87 111
69 86 111
70 87 113
70 87 113
69 85 111
71 88 115
68 85 111
71 88 114
71 88 113
68 86 113
68 85 110
69 86 110
72 90 116
69 85 110
72 90 116
71 88 114
71 88 115
70 87 113
68 85 111
71 89 116
70 87 113
69 84 108
74 91 116
68 85 110
68 84 110
70 87 111
68 84 108
71 88 113
68 85 111
71 88 113
70 88 115
72 90 116
70 87 113
70 86 110
73 89 114
73 91 119
70 86 110
72 89 115
72 89 115
72 90 117
69 85 110
72 90 116
68 85 111
69 87 113
74 91 117
71 88 112
72 89 115
71 89 116
73 90 114
69 85 109
70 87 113
69 85 110
71 88 113
73 90 116
70 87 112
70 87 113
70 87 111
72 89 113
71 89 114
73 91 117
72 90 116
71 88 113
72 89 114
72 89 115
71 88 113
70 87 113
71 89 115
70 87 112
68 84 109
70 86 111
72 90 117
72 91 119
74 91 117
73 91 118
74 91 118
68 84 108
74 92 117
77 94 119
92 110 138
110 130 159
122 141 171
134 154 184
131 150 180
152 173 205
160 182 214
179 202 235
182 205 239
196 219 254
197 221 255
197 221 255
197 221 255
197 221 255
197 221 255
121 141 170
116 136 166
99 118 145
98 116 145
83 100 126
72 89 114
72 91 118
71 88 113
72 90 115
71 88 113
70 87 112
71 89 116
71 87 112
70 88 114
71 89 115
72 90 118
71 88 114
73 90 115
71 88 114
71 87 112
73 90 116
71 87 112
66 83 107
68 85 110
70 87 113
72 89 114
70 88 114
70 87 113
73 90 116
72 89 116
68 84 109
72 90 117
70 88 115
71 88 114
71 89 116
69 86 112
72 89 114
74 92 119
69 86 110
73 92 119
71 88 113
71 89 115
68 84 108
70 86 110
71 90 117
71 88 114
71 88 113
70 87 112
70 87 112
69 87 113
70 88 116
70 87 113
71 89 115
72 89 115
70 88 114
69 86 111
67 84 108
72 90 117
73 90 115
74 92 118
68 86 111
69 85 110
71 88 113
72 89 115
67 84 110
74 91 118
66 83 107
69 87 115
71 87 112
72 89 114
69 85 111
71 89 116
69 86 111
69 87 113
72 89 115
71 89 115
73 90 116
69 86 110
70 87 112
68 85 111
72 89 115
67 85 110
67 85 111
71 88 114
68 85 109
71 89 115
70 88 113
66 82 105
73 90 116
69 86 111
69 86 112
71 88 113
66 83 107
70 86 111
71 89 115
71 88 113
70 87 113
71 88 114
71 88 114
69 86 111
73 90 115
69 86 112
68 85 110
71 88 114
69 86 112
69 85 110
69 86 111
71 89 115
68 84 109
71 87 111
69 87 113
65 81 105
69 87 112
70 87 114
69 87 113
68 85 110
70 87 113
70 87 112
66 83 108
73 89 114
71 88 114
69 87 113
70 86 111
70 87 112
68 86 113
68 85 110
66 82 106
70 87 113
70 88 115
72 88 114
69 86 112
69 85 108
67 83 107
73 90 117
69 85 110
70 88 113
68 85 111
69 86 111
67 82 106
46 56 72
45 55 71
44 53 67
47 57 72
44 54 69
46 56 71
43 52 66
44 55 70
43 52 66
39 47 60
41 50 64
49 60 76
43 52 66
40 49 61
44 54 69
45 56 72
47 58 74
44 54 70
38 46 59
42 51 66
43 53 68
46 56 70
45 54 69
46 56 71
42 52 67
44 54 70
46 57 72
42 52 68
42 51 65
37 45 57
45 55 69
44 54 69
39 49 64
40 49 63
44 54 69
39 48 62
44 54 69
40 50 63
45 56 71
37 46 59
38 46 59
45 55 71
39 48 62
44 54 69
43 52 66
45 54 69
36 44 56
38 47 61
38 47 61
36 44 56
45 55 69
40 49 62
42 52 66
39 47 60
40 49 62
41 51 66
42 52 66
36 44 56
46 56 71
39 48 62
42 52 67
44 54 69
41 51 66
37 45 59
37 45 57
39 48 62
41 50 64
40 49 63
38 47 60
40 50 64
39 48 60
38 47 61
41 50 64
40 49 62
43 53 69
34 42 55
40 49 62
42 51 66
40 48 62
42 52 67
42 51 65
41 50 64
41 51 65
42 51 65
45 55 71
45 55 70
41 50 65
40 48 61
39 48 61
39 48 61
39 48 61
42 52 67
44 55 70
40 48 62
43 52 67
41 50 64
43 52 65
38 47 61
44 55 70
33 42 54
44 54 69
44 53 67
47 58 74
39 48 62
44 53 68
39 47 60
43 52 67
44 54 69
48 58 75
43 53 67
47 57 73
43 54 70
44 54 70
48 58 73
45 55 70
46 55 70
41 51 65
42 51 66
43 52 67
47 57 72
43 52 66
43 53 68
66 83 107
70 87 113
70 87 113
72 89 116
69 86 112
64 81 105
71 89 117
70 86 110
71 89 116
69 86 111
70 87 111
71 88 114
70 87 112
71 89 115
68 85 110
69 85 110
68 85 111
72 91 119
68 84 110
70 87 113
69 86 112
72 89 115
73 91 117
67 83 107
69 86 111
69 85 110
65 82 106
69 86 113
67 83 108
69 85 110
69 87 114
70 87 113
67 83 107
68 85 110
72 89 115
70 87 112
70 87 113
67 83 107
72 89 114
69 86 113
70 87 112
69 87 113
69 85 108
72 89 115
72 89 113
71 87 111
69 85 110
72 89 114
69 86 112
70 87 113
71 88 114
72 90 115
71 89 116
69 86 111
72 89 114
73 90 116
74 92 118
71 89 114
72 90 117
73 91 117
69 87 114
71 88 115
71 88 114
69 85 110
69 86 112
68 85 111
72 90 116
71 89 115
71 88 114
74 92 120
71 88 113
70 87 112
69 86 112
70 88 114
73 91 117
70 87 112
69 85 110
71 88 113
72 90 115
71 89 115
68 85 110
71 88 114
66 82 106
69 86 111
70 88 114
73 91 118
69 86 111
72 90 115
70 87 113
68 85 110
69 87 113
71 87 112
69 86 111
71 90 117
70 87 112
71 88 114
69 86 112
72 89 115
73 91 119
68 86 111
69 86 111
69 86 111
67 84 110
72 90 117
70 87 113
71 87 112
72 89 114
74 92 118
72 89 114
72 88 113
70 87 111
70 87 111
68 85 110
71 88 114
70 86 111
70 87 111
72 90 116
68 85 111
70 86 111
72 90 115
70 87 113
70 87 113
70 86 111
76 93 119
71 88 113
69 87 113
73 90 117
71 88 114
74 90 115
72 89 115
68 84 109
71 88 113
68 84 109
71 88 114
82 100 127
93 111 138
108 127 157
115 135 165
109 129 158
71 88 113
70 88 113
69 87 113
72 89 115
72 88 113
71 88 113
67 85 111
70 87 111
68 86 111
70 87 113
71 88 113
70 88 115
68 84 109
73 91 117
70 87 113
71 88 115
72 89 115
69 85 110
70 86 111
75 92 119
70 88 115
71 88 113
71 89 115
68 86 113
73 90 115
68 84 108
71 88 113
73 91 118
75 92 118
70 88 114
68 85 110
70 87 112
72 89 114
69 85 110
70 86 109
70 88 114
70 87 112
72 89 114
70 88 115
70 87 111
68 84 110
71 88 113
72 90 117
70 88 114
72 90 117
69 86 111
71 88 113
69 85 109
72 89 114
69 86 112
72 89 115
71 88 113
67 84 110
68 84 108
70 87 113
70 88 114
71 88 115
73 91 117
70 88 114
66 83 108
72 89 114
71 89 115
69 86 112
70 87 113
70 86 112
69 85 110
72 90 116
67 84 109
70 86 111
70 87 112
71 88 115
71 88 114
70 86 111
73 90 115
69 85 110
72 89 114
67 85 111
68 86 111
71 89 115
71 88 114
69 86 112
69 85 111
67 84 109
69 86 111
70 87 112
70 88 114
71 89 115
68 85 110
70 86 111
75 92 118
72 89 115
70 87 113
69 86 111
72 89 114
70 87 113
71 88 113
70 86 112
72 89 114
68 85 111
72 89 115
71 89 115
72 89 114
72 90 118
69 86 112
69 86 111
67 85 110
70 88 113
69 86 112
71 88 115
74 91 116
72 89 116
71 88 114
72 89 113
68 85 110
70 86 110
71 88 114
71 88 113
74 91 117
67 84 110
67 83 108
68 85 110
70 87 112
70 88 114
67 84 110
64 81 106
70 86 110
68 86 112
71 89 115
72 89 115
69 85 110
70 87 112
70 87 112
66 83 108
67 84 109
71 88 114
71 88 113
68 85 110
69 86 111
68 85 111
46 57 74
50 61 77
44 53 67
43 53 68
45 54 69
43 53 68
40 50 64
45 55 71
40 49 62
48 58 74
46 57 72
50 61 77
44 54 69
43 52 66
46 58 75
45 55 70
46 56 71
44 54 69
40 48 61
47 58 73
41 50 63
44 54 69
42 51 66
39 48 61
40 49 62
42 52 68
42 51 65
44 54 69
39 49 63
44 54 68
39 48 63
47 57 73
42 52 67
40 49 63
47 57 71
42 51 65
41 50 63
37 46 58
36 44 57
39 48 61
44 53 67
41 50 64
45 55 70
38 47 60
41 50 64
43 53 67
41 50 65
43 53 68
39 49 63
40 49 62
41 50 63
39 48 61
45 56 73
40 49 62
44 54 67
43 53 67
38 46 59
44 54 69
43 53 67
39 48 61
35 43 54
39 49 63
42 52 67
39 48 60
40 49 62
45 54 68
39 49 63
40 50 65
36 45 58
41 51 64
40 48 61
42 51 65
39 48 61
43 53 67
35 44 56
46 56 73
37 45 58
38 47 61
39 47 61
42 51 65
44 54 68
45 55 70
41 50 64
38 47 60
40 49 62
40 49 63
43 53 67
36 45 58
39 49 63
41 50 63
39 48 61
43 53 67
42 52 67
41 51 65
45 55 71
45 56 71
42 51 65
46 56 72
41 51 66
41 51 65
40 49 62
40 49 63
42 51 65
44 55 70
47 58 73
42 51 66
42 51 64
44 54 68
51 62 79
38 48 61
39 47 60
38 47 61
48 59 75
45 55 70
42 52 66
42 52 67
42 52 66
45 55 69
39 48 61
44 54 68
43 54 69
47 58 75
70 87 112
70 86 112
69 86 112
69 86 111
68 85 110
67 83 108
74 91 117
69 85 109
68 85 111
70 86 110
69 85 110
71 89 115
70 87 112
66 82 107
72 88 114
72 89 114
69 86 112
70 87 112
70 87 113
68 85 110
69 86 112
68 85 111
71 88 113
70 88 114
70 88 114
69 86 110
70 87 114
71 88 114
70 87 111
71 87 112
70 87 112
71 89 115
72 90 117
72 90 116
68 85 111
68 85 111
68 84 109
71 89 115
71 87 112
70 86 111
72 89 114
70 88 116
66 83 108
71 89 116
71 88 114
71 89 115
70 87 113
70 88 114
68 85 111
70 87 112
70 86 110
69 87 113
69 86 112
66 83 109
68 86 112
73 90 115
71 88 113
72 90 116
73 90 115
68 84 108
71 87 112
70 86 112
69 86 111
68 85 110
70 88 114
66 82 107
70 87 112
71 88 113
71 89 115
71 89 116
72 90 117
68 85 110
71 88 114
72 90 115
69 87 113
73 91 119
73 90 115
71 88 114
70 88 114
71 89 115
69 87 113
71 89 115
70 87 113
71 87 113
68 85 111
69 87 113
69 86 112
72 89 114
71 88 114
72 89 115
76 93 120
73 91 117
69 85 109
73 90 115
70 87 112
70 87 112
70 88 115
70 87 112
69 86 111
69 86 111
69 86 111
67 84 109
74 91 116
69 85 110
68 84 109
71 89 116
72 89 115
71 89 116
70 87 114
72 89 114
70 88 113
67 84 110
72 89 114
73 91 117
72 89 115
72 89 115
71 88 114
69 86 111
71 89 115
72 90 117
70 88 114
68 86 113
73 91 118
71 89 114
71 88 113
70 87 111
70 88 113
74 92 118
70 87 112
71 88 113
73 90 115
69 86 111
69 86 111
70 88 113
73 91 119
73 91 118
71 88 114
70 86 111
67 84 110
69 86 113
70 87 112
70 87 112
67 84 110
69 85 110
71 88 115
71 89 117
72 89 115
72 88 112
70 87 112
70 88 114
68 85 109
71 88 114
73 90 115
70 88 115
69 86 111
67 83 108
71 89 115
74 91 117
70 87 113
67 84 109
70 86 110
71 87 111
73 92 119
71 89 115
72 89 116
70 87 113
71 88 114
73 90 116
70 87 111
69 85 111
68 85 111
70 88 114
72 90 116
68 85 111
71 88 114
69 86 113
73 90 117
71 88 113
75 92 119
71 88 114
67 83 107
67 84 109
68 84 109
72 89 115
72 88 113
71 88 113
72 90 116
70 87 113
72 90 117
68 85 109
67 85 111
68 84 109
66 83 107
72 90 118
71 88 114
76 93 120
70 86 111
70 86 109
70 87 113
70 86 111
69 86 111
73 91 118
67 83 108
72 90 117
66 82 106
71 88 114
71 89 114
71 88 114
68 85 110
67 84 109
65 82 106
69 86 111
69 86 111
71 89 116
70 87 112
70 87 112
66 83 108
74 91 117
70 86 111
70 87 112
67 84 108
72 89 114
71 88 114
72 90 116
67 83 108
70 86 111
71 89 116
70 87 112
69 86 112
71 88 113
73 90 117
71 87 111
70 88 113
69 86 112
69 86 112
69 86 111
69 86 111
72 90 116
70 87 113
69 86 111
71 88 114
70 87 114
69 86 112
71 89 116
70 87 113
65 82 106
72 89 115
68 84 108
70 87 113
67 83 108
69 86 112
70 87 112
69 86 110
74 92 118
68 84 110
69 88 115
69 86 111
72 89 115
70 86 110
70 87 113
68 84 110
69 85 110
70 87 111
73 89 114
71 88 113
67 83 108
72 89 115
66 83 108
69 87 113
69 86 111
68 85 111
72 88 113
71 88 114
66 84 109
72 89 114
66 84 109
70 87 112
68 85 110
59 73 93
42 51 64
41 50 65
45 55 69
37 46 60
44 55 70
44 54 69
39 47 59
41 50 64
36 45 58
39 48 62
43 53 67
43 53 68
48 59 75
45 55 70
39 48 61
41 51 65
44 54 69
39 48 61
38 47 61
45 56 71
41 51 65
44 53 66
41 51 65
38 47 60
37 46 58
41 50 64
46 56 72
40 49 62
44 53 68
39 48 62
43 53 68
45 54 69
42 52 67
42 52 66
41 50 65
43 52 65
38 48 61
43 53 68
43 53 68
38 47 60
42 51 66
49 60 76
38 46 58
45 56 71
40 48 61
42 51 64
39 49 63
40 49 62
42 52 66
40 49 63
43 53 67
38 46 59
37 45 58
43 52 66
36 44 56
40 49 63
40 50 64
39 47 60
40 49 64
34 43 55
41 49 62
43 52 66
35 43 56
42 51 65
37 46 59
40 49 62
47 58 74
38 46 59
44 54 69
41 50 64
38 46 58
38 48 62
36 45 57
41 49 63
40 49 63
40 50 63
36 44 57
38 46 59
40 50 64
41 50 62
40 49 62
43 53 67
40 48 62
43 52 66
40 49 62
46 56 71
42 51 66
38 47 60
39 48 61
40 49 62
46 54 68
41 49 63
41 50 64
45 55 70
40 49 62
46 56 72
45 54 69
40 49 63
42 51 64
50 60 76
43 53 69
40 50 64
50 60 75
45 55 71
40 49 63
38 47 60
42 51 66
50 61 78
39 48 61
41 51 65
45 55 71
44 53 68
40 50 65
43 53 66
48 58 74
39 48 61
47 59 76
37 46 59
43 52 67
45 55 69
61 76 99
69 85 110
68 86 112
69 85 110
70 86 111
64 80 104
70 87 112
67 85 112
72 89 115
66 83 109
68 84 110
71 89 116
68 85 110
65 83 109
68 86 112
69 86 111
66 83 107
69 86 112
72 89 114
70 86 111
68 84 108
72 89 115
68 85 110
71 88 114
70 87 113
69 86 110
71 87 111
71 88 113
69 86 112
68 85 111
73 90 115
67 84 108
70 87 113
71 88 113
70 86 109
72 90 117
68 83 107
68 85 109
66 82 105
70 87 113
67 84 109
73 90 115
69 86 112
73 90 116
70 87 111
70 86 112
72 89 115
66 83 108
71 87 112
68 86 112
69 85 110
70 88 115
70 86 111
72 90 116
71 88 115
70 87 113
70 88 114
71 89 115
73 89 114
75 92 118
71 88 114
70 88 114
67 84 111
67 83 108
72 88 113
71 88 113
67 84 110
68 85 110
71 88 115
70 87 112
74 92 119
71 89 115
71 88 113
71 88 114
70 87 112
71 89 116
72 88 113
70 88 114
68 84 109
70 88 114
70 88 113
71 88 113
71 87 112
72 90 117
72 89 116
70 87 114
68 85 110
69 86 111
69 86 112
68 85 110
67 83 107
68 85 111
67 85 110
70 87 113
70 87 113
72 90 117
76 94 120
69 86 112
68 85 109
66 83 109
71 89 116
70 88 114
72 89 113
71 88 115
72 89 115
74 91 117
67 84 108
69 85 110
69 86 112
69 86 112
69 86 111
71 88 113
71 88 113
69 86 112
70 87 112
69 86 112
70 87 113
71 89 115
70 88 113
71 87 113
73 89 113
69 86 112
70 87 112
74 92 118
70 87 113
69 86 111
73 91 119
71 88 113
72 89 114
69 85 110
71 87 113
73 90 117
71 87 112
73 91 119
69 86 111
68 85 110
72 89 116
72 89 114
70 86 111
70 86 111
71 89 114
71 89 116
71 88 114
68 85 110
72 88 113
72 90 117
70 86 110
69 85 110
71 87 111
73 90 116
69 87 112
71 89 115
72 88 112
72 89 114
73 91 117
71 89 115
72 90 117
71 89 116
73 91 117
68 84 108
71 88 114
71 88 114
70 88 115
69 86 111
70 86 111
69 86 111
72 89 114
69 87 112
70 86 111
71 88 113
73 91 118
71 88 113
71 88 114
71 89 115
68 85 110
73 92 120
74 91 116
73 90 116
71 89 115
70 87 112
73 90 117
71 88 115
69 86 111
76 93 119
70 88 113
70 88 114
71 88 114
72 88 113
70 87 113
71 88 114
71 88 115
70 88 115
71 87 112
71 88 114
70 87 113
70 86 110
73 91 117
69 87 114
69 86 111
70 86 110
70 87 112
68 85 111
71 89 114
68 85 111
71 88 113
71 88 113
66 82 105
71 89 115
74 92 119
70 87 114
73 92 120
70 87 112
67 84 109
73 91 119
69 86 111
68 85 110
70 87 112
71 89 116
71 89 115
66 83 107
72 88 113
72 89 115
70 87 112
75 93 120
67 84 109
69 87 114
71 88 113
69 87 114
71 88 113
71 87 112
66 83 109
68 85 111
69 86 111
66 82 106
71 88 114
69 87 112
72 90 117
68 85 110
69 86 112
68 84 107
68 86 112
69 86 110
73 90 115
66 82 106
73 91 117
71 88 113
69 87 112
71 89 116
72 88 113
68 86 112
72 89 115
70 87 113
72 90 116
68 85 111
69 86 111
72 90 116
71 88 114
73 90 115
66 82 107
67 83 108
74 91 116
71 88 114
69 85 109
71 89 115
66 81 104
68 84 107
67 85 111
70 87 113
72 89 115
69 86 112
65 82 106
70 87 113
72 89 115
72 90 117
68 85 110
67 84 109
69 86 111
67 83 108
70 87 112
68 84 108
51 62 79
45 55 70
45 54 69
41 50 64
51 62 79
45 54 69
44 54 70
43 53 68
37 45 58
41 51 66
44 53 68
41 50 63
46 56 71
47 57 72
39 47 60
42 51 65
43 53 68
44 54 69
39 48 61
41 51 65
38 47 60
44 55 71
37 45 57
43 53 68
40 49 63
41 50 64
40 48 62
38 47 61
45 54 69
35 43 56
44 54 69
38 47 60
45 56 73
41 50 65
45 54 68
40 49 62
44 54 70
45 55 69
42 51 66
44 54 69
40 49 63
37 46 59
41 51 65
43 52 65
40 48 60
43 52 66
38 47 60
32 40 53
39 49 63
40 49 62
41 50 63
40 49 62
36 43 55
39 48 61
43 53 68
41 50 64
36 44 55
38 46 59
44 54 69
40 49 63
36 44 55
38 46 58
45 55 70
33 40 51
34 42 54
40 50 65
41 50 64
40 49 62
43 53 68
41 50 64
39 48 61
40 48 61
42 51 65
44 53 67
40 50 64
39 47 60
39 49 64
40 49 62
42 52 67
39 48 60
36 45 57
43 53 68
42 51 65
40 49 62
41 50 64
34 41 53
49 59 74
47 58 73
41 51 66
39 49 63
39 49 63
43 52 67
46 56 71
44 54 69
36 44 56
45 55 69
43 52 66
44 53 68
41 50 63
48 58 74
43 52 66
41 51 65
42 52 65
47 57 72
46 56 71
41 51 65
44 54 69
38 47 61
45 55 70
43 53 67
39 48 62
43 52 66
41 50 65
42 52 66
50 61 78
42 52 67
40 49 62
43 53 66
45 55 70
47 58 74
67 83 107
70 86 111
71 88 113
70 88 114
71 89 116
69 86 111
68 86 112
67 84 108
71 89 115
70 87 113
71 87 112
68 84 107
68 84 110
68 85 110
69 86 111
73 90 116
71 88 114
72 90 116
71 89 115
67 82 105
71 88 114
71 88 113
70 88 114
72 89 114
71 89 115
70 88 113
70 88 114
68 85 111
69 86 112
69 85 109
70 87 112
70 87 112
73 90 117
67 83 108
71 88 115
71 88 114
67 83 107
67 84 109
71 86 110
71 88 113
72 89 115
71 87 112
72 89 114
72 88 112
72 89 114
69 86 111
70 87 112
72 88 112
70 87 112
74 91 117
73 91 119
73 90 115
66 83 108
71 87 112
69 85 110
70 87 112
67 83 108
70 87 113
71 89 115
66 83 108
72 89 115
72 89 115
72 89 115
69 87 113
69 87 113
70 87 111
64 81 106
71 88 114
69 86 113
68 85 112
71 88 113
67 84 108
72 89 115
67 83 107
67 84 110
71 88 115
70 88 115
72 89 114
69 85 111
68 84 108
72 89 115
68 86 111
73 90 116
71 88 113
71 89 117
66 82 107
70 86 111
73 90 116
71 88 114
74 91 117
69 85 111
73 90 116
71 88 114
70 87 113
73 90 115
70 87 112
70 86 112
71 88 113
71 89 115
73 90 115
67 84 109
67 83 107
68 84 107
70 87 113
71 88 113
69 86 111
71 88 114
71 87 113
72 90 117
68 84 109
72 89 114
72 91 119
73 91 117
68 85 112
69 87 113
71 88 115
71 88 114
70 87 112
68 85 111
73 90 115
70 88 113
72 88 113
68 85 110
68 84 109
73 90 116
70 85 109
70 88 114
71 89 114
74 92 120
74 92 118
71 87 112
68 85 112
69 86 112
70 86 111
69 87 113
71 88 113
70 86 112
65 82 106
70 88 115
70 87 113
69 86 110
69 85 109
71 87 111
74 91 117
66 83 107
72 88 113
73 91 118
69 86 111
72 90 117
73 91 117
72 89 115
68 85 111
70 87 112
72 90 116
71 88 113
72 88 113
68 85 110
69 87 113
70 87 112
66 82 107
71 87 111
71 87 113
70 87 112
74 91 117
68 84 109
69 86 110
69 86 111
70 87 113
69 86 112
68 85 111
70 87 114
70 87 112
71 88 113
68 85 110
72 89 115
68 86 112
69 86 112
72 89 114
72 89 115
71 88 113
72 90 115
71 88 114
71 88 114
67 83 107
70 87 112
68 85 110
67 84 108
72 90 117
70 87 112
73 91 118
69 85 108
71 88 113
73 90 115
70 88 114
73 90 117
71 88 115
68 85 110
70 86 111
69 85 110
68 85 111
69 85 109
72 89 114
72 90 117
70 87 112
71 88 113
71 88 114
70 87 112
70 86 111
67 84 109
71 88 113
71 87 110
71 89 115
67 84 110
69 86 111
68 86 112
70 87 112
65 81 106
72 90 115
71 89 116
72 89 114
70 88 114
70 87 112
74 91 117
69 86 112
70 88 115
68 85 111
70 88 114
70 87 112
73 90 116
67 83 107
68 85 110
68 85 109
69 86 111
70 87 113
69 85 110
68 85 111
67 85 111
68 84 109
72 88 113
68 85 110
71 88 113
72 89 115
71 89 115
71 88 114
67 83 107
71 88 113
68 85 111
72 89 115
70 87 113
70 86 111
72 90 117
70 86 112
72 89 115
70 87 113
71 88 113
68 84 108
69 86 111
67 83 108
69 84 107
73 91 117
66 83 109
69 86 112
68 85 111
68 85 111
66 82 108
70 87 111
66 82 107
69 85 110
65 80 102
70 87 113
72 89 114
72 89 114
69 86 111
72 90 116
68 84 109
63 79 104
67 84 110
68 85 111
70 86 111
67 83 108
59 72 93
38 47 59
46 56 71
39 47 60
40 49 62
49 60 76
42 51 65
44 54 69
43 53 67
48 58 73
48 58 73
39 47 59
42 52 66
43 53 67
41 50 65
41 50 64
46 56 72
38 47 60
43 53 68
43 53 67
38 46 60
45 54 69
43 54 69
43 53 68
45 55 70
38 47 60
45 55 70
43 52 66
43 53 67
42 52 67
44 54 68
44 54 69
41 50 64
45 55 71
44 54 69
39 49 63
36 45 58
45 56 71
45 54 68
40 49 63
40 49 63
40 49 62
43 53 67
44 53 68
43 53 68
43 52 67
41 49 62
47 57 72
41 50 63
37 45 58
37 45 58
39 48 61
40 49 63
45 55 71
40 50 63
41 50 63
42 51 64
36 45 57
38 47 61
40 49 63
36 45 57
40 48 61
43 53 67
40 49 63
40 50 64
39 48 61
39 48 61
39 48 61
39 48 61
42 51 66
40 48 61
41 49 62
36 44 55
42 51 65
37 46 58
40 49 62
43 53 68
41 50 63
41 49 62
35 43 55
39 48 60
41 51 65
42 51 66
42 51 65
43 52 66
41 50 64
43 53 67
43 52 66
48 57 72
44 54 69
41 50 63
44 54 68
45 55 70
37 46 60
45 54 69
43 53 68
43 53 69
41 50 63
42 51 65
44 54 69
41 50 63
41 51 65
41 51 65
41 51 65
45 56 72
44 53 67
38 47 60
44 53 67
39 48 60
45 55 69
46 56 71
45 55 71
44 53 68
42 52 66
46 57 73
44 54 70
44 53 67
45 55 69
40 49 63
50 63 81
65 81 105
67 84 109
71 88 113
69 86 112
71 88 115
69 86 111
67 84 109
72 89 114
72 89 115
69 86 112
65 82 106
70 87 112
70 87 113
68 85 111
69 86 112
75 92 118
68 85 110
67 84 110
70 86 111
70 87 112
70 88 115
71 88 113
72 89 115
67 83 107
70 87 113
70 87 111
72 89 113
74 91 117
65 81 106
65 82 107
69 86 112
69 86 112
67 84 108
71 89 115
70 87 113
71 89 115
71 88 115
71 88 115
68 84 108
67 84 110
68 85 110
72 89 116
70 87 113
69 86 112
73 90 117
68 85 110
68 85 109
69 87 113
68 85 110
69 86 111
67 84 109
73 89 114
68 86 112
69 86 112
71 88 114
67 84 109
72 89 115
70 87 114
76 94 122
69 86 112
68 85 109
70 87 111
70 88 113
73 90 115
67 84 110
69 86 111
71 88 113
70 88 114
71 88 113
67 84 110
68 86 113
73 90 116
68 86 111
68 86 112
72 89 115
71 87 112
69 86 112
72 90 117
68 85 111
69 86 111
67 83 107
70 88 115
70 88 115
67 83 108
70 86 112
72 89 114
67 83 108
67 84 109
71 88 114
69 86 112
72 90 117
70 87 113
68 84 110
67 84 108
68 85 110
68 85 111
72 89 115
69 87 113
69 87 113
67 83 107
73 91 119
70 87 112
69 86 112
71 89 115
71 89 115
68 85 109
70 88 114
71 89 115
71 89 115
70 87 112
70 87 112
70 89 116
68 84 108
73 92 119
72 88 113
72 89 115
68 86 112
66 83 108
69 85 108
73 90 115
70 86 111
68 86 111
72 90 117
72 89 115
73 91 118
67 85 111
69 86 110
67 84 111
70 88 115
72 90 117
73 90 116
69 86 111
73 89 113
74 92 119
73 91 118
70 87 114
71 89 115
72 90 116
68 85 111
70 88 113
67 85 111
69 86 112
69 85 110
71 88 113
71 89 115
73 90 115
71 87 111
71 88 113
70 87 112
70 87 112
67 84 110
68 84 109
69 85 110
69 86 111
71 88 113
74 92 118
69 85 110
71 89 116
67 83 108
68 84 109
72 90 117
72 89 114
73 89 115
71 88 113
70 88 114
70 86 111
74 91 116
72 89 114
70 87 111
71 88 113
72 88 113
69 86 112
69 85 110
72 89 115
68 84 108
71 88 114
67 84 109
72 89 114
72 89 114
70 87 112
70 87 112
69 87 113
69 86 113
71 88 114
68 84 109
69 87 113
69 86 111
68 84 107
69 87 114
72 89 115
73 90 115
71 87 112
68 85 111
68 84 109
70 88 115
68 84 109
70 86 111
72 89 115
71 88 114
70 87 111
71 88 114
67 84 109
69 87 113
72 88 113
69 87 113
71 88 113
69 86 112
68 85 110
68 85 109
70 87 113
70 88 114
70 88 114
71 88 114
69 86 111
71 88 113
68 85 110
72 89 115
68 85 109
70 87 113
66 82 106
73 90 115
71 89 114
70 88 115
72 89 115
69 86 111
69 85 110
69 86 111
70 88 114
72 89 115
74 91 117
71 88 114
72 89 114
71 89 115
67 83 107
69 86 112
70 87 113
69 86 113
68 85 110
70 87 112
67 84 109
65 82 106
66 82 107
68 85 110
69 86 110
65 82 107
66 83 107
68 85 110
72 89 114
66 82 106
70 86 111
71 89 116
68 86 111
69 85 109
71 88 113
69 86 112
71 89 116
67 84 109
66 83 108
68 84 108
65 81 105
68 85 110
70 87 112
68 84 108
68 84 109
70 88 114
64 80 104
74 91 117
69 85 110
70 88 115
70 87 112
68 84 109
71 89 115
65 81 106
67 84 108
66 82 107
71 88 114
69 86 112
70 87 113
66 83 107
69 86 110
64 79 101
43 52 66
46 57 72
41 50 65
45 54 69
37 45 58
46 56 72
48 59 75
41 50 62
41 51 65
41 50 63
41 49 63
42 52 66
41 50 64
41 50 64
44 53 67
45 54 68
38 46 59
42 50 64
36 45 57
41 50 63
40 49 63
41 51 66
43 52 66
40 49 62
43 53 68
40 48 61
42 51 64
44 54 69
42 52 66
47 58 74
37 45 58
46 56 72
43 53 68
39 49 63
40 48 61
41 50 64
40 49 63
41 50 64
36 45 58
42 52 66
36 44 56
41 50 64
40 49 62
42 51 65
39 47 60
46 56 72
43 52 65
39 48 61
37 45 57
40 50 64
43 53 68
41 50 62
40 49 62
40 48 61
39 48 61
37 45 57
38 46 59
39 48 61
39 48 62
37 45 57
43 52 66
39 47 61
38 47 60
43 53 67
35 44 57
41 51 66
41 50 64
44 54 69
38 46 59
48 59 75
41 50 64
44 53 68
41 50 64
42 51 65
38 47 59
41 50 65
37 46 59
38 46 58
41 50 63
41 51 65
43 53 68
45 55 70
37 45 57
42 52 67
45 55 70
38 47 60
47 58 74
43 53 67
41 51 65
43 53 67
44 53 67
39 49 63
45 55 69
46 57 73
35 43 54
40 49 63
38 47 60
45 55 70
36 44 56
41 50 63
42 51 64
42 52 66
39 48 63
42 51 64
45 54 68
46 56 72
48 59 74
45 55 70
46 56 72
44 53 68
46 56 71
41 50 64
40 48 61
43 52 67
46 56 71
45 56 71
45 56 71
41 50 64
68 84 109
69 85 109
71 89 115
69 86 112
69 86 112
70 87 113
70 87 113
71 88 113
69 85 109
69 86 111
68 85 109
70 86 111
66 83 109
69 86 112
72 90 116
68 84 109
71 88 114
66 83 109
66 83 108
68 85 110
69 86 112
69 85 110
69 86 111
68 85 110
67 84 110
73 90 116
72 89 114
71 89 115
72 89 115
70 87 113
70 88 114
70 88 114
71 87 111
74 91 117
72 88 112
69 85 110
66 82 107
70 87 112
70 86 112
68 86 111
68 86 112
67 84 110
70 87 112
68 84 109
72 89 114
72 89 115
73 91 117
64 80 104
67 83 107
72 91 118
68 85 110
67 84 110
71 87 112
68 85 111
69 86 112
69 85 109
69 86 112
71 87 111
72 89 115
69 85 109
68 85 110
74 91 118
72 90 117
70 87 113
69 86 111
69 86 112
67 83 107
68 85 111
69 85 110
66 83 109
69 87 113
69 85 110
70 87 112
71 89 115
67 84 109
67 84 110
71 89 115
71 89 115
70 88 115
72 89 115
69 87 112
71 88 114
73 89 115
67 85 111
68 84 108
69 85 110
69 85 108
68 84 108
69 87 112
69 87 114
69 86 110
70 88 114
71 88 113
70 87 114
68 85 111
69 85 110
67 85 111
69 86 112
70 87 112
71 87 111
68 85 111
73 90 115
71 88 114
69 87 115
73 90 115
70 87 113
70 86 111
72 88 114
69 87 114
71 88 113
71 88 113
73 91 118
69 86 113
70 87 113
66 82 107
72 89 115
70 86 111
68 85 111
72 89 113
71 89 115
72 89 114
71 88 114
71 89 115
67 84 109
71 88 114
67 83 106
72 90 117
68 85 111
69 86 111
70 88 114
71 88 114
72 90 117
70 88 113
68 85 111
72 89 114
73 91 118
66 82 106
68 85 109
73 90 116
67 83 108
71 89 117
70 88 114
69 86 112
72 89 114
73 90 116
69 86 110
72 90 117
69 86 111
70 87 112
71 89 116
70 87 113
70 88 115
69 86 111
68 86 111
72 90 117
70 86 111
71 88 113
70 87 113
71 89 115
71 88 114
70 87 113
71 89 117
68 86 112
73 90 115
73 91 117
73 90 115
69 86 112
69 86 110
65 82 107
71 89 117
70 87 112
73 90 115
73 91 119
68 84 109
70 87 112
67 85 111
71 88 115
70 88 114
68 84 108
73 91 117
72 89 114
70 87 111
69 86 112
69 87 112
72 90 118
68 85 110
69 85 108
68 84 107
71 88 113
70 88 114
71 89 115
69 86 112
67 83 108
72 89 115
67 83 107
69 87 113
69 86 111
66 83 109
74 91 117
70 89 116
71 87 112
69 87 113
71 88 114
70 86 111
71 88 115
70 87 113
69 86 112
68 85 109
68 85 111
73 90 116
70 87 112
70 87 113
69 86 111
66 83 108
70 87 112
68 85 110
72 89 115
69 86 112
73 90 115
69 86 112
66 82 105
69 86 112
72 90 117
70 89 117
71 89 116
70 87 112
73 91 117
69 85 109
67 84 109
71 87 111
68 85 111
68 85 110
69 87 113
68 85 111
72 89 113
70 86 111
69 86 110
69 86 112
69 85 110
71 88 113
70 87 112
72 90 115
71 88 115
67 83 107
68 85 110
69 86 111
68 85 111
69 87 113
68 85 111
72 89 116
67 84 109
69 86 111
72 88 113
71 88 114
63 78 100
70 87 113
69 85 109
70 88 113
71 88 114
67 84 108
68 85 109
68 85 111
68 84 110
69 86 112
71 87 111
70 87 113
68 84 108
69 86 112
67 85 112
65 81 106
70 88 115
67 83 108
67 84 109
68 86 112
69 86 112
67 83 107
67 83 108
69 86 111
67 84 110
68 84 109
67 83 107
69 86 111
52 64 83
48 58 74
41 51 65
44 54 68
44 54 69
42 50 63
41 50 64
44 54 68
40 49 63
40 50 64
39 48 61
43 52 67
45 55 70
43 52 66
46 56 72
45 55 70
45 54 69
45 55 69
47 58 74
40 49 63
43 54 69
46 56 70
48 59 75
43 53 67
43 53 67
46 56 71
43 52 66
40 49 62
40 49 63
38 47 59
41 50 63
40 49 63
44 54 68
44 55 70
41 50 64
42 51 65
40 49 62
37 46 59
44 53 67
38 47 59
38 47 60
43 52 67
43 53 67
44 54 69
39 49 62
42 50 63
37 46 58
41 49 61
41 50 63
38 47 61
40 48 61
38 46 59
42 51 66
41 51 65
40 49 62
39 48 61
43 52 66
42 51 65
38 46 59
39 48 61
40 50 64
37 46 59
39 48 61
38 47 60
38 46 58
38 47 60
41 50 64
41 51 65
40 49 63
38 46 59
38 46 59
38 47 59
39 48 62
35 44 57
37 46 60
42 51 65
38 47 59
40 48 61
38 47 60
46 56 71
42 51 64
43 53 68
36 44 56
39 47 61
41 50 63
39 48 61
40 49 63
37 46 58
40 49 63
41 50 64
44 53 68
49 60 77
43 51 65
50 61 78
47 57 73
43 52 66
38 47 60
42 51 64
42 52 66
43 52 66
47 58 74
42 52 67
40 49 62
43 53 67
42 51 65
53 64 80
48 58 74
46 57 73
40 50 65
44 53 68
40 49 63
41 51 64
44 54 69
40 50 64
37 45 58
45 55 70
38 46 59
54 66 85
68 86 112
70 86 110
68 84 109
67 84 110
67 83 107
69 84 108
68 84 108
71 89 115
66 83 107
69 86 112
69 86 111
68 85 110
71 88 114
69 86 111
70 86 111
69 86 110
69 86 111
67 83 108
72 89 115
69 85 109
66 81 105
68 85 110
67 84 110
70 87 112
68 84 109
70 87 112
68 85 110
71 88 114
70 87 111
71 88 113
70 87 113
72 89 115
65 82 108
67 83 107
65 82 107
66 81 105
68 85 110
70 87 113
67 84 110
71 89 115
70 88 114
66 82 107
68 86 112
70 88 114
67 83 107
69 86 111
67 83 107
72 90 117
70 87 112
70 85 108
70 87 112
68 85 110
71 88 114
67 84 109
68 85 109
70 86 111
70 86 111
70 87 113
69 87 112
70 86 111
71 88 113
69 86 112
69 86 112
73 91 118
68 85 110
68 85 110
71 88 113
69 87 114
70 87 112
69 86 112
69 85 110
72 89 115
67 84 110
69 86 112
70 86 110
71 88 114
70 87 113
69 86 111
70 86 111
72 89 116
70 89 116
72 89 115
70 87 113
69 86 111
70 86 111
71 89 115
72 89 114
71 90 117
72 89 115
72 88 113
72 89 114
69 85 110
70 87 113
69 86 111
67 84 108
72 89 115
73 90 117
66 82 107
72 89 114
65 83 108
70 88 113
71 88 113
70 86 110
70 87 112
73 90 117
74 91 118
74 92 118
66 82 106
69 86 112
71 88 114
73 90 116
71 88 115
68 85 110
70 88 115
68 84 109
70 86 111
69 86 113
70 87 113
69 87 113
71 88 114
72 90 118
72 90 116
70 87 113
70 88 115
69 86 111
71 89 115
66 83 108
67 84 109
72 88 112
72 89 114
71 87 111
71 89 115
72 90 116
70 87 113
71 87 113
74 91 117
70 88 114
73 91 117
69 86 111
70 88 115
70 86 111
73 91 118
70 86 111
73 91 118
69 86 111
72 90 117
70 87 113
69 86 112
70 86 111
71 88 115
68 85 111
69 87 113
69 86 112
70 86 111
69 86 112
73 91 118
68 86 112
67 84 110
68 85 111
73 91 118
71 89 116
73 90 115
69 86 111
70 86 111
72 89 115
69 85 110
72 89 115
74 91 118
69 87 113
67 83 107
73 90 115
71 89 116
69 85 110
68 85 110
69 87 114
69 87 113
72 90 116
68 85 111
70 87 113
70 87 112
68 84 109
69 85 110
69 87 114
70 86 110
72 89 114
71 88 115
68 85 111
70 87 112
73 91 118
72 90 117
69 85 110
72 90 117
66 82 105
68 85 111
71 88 114
71 87 111
70 87 113
72 89 115
72 89 114
69 85 110
64 80 105
73 91 119
70 87 111
70 87 113
70 88 113
67 83 106
70 87 112
68 84 110
70 87 112
69 86 111
69 86 111
70 87 113
72 90 118
68 84 109
66 82 106
65 81 104
72 91 119
69 85 109
72 89 114
72 89 115
69 86 111
67 84 108
66 83 108
67 83 108
69 86 111
68 85 111
71 88 113
70 87 113
68 85 110
67 84 108
68 86 112
69 85 110
67 83 107
69 85 109
69 87 112
67 84 108
71 88 113
70 87 112
68 84 110
69 86 111
68 85 111
70 87 114
68 84 108
66 83 107
71 88 114
63 80 104
66 82 106
69 86 111
67 84 110
71 89 115
63 80 104
68 84 109
75 92 119
62 77 100
65 82 107
70 88 114
66 83 107
70 88 114
67 84 109
66 82 105
67 83 108
67 84 108
68 84 109
67 84 109
67 84 108
66 82 106
69 85 111
69 85 110
71 88 114
68 85 110
68 85 112
66 82 106
68 84 107
67 84 109
70 88 114
70 87 112
69 87 113
69 87 113
67 83 109
66 83 108
68 85 110
67 83 109
65 81 104
45 55 70
43 52 65
43 52 65
41 50 64
39 47 59
44 54 68
39 47 60
35 43 55
38 47 60
41 50 63
45 55 70
41 50 63
39 48 60
41 50 63
42 52 67
42 51 66
41 50 64
44 54 68
39 48 61
38 46 58
45 55 71
41 51 65
45 54 67
44 54 69
41 50 64
42 51 64
44 53 66
40 48 62
39 48 62
40 49 63
40 49 63
41 50 65
42 52 68
37 46 59
41 50 64
40 50 64
44 54 69
39 47 60
44 53 67
41 50 65
41 51 65
39 48 62
41 50 63
39 49 63
38 47 59
39 48 61
38 46 59
42 50 64
41 50 64
40 50 64
42 52 65
43 53 67
38 46 59
38 46 57
34 42 54
45 55 69
43 54 69
43 52 66
38 47 59
39 48 61
38 47 60
40 49 62
41 50 64
38 47 59
43 53 68
37 45 57
40 49 61
38 47 61
35 42 54
40 49 64
41 50 63
44 54 69
40 49 63
41 50 64
39 47 60
43 53 67
41 51 65
40 48 61
41 50 64
33 40 51
45 55 69
39 48 62
39 48 62
43 52 66
40 48 61
37 45 58
43 53 68
44 54 69
45 55 70
37 46 59
42 52 66
39 48 61
44 53 67
36 44 55
38 46 59
47 58 74
44 54 68
44 54 68
44 54 69
41 51 65
43 54 69
40 50 64
40 49 61
44 54 69
40 49 62
44 54 69
45 55 69
40 49 63
40 49 62
40 48 62
44 54 70
45 55 71
40 49 63
40 49 62
39 48 61
43 53 68
62 76 97
68 84 109
67 83 106
65 82 108
67 82 104
68 84 109
69 85 109
67 83 107
71 86 110
68 86 112
69 86 111
66 82 106
69 86 112
67 83 107
69 86 112
73 91 117
69 85 109
68 86 112
68 85 112
67 84 109
72 89 114
69 85 109
68 84 108
68 84 108
66 82 105
65 80 104
67 84 109
65 80 104
67 83 107
71 89 116
68 84 108
70 87 112
69 86 112
71 88 115
70 87 111
68 84 108
69 85 109
71 87 112
68 85 111
72 90 115
70 86 111
71 88 112
73 90 116
67 83 108
68 85 110
69 87 115
69 86 111
67 83 107
65 82 106
73 90 115
71 87 112
71 88 115
71 87 112
68 86 112
70 86 110
73 91 120
70 87 111
71 88 115
72 90 116
67 84 109
72 89 115
70 88 115
73 90 116
68 86 113
70 87 113
67 83 107
73 90 116
70 88 114
72 90 116
68 85 110
68 85 110
68 85 110
71 88 113
67 83 108
70 86 112
66 84 111
69 85 110
70 88 115
69 85 110
70 87 113
68 85 110
71 88 114
67 83 108
71 88 114
73 91 117
73 91 119
67 84 110
69 85 109
68 85 110
70 88 114
70 87 112
67 83 107
69 85 110
68 84 108
70 88 116
72 90 116
70 88 114
71 88 113
68 85 111
67 83 108
70 87 113
71 88 115
70 87 113
74 91 118
71 88 114
72 89 113
70 88 114
71 89 115
70 87 112
72 90 117
69 86 111
71 89 115
67 84 110
70 87 112
71 88 113
73 90 115
73 91 117
69 86 111
72 89 115
65 82 107
70 87 113
68 85 110
70 87 113
72 90 116
72 90 116
72 89 115
71 88 112
70 87 113
70 87 113
70 87 113
67 84 108
73 91 118
68 85 111
72 89 115
72 89 115
71 88 113
71 88 113
70 87 113
69 86 112
70 87 112
68 85 111
71 89 115
70 87 112
70 86 111
72 90 116
68 85 111
73 90 116
69 87 113
69 86 110
71 88 113
71 89 115
69 86 112
72 89 114
70 88 115
70 87 112
71 87 112
72 89 114
73 91 118
69 85 110
71 88 113
69 86 112
73 91 117
69 86 113
68 85 110
73 90 116
70 87 111
70 87 112
69 86 112
70 86 112
70 88 115
70 87 112
71 88 114
71 88 114
71 88 115
71 87 112
71 89 115
72 90 117
69 86 112
66 83 109
68 85 111
74 91 118
72 90 117
66 82 107
70 87 113
70 86 111
70 87 112
68 85 111
68 85 110
66 83 108
69 86 111
74 91 117
69 87 113
70 88 116
74 91 118
69 86 112
70 88 115
70 87 113
70 87 113
72 90 117
69 86 112
69 86 111
69 86 111
72 89 115
69 85 109
68 84 107
70 86 111
70 87 114
69 86 112
67 84 109
71 87 112
71 88 113
73 90 115
71 87 112
70 87 113
66 83 108
68 84 108
68 85 111
68 84 109
69 85 110
69 86 112
68 85 110
66 83 109
71 88 113
69 85 109
70 86 111
69 86 111
70 87 111
71 89 115
68 85 110
72 90 117
70 88 114
68 84 109
70 87 112
65 81 105
69 86 112
71 88 113
72 88 113
69 86 111
72 89 114
69 86 112
68 84 109
70 86 112
68 85 110
68 85 109
66 84 109
69 86 113
66 83 107
69 87 114
65 81 106
65 81 105
66 82 106
72 89 115
66 82 107
69 86 112
67 83 107
69 85 109
70 87 112
73 90 116
68 85 110
72 89 114
68 84 109
65 82 106
67 84 109
68 86 112
68 85 110
72 89 114
66 82 107
67 84 109
66 81 104
68 84 109
66 83 108
69 87 114
64 81 106
67 83 107
67 83 107
67 84 110
64 79 102
68 85 110
68 84 109
66 82 106
70 88 114
70 88 115
68 86 111
67 83 107
48 59 76
41 50 63
37 46 59
37 46 59
45 55 70
42 51 65
37 45 58
40 48 61
36 43 55
40 49 63
40 49 62
45 56 71
38 47 60
46 57 72
47 58 73
42 51 64
41 51 65
38 47 61
43 52 66
42 51 65
39 49 62
43 52 66
42 51 64
47 57 72
44 54 68
40 48 61
47 57 71
38 48 62
41 50 64
43 53 67
40 49 62
41 50 64
43 52 66
44 53 68
44 53 66
39 48 61
43 53 67
36 44 56
41 50 63
40 50 64
36 45 57
40 48 61
42 51 65
38 46 59
38 46 59
44 53 68
36 44 56
40 49 63
38 46 58
36 45 58
43 52 65
37 45 58
41 50 63
39 47 60
45 54 69
39 47 60
37 45 57
34 42 54
41 50 64
43 52 65
41 50 64
42 51 64
37 45 57
38 47 60
40 50 64
37 44 56
41 49 62
39 47 59
39 48 62
43 53 67
40 49 62
39 47 60
44 54 68
39 48 61
41 50 64
44 53 67
38 46 59
49 59 75
42 52 66
46 56 71
36 45 58
39 48 61
42 52 66
39 48 61
42 52 65
41 50 63
43 53 67
44 53 67
39 48 62
41 50 65
40 49 62
37 45 57
39 48 61
42 51 65
43 51 64
45 55 70
42 51 64
40 50 64
48 57 72
42 51 65
42 51 65
39 47 61
39 48 61
44 53 68
41 51 65
43 52 66
49 59 75
43 52 66
44 54 68
41 50 64
43 51 64
43 53 67
47 57 72
43 52 66
40 49 62
51 64 83
68 84 108
66 81 105
65 81 105
66 83 109
63 79 102
70 88 113
67 84 110
69 85 110
63 78 101
72 89 116
72 90 117
70 87 111
69 86 112
70 87 113
71 89 115
68 84 108
69 86 111
70 87 112
67 83 108
66 82 105
69 86 111
68 85 111
68 85 110
70 87 113
68 84 108
68 85 111
72 90 116
70 87 112
66 83 108
70 87 114
72 90 117
68 84 109
70 88 114
72 88 113
68 86 112
70 86 111
72 90 116
67 84 110
71 88 114
71 88 114
69 86 111
68 85 110
73 90 115
67 83 108
68 85 110
68 86 112
71 89 115
68 85 109
71 87 110
66 82 105
67 82 105
68 84 109
72 89 115
71 87 111
66 83 108
70 87 112
73 91 117
70 86 111
71 88 113
69 86 111
72 88 112
71 88 114
74 92 119
70 87 111
69 85 110
70 87 112
69 86 111
69 87 113
68 85 110
68 86 111
70 87 113
68 84 109
68 84 109
71 89 115
70 88 113
69 86 113
74 92 119
69 87 113
69 85 110
73 89 114
70 87 113
72 89 115
69 87 114
70 87 113
71 88 114
71 89 115
67 84 108
69 86 111
70 87 112
71 90 117
71 88 114
70 87 112
71 88 113
72 89 115
68 85 110
70 87 113
68 86 111
64 81 105
72 89 115
69 86 112
72 89 113
68 85 110
69 85 108
72 90 116
68 84 110
73 90 115
68 84 110
70 86 111
70 87 113
69 87 113
69 86 111
70 88 114
68 85 111
70 86 111
69 87 112
69 86 112
68 84 109
68 85 111
69 86 111
75 92 118
70 87 113
67 82 105
70 87 112
73 91 118
72 90 116
72 89 115
71 89 115
69 86 111
73 90 117
69 87 112
73 90 117
73 90 116
71 89 115
72 89 115
71 88 114
73 91 117
73 90 117
71 88 113
70 88 114
71 88 113
70 87 113
70 87 112
72 89 115
71 87 112
71 89 116
72 88 113
67 84 110
72 90 117
73 90 117
72 89 115
72 89 115
72 89 114
69 87 112
72 88 113
71 87 113
70 87 113
68 85 111
66 83 108
70 87 114
72 89 114
72 89 115
69 87 112
69 87 113
68 85 111
71 87 112
70 87 112
69 86 111
68 84 109
72 89 115
69 86 111
70 86 111
68 85 111
70 87 114
67 85 110
71 88 113
69 85 110
71 88 113
71 89 115
71 88 114
72 89 115
73 90 116
70 87 113
68 85 110
69 86 112
71 89 116
68 85 111
69 86 111
70 87 113
68 85 111
73 90 117
72 90 115
72 90 117
68 84 108
69 86 111
70 87 112
69 87 113
71 88 114
68 86 112
72 89 116
70 88 113
74 91 116
68 84 108
67 84 110
70 87 112
68 84 110
69 85 110
70 87 112
69 85 109
68 85 111
71 87 112
72 90 118
71 88 115
69 85 109
70 87 112
69 86 112
68 85 111
68 84 109
68 84 108
68 84 109
67 83 107
69 87 113
69 86 112
72 89 115
70 87 113
70 87 112
71 89 114
67 84 109
68 84 109
68 84 108
74 91 116
71 88 113
68 85 110
66 83 108
72 89 115
67 83 108
69 86 111
68 84 108
66 82 106
68 84 109
70 87 112
71 89 116
68 86 112
73 91 117
71 89 115
71 89 116
65 81 106
65 81 106
70 87 112
69 86 111
70 88 115
70 87 113
70 87 113
70 87 113
67 84 109
67 84 108
65 82 106
67 83 107
69 86 111
67 83 108
67 82 106
67 84 110
66 82 106
70 87 111
68 85 112
66 81 105
63 79 102
67 83 107
70 86 111
64 80 104
64 80 102
66 82 106
68 86 112
67 84 109
66 82 106
67 84 109
70 87 113
64 79 101
66 82 106
67 85 111
66 81 105
66 83 108
66 83 108
69 86 111
67 84 109
64 80 103
46 56 70
40 48 61
40 49 61
39 48 62
43 53 67
48 58 74
41 50 64
40 49 63
43 53 68
41 50 64
43 53 67
41 49 62
44 53 67
44 53 67
45 55 69
44 53 67
48 59 75
43 53 68
45 54 69
44 54 70
39 47 60
42 51 64
43 53 69
49 59 75
45 55 71
42 51 65
41 51 65
44 53 68
41 49 63
40 48 62
40 49 62
38 45 57
40 50 63
45 54 68
38 47 59
43 52 66
43 53 67
44 53 68
41 50 63
42 52 66
43 52 66
39 48 62
40 50 64
37 46 59
39 48 61
38 46 58
34 42 54
39 48 62
37 45 57
40 48 62
39 47 60
40 49 62
39 48 60
38 46 59
43 51 64
36 44 56
39 47 59
42 52 66
41 51 64
40 49 63
45 55 70
41 50 64
36 44 56
43 53 68
38 47 60
37 45 58
38 47 59
43 52 66
39 48 62
38 46 59
36 45 57
40 49 63
39 48 61
37 45 58
44 54 68
36 44 55
45 55 70
41 50 64
46 55 70
43 52 65
41 50 64
45 55 71
41 50 63
38 46 59
39 48 63
40 50 63
46 56 71
45 55 70
43 52 65
40 50 64
40 49 62
43 52 66
45 55 70
37 45 59
38 46 59
44 53 67
44 53 67
47 57 72
43 52 66
44 53 68
44 54 68
39 47 59
37 45 57
41 51 64
42 51 64
46 56 70
47 57 72
42 51 64
42 51 65
41 51 65
43 52 66
41 50 63
37 46 58
37 45 57
67 83 106
69 85 110
67 83 107
68 84 108
69 85 109
68 85 110
68 84 107
65 81 106
64 81 105
67 84 110
64 80 104
70 87 112
66 83 108
71 88 113
65 80 104
69 85 110
69 86 112
67 84 110
63 79 102
73 90 116
67 83 106
68 84 108
69 86 110
68 84 109
68 84 108
65 81 106
73 90 116
65 81 104
70 87 113
67 83 107
66 83 108
69 86 112
68 84 108
68 85 109
70 87 113
74 91 117
70 87 111
68 85 110
72 90 115
67 83 108
70 87 113
68 85 110
70 87 112
68 85 110
69 86 112
68 84 108
65 82 107
66 82 107
68 84 109
69 85 111
67 85 111
69 86 112
68 84 109
68 85 111
72 89 114
67 84 109
69 86 111
69 86 111
70 87 111
69 86 111
70 86 111
66 82 107
70 88 114
75 92 119
71 88 114
71 88 113
65 81 107
73 90 115
65 82 107
71 89 115
71 88 113
67 83 107
69 86 112
69 85 110
72 89 115
71 88 114
67 84 109
73 91 117
66 83 107
69 86 111
70 87 113
71 87 112
66 83 107
71 88 114
70 86 110
70 87 113
71 89 115
69 87 112
68 85 109
72 90 117
69 86 111
70 86 111
72 90 117
65 81 105
71 89 115
69 85 109
71 89 115
71 87 112
74 92 119
68 85 112
72 90 115
70 87 112
69 86 112
70 88 113
69 85 110
69 86 111
69 85 110
65 81 105
73 91 117
75 91 116
68 84 109
72 88 112
70 86 111
70 86 111
68 84 109
71 87 112
72 89 114
66 83 107
70 88 115
71 90 117
70 85 109
71 88 114
69 85 110
71 88 112
71 89 116
76 94 121
71 88 114
69 85 109
70 87 112
68 85 110
69 86 111
72 89 115
74 92 119
74 91 116
68 85 111
71 88 113
71 87 111
70 87 113
69 86 112
71 89 116
69 86 113
70 87 112
70 88 114
68 85 111
71 89 116
66 82 106
69 86 110
72 90 116
71 89 116
64 81 105
73 90 116
70 87 114
71 90 117
71 88 113
72 90 116
72 88 112
72 90 116
69 86 111
67 84 108
72 90 116
71 89 115
71 89 115
69 86 112
70 87 113
68 85 109
70 88 114
71 89 115
69 87 114
67 84 110
70 86 111
72 89 116
70 88 115
71 89 116
74 91 118
67 83 107
71 87 112
71 89 115
70 87 113
71 88 114
69 86 111
70 88 113
69 86 112
74 91 117
73 89 114
71 88 114
70 88 115
67 83 106
70 86 110
69 87 113
70 87 113
71 87 112
70 87 111
70 86 111
68 85 110
72 90 116
67 84 109
69 86 111
70 88 115
74 91 117
69 86 111
71 88 114
68 84 108
69 87 113
69 87 114
71 88 115
69 86 112
71 88 113
67 83 107
70 88 115
68 85 110
72 90 116
71 88 114
70 88 114
68 84 109
66 82 107
69 86 111
65 82 106
70 86 111
69 86 111
71 88 113
69 86 111
68 84 108
70 88 114
72 90 117
70 88 115
66 83 109
63 79 103
67 84 109
65 82 108
70 87 113
67 83 108
71 88 113
69 87 113
67 84 108
70 86 111
70 86 112
68 84 109
70 87 113
68 86 113
68 85 110
66 83 109
68 84 107
69 86 112
66 83 108
68 85 111
73 90 116
70 88 114
69 86 111
67 84 108
65 81 106
70 88 114
66 82 107
64 80 104
67 84 108
72 90 116
70 86 111
71 87 112
69 86 112
69 87 112
68 84 109
68 85 110
73 90 115
68 85 110
72 89 115
70 86 110
66 81 105
68 85 110
70 86 111
70 87 113
68 85 111
70 87 112
62 78 101
70 86 111
70 87 111
72 89 115
66 83 109
68 85 110
64 80 103
71 87 111
65 81 105
68 85 111
61 76 100
68 85 109
66 81 105
68 85 111
66 83 107
57 71 92
39 48 61
33 40 52
46 56 71
39 48 61
39 48 62
38 46 59
44 53 67
42 51 65
39 47 60
46 56 70
40 48 61
40 50 64
35 43 55
40 48 62
43 52 67
36 44 55
44 54 70
47 57 72
43 53 67
40 49 62
41 50 64
45 55 69
39 48 61
41 50 63
37 45 57
39 48 61
48 58 73
40 49 63
43 54 69
43 53 67
43 52 66
41 50 63
40 49 63
38 47 60
46 56 71
39 47 60
40 49 63
42 52 67
35 43 55
43 52 66
40 49 64
41 51 66
40 49 63
38 46 58
40 49 64
41 51 64
37 45 57
40 49 62
49 61 78
38 47 61
42 51 65
39 48 62
44 54 68
33 40 51
40 48 61
42 52 65
45 55 70
40 49 62
41 50 64
39 47 61
39 48 61
39 48 61
37 45 57
39 48 61
38 46 58
37 46 60
41 49 62
41 49 61
43 52 66
40 49 62
39 48 61
42 52 66
39 47 60
40 49 63
46 56 70
44 54 69
46 56 71
35 44 56
34 41 52
45 54 69
41 49 63
34 42 53
41 50 63
39 47 60
37 45 58
49 60 77
36 44 57
43 52 66
39 47 60
36 44 56
42 51 65
41 50 63
43 52 67
43 53 69
43 52 67
40 48 61
34 41 53
43 52 65
37 45 58
40 49 63
44 54 70
43 52 65
43 53 67
34 42 54
45 54 69
41 50 63
37 45 58
45 55 70
42 51 64
38 47 59
42 51 65
40 49 64
50 62 80
71 88 114
63 79 103
70 86 111
68 84 108
67 84 108
68 84 110
70 87 113
69 87 114
62 77 100
66 82 106
68 86 111
72 90 117
64 80 105
70 87 112
66 83 107
62 78 103
72 90 117
69 86 111
71 88 112
66 83 107
68 85 110
73 91 117
68 85 109
68 85 110
70 88 114
67 83 108
67 83 108
65 81 106
66 83 108
70 87 112
67 84 108
68 85 109
68 85 109
69 87 113
67 83 108
68 85 110
71 88 114
69 85 109
71 89 116
69 87 113
65 80 104
70 87 113
69 85 110
68 86 113
67 85 111
68 86 112
71 87 111
68 84 108
68 86 112
69 86 111
68 86 112
71 89 117
72 89 114
67 83 108
68 85 111
69 85 108
70 87 112
72 89 114
67 84 108
68 85 110
69 85 108
70 88 114
69 86 113
70 88 114
68 85 110
66 83 108
71 88 114
69 85 110
71 88 114
70 87 111
64 81 106
71 87 112
69 86 112
69 86 112
70 87 113
71 88 113
69 86 112
71 88 113
71 89 115
69 86 112
67 85 110
67 84 109
68 85 110
72 89 116
69 86 111
70 87 113
71 88 114
72 88 112
73 90 116
71 88 113
71 89 115
71 89 115
67 84 109
67 84 109
65 81 104
68 86 112
72 90 117
69 86 112
67 84 110
68 84 108
67 84 109
66 83 108
68 84 109
71 88 114
69 86 112
71 90 117
68 84 108
67 84 108
73 90 116
72 89 115
74 92 119
72 89 115
66 84 109
70 86 112
72 89 115
68 86 113
73 90 116
72 90 117
70 88 115
69 86 111
70 88 115
66 82 108
70 86 110
69 86 111
69 86 111
67 84 108
69 86 112
74 91 117
70 87 112
73 90 115
70 87 112
70 87 112
70 87 113
73 90 116
72 89 115
71 88 114
69 87 113
72 90 116
72 90 117
70 87 113
71 89 115
70 87 112
71 88 113
69 85 110
71 88 113
72 89 114
69 87 114
68 84 109
70 87 113
72 90 115
69 86 111
72 89 115
68 86 112
74 91 117
70 87 112
70 87 112
70 86 111
69 86 111
72 89 115
73 90 116
72 90 116
72 89 116
71 89 116
74 91 117
69 86 111
69 86 112
72 89 115
67 84 109
69 86 111
70 87 113
72 89 115
70 86 111
73 91 117
69 86 112
70 87 112
69 85 110
70 86 111
72 89 114
69 87 115
70 87 112
69 85 109
70 87 113
70 87 113
71 88 114
71 88 113
71 89 117
72 89 114
70 86 112
67 85 111
69 86 111
69 86 110
68 86 112
68 86 112
71 89 116
71 89 114
70 88 114
70 87 111
71 88 114
74 91 115
72 89 114
70 87 113
69 86 110
70 87 113
69 85 110
70 87 113
67 83 107
69 87 114
68 85 111
70 87 112
66 82 107
70 88 115
70 86 110
69 86 111
70 87 113
68 85 111
70 87 112
69 86 111
72 88 113
72 90 116
70 86 110
68 86 112
69 85 111
68 84 109
70 87 113
73 90 116
74 92 118
71 88 114
69 85 110
70 87 112
67 85 111
70 88 116
72 89 115
68 85 109
70 86 111
66 82 105
67 83 106
67 84 109
66 83 109
67 84 110
64 80 104
68 84 107
67 84 110
70 87 112
68 85 110
66 83 109
68 85 110
66 83 108
70 88 114
71 89 115
73 90 116
72 90 116
70 86 111
72 90 116
65 81 104
68 85 110
70 86 110
71 88 113
65 80 104
66 83 108
71 88 115
62 77 100
65 82 107
69 86 111
65 81 104
68 84 109
65 81 106
68 85 111
68 85 111
69 86 111
65 81 105
70 87 113
65 81 105
68 85 111
65 82 107
65 80 103
68 84 108
63 79 103
68 84 108
67 84 109
64 80 103
65 82 107
66 82 106
67 84 110
69 85 109
66 82 105
64 80 103
62 77 100
39 48 62
45 54 69
37 45 57
41 50 63
43 52 65
42 51 65
44 54 68
42 51 65
48 59 75
37 46 58
43 52 66
40 49 63
38 46 58
38 47 60
43 51 64
43 52 67
43 52 66
41 50 64
41 50 64
39 48 62
39 48 61
46 56 70
47 57 72
41 50 64
40 49 63
51 62 78
39 48 61
39 48 61
42 51 65
44 53 67
38 47 60
39 47 60
44 53 68
44 53 68
36 44 55
43 52 67
38 46 59
36 44 56
39 48 62
35 43 55
39 48 61
42 50 62
39 47 60
39 48 62
31 38 48
39 48 60
47 56 70
37 45 58
40 49 62
43 53 67
36 44 56
45 54 69
44 54 69
37 45 58
40 49 62
49 59 74
39 48 61
37 45 56
37 45 57
43 51 65
39 47 60
38 46 59
40 49 64
38 46 59
37 45 57
36 44 57
41 50 63
38 46 58
41 50 63
41 50 64
41 50 63
42 52 66
42 51 65
36 44 56
40 49 62
39 48 61
39 48 60
38 46 59
41 51 64
42 52 66
44 53 68
39 48 62
46 56 71
38 46 58
44 53 67
42 51 64
42 52 68
42 52 67
39 47 60
42 52 66
39 48 60
42 52 65
44 54 68
42 52 66
40 49 62
34 42 54
38 47 60
40 50 64
42 51 66
45 54 68
47 57 73
35 42 54
43 53 67
43 53 67
46 56 71
45 55 70
42 52 66
41 50 64
39 48 61
44 53 67
40 49 61
45 55 71
64 79 102
68 85 110
67 84 110
68 84 109
70 87 112
67 84 109
67 83 107
70 86 109
72 89 116
64 79 101
65 80 102
67 83 106
70 87 113
65 82 107
64 80 103
65 81 106
65 81 106
61 76 98
64 80 104
66 82 107
65 81 106
68 85 110
65 81 105
66 81 105
69 85 110
69 86 112
69 85 110
69 86 111
66 83 109
67 84 109
66 83 107
64 80 104
68 85 111
68 85 110
70 87 113
67 84 109
67 84 108
70 86 112
69 85 109
64 81 106
68 84 109
65 80 103
69 85 110
68 85 111
70 86 111
70 87 112
69 85 109
68 85 110
67 83 107
71 88 113
67 83 107
67 84 109
67 84 110
65 81 104
73 91 118
71 90 117
72 90 116
68 85 111
65 80 104
66 82 107
68 84 108
66 83 109
71 88 113
72 89 114
69 87 114
67 84 110
69 86 113
69 86 112
66 84 109
68 84 107
71 89 115
65 82 106
73 91 117
66 81 104
70 87 112
71 89 115
68 85 110
67 83 107
70 87 113
73 91 117
72 90 117
71 88 114
70 87 114
68 85 110
66 83 108
68 85 111
69 85 109
67 83 108
69 86 112
69 86 111
69 85 111
70 87 111
69 85 109
68 85 110
68 85 112
71 89 115
68 85 111
68 85 110
68 85 110
65 82 107
70 86 111
70 87 113
70 87 113
69 86 112
73 91 118
73 90 116
69 87 114
69 86 112
68 85 110
70 87 113
66 83 108
69 86 111
67 83 108
71 88 112
72 90 118
68 85 110
70 87 114
71 88 113
71 88 114
72 90 117
66 82 107
73 90 116
72 89 114
68 85 111
66 82 106
70 87 113
71 88 114
70 86 111
69 86 112
68 84 110
74 91 117
69 86 112
70 87 111
71 87 113
71 88 114
69 86 111
71 88 113
69 87 114
67 84 110
68 85 110
69 86 110
71 88 114
68 84 109
70 88 116
70 88 114
69 86 111
70 88 113
69 86 111
69 86 111
70 87 113
71 89 115
71 89 115
67 84 108
70 86 111
72 89 115
64 81 105
72 89 116
69 86 111
69 87 113
64 80 105
70 87 113
66 82 108
70 87 112
64 81 105
75 92 118
69 86 111
71 87 112
69 86 110
70 88 114
71 88 114
71 88 112
70 88 115
70 87 113
68 84 108
68 85 111
73 91 119
69 86 112
71 88 113
69 86 113
70 87 113
72 89 115
68 85 111
70 86 111
69 85 109
70 87 113
71 88 114
72 89 115
71 88 115
68 85 110
69 86 111
67 84 109
68 84 108
68 84 108
71 89 115
71 88 113
68 83 107
68 87 114
67 84 109
69 86 112
69 86 111
67 84 109
68 85 111
68 85 111
68 85 109
69 86 111
71 89 115
66 82 105
68 85 111
71 88 114
69 86 111
69 86 112
69 86 110
70 88 113
71 88 113
69 86 111
71 88 114
71 89 117
72 88 113
69 86 111
69 85 110
70 86 109
68 85 111
69 86 112
69 85 110
69 86 113
70 87 112
68 85 111
69 85 110
67 84 110
69 85 109
69 87 112
70 88 114
69 86 113
66 82 107
68 84 109
70 88 115
66 83 109
69 85 111
68 86 111
62 77 100
65 81 105
68 84 109
68 85 111
72 89 116
69 87 113
70 87 113
69 86 112
67 83 107
72 90 116
67 83 107
66 82 107
68 85 110
68 85 110
70 87 112
68 85 110
74 91 117
67 84 110
67 83 108
69 86 112
70 87 112
66 83 109
71 88 114
71 87 112
72 89 114
68 85 109
70 88 115
69 86 112
63 79 103
67 83 106
68 84 109
64 80 104
71 87 112
64 80 104
67 83 108
69 86 112
63 79 104
66 83 107
63 79 103
65 81 105
60 76 100
68 85 111
66 81 105
62 78 100
66 82 106
65 80 104
65 81 104
64 79 103
66 81 105
53 66 85
37 46 59
40 48 62
34 43 55
45 55 70
42 51 64
37 46 59
45 55 70
44 54 69
40 49 62
38 46 59
46 55 70
42 51 64
45 55 70
39 48 61
40 48 61
38 46 57
44 54 70
40 49 64
37 45 58
39 47 59
41 50 63
35 44 56
41 49 62
45 55 70
44 54 69
39 48 61
41 50 63
37 46 59
42 52 66
39 48 61
44 54 68
39 48 61
41 50 64
36 44 57
41 50 64
41 50 64
34 42 54
42 51 65
41 50 63
40 49 63
40 48 61
41 49 62
41 50 64
41 50 63
43 52 66
45 55 70
38 46 59
36 44 56
43 53 68
43 52 66
41 51 65
41 50 63
43 53 68
41 50 62
37 45 58
41 49 62
36 44 56
40 49 62
38 47 59
37 46 58
37 45 58
41 50 64
39 47 60
43 52 66
44 53 67
39 48 60
42 52 66
36 44 56
46 55 69
35 43 55
35 43 56
40 49 62
42 52 66
38 46 58
40 49 62
36 44 56
46 56 71
41 50 65
41 49 62
42 52 66
37 45 58
38 46 59
40 49 62
38 46 58
45 55 70
44 53 68
42 52 65
40 49 62
42 51 64
42 52 66
43 52 67
40 50 64
42 52 66
44 53 67
42 52 65
41 50 63
41 50 63
37 46 58
41 50 63
44 53 68
43 53 67
39 48 62
43 52 67
46 56 70
38 47 59
43 53 68
48 57 72
43 52 66
39 48 61
40 49 61
54 66 86
63 78 100
63 79 103
64 79 102
63 79 102
67 85 111
71 88 114
63 79 104
63 78 101
67 84 109
66 82 106
69 87 114
64 81 107
65 81 106
68 85 111
69 86 112
65 80 104
64 80 105
66 82 106
70 87 113
70 85 109
65 82 108
68 83 107
73 90 117
66 83 107
70 87 113
69 87 113
71 88 114
70 87 113
69 85 110
71 87 112
66 83 108
66 82 107
68 85 109
64 81 105
69 86 111
67 82 106
69 87 114
71 88 113
68 85 111
68 84 109
69 86 113
70 87 112
71 87 113
66 83 109
72 89 116
65 81 104
73 90 115
66 83 109
70 87 112
68 85 109
69 85 110
71 88 112
69 86 113
66 83 108
68 84 109
67 83 108
68 85 111
70 87 112
68 84 108
66 83 108
69 87 112
65 82 107
69 85 110
66 83 108
67 84 110
70 88 113
71 88 114
69 85 109
68 85 110
68 83 107
66 82 107
69 87 113
70 87 112
70 86 111
70 87 111
68 85 109
68 85 111
67 84 110
73 91 118
72 89 115
71 89 115
69 86 112
68 85 109
69 86 111
68 84 109
73 90 116
71 88 114
72 90 115
69 86 111
71 88 113
72 88 112
68 85 109
73 91 119
67 84 110
66 84 110
68 85 111
71 88 114
68 84 109
69 85 110
75 92 118
72 89 114
69 87 113
67 84 110
70 88 114
70 88 115
70 87 112
73 91 118
72 90 116
72 88 112
70 86 111
66 82 107
69 85 109
69 86 110
71 89 115
72 89 114
70 86 111
71 88 114
67 82 106
72 89 114
71 89 115
68 84 109
71 88 113
71 87 111
72 90 117
69 85 110
71 88 114
68 85 110
73 91 118
71 88 114
70 87 112
69 86 112
70 88 114
69 87 113
71 88 114
71 89 117
74 91 117
73 91 117
70 87 113
71 89 116
70 85 108
73 90 116
71 89 115
69 86 112
67 84 110
66 81 104
70 87 111
72 90 115
70 87 112
67 85 111
69 86 112
73 89 114
73 90 115
69 85 110
72 90 117
73 90 116
70 88 114
70 88 114
67 83 108
71 88 115
70 87 111
72 91 118
66 82 107
69 86 112
71 88 113
73 91 118
68 84 108
70 88 114
70 88 115
69 87 113
69 86 111
71 88 114
68 84 109
71 89 115
72 90 116
70 87 112
71 88 113
69 85 110
70 87 113
71 88 114
69 87 113
72 88 112
67 84 109
70 87 113
73 90 116
71 88 113
66 82 107
67 82 105
73 90 116
72 90 117
69 85 109
71 89 116
71 90 118
68 85 110
68 85 110
70 85 109
68 85 110
68 85 110
72 89 115
70 86 112
70 88 115
74 91 118
68 86 112
68 84 109
73 90 116
69 86 111
72 89 115
69 85 109
68 85 110
71 88 113
72 90 117
69 86 112
69 87 113
67 84 109
70 86 111
67 85 112
72 89 113
71 88 115
70 87 112
69 86 111
73 89 114
67 84 110
70 87 112
66 83 108
71 89 114
72 89 115
69 87 113
72 90 117
71 88 114
67 84 108
70 87 111
68 84 107
70 86 110
69 85 109
69 86 112
70 87 113
71 88 114
70 87 113
73 90 116
67 84 110
67 84 108
70 87 113
70 87 113
72 89 114
70 87 113
68 86 113
71 88 114
69 86 111
67 83 108
70 87 112
71 88 113
66 82 106
75 92 119
66 82 106
67 83 107
66 83 108
66 82 105
69 86 112
68 84 109
69 85 110
72 89 114
66 83 107
65 81 106
70 87 113
68 85 110
69 84 108
67 84 108
67 83 107
63 80 105
66 84 110
68 85 109
70 87 112
66 82 106
64 80 104
65 80 103
66 83 109
60 76 100
67 83 109
65 80 104
66 81 104
67 82 105
67 82 106
68 83 107
65 81 106
67 84 110
63 78 101
65 81 106
63 79 103
61 76 100
69 86 111
46 57 73
39 48 61
43 52 66
38 46 59
44 54 69
36 45 58
42 51 65
42 51 65
38 47 60
40 49 62
40 49 61
38 47 60
43 52 67
44 54 69
44 53 68
41 51 65
38 47 60
40 48 61
39 48 61
36 44 56
45 55 70
42 51 65
40 49 63
38 47 59
42 51 66
41 50 64
40 49 62
35 44 56
36 44 56
39 48 62
44 54 68
39 49 63
46 57 73
41 49 61
41 49 63
40 50 64
39 48 61
37 44 56
43 52 66
39 48 61
42 52 66
36 44 57
45 55 69
35 43 53
36 44 56
42 51 65
43 52 66
40 49 63
40 48 61
39 47 60
47 57 72
41 49 62
43 52 66
36 44 56
37 44 56
45 55 69
40 49 62
39 48 61
40 50 63
42 51 66
40 50 64
36 44 57
38 47 59
41 50 64
41 51 65
38 46 58
43 53 67
41 50 65
37 46 59
46 55 69
37 46 59
42 52 67
37 45 57
41 49 62
42 51 65
42 52 66
42 52 66
39 47 60
38 47 60
41 50 63
46 56 72
43 53 68
45 55 70
38 47 60
39 48 62
36 44 56
40 49 63
39 48 61
44 54 69
41 50 64
42 51 66
40 50 63
44 54 67
36 45 57
44 53 67
37 44 56
38 47 59
42 50 63
43 52 65
41 50 63
44 54 68
42 52 66
42 52 66
41 50 64
43 53 67
44 53 66
40 48 62
39 47 59
41 50 64
44 54 69
66 83 109
67 83 107
67 84 109
69 85 109
62 77 100
64 80 104
67 84 109
65 81 105
61 76 99
69 85 110
69 86 111
63 79 103
65 82 106
65 81 105
66 83 107
67 84 108
66 83 108
67 84 108
64 80 104
65 81 105
66 82 105
66 82 107
65 80 104
65 80 103
69 85 110
72 90 116
66 82 105
69 86 112
69 85 109
65 81 104
71 88 112
62 78 103
67 83 108
71 88 113
68 85 110
68 84 108
71 88 114
68 84 108
64 79 103
68 85 109
67 84 108
70 87 112
63 79 103
70 86 111
71 87 112
69 86 111
66 82 107
65 81 105
68 85 110
68 84 109
63 79 103
73 89 114
65 81 105
69 85 109
67 83 108
68 85 110
67 83 107
68 84 109
65 81 104
71 88 113
69 87 114
70 86 110
66 83 108
67 84 109
66 82 106
63 78 102
69 86 111
70 86 111
65 81 104
68 85 110
68 85 111
68 86 112
71 88 115
71 88 114
68 84 109
69 85 110
71 88 115
72 89 115
71 89 115
70 87 112
66 83 108
73 91 118
69 86 111
66 82 107
72 89 115
67 84 109
68 85 110
69 86 112
69 85 110
66 83 108
70 87 113
73 90 116
66 83 109
70 87 113
72 89 114
66 83 109
68 85 111
72 90 117
70 88 116
72 89 116
65 82 107
70 86 110
71 88 114
69 87 115
72 89 115
68 84 108
71 89 115
67 84 109
71 87 111
68 84 109
65 81 104
66 83 107
66 83 107
68 85 111
72 89 115
73 91 117
72 90 117
71 88 114
69 85 110
70 87 112
66 83 108
70 86 111
72 89 115
71 88 113
71 89 115
73 90 115
66 83 108
70 87 113
68 86 112
69 85 110
68 85 110
71 88 114
69 86 111
69 86 112
75 92 117
69 86 110
69 85 110
73 91 117
73 90 116
72 89 113
71 88 113
71 88 113
73 90 116
72 90 115
72 89 114
68 84 109
70 87 112
71 88 113
69 86 111
68 85 110
70 87 113
70 88 115
69 85 109
68 85 110
73 89 114
69 87 113
70 88 114
69 87 113
71 89 117
71 88 113
68 85 111
68 85 110
70 88 114
73 90 115
71 88 114
72 89 114
69 87 114
69 86 111
71 88 114
68 86 112
72 89 115
70 88 113
69 87 114
71 88 114
74 91 117
72 90 117
72 89 115
69 86 111
69 86 112
67 84 108
67 85 111
68 84 109
73 91 117
71 87 111
69 87 113
69 85 109
67 83 107
70 86 110
68 84 108
65 82 106
71 89 115
72 88 113
68 85 111
68 84 110
66 81 105
73 91 118
70 87 112
71 88 114
66 83 108
70 87 113
65 81 105
67 84 110
70 87 112
68 84 109
67 83 107
69 85 111
70 87 112
71 87 111
68 85 110
68 85 111
71 89 115
71 88 113
70 87 112
68 85 111
69 86 111
68 86 111
67 84 109
62 77 100
67 84 109
71 89 115
68 85 109
71 89 116
66 83 108
74 92 118
71 88 114
70 88 114
68 85 109
71 88 115
69 86 112
72 89 114
69 85 110
70 87 112
64 80 105
68 85 109
69 86 110
66 82 105
68 84 109
66 83 108
69 86 112
65 81 105
71 88 113
67 83 108
67 83 109
69 85 110
71 88 113
69 86 112
70 86 109
68 85 111
70 87 112
73 92 119
70 87 113
67 85 110
66 82 107
70 88 114
70 87 114
66 83 109
66 82 105
66 83 108
65 81 103
64 80 104
63 79 103
68 85 109
68 84 109
64 80 103
65 82 106
68 84 110
64 79 101
70 87 112
69 86 111
68 85 111
62 78 101
63 79 102
67 83 108
67 83 108
62 76 97
65 81 105
67 83 107
60 75 98
63 78 101
68 83 107
63 80 105
67 84 108
66 82 106
61 77 100
71 88 114
62 78 101
65 80 104
65 82 107
62 77 99
64 79 102
59 73 94
45 54 67
38 47 59
42 51 65
47 57 71
45 54 69
44 53 67
44 53 68
35 43 54
42 50 63
41 49 61
42 51 64
41 50 63
37 45 58
37 44 56
44 54 69
41 50 64
36 44 56
40 49 62
39 47 59
43 53 67
34 42 53
41 49 61
39 48 61
42 51 64
36 44 55
38 47 60
36 44 56
41 49 61
38 46 58
37 46 58
37 46 58
37 46 58
38 46 58
42 51 65
38 46 60
38 47 60
40 49 64
45 55 69
38 47 60
40 49 62
38 46 59
46 56 71
37 45 57
37 46 59
38 47 60
37 46 59
42 50 63
39 47 60
37 45 58
39 47 60
40 48 62
38 46 59
33 41 52
39 48 60
39 48 61
37 46 58
38 48 62
37 44 56
41 50 63
37 46 58
46 55 70
37 46 59
41 51 65
34 42 53
43 52 67
39 47 60
40 49 63
35 43 56
40 48 61
36 44 56
40 49 62
43 53 67
41 49 62
37 45 58
38 47 60
38 47 61
37 44 56
41 50 63
39 48 62
38 46 59
40 48 61
34 42 54
41 50 64
39 47 60
41 49 62
36 44 57
39 48 61
40 49 62
44 53 67
39 47 60
41 50 64
43 52 67
40 49 62
41 51 64
41 50 64
36 44 57
44 54 69
40 49 62
40 49 63
38 46 59
39 48 61
39 48 60
41 50 63
41 50 63
42 50 63
36 44 55
44 52 66
33 40 51
61 76 97
61 77 101
61 76 98
66 82 106
65 82 107
65 81 105
68 84 108
61 76 100
62 76 97
61 76 99
67 82 105
65 81 106
64 80 104
62 77 100
69 85 108
63 79 102
64 80 103
66 82 105
67 84 109
63 79 103
61 76 99
62 77 99
69 86 111
65 81 105
67 83 108
67 84 108
64 80 104
69 85 111
72 88 113
65 81 105
69 86 110
72 90 117
67 84 108
65 82 106
67 83 107
71 88 115
70 86 111
64 80 104
68 84 109
69 87 113
68 85 110
66 82 106
69 86 111
70 86 112
68 85 110
69 85 111
68 85 110
65 81 105
65 82 107
66 83 108
70 86 110
68 85 110
71 88 113
69 86 110
72 88 112
68 86 111
67 84 109
70 86 110
71 87 112
69 86 112
68 84 109
70 87 112
70 87 113
72 89 114
69 86 112
72 88 113
69 86 111
65 81 106
68 85 110
70 87 114
68 86 111
64 80 104
66 83 108
70 87 113
67 83 107
66 83 108
69 86 110
66 82 107
68 85 110
69 87 113
70 87 113
66 82 107
70 87 112
67 83 109
70 87 113
69 87 114
68 85 111
69 86 112
68 84 109
70 87 113
68 84 108
69 86 112
69 85 110
72 88 114
68 86 112
70 87 112
66 83 107
71 87 112
71 87 112
67 84 110
66 83 108
72 89 115
69 86 112
71 88 113
70 87 112
66 82 106
68 85 110
73 90 115
70 87 113
71 88 113
71 89 115
70 86 111
67 84 110
71 88 114
71 88 114
69 85 110
69 85 110
69 85 110
67 83 108
72 89 113
69 86 111
70 87 112
73 90 116
68 85 110
72 89 115
70 88 114
70 87 112
70 88 114
68 84 109
73 90 116
69 85 110
67 83 108
68 84 108
70 88 113
72 89 115
69 86 110
69 86 111
70 87 112
67 84 109
71 89 115
72 89 114
71 89 115
75 92 117
71 87 110
69 86 111
72 90 116
70 87 112
71 88 113
74 91 117
67 84 110
68 84 108
72 89 115
72 89 114
71 88 113
68 85 110
73 89 113
71 88 114
69 86 113
68 84 109
67 84 109
69 86 111
71 88 114
70 88 115
70 87 112
73 90 115
71 89 114
70 88 114
67 83 108
70 87 112
67 84 110
71 88 112
68 85 110
72 89 115
67 85 112
67 84 108
64 81 107
67 84 109
69 85 110
70 87 112
74 91 118
67 83 107
67 83 106
68 84 109
70 87 111
67 84 109
67 84 108
67 84 110
64 80 105
69 85 108
69 86 111
71 89 115
71 87 112
68 85 111
70 87 112
70 86 110
68 85 110
70 87 112
67 84 108
71 89 116
73 91 118
71 88 114
70 87 113
69 86 111
71 87 112
70 87 113
67 84 109
69 86 112
69 86 111
70 86 111
71 88 114
69 86 112
69 84 107
69 86 112
67 84 109
66 82 106
71 89 116
68 85 110
67 83 108
67 84 109
73 90 116
65 81 105
67 84 109
67 84 109
67 84 109
71 88 115
69 85 110
68 85 110
67 84 109
67 83 108
67 84 110
64 78 101
68 86 112
66 82 107
67 85 111
65 82 109
71 87 113
68 85 111
67 83 106
69 87 114
68 84 109
67 83 107
68 85 111
68 85 109
68 85 111
70 87 112
69 86 112
68 84 108
68 85 111
64 80 103
67 85 111
66 83 107
70 86 109
71 89 115
69 85 109
73 90 115
68 85 109
64 80 103
70 88 114
64 80 103
66 82 106
66 81 104
65 81 105
69 86 111
67 84 109
65 80 103
67 83 107
65 81 106
65 81 106
67 83 107
68 86 113
65 81 104
67 84 109
71 87 112
70 88 113
64 80 103
69 86 111
65 81 104
62 77 100
68 84 108
68 83 106
66 84 109
65 81 105
65 81 106
62 78 101
67 83 108
65 81 105
64 78 101
62 78 103
61 76 99
64 80 103
64 81 106
61 76 99
53 66 84
44 53 66
40 49 62
45 55 69
40 49 61
48 59 74
40 48 61
40 48 60
42 52 66
39 48 60
42 52 67
38 46 58
44 54 69
43 52 66
40 49 63
39 47 59
37 46 59
45 55 71
46 56 71
40 49 62
41 50 64
42 51 66
44 54 68
39 48 60
43 52 66
39 48 62
45 55 70
42 52 66
40 49 63
43 52 65
41 50 62
41 50 63
41 51 65
36 44 57
41 50 64
40 50 64
45 54 68
39 48 61
43 53 69
38 46 58
42 52 65
39 49 62
41 51 65
46 56 71
33 40 51
37 45 57
42 51 64
42 51 65
31 38 48
41 50 64
36 44 55
43 52 66
42 51 64
37 46 59
40 48 61
36 45 58
35 44 56
37 46 58
41 50 63
37 45 58
37 45 57
41 51 65
43 53 67
44 53 67
40 48 61
40 49 62
32 39 49
42 51 65
41 50 63
40 48 61
39 47 60
44 53 68
43 52 66
41 50 63
34 42 54
43 52 65
41 50 64
41 50 63
38 48 61
43 52 66
41 50 62
36 45 57
39 47 58
40 49 63
40 49 63
40 49 63
41 51 65
42 51 64
40 49 63
36 44 55
46 57 72
35 42 54
48 57 71
43 53 67
38 46 59
41 50 64
46 56 71
38 46 58
43 53 67
42 51 65
40 48 61
40 48 60
43 53 67
38 47 60
37 45 58
35 42 53
36 43 55
50 62 80
62 77 99
60 74 97
66 82 106
66 81 104
63 79 103
63 78 100
66 83 108
59 75 97
64 80 104
70 87 112
65 80 103
64 80 104
66 82 107
63 78 101
63 78 101
65 81 105
68 86 111
66 83 107
62 78 102
69 85 110
65 80 104
68 84 108
65 81 105
67 85 110
68 84 107
66 83 108
68 84 108
68 85 110
61 77 100
69 85 110
64 80 104
69 86 112
66 82 107
63 79 103
68 84 109
67 83 108
68 85 109
70 86 112
68 85 110
65 80 103
69 85 108
68 84 109
68 84 109
68 85 110
66 83 107
72 88 111
67 84 110
71 88 114
67 84 109
70 86 111
66 82 105
68 85 111
68 85 110
70 88 114
68 85 110
69 85 110
70 87 113
64 80 104
69 84 108
68 83 107
66 82 106
66 82 105
68 84 108
72 89 114
68 85 111
68 85 111
67 83 107
68 84 108
66 82 106
69 86 111
69 85 110
70 87 112
69 86 111
62 79 104
70 87 112
68 85 111
71 87 111
68 85 111
73 91 117
68 85 110
69 86 110
70 87 112
67 84 110
70 86 111
69 86 111
69 87 113
69 86 112
68 85 111
67 84 110
68 85 110
71 88 113
72 89 115
70 88 114
68 84 107
70 87 112
68 85 111
73 89 114
70 87 113
71 87 113
70 87 112
68 85 109
70 87 112
70 86 110
67 84 109
69 86 113
71 88 113
69 86 111
70 88 115
69 86 111
68 85 110
68 85 112
71 87 112
68 84 110
68 84 109
68 85 110
71 88 114
69 86 111
71 88 114
68 85 111
68 85 110
68 86 113
68 85 110
70 88 114
69 85 110
70 88 114
69 86 111
68 84 108
65 81 105
69 86 112
68 85 110
67 84 110
72 90 116
69 86 111
70 88 113
71 88 114
69 86 110
71 87 112
71 89 116
71 88 113
71 89 115
70 87 113
68 85 111
73 90 116
71 88 113
71 88 113
67 84 110
73 90 116
67 84 108
70 87 112
69 86 112
68 85 112
68 84 108
67 84 109
71 89 115
68 85 111
70 86 111
70 86 112
66 83 108
68 85 110
72 89 115
68 85 110
71 88 114
72 88 112
72 89 115
71 88 114
72 88 114
68 86 113
73 90 116
66 83 107
69 86 111
68 85 111
71 89 116
70 87 112
70 87 113
72 90 117
71 89 115
68 84 107
70 87 112
67 84 109
65 82 107
70 87 114
71 89 115
73 92 119
71 88 113
71 88 114
69 86 110
70 87 112
70 88 113
71 87 112
70 86 110
72 89 115
70 86 111
68 86 113
67 83 108
70 87 112
70 86 112
67 85 111
66 83 108
71 88 115
67 84 108
70 86 110
70 86 111
69 86 111
73 91 117
66 83 109
68 86 113
70 87 113
70 87 112
69 86 111
68 85 110
70 86 112
69 86 111
68 85 111
72 89 115
71 88 114
70 86 110
69 86 111
73 90 116
65 82 107
72 89 114
65 82 107
68 85 111
70 87 113
68 85 111
68 84 109
69 86 111
66 82 107
68 86 112
67 83 106
69 87 113
72 90 117
69 87 113
69 86 110
68 84 109
66 84 109
69 85 109
67 84 110
69 87 113
63 79 104
67 84 109
67 84 108
67 85 111
65 82 106
67 84 110
69 86 112
67 83 107
68 84 108
67 84 109
65 80 103
67 83 107
67 83 108
69 86 111
67 84 109
66 83 109
68 85 110
67 83 106
70 87 113
66 82 106
68 85 111
66 83 108
61 76 99
67 84 110
64 80 105
63 80 104
65 82 107
69 86 111
67 84 109
64 80 105
66 81 105
67 83 108
70 86 110
69 86 112
65 81 105
65 81 107
67 83 107
61 75 97
67 83 107
63 78 100
67 82 105
61 76 98
63 78 102
64 80 103
65 81 104
67 84 109
66 81 105
66 83 107
62 78 101
66 82 105
65 81 105
62 78 102
62 77 101
63 79 102
65 80 104
45 56 71
38 46 58
38 47 59
40 49 62
40 49 62
42 51 64
38 46 59
35 43 55
42 51 64
44 53 67
44 53 67
36 44 57
44 55 70
40 49 61
41 50 64
37 46 60
42 50 63
43 52 66
38 47 60
43 52 66
44 54 68
46 56 70
39 47 60
40 48 60
41 50 63
38 46 58
44 53 67
44 54 69
41 51 65
36 44 55
45 54 69
42 52 67
36 44 55
36 44 57
37 45 58
38 47 60
42 51 65
40 49 62
38 47 61
42 51 65
40 49 62
37 45 57
37 45 56
42 51 63
44 55 70
36 45 57
35 43 55
42 51 65
38 46 58
42 51 65
34 42 54
36 44 57
39 48 61
41 50 64
41 50 65
40 49 63
39 47 60
40 50 64
39 48 61
34 42 53
36 45 57
44 53 68
41 49 62
39 48 61
44 54 69
32 40 51
40 49 63
41 50 63
42 52 65
41 50 63
39 48 61
41 49 63
41 50 63
37 45 57
43 52 64
41 50 64
34 42 54
42 51 64
39 47 60
39 47 58
44 54 68
41 49 63
37 46 58
37 44 56
40 49 61
45 54 69
38 45 57
44 54 68
37 46 59
37 46 58
36 44 56
38 47 60
39 47 60
39 48 61
36 44 56
40 49 62
44 53 66
43 53 67
40 48 61
36 45 58
42 51 65
42 52 66
39 46 58
49 59 74
34 43 55
50 62 80
65 81 105
63 78 101
62 78 101
66 82 105
60 75 97
69 85 109
64 80 103
66 83 108
63 78 101
63 78 101
60 75 97
66 82 107
62 78 101
63 78 101
60 74 96
66 82 105
67 83 108
63 80 104
68 85 111
68 84 107
64 80 104
63 78 101
66 83 107
62 78 101
63 79 103
65 82 107
64 81 107
69 86 112
66 81 105
70 88 114
64 80 103
69 85 109
69 86 112
65 81 104
66 83 108
68 86 112
70 87 112
67 83 107
66 83 108
67 83 108
69 86 112
68 85 110
68 85 110
71 88 113
65 81 104
66 83 108
69 85 110
67 83 108
69 85 111
71 87 110
73 90 117
69 85 110
68 84 108
70 88 114
64 80 104
69 87 113
68 85 111
67 84 109
69 85 110
70 86 110
65 81 106
65 81 105
63 79 102
70 87 113
67 84 109
66 82 106
67 83 107
70 88 114
69 86 111
65 82 107
69 86 111
72 90 117
67 83 107
70 86 112
67 83 107
70 86 111
67 84 109
68 85 111
68 85 109
70 87 113
69 86 111
66 83 108
64 81 106
69 86 112
66 83 107
67 83 108
68 84 109
70 87 113
68 85 111
71 88 115
69 86 111
70 87 113
70 87 113
69 87 113
73 91 117
72 89 115
67 84 110
71 87 113
73 91 117
71 88 114
70 87 112
68 84 108
72 90 117
69 85 110
69 86 111
72 90 116
70 86 111
71 89 116
69 87 114
72 89 115
70 88 114
69 87 112
71 87 112
70 88 114
66 83 108
69 85 110
69 86 111
67 84 110
70 86 110
72 89 114
70 86 110
69 85 111
69 86 111
70 87 111
69 87 113
71 89 115
70 87 113
67 84 108
70 87 113
72 89 115
68 85 111
71 89 115
69 86 111
71 89 116
71 88 113
72 89 115
67 84 109
73 90 115
66 83 107
71 88 114
70 86 111
68 85 110
69 86 111
73 91 117
73 90 116
69 86 112
69 86 112
69 86 111
69 85 111
65 83 109
72 90 117
70 88 114
70 87 113
67 84 110
69 86 112
73 91 119
69 85 111
73 91 117
70 86 111
69 86 111
69 86 112
68 85 110
69 85 110
69 87 114
72 89 113
69 86 111
73 90 117
69 87 113
69 86 111
69 86 111
66 83 108
71 89 115
67 83 108
71 88 115
69 85 110
73 90 116
70 87 112
72 89 115
72 89 114
66 83 108
68 85 109
70 87 112
69 85 110
69 87 112
70 88 115
70 87 114
71 89 115
67 84 109
71 88 114
68 85 111
67 84 108
70 88 114
71 89 114
71 88 114
72 89 114
70 87 113
72 88 113
67 84 109
71 88 115
70 87 112
72 90 116
69 84 107
66 83 107
67 84 109
70 86 111
73 90 116
66 82 107
67 82 106
65 82 107
69 86 111
67 84 109
68 85 110
66 82 107
69 85 111
68 84 109
69 85 110
66 82 107
70 87 112
66 83 108
68 85 110
67 83 107
67 84 109
69 85 110
70 88 115
69 86 111
71 87 112
70 87 112
69 86 111
68 85 110
66 83 110
70 87 113
69 87 112
71 88 113
69 86 111
70 87 112
70 87 112
70 87 111
70 87 113
65 81 105
67 84 109
64 80 105
71 89 114
64 80 103
64 81 105
70 87 112
65 81 105
66 83 109
66 81 105
70 87 111
68 85 111
65 82 106
68 85 110
63 78 101
70 86 111
68 85 112
68 84 108
66 83 107
64 80 105
65 80 103
63 78 102
70 87 112
63 79 103
63 79 104
68 85 111
66 82 106
66 82 105
71 87 112
61 76 98
66 83 107
66 82 106
66 83 108
66 82 106
64 79 102
69 85 110
67 83 108
60 75 98
65 80 102
62 77 100
67 84 109
62 77 100
69 86 112
70 86 111
68 85 109
64 80 102
63 78 100
65 81 105
63 78 100
60 75 97
66 83 108
63 79 103
67 82 106
66 82 106
61 77 100
59 75 97
66 82 105
47 57 72
41 49 62
39 47 59
40 49 63
42 51 64
36 43 54
38 47 60
42 51 65
37 45 57
42 52 66
40 49 62
39 47 60
38 47 59
40 49 63
37 45 57
37 45 57
36 43 55
44 53 67
45 55 69
41 50 63
40 49 62
39 47 60
40 49 62
40 49 62
38 46 59
45 54 69
42 51 65
38 47 59
43 52 66
41 50 63
41 50 64
41 49 63
42 51 64
41 50 63
35 43 54
36 44 56
41 49 61
38 47 61
43 52 65
39 48 60
40 49 62
35 43 54
33 40 51
39 48 61
38 46 58
40 49 63
42 52 66
37 46 58
38 46 59
46 55 69
36 44 55
37 45 56
37 45 58
39 48 62
38 47 60
39 47 59
37 46 58
40 50 64
41 50 63
37 46 59
37 45 57
44 53 66
42 51 65
41 50 62
40 48 61
39 47 59
37 45 57
40 48 60
44 52 66
35 42 54
43 53 67
44 53 68
38 45 57
36 45 57
36 44 55
48 58 74
42 50 64
39 49 63
37 45 57
37 45 57
40 49 63
40 48 62
40 49 62
40 49 62
42 51 63
40 49 62
45 55 70
41 50 64
40 48 62
45 54 67
33 41 53
41 50 65
38 46 58
41 50 63
37 45 58
37 45 58
41 49 62
39 47 60
46 56 71
45 55 69
40 48 60
37 44 56
40 48 61
51 63 81
61 76 98
65 80 102
59 75 98
60 75 97
67 84 109
64 79 102
61 76 97
67 84 108
64 80 105
65 81 104
65 81 104
63 78 101
70 86 111
68 84 110
65 81 105
63 79 103
65 80 103
65 82 106
64 80 104
64 81 106
64 80 104
71 87 112
62 78 101
64 81 106
61 76 98
63 78 101
70 86 112
66 83 108
67 83 107
62 78 102
63 79 103
70 88 115
66 83 107
62 78 101
67 82 106
63 79 102
64 79 103
70 86 111
66 82 106
71 87 113
62 77 99
67 83 108
66 82 106
65 81 106
65 81 106
67 82 105
64 80 104
65 81 105
67 83 108
68 85 110
69 85 110
70 87 113
66 83 107
70 87 113
69 85 109
69 86 110
63 79 104
70 88 114
68 85 110
69 86 112
71 88 113
67 83 108
69 86 112
69 86 112
68 85 109
70 87 113
66 82 106
71 88 114
68 83 107
73 90 116
72 89 114
66 82 106
67 83 109
69 86 111
67 84 110
67 83 109
64 80 104
69 86 113
68 85 110
67 84 110
71 88 112
69 87 113
69 86 113
69 86 112
70 87 113
67 83 106
71 87 110
68 85 110
68 85 111
70 87 112
72 89 115
71 89 115
67 84 110
69 86 113
68 85 112
67 84 110
71 87 111
70 87 113
70 87 114
66 83 109
67 84 109
66 83 108
70 86 110
68 85 111
69 85 109
72 88 112
70 86 111
71 88 115
67 85 110
70 87 112
71 88 114
67 84 109
73 90 117
66 82 106
69 85 110
68 86 112
72 90 116
69 85 109
67 84 109
71 88 114
67 83 107
68 85 110
70 86 111
65 82 108
71 89 115
70 86 111
69 86 112
69 85 110
69 86 112
70 88 114
69 86 111
72 90 116
69 85 110
71 88 114
70 87 112
73 90 117
68 85 110
73 89 114
67 83 108
70 87 113
67 84 109
69 85 110
70 87 113
68 84 108
70 87 112
73 90 115
72 89 114
68 85 111
68 85 112
71 88 114
73 90 115
71 88 113
69 87 112
70 86 110
68 85 110
70 87 113
69 87 113
68 85 111
70 87 113
72 89 115
68 85 111
71 88 114
70 87 111
68 85 110
68 84 108
68 85 110
71 88 114
65 81 105
67 84 108
69 86 112
70 87 114
73 90 115
69 85 109
71 87 112
70 86 111
68 84 109
69 87 113
66 83 107
71 88 114
70 87 113
70 87 112
70 87 111
71 89 115
69 86 111
69 86 111
70 87 111
72 89 114
68 86 112
73 90 116
68 85 110
68 85 110
70 87 111
69 87 114
69 86 112
71 88 114
68 84 109
73 91 117
68 85 110
70 86 110
74 91 118
66 83 107
70 88 114
67 85 111
68 84 110
72 90 116
73 90 115
72 88 113
69 85 109
74 92 118
73 91 117
70 87 113
68 84 107
68 84 109
63 79 102
66 82 107
71 88 113
69 85 109
72 90 116
69 86 112
73 91 117
69 85 110
74 92 118
66 82 106
64 80 103
66 83 108
65 82 107
66 82 106
67 83 107
64 80 105
72 89 116
68 84 108
65 81 106
71 89 116
67 83 108
67 85 111
70 88 114
64 80 104
63 79 102
71 87 112
69 87 113
67 83 107
72 90 115
70 87 112
69 86 112
65 81 105
65 81 105
67 83 107
59 75 98
67 83 107
64 79 103
67 83 108
66 82 106
65 82 107
63 80 104
66 82 106
65 81 106
65 81 105
66 83 108
69 86 111
67 82 106
65 81 104
65 81 105
67 84 109
66 82 106
64 80 103
66 82 106
64 80 104
60 76 100
62 77 100
66 83 108
66 82 106
65 82 107
70 86 110
66 83 108
62 77 99
69 86 111
63 78 101
65 80 103
65 81 106
64 80 104
63 78 101
62 78 101
58 73 94
66 83 108
61 76 99
60 75 97
64 79 102
64 79 102
65 81 105
65 81 105
57 71 93
64 79 102
62 76 98
66 81 103
65 80 102
58 71 92
58 73 95
38 47 59
37 45 56
37 46 58
43 53 66
35 42 54
44 54 68
42 52 66
40 48 60
42 51 63
38 46 59
36 44 56
42 51 65
36 44 56
38 46 58
38 47 60
45 54 68
37 45 58
41 50 64
41 50 62
39 48 60
45 55 70
44 54 69
45 55 70
40 49 62
43 53 67
38 46 59
37 45 58
43 52 66
41 50 63
42 51 64
46 56 71
46 56 71
42 51 64
44 54 68
41 50 63
39 48 62
42 51 65
37 45 57
42 51 64
47 56 71
37 45 57
39 48 61
44 54 68
37 45 57
43 52 66
39 47 59
38 47 60
41 50 63
36 45 57
46 56 71
37 45 58
36 44 56
38 47 60
40 48 61
40 48 61
39 48 61
40 49 62
43 52 66
39 47 60
41 50 63
42 51 65
33 40 50
41 50 63
38 45 56
36 44 56
39 48 61
39 47 60
41 50 64
37 45 57
40 49 62
44 54 68
38 46 59
42 51 64
40 48 61
42 51 64
41 50 64
41 49 62
40 48 61
39 48 61
39 48 61
39 47 60
44 53 68
40 49 62
42 52 65
40 49 62
36 44 55
43 52 66
44 54 68
41 50 63
45 55 69
38 47 60
40 49 62
37 46 58
43 52 66
41 49 62
41 50 63
39 48 60
44 53 66
36 44 56
36 44 56
42 51 65
44 53 67
52 64 83
62 77 100
63 79 102
59 74 95
62 76 97
65 81 104
60 74 97
64 80 105
58 73 96
64 79 101
64 79 102
63 79 103
64 80 103
67 82 106
66 82 105
63 78 102
64 80 103
69 85 110
63 78 101
58 72 93
63 79 102
68 84 109
70 87 112
61 76 99
60 77 101
64 79 102
66 82 107
65 80 103
66 83 107
68 85 110
69 86 111
66 83 109
63 78 101
67 83 107
67 84 108
63 78 101
68 84 108
69 86 110
66 82 105
65 81 104
64 81 106
64 80 105
69 86 112
66 82 106
68 85 110
67 83 107
68 85 110
65 81 106
66 83 107
69 85 109
66 83 107
67 82 106
67 85 111
65 81 105
69 87 112
65 82 108
68 85 112
71 88 113
65 81 107
67 83 107
69 85 109
71 88 113
69 86 110
70 87 113
67 82 105
66 82 107
66 82 106
69 86 112
67 83 108
72 89 115
69 86 112
70 87 114
71 88 114
70 87 113
70 87 112
71 88 114
70 86 111
69 85 110
64 80 103
69 86 110
65 81 104
67 84 110
69 86 111
71 88 113
66 82 107
72 89 114
68 86 112
64 80 104
69 85 110
71 88 114
68 85 111
68 85 111
66 82 107
68 85 110
72 89 114
69 86 111
69 85 111
72 90 117
69 86 111
69 87 114
69 85 109
69 86 111
69 86 112
74 92 119
73 91 116
74 91 118
67 83 107
70 87 113
70 88 114
73 89 114
66 82 107
69 86 112
72 88 112
71 88 114
65 80 103
68 85 109
71 88 114
68 85 109
70 87 113
72 89 114
70 87 113
71 87 112
69 86 112
69 86 112
70 86 112
73 89 114
68 85 111
68 85 111
67 83 106
69 86 113
69 85 111
69 86 111
72 89 114
69 86 111
72 90 116
67 83 107
69 86 111
69 87 113
72 91 118
72 89 115
64 80 103
67 83 107
64 80 105
71 89 115
68 85 111
69 86 112
64 80 104
70 87 112
69 85 110
71 89 116
70 87 112
69 85 111
71 88 114
69 85 110
69 86 111
68 85 112
68 85 110
73 90 116
69 86 111
71 88 115
67 84 108
70 87 113
73 90 116
67 84 110
67 84 110
69 86 110
73 90 115
71 88 114
70 87 112
71 88 114
71 88 114
71 88 114
67 83 109
69 86 111
70 87 113
67 84 110
69 85 110
69 86 112
68 85 110
70 88 114
71 89 115
68 87 114
68 86 113
67 83 106
71 88 114
68 85 110
68 84 109
73 90 116
69 87 114
71 88 114
70 87 112
69 86 111
71 88 115
71 89 115
70 87 112
69 86 111
69 86 111
71 88 113
69 85 110
71 88 114
67 84 109
71 88 113
68 84 109
71 89 116
69 85 109
69 86 111
70 87 112
72 89 115
67 83 106
69 85 109
68 85 110
70 87 112
68 85 110
71 88 113
70 86 110
69 87 113
67 85 112
67 83 108
69 86 112
68 86 112
69 86 111
69 85 109
67 84 109
72 88 113
68 86 113
66 82 107
70 87 112
65 81 106
72 90 117
70 87 112
72 89 115
69 87 114
64 79 101
70 86 111
68 84 109
64 79 103
68 84 109
69 85 110
66 82 107
69 86 112
64 80 105
69 86 112
70 88 113
69 85 111
67 83 108
70 87 112
70 87 112
67 83 107
67 84 108
66 81 104
67 84 109
69 86 110
63 79 104
66 82 106
68 85 110
65 81 105
68 84 110
65 82 106
68 83 107
66 83 108
66 83 108
72 89 115
64 79 102
65 80 103
64 81 106
68 84 109
63 79 103
69 85 110
68 84 109
71 87 110
67 83 108
68 84 108
64 80 104
66 82 106
63 78 101
63 78 101
66 82 106
65 82 107
63 78 102
68 85 109
65 80 104
62 78 103
67 83 107
58 73 97
59 73 95
59 73 95
61 75 97
70 86 111
65 80 103
64 79 101
59 74 96
61 75 97
59 73 95
61 75 98
61 77 100
62 77 99
65 82 106
59 73 95
51 63 80
43 52 65
39 48 60
43 52 65
38 47 60
39 48 61
39 48 62
40 49 62
34 42 53
40 48 61
37 44 56
36 44 56
40 49 61
44 53 67
40 49 62
43 52 65
36 44 56
46 56 70
42 51 65
43 52 64
37 46 58
44 53 66
41 49 63
41 50 64
36 45 57
43 52 66
42 51 64
36 44 55
41 51 64
41 50 64
36 43 55
41 50 64
44 54 69
37 45 58
38 46 58
34 41 52
38 46 59
40 49 61
39 48 61
38 47 60
44 53 68
40 48 61
35 43 56
42 51 65
36 43 54
47 57 72
40 48 61
37 46 58
37 45 57
44 53 67
38 46 58
36 45 57
42 51 64
47 58 73
38 47 60
35 43 55
37 45 56
38 47 60
41 49 62
36 44 56
39 48 61
41 50 64
40 48 61
39 47 61
41 49 61
44 53 67
46 56 71
40 49 62
39 47 60
44 53 66
47 57 71
44 54 69
41 50 64
46 55 69
37 45 57
44 54 69
44 53 66
35 43 54
37 46 59
39 48 62
38 46 59
34 42 54
44 53 68
36 44 56
37 45 57
38 46 59
41 50 63
44 53 67
42 51 63
41 50 64
45 54 68
40 49 62
38 46 58
43 52 65
40 48 61
34 41 53
38 46 58
39 47 59
34 42 54
36 43 53
40 47 59
56 69 89
59 74 96
61 75 98
59 73 94
61 76 99
62 76 98
65 81 104
64 79 100
61 76 98
58 72 94
64 79 103
65 81 106
62 77 100
65 81 104
63 79 104
63 78 101
66 83 108
61 77 100
65 80 102
65 81 105
63 78 101
69 86 111
67 83 107
68 85 110
63 78 101
62 77 99
64 81 106
67 84 109
65 80 104
66 81 105
66 82 107
65 81 105
67 83 108
65 81 105
67 83 107
63 79 102
66 83 107
65 81 105
67 84 109
66 81 104
66 81 104
67 84 109
65 82 107
67 83 108
64 81 105
71 87 111
67 84 109
66 82 106
62 79 103
68 85 111
60 75 99
62 77 100
65 81 106
69 86 111
66 81 105
66 83 107
70 87 112
66 83 109
66 82 106
68 84 109
69 86 112
65 81 105
70 87 113
66 83 108
68 84 109
66 83 108
69 86 111
67 83 107
69 86 111
69 86 110
67 84 108
69 87 113
66 82 106
68 84 110
67 83 107
70 88 115
67 83 107
67 83 107
70 86 111
72 89 115
69 86 111
69 86 111
68 85 109
64 79 103
70 88 114
68 85 110
71 88 114
67 84 109
64 81 105
69 86 112
70 87 113
67 84 110
70 87 112
66 81 105
69 86 112
70 87 112
69 86 111
68 85 109
67 83 106
70 88 114
70 88 114
70 88 114
75 93 121
68 85 110
69 86 112
71 88 113
69 85 110
66 82 106
70 87 112
65 81 105
72 89 115
68 85 109
69 86 111
68 85 110
71 89 116
66 82 106
71 87 113
74 92 118
72 89 113
73 90 117
67 83 108
73 90 117
66 83 108
72 89 116
72 89 116
70 88 114
68 85 110
70 87 113
70 87 112
71 88 113
69 86 111
73 90 117
69 86 112
68 86 112
68 85 111
71 89 116
68 84 108
72 89 114
70 87 112
73 90 116
71 88 115
67 83 107
73 91 118
65 80 102
67 83 108
71 88 113
71 89 114
68 84 109
71 87 113
66 83 108
71 89 115
67 84 109
71 89 115
70 87 113
73 91 117
67 83 107
69 87 114
66 83 108
73 91 117
71 88 113
69 86 111
73 90 116
67 84 109
73 90 115
69 86 112
69 86 111
70 87 113
71 87 112
70 87 113
67 83 107
68 84 110
71 86 110
68 85 111
71 89 115
70 88 114
73 91 117
69 85 110
69 87 114
70 86 111
65 82 107
66 82 107
70 86 111
68 84 109
67 85 111
66 82 107
72 89 114
67 84 110
70 86 111
65 81 106
68 85 110
69 85 109
66 82 105
70 88 115
68 84 109
69 86 111
71 88 113
70 87 113
67 84 109
69 85 108
68 85 110
70 87 113
69 85 110
67 84 109
70 87 112
68 85 110
66 82 107
69 86 111
67 83 107
63 79 102
66 83 109
71 88 114
70 87 112
72 89 115
64 80 104
66 83 107
66 82 106
72 89 116
66 83 108
69 85 110
67 83 108
69 87 113
72 90 116
65 81 105
65 81 106
69 86 112
70 86 111
67 83 108
66 82 107
67 83 108
66 82 106
66 82 106
65 81 105
66 83 109
69 85 109
66 83 108
71 87 112
68 84 108
69 85 109
70 87 111
71 88 113
65 82 107
67 85 111
64 81 106
65 81 106
67 84 109
66 83 107
66 82 107
68 85 111
64 79 103
65 81 106
68 85 110
63 80 105
62 77 101
69 86 111
67 83 108
67 83 108
67 83 108
63 78 101
66 80 103
69 85 109
64 80 104
62 76 97
65 82 107
60 75 97
68 85 110
64 80 102
71 87 111
63 78 101
64 81 105
63 79 102
64 79 102
63 79 105
62 78 101
62 78 102
65 81 104
64 79 103
63 78 101
64 80 104
66 82 107
68 84 108
68 83 107
64 80 103
65 81 105
64 80 104
59 74 96
65 81 105
65 81 106
60 74 95
60 74 96
63 79 101
61 75 97
63 78 99
60 74 96
63 78 101
62 77 99
60 74 96
66 81 104
58 72 92
60 75 98
55 69 89
48 58 73
36 44 55
39 48 60
39 48 60
37 44 56
32 39 50
40 48 61
39 47 60
39 47 60
41 50 63
38 46 58
42 50 63
36 44 56
39 48 60
35 43 55
39 47 60
38 46 59
41 50 63
42 51 65
43 52 66
40 49 62
38 47 59
43 52 66
39 47 60
43 53 67
39 47 60
37 45 58
41 50 63
39 48 62
37 46 59
38 47 60
41 49 62
37 45 57
36 44 57
39 48 61
38 46 59
41 50 64
36 43 55
41 50 63
32 39 50
42 51 64
40 49 62
41 49 63
39 48 61
38 47 60
40 49 62
38 46 58
38 47 59
37 46 60
43 52 65
36 44 56
31 38 49
41 50 63
37 45 58
44 54 68
38 46 59
38 47 59
35 43 55
38 46 59
39 47 59
42 51 64
36 43 55
43 52 65
42 51 65
34 42 53
35 42 54
34 42 53
51 62 79
39 47 59
45 55 69
43 52 66
42 51 65
41 51 65
42 51 64
44 54 68
41 50 64
39 48 61
37 45 57
37 45 58
44 54 69
37 45 57
40 48 61
45 55 70
36 43 55
41 50 63
35 42 53
40 49 62
33 40 51
38 46 59
43 53 67
37 45 58
36 44 56
36 44 57
39 48 61
34 41 53
41 49 62
39 48 61
43 52 65
39 47 60
48 59 76
64 79 102
58 73 94
63 78 100
61 74 94
59 73 93
60 74 95
64 80 104
62 77 100
64 79 102
59 74 96
61 76 98
63 79 102
62 77 100
60 75 97
66 83 108
64 80 105
63 79 103
63 78 101
65 80 103
63 78 102
61 76 98
65 81 106
65 80 103
62 78 101
63 79 102
68 84 109
66 82 105
62 78 100
65 81 104
59 73 94
67 82 106
66 81 105
62 77 99
66 81 105
66 83 107
66 82 107
66 83 108
67 83 109
64 80 104
64 78 100
68 84 108
61 76 98
68 85 111
67 84 109
64 80 103
64 79 102
62 78 102
66 81 103
66 83 107
66 82 107
71 88 113
68 84 109
67 83 107
66 83 108
62 80 106
66 81 105
66 82 106
67 84 108
63 80 106
68 84 108
67 84 110
72 89 115
68 84 109
64 80 105
66 82 106
71 88 115
67 83 108
68 85 111
68 84 110
64 80 104
67 85 111
66 82 107
70 87 114
66 81 104
67 84 109
70 87 113
68 85 112
64 82 107
68 84 109
64 81 106
69 86 111
69 86 111
68 85 110
71 89 116
72 90 116
71 88 113
62 78 101
69 85 109
66 83 109
68 85 110
64 80 104
70 87 113
71 87 112
69 87 114
67 84 108
67 83 108
66 82 107
69 85 111
70 87 113
68 85 112
68 86 113
71 88 114
70 87 112
67 84 109
68 85 110
71 87 112
70 88 113
71 88 114
70 86 111
70 88 115
65 81 105
68 85 110
67 83 108
65 82 107
69 87 112
68 85 110
71 88 114
69 86 111
69 87 113
70 87 114
73 91 117
68 85 110
69 86 112
70 87 112
69 85 110
67 84 110
73 91 118
69 86 110
64 80 103
72 89 115
72 89 116
70 87 113
74 91 117
69 84 108
70 87 113
71 89 116
66 83 107
65 82 106
70 87 112
72 89 114
69 85 109
70 88 114
70 87 113
71 89 115
67 85 111
74 91 116
72 90 117
67 85 111
67 83 108
70 87 112
70 87 113
69 86 112
69 86 112
67 82 105
71 89 114
69 85 111
71 88 114
69 86 111
68 85 111
72 89 115
69 86 112
66 83 108
72 89 115
65 81 105
67 84 110
67 84 109
69 85 109
67 84 109
68 85 110
67 84 110
69 86 112
69 85 110
69 86 111
69 85 109
68 85 111
69 85 110
72 89 116
69 85 110
66 82 107
71 88 114
69 87 113
68 85 109
67 83 108
67 84 108
69 86 112
75 93 120
70 87 113
70 87 112
71 88 113
69 86 111
67 84 110
68 85 109
71 87 112
68 85 110
69 86 112
67 84 109
67 84 109
69 86 111
69 85 110
70 88 115
72 88 113
65 82 108
70 87 112
71 89 116
68 84 107
66 82 107
68 85 110
65 81 105
65 81 105
67 83 108
72 90 117
69 86 111
70 87 113
66 82 107
71 89 115
70 88 114
64 80 103
69 85 110
69 86 113
67 84 108
70 87 113
70 86 112
69 85 110
67 84 109
66 83 108
68 85 109
66 83 108
66 83 108
69 85 108
68 84 109
67 84 109
68 85 109
66 82 105
69 86 111
70 87 112
70 86 112
67 82 106
69 85 108
66 82 107
67 83 108
68 84 108
67 84 109
66 82 107
66 83 108
66 83 107
66 82 106
65 80 104
68 85 109
66 83 108
67 84 109
65 81 105
70 86 111
62 78 102
66 81 104
61 77 100
66 82 107
65 81 104
68 85 109
66 81 104
63 79 104
63 79 104
62 77 99
69 86 111
68 84 108
66 82 106
62 78 101
62 77 100
68 83 106
65 80 104
63 78 101
70 87 112
67 82 105
66 82 107
60 75 97
66 81 104
64 80 103
62 77 100
63 78 101
61 76 99
65 80 103
65 80 104
60 75 97
64 79 102
62 77 98
67 84 108
62 77 99
62 78 102
63 78 100
65 80 102
59 73 94
59 73 94
62 77 99
62 77 99
60 76 99
58 73 94
56 70 91
62 77 99
60 74 96
63 79 102
63 77 99
59 73 95
47 58 75
39 47 60
36 44 55
42 51 65
40 48 61
39 48 62
39 47 58
36 44 56
38 46 58
34 42 53
38 47 60
40 49 62
42 51 65
39 48 60
34 42 54
34 41 52
47 57 71
40 48 62
42 51 65
36 44 55
33 40 50
45 56 71
37 45 58
40 49 62
42 51 65
40 48 61
38 46 58
41 50 64
38 47 60
40 49 61
41 50 64
39 47 60
36 44 57
38 46 58
38 47 60
37 45 56
42 51 64
36 44 56
39 47 60
40 48 59
41 50 63
33 40 51
36 45 57
41 50 64
40 49 61
40 48 61
38 47 60
36 44 56
40 49 62
37 45 57
37 45 56
41 50 63
39 48 60
39 47 59
37 45 58
40 48 61
36 44 56
40 48 60
46 56 70
41 49 63
40 49 62
40 49 62
40 48 61
39 48 61
37 45 57
39 47 60
40 49 62
40 48 61
38 46 59
41 49 62
35 42 54
43 52 66
38 46 59
42 52 67
42 51 65
37 46 58
39 47 60
44 52 65
36 44 55
38 46 58
43 52 65
40 48 60
35 43 55
32 40 51
42 51 64
41 50 63
41 50 62
38 46 59
37 45 57
37 45 57
38 46 58
39 48 60
40 48 61
40 48 61
34 41 53
37 45 57
34 42 53
48 59 76
59 74 95
58 72 93
62 77 98
58 72 93
62 77 99
59 75 98
63 78 101
55 69 90
64 79 101
61 77 100
63 77 99
56 70 91
65 81 104
68 84 108
64 80 105
62 77 99
61 76 99
63 79 102
59 74 95
64 81 105
65 80 103
65 81 104
56 69 90
66 82 107
66 82 106
68 84 108
67 84 108
65 80 104
66 83 107
62 77 100
68 84 108
62 76 98
67 83 107
65 80 104
61 76 100
64 80 104
69 85 110
71 86 110
63 80 104
61 76 98
63 78 101
65 81 104
67 84 109
66 82 106
63 78 101
64 78 101
68 84 108
64 79 102
63 79 102
64 81 105
65 81 106
65 81 104
66 82 107
65 80 102
71 88 114
67 84 110
67 83 108
63 79 104
69 86 111
67 84 109
67 85 110
69 85 111
67 82 105
67 84 108
63 80 105
66 82 107
66 82 107
67 83 107
67 83 107
67 84 109
68 84 109
66 82 106
72 89 115
67 83 108
69 85 110
65 80 104
70 87 114
66 82 107
69 85 110
64 80 104
67 83 107
67 84 111
67 84 109
67 83 106
68 84 109
71 88 115
68 85 111
67 84 108
64 80 105
69 85 108
68 85 111
67 83 106
71 89 115
68 86 111
71 89 115
71 89 115
68 85 111
71 88 113
71 89 115
66 82 106
70 87 113
69 85 110
66 81 104
71 88 114
69 86 111
66 82 107
67 83 106
68 85 109
67 84 109
66 82 107
66 82 106
66 82 107
66 82 105
71 87 110
71 88 114
66 82 107
68 84 107
70 87 113
68 84 108
69 85 110
68 85 110
72 89 114
70 88 114
66 83 108
69 85 111
70 87 113
69 85 110
73 90 115
70 88 114
72 90 118
70 88 115
72 88 114
70 88 114
67 83 108
71 89 115
69 85 110
66 82 106
71 89 115
67 83 107
70 87 113
66 82 107
72 90 115
70 87 112
68 84 109
71 87 110
69 86 110
69 86 111
68 84 109
67 84 109
71 88 113
67 84 111
70 88 114
71 87 112
69 86 111
67 84 109
72 90 116
73 90 116
72 88 112
70 88 114
69 86 111
66 82 107
73 90 114
67 83 107
70 87 113
66 82 107
69 85 110
71 88 113
70 86 110
69 86 112
66 82 105
68 85 109
69 86 112
72 89 114
73 90 117
72 89 115
70 87 113
65 82 106
66 82 107
68 84 109
69 86 110
69 86 110
67 84 109
69 85 110
69 87 112
71 89 115
71 88 113
68 84 109
69 85 110
70 87 111
68 85 109
70 87 111
65 83 109
69 86 111
70 88 115
72 89 115
69 86 112
69 86 112
68 84 109
66 81 104
67 84 109
69 87 113
68 85 111
73 90 115
71 88 112
72 89 114
68 84 109
70 86 111
67 84 110
68 84 109
69 85 108
67 84 108
72 89 114
69 85 109
69 86 112
69 86 111
67 82 106
67 83 107
68 84 108
67 84 108
66 82 106
68 85 110
69 86 111
65 81 106
67 83 107
69 85 109
71 88 115
69 86 111
67 84 109
66 82 106
65 81 105
64 79 102
68 84 109
68 85 109
66 83 108
70 86 111
66 82 106
68 84 108
67 83 108
69 85 109
66 83 109
70 87 112
68 85 110
70 86 112
68 84 108
66 81 105
65 82 107
66 82 105
65 81 105
68 85 110
63 79 101
67 83 107
74 92 119
67 83 106
69 86 112
67 82 106
67 83 108
65 81 106
64 81 106
67 82 106
70 87 113
63 79 102
69 86 111
64 79 102
64 80 102
64 79 102
67 83 106
63 78 100
67 84 109
67 84 109
62 78 101
65 81 105
68 84 108
65 80 104
72 89 114
61 75 95
65 81 104
60 74 95
64 79 103
63 78 101
65 81 104
61 77 101
62 77 99
62 77 100
67 84 109
59 73 95
60 75 97
62 77 99
61 76 98
61 77 100
62 76 98
63 78 100
60 75 96
66 82 105
63 78 101
63 79 103
62 76 97
60 74 95
60 74 96
63 78 99
59 73 94
61 77 99
62 76 98
58 72 92
43 53 67
37 45 56
37 45 58
41 49 61
40 48 60
40 48 61
42 51 64
40 49 62
40 48 60
38 46 58
38 47 59
39 48 60
39 47 59
38 46 59
33 41 52
35 42 53
40 49 62
36 44 56
37 45 57
41 50 64
39 47 60
41 49 62
40 49 63
41 50 63
41 49 61
32 39 50
38 47 61
36 44 57
35 43 54
40 49 62
41 50 63
39 48 61
39 48 62
37 45 57
42 50 64
38 46 58
41 50 64
40 48 60
38 46 59
34 42 54
42 51 64
48 57 72
39 48 61
43 51 64
45 54 67
37 45 57
40 49 63
41 50 64
35 42 54
40 49 62
36 44 56
41 50 63
37 45 56
44 53 66
37 45 57
35 43 54
39 48 60
41 50 63
36 44 56
40 49 63
39 48 60
35 43 56
39 47 60
43 52 66
40 49 61
40 49 63
34 42 53
36 43 55
39 48 60
40 49 62
38 46 60
38 45 57
33 40 51
40 48 61
38 46 58
44 53 68
36 44 56
43 53 67
39 47 60
37 46 58
38 46 58
37 44 56
41 50 63
41 50 64
35 43 54
43 51 64
44 54 67
43 52 65
39 48 61
44 54 68
37 45 56
43 52 66
38 47 59
36 44 55
39 47 59
48 59 74
59 74 96
61 75 96
60 75 97
57 70 91
55 69 89
60 75 98
60 75 96
60 75 97
61 75 96
61 75 97
63 78 101
58 71 91
59 74 96
58 73 95
58 73 95
60 75 96
70 87 112
62 77 99
61 76 98
65 81 106
58 73 96
65 81 105
64 80 104
66 82 106
62 78 102
66 82 106
67 84 108
63 78 102
64 80 104
64 80 104
62 76 98
60 75 99
63 79 102
65 82 106
67 83 106
65 80 102
67 83 108
61 76 99
65 81 105
62 78 100
63 78 100
65 81 105
71 89 115
66 82 106
64 79 102
65 82 107
67 84 110
64 80 105
67 83 107
66 82 105
70 87 112
67 84 108
65 80 104
68 85 110
66 82 106
67 84 109
68 85 111
65 82 107
68 85 111
71 87 111
68 84 108
72 89 114
66 82 106
69 86 112
69 86 110
62 77 100
66 83 109
65 81 105
64 81 105
66 82 106
61 76 100
65 81 105
64 81 105
70 87 113
74 91 117
64 79 102
68 86 112
69 85 110
65 82 107
70 88 114
69 86 110
69 85 111
67 85 111
72 90 117
70 87 112
70 88 114
67 84 109
69 87 112
71 89 116
65 81 105
68 83 106
67 83 107
70 87 112
73 90 117
70 86 110
72 90 117
68 85 109
71 88 114
65 82 107
71 87 112
70 87 113
67 85 111
70 87 113
71 88 113
69 86 111
71 88 113
70 86 111
67 83 107
70 86 111
69 86 111
70 86 111
66 83 107
70 87 111
67 83 107
68 85 109
65 82 106
73 89 114
71 88 113
66 82 106
71 88 114
69 85 110
69 86 111
70 86 109
70 87 112
69 87 113
66 82 106
67 83 107
69 86 112
66 83 107
68 85 111
71 87 113
68 85 109
70 86 110
72 88 113
69 86 111
67 84 108
70 88 113
70 88 114
65 81 104
66 82 107
69 86 111
65 81 106
73 91 117
68 85 110
69 86 111
71 89 115
74 91 118
67 83 108
67 83 107
69 87 112
70 87 112
71 88 115
69 86 111
71 89 116
69 86 111
66 84 110
67 84 110
69 87 113
69 85 110
72 89 115
65 81 106
68 85 109
68 84 109
67 83 108
71 88 115
70 87 113
70 87 112
70 87 113
70 87 113
71 88 114
72 89 114
70 87 113
70 87 112
69 86 112
70 87 111
70 87 111
68 85 110
68 85 111
67 84 109
72 90 117
68 86 111
67 84 110
68 85 110
70 87 113
70 87 113
70 86 110
69 86 111
69 85 109
69 85 110
72 89 114
67 83 107
67 84 110
69 86 112
69 86 111
68 84 110
71 88 113
70 87 113
71 88 113
68 85 110
69 86 111
69 86 112
64 80 104
70 87 113
68 85 110
69 86 112
66 83 107
68 85 110
74 91 117
69 85 110
72 89 114
70 87 112
66 82 107
69 86 112
65 82 106
68 85 111
70 87 113
70 88 115
64 79 102
68 85 111
67 83 106
69 86 111
63 78 101
68 86 111
71 89 116
67 84 110
64 81 106
66 83 109
66 83 107
68 84 110
70 87 113
67 84 110
67 84 110
65 81 106
67 85 111
67 83 107
66 82 106
65 81 104
64 81 106
66 82 105
66 83 108
67 83 108
67 83 107
65 81 104
67 83 108
66 82 105
68 84 110
69 85 109
66 84 110
66 82 105
64 81 105
65 81 104
68 85 110
64 79 103
70 87 111
68 83 107
69 86 112
65 81 106
67 83 108
64 79 103
66 82 106
66 81 105
65 81 105
68 85 111
64 80 104
68 85 110
65 80 103
62 78 102
66 82 105
66 83 108
64 79 102
65 81 105
65 80 104
62 77 100
66 83 108
64 79 102
61 76 98
67 82 106
64 79 103
66 82 107
64 79 101
64 79 102
64 80 104
63 79 101
61 77 101
61 77 101
63 79 103
64 79 101
61 75 96
66 82 105
66 81 103
62 76 98
61 76 98
61 75 96
62 77 100
59 74 95
64 79 101
57 71 92
55 68 88
61 76 97
59 73 94
58 73 94
62 77 100
59 73 94
58 72 93
65 80 103
42 51 65
32 39 49
36 44 56
40 48 61
45 55 69
35 43 55
45 55 69
37 44 56
40 49 62
39 47 60
36 44 56
43 51 64
39 47 60
40 48 61
42 52 65
36 44 56
39 47 60
42 51 64
35 43 54
39 47 59
41 50 63
38 46 58
34 42 53
40 48 61
37 45 58
40 49 61
41 50 64
37 45 58
41 49 62
35 43 55
40 49 62
37 46 58
37 45 58
42 50 63
37 46 58
36 44 56
39 47 59
40 48 61
42 51 64
40 49 62
44 53 67
44 53 67
41 50 64
38 46 58
36 44 55
40 49 61
37 45 58
39 47 59
35 43 55
38 47 59
39 47 59
42 51 65
36 44 56
40 49 63
37 46 59
41 49 62
41 50 63
43 52 65
45 55 69
38 47 59
37 44 56
39 48 61
38 46 59
33 40 50
41 49 62
41 50 64
39 48 60
36 45 57
39 48 61
46 55 70
42 51 64
39 47 60
39 48 61
40 49 62
35 43 56
34 42 54
40 50 63
37 46 58
41 51 65
36 44 56
37 46 59
40 49 62
44 53 66
40 49 62
37 45 57
39 47 60
43 52 66
37 45 57
40 48 61
37 45 58
39 47 59
45 54 68
34 42 54
41 50 63
56 69 89
57 69 89
60 73 92
62 76 98
56 70 90
59 72 92
62 77 100
54 67 88
64 79 101
57 71 93
58 73 94
64 79 102
64 79 102
62 77 100
64 79 100
64 78 99
63 78 101
63 78 100
63 78 99
65 80 102
65 80 104
65 81 104
61 77 100
58 71 92
66 83 108
62 78 101
63 79 101
63 78 102
64 79 103
62 77 100
61 76 97
63 79 102
63 78 100
65 80 103
63 79 103
63 79 102
66 82 106
65 81 104
68 84 109
63 79 103
65 80 104
66 82 105
68 85 110
68 85 111
68 85 110
66 82 106
62 77 100
66 81 104
64 80 103
65 80 104
63 79 103
65 81 104
63 79 102
65 81 105
63 79 102
58 74 97
66 83 108
67 84 109
68 84 109
69 86 111
69 85 109
64 79 102
69 86 112
64 79 102
68 84 108
68 84 109
65 81 105
62 77 100
62 78 102
64 81 106
70 86 110
64 80 103
66 82 106
64 80 102
66 82 107
71 89 115
69 86 111
71 88 113
66 82 106
64 81 105
65 80 103
68 85 109
70 88 114
68 84 109
66 82 106
66 83 108
66 81 105
67 84 110
68 85 109
70 86 112
69 86 111
67 85 111
68 84 109
70 87 112
73 90 117
72 89 116
70 88 114
68 84 109
69 86 110
69 85 110
64 80 104
65 81 104
67 84 108
68 85 111
71 89 115
68 85 111
72 90 116
68 86 112
66 82 105
70 88 114
67 84 110
71 88 114
65 81 105
70 87 112
71 87 112
70 86 111
71 88 113
70 87 113
68 85 111
70 88 114
72 90 116
71 89 115
70 87 113
69 86 111
67 83 107
68 84 108
71 89 116
70 87 114
71 89 117
71 87 112
67 84 109
70 87 113
68 87 115
69 86 112
71 89 115
70 87 111
67 84 110
70 87 112
70 86 112
68 86 112
68 85 111
67 83 108
71 89 116
70 87 112
67 84 108
70 86 111
72 88 113
68 85 110
68 84 109
74 91 118
69 86 111
66 83 107
72 89 114
70 86 110
67 83 107
71 88 113
68 84 108
67 84 109
73 91 117
69 85 109
70 87 112
68 84 108
68 84 107
69 85 110
69 87 115
70 87 112
71 88 114
71 89 115
66 83 108
68 85 111
72 89 115
72 89 115
68 85 110
73 91 117
69 86 112
65 81 104
66 81 105
73 90 115
70 87 112
72 89 115
67 84 108
69 86 110
67 83 107
71 88 115
69 86 111
73 89 115
69 87 114
70 87 112
69 86 111
70 88 114
69 85 110
70 87 114
69 87 113
66 84 110
68 85 111
70 87 114
69 86 112
71 87 112
68 85 111
67 84 109
69 86 112
68 84 108
67 84 109
72 89 115
69 87 114
68 85 110
65 81 106
71 87 113
65 81 105
64 81 105
69 85 108
72 89 114
67 83 108
66 82 107
71 88 112
68 84 109
69 86 111
70 87 113
67 84 108
68 85 110
71 88 114
68 84 107
70 87 111
64 80 104
69 86 111
68 85 111
70 86 111
69 86 112
70 87 113
72 89 114
70 87 113
67 84 109
66 81 105
68 85 110
69 86 110
64 80 103
67 83 107
68 85 110
70 86 111
69 84 107
68 84 109
70 87 113
67 82 106
66 82 106
69 86 112
68 84 108
66 82 105
66 82 106
69 85 110
69 85 111
67 83 107
63 79 104
64 81 106
66 82 106
68 85 110
62 78 102
65 82 107
69 85 109
70 87 112
62 77 99
60 77 101
66 82 106
67 84 108
58 73 94
63 78 102
64 79 101
64 80 104
67 83 107
69 86 111
64 80 102
67 83 107
62 78 100
68 85 109
63 78 101
65 80 102
66 81 103
60 74 97
70 86 111
60 74 96
64 80 103
63 78 100
61 76 99
60 75 98
60 74 95
64 79 101
63 78 101
63 79 103
63 79 103
68 84 108
59 72 93
58 72 93
60 75 98
59 74 96
59 73 94
64 79 101
65 80 103
60 74 96
60 73 94
56 70 91
60 75 97
59 73 94
56 69 88
64 78 100
59 73 95
55 68 89
56 69 89
61 75 96
41 50 63
38 47 59
39 47 59
41 50 63
36 44 55
35 43 55
36 44 56
42 51 64
35 43 54
33 41 52
36 44 57
38 46 58
42 51 65
37 44 55
43 53 68
40 48 61
43 52 66
39 47 59
36 44 56
36 44 55
41 50 64
39 48 60
39 47 59
38 46 59
37 45 58
42 51 64
43 52 65
36 44 56
38 46 59
40 49 62
34 42 54
40 48 60
42 50 63
36 44 56
43 52 66
43 52 65
38 46 58
38 46 58
39 47 60
37 45 56
43 51 64
43 53 67
42 51 64
35 43 54
36 43 54
41 50 63
38 47 60
39 47 59
32 39 49
40 49 62
38 45 57
37 45 57
44 53 67
38 46 58
36 44 57
40 48 61
39 48 61
44 54 68
38 46 58
38 47 59
34 42 52
38 47 60
41 49 63
40 49 61
38 46 59
41 51 64
44 54 69
40 48 61
39 47 59
34 41 53
42 51 64
40 48 62
38 47 59
36 44 56
38 45 57
35 43 54
38 47 59
33 40 51
37 45 57
39 47 60
39 47 60
33 40 50
38 47 60
37 45 57
37 44 56
40 49 62
37 45 56
40 49 63
41 50 63
41 50 63
37 45 57
45 55 69
56 70 91
60 74 95
57 71 93
57 70 90
61 75 97
57 70 90
60 74 95
63 77 98
56 70 91
57 70 91
61 76 98
58 73 96
64 79 102
57 71 93
61 76 99
60 74 95
66 82 105
60 75 97
62 78 101
56 70 90
69 85 109
58 72 93
61 75 97
63 78 102
58 73 95
65 81 105
66 82 106
66 81 105
64 80 104
60 74 94
64 80 103
62 77 100
59 74 97
67 83 107
64 81 105
65 80 103
65 81 105
68 83 106
60 75 97
63 79 102
62 77 100
64 79 102
64 80 103
68 85 110
65 80 103
63 79 103
59 75 97
63 78 101
66 83 107
67 84 108
65 81 104
68 83 107
69 85 109
67 83 108
64 79 102
68 83 106
68 85 109
66 82 108
59 74 97
67 84 110
72 88 112
69 86 111
65 82 107
66 81 105
66 82 106
68 85 110
66 83 108
67 84 109
68 85 111
69 86 111
64 80 105
68 85 110
65 82 107
68 85 110
65 81 106
69 86 113
70 86 111
67 83 107
68 85 109
67 84 109
68 85 111
67 84 108
69 86 112
66 83 108
69 86 111
68 85 111
67 84 109
66 82 107
68 85 112
68 84 109
69 86 112
70 87 113
66 83 107
67 83 108
67 84 110
69 86 112
69 85 111
67 83 107
71 87 113
72 88 113
71 88 114
69 85 110
67 84 109
71 87 112
66 83 108
67 84 110
65 82 106
74 91 118
69 86 110
67 84 109
70 87 111
71 89 115
68 84 109
65 80 104
67 83 108
69 85 110
69 86 111
70 86 110
68 85 111
70 87 113
69 86 111
64 80 103
70 87 113
68 85 109
70 87 112
70 87 112
70 87 113
71 88 113
71 87 112
69 86 113
70 87 112
68 85 111
70 86 111
71 89 115
67 84 109
71 88 114
74 91 116
69 85 111
69 85 109
68 85 111
69 87 113
67 83 107
66 82 107
68 85 110
70 88 114
70 86 112
72 89 115
70 87 112
67 84 110
68 84 109
68 85 111
66 83 107
63 79 103
70 87 113
70 87 112
68 84 109
66 82 106
74 92 119
66 83 107
67 85 111
67 83 108
69 86 111
67 83 107
69 86 110
68 84 108
67 85 111
68 85 110
68 85 110
67 84 109
67 83 107
67 83 107
67 83 107
69 86 111
71 89 115
68 86 112
68 84 109
70 86 111
72 89 114
65 82 107
71 88 114
70 87 112
69 86 111
70 87 113
72 89 115
68 85 110
72 89 115
68 85 110
64 80 104
70 87 112
65 80 104
71 88 113
69 86 112
72 89 115
67 84 108
70 88 115
67 83 106
69 86 112
66 82 106
68 85 110
68 85 110
69 85 109
69 86 112
68 86 111
74 91 116
68 84 108
73 90 116
67 84 110
69 85 110
69 86 111
70 86 110
65 81 104
69 86 112
69 86 112
64 80 103
68 86 112
66 83 109
72 88 113
71 88 113
69 86 111
68 84 109
70 87 112
65 81 105
68 85 110
69 86 112
68 85 110
68 84 109
67 83 106
66 81 104
67 83 106
69 85 110
67 84 108
69 86 111
68 86 112
65 81 105
67 83 108
61 77 100
69 86 110
67 83 108
65 82 107
69 86 112
67 83 106
66 82 105
66 82 106
68 86 112
70 87 112
67 83 108
67 84 109
65 80 103
70 87 112
65 80 102
63 79 103
66 81 104
66 81 104
68 84 108
68 84 107
65 81 106
70 86 110
69 85 108
65 81 105
64 80 103
63 79 103
68 85 110
66 81 105
64 80 104
65 82 107
66 82 106
65 82 107
66 82 106
65 81 105
66 82 107
62 76 98
69 86 111
63 79 103
64 79 101
68 84 108
64 80 103
62 78 101
61 75 97
60 75 97
63 78 101
64 79 102
62 76 97
62 78 102
58 72 93
61 76 100
60 76 100
65 81 106
61 76 98
59 73 94
60 74 96
56 71 92
64 79 101
61 74 94
58 72 92
61 76 99
57 71 91
62 78 100
59 73 95
62 77 101
55 68 88
58 72 93
55 68 87
57 70 90
54 66 85
59 73 94
62 76 97
56 69 88
56 69 90
60 72 90
42 51 65
40 48 61
41 49 61
40 49 63
39 48 60
35 43 54
37 45 57
35 43 54
34 41 53
40 48 61
42 51 64
36 44 56
34 41 52
38 46 59
37 45 56
40 48 61
35 43 54
39 47 60
33 40 52
38 46 58
38 46 58
38 46 59
34 41 52
38 46 58
39 48 61
41 50 63
38 46 59
42 50 64
42 51 64
43 52 65
36 44 57
39 47 59
39 47 59
43 53 67
39 47 60
44 53 67
38 46 59
40 48 61
39 48 61
37 45 57
39 47 59
42 51 64
34 42 54
38 46 59
34 42 53
35 42 54
38 47 59
40 48 61
40 48 61
43 52 67
37 45 58
40 49 62
39 48 61
39 48 61
38 47 60
38 46 59
42 51 64
40 49 62
36 44 56
38 47 60
31 39 50
41 49 62
39 48 61
42 51 65
37 45 57
39 48 61
37 46 58
38 47 59
35 43 54
42 50 63
44 53 67
38 46 58
41 50 63
37 45 57
36 44 56
37 45 56
39 48 61
37 45 57
38 45 57
38 46 58
39 47 60
41 50 62
31 37 47
34 42 54
35 42 54
38 46 57
37 45 57
37 45 57
41 49 62
40 49 61
53 66 84
60 73 94
59 73 94
60 74 95
59 73 93
59 73 94
58 71 91
58 72 92
57 71 92
64 79 101
57 71 92
54 66 86
63 77 99
54 67 86
66 81 104
58 72 95
56 70 90
63 78 101
56 68 87
60 73 94
65 81 105
58 72 94
59 74 96
59 73 93
60 75 99
58 73 94
58 71 91
61 76 99
66 82 106
62 76 98
61 75 97
61 76 99
62 77 100
64 80 103
66 82 106
63 79 103
65 80 104
63 78 101
58 73 95
68 84 108
65 82 107
64 80 104
64 80 103
67 83 106
70 87 113
63 79 102
63 79 102
64 80 103
63 79 103
67 83 107
65 81 104
64 80 103
66 82 106
67 83 108
64 79 102
67 83 107
67 84 109
68 84 109
67 83 108
65 81 104
68 85 111
70 86 110
64 80 105
60 75 98
68 84 109
65 82 106
67 83 109
66 82 106
64 80 103
65 80 103
65 82 107
68 85 109
69 87 113
69 86 111
70 87 112
70 87 113
69 85 109
67 84 109
69 86 111
69 86 111
68 85 109
68 84 109
70 87 112
70 87 112
72 89 115
66 83 109
68 84 109
67 85 111
63 78 101
70 87 113
67 83 108
64 80 103
68 85 109
68 85 110
69 85 110
66 81 105
69 85 109
65 82 108
69 86 111
68 85 110
67 84 110
67 83 108
69 85 110
70 87 113
68 84 109
68 84 110
63 80 105
72 89 115
70 86 109
70 87 112
69 84 108
68 84 108
67 84 109
66 83 109
64 80 104
69 87 113
64 80 103
71 87 112
68 84 108
69 87 113
71 89 115
73 90 116
64 81 105
71 89 115
64 79 102
68 84 109
72 87 111
69 86 111
69 86 112
70 87 113
71 88 114
71 87 111
67 83 109
67 82 106
65 81 106
71 88 114
69 85 110
69 86 112
67 84 109
70 86 111
68 85 111
69 85 110
74 92 118
68 84 109
66 82 106
70 86 111
69 86 111
71 89 115
70 87 113
70 88 114
71 87 113
72 89 113
72 88 113
70 87 114
69 86 112
71 87 113
69 86 110
68 85 110
69 86 111
69 87 114
70 86 111
72 90 115
74 91 116
72 90 117
72 88 112
67 84 109
69 86 112
68 84 107
72 89 113
68 84 108
64 79 102
72 90 117
72 89 115
69 86 111
65 83 108
69 87 113
67 84 109
71 87 111
70 87 113
67 85 111
63 79 102
72 89 115
65 81 104
69 86 113
71 88 113
67 85 111
74 92 120
69 86 112
64 79 103
68 85 111
69 87 113
70 87 111
71 88 113
69 86 111
70 86 110
65 80 103
70 87 113
70 86 110
68 84 109
68 85 110
69 85 110
72 89 115
66 82 105
69 87 114
70 86 111
66 82 107
68 84 109
69 85 111
70 87 114
67 84 109
69 85 111
69 86 110
70 86 110
69 87 114
69 86 112
67 83 106
67 84 109
68 84 108
68 84 108
68 83 107
66 82 107
63 79 102
68 85 110
68 84 108
71 88 114
66 82 107
66 82 105
67 84 109
66 82 105
65 82 107
69 85 109
68 86 114
66 83 108
68 84 109
69 86 112
70 87 112
65 82 107
66 82 105
64 80 105
69 85 110
67 84 110
68 85 110
68 85 109
69 86 112
65 81 106
64 81 105
65 81 104
65 81 106
63 78 102
65 81 105
63 79 102
61 76 99
64 80 103
68 84 108
68 84 108
65 81 105
68 84 109
63 79 102
63 79 103
66 83 108
64 81 106
65 80 103
63 78 101
63 78 100
65 80 102
67 83 108
62 77 100
67 84 109
65 81 106
64 80 104
66 83 107
69 85 110
62 77 101
63 79 102
68 84 108
64 80 103
67 83 106
65 81 105
68 84 108
66 82 105
64 79 101
63 78 101
59 74 98
67 84 108
64 78 100
63 78 100
62 76 97
62 78 102
62 77 99
58 72 92
61 75 96
60 73 94
65 80 103
59 72 92
64 78 99
60 75 96
62 77 100
54 67 87
57 70 90
57 70 90
58 72 93
56 69 90
60 74 95
59 72 92
56 69 89
58 72 93
57 70 90
58 71 91
54 67 85
54 66 84
51 63 81
42 51 65
38 46 58
36 44 56
39 48 61
40 48 60
35 43 55
37 45 57
40 49 62
37 45 56
40 49 61
37 45 56
41 49 62
36 44 55
37 46 59
37 45 57
40 48 61
37 45 58
39 47 59
36 44 55
37 45 57
39 47 59
35 42 54
35 42 53
39 47 60
39 47 60
31 38 48
38 46 59
39 47 60
35 42 54
37 44 56
36 43 54
42 50 63
45 54 67
37 45 56
38 46 58
34 42 53
37 45 57
38 47 60
38 47 61
37 45 57
36 44 56
42 51 65
34 42 53
38 46 58
46 55 69
41 50 63
40 49 63
34 42 54
37 45 57
39 47 60
40 48 61
38 45 57
42 51 64
41 49 62
41 49 61
33 40 51
35 43 54
39 47 59
38 46 58
40 48 60
38 47 59
39 47 60
43 52 65
39 48 61
39 47 59
35 42 54
40 49 62
42 51 65
38 46 58
42 51 64
38 46 58
38 46 58
37 45 57
42 50 62
36 44 55
37 45 56
44 53 66
39 48 60
38 47 60
39 48 60
31 38 48
39 47 60
39 48 60
40 48 61
39 47 60
33 40 50
37 45 57
47 56 71
55 67 86
55 67 87
54 67 85
56 69 88
60 74 94
59 74 95
56 71 92
56 70 91
61 75 96
60 73 93
53 66 85
59 74 96
56 70 90
57 69 88
56 69 89
60 73 94
56 70 90
61 75 97
58 72 94
57 70 90
59 75 98
62 77 100
58 71 91
59 74 96
60 75 97
57 71 91
61 75 96
61 76 98
60 74 95
63 79 102
65 81 104
61 75 97
64 79 102
58 72 93
62 77 100
61 76 97
59 74 96
64 79 102
58 73 94
65 81 106
62 76 97
64 80 103
65 81 104
64 79 101
63 79 102
61 77 100
62 78 101
62 77 99
59 74 96
62 78 100
64 80 105
67 83 107
71 88 113
68 84 107
66 82 106
60 76 99
64 79 103
65 81 105
69 86 112
63 78 101
66 82 106
68 86 111
67 83 107
65 81 105
68 85 110
65 81 105
69 86 111
70 86 110
66 82 107
68 84 110
69 84 108
66 82 106
65 80 103
66 82 106
58 73 95
64 80 104
66 82 107
67 83 106
67 83 107
66 82 107
67 83 106
69 85 109
67 84 109
68 83 107
69 85 109
65 82 106
68 84 109
62 78 101
66 83 107
68 85 110
67 83 108
68 85 110
70 87 113
69 85 111
69 86 111
70 87 112
70 87 111
68 85 111
67 85 110
66 83 107
68 85 109
70 87 112
70 86 110
70 88 114
67 83 107
69 86 112
68 86 114
71 88 112
67 84 109
67 84 109
64 80 104
70 87 112
72 88 113
69 85 110
68 84 109
66 82 106
64 80 105
67 85 110
70 86 111
71 89 115
71 87 111
69 85 111
68 84 108
67 83 108
64 80 104
69 85 109
63 80 105
69 87 113
65 82 106
70 87 113
68 85 112
69 87 112
71 88 115
70 87 112
67 85 110
68 85 110
72 88 114
66 83 107
70 87 113
66 83 108
67 84 110
69 86 111
67 85 111
66 83 108
69 86 112
70 87 113
69 86 112
66 83 108
72 89 115
70 87 113
70 86 111
70 86 110
67 83 107
65 83 109
65 81 106
68 85 109
68 85 111
70 87 113
71 88 113
67 84 109
71 89 114
67 84 109
69 87 113
72 89 114
70 86 111
68 85 109
69 85 109
70 87 112
67 84 109
70 87 112
65 82 106
72 89 115
70 87 112
69 86 111
71 88 112
65 81 104
68 85 110
67 84 109
72 89 115
65 82 107
70 87 112
70 87 112
70 87 113
70 87 113
69 86 113
68 84 108
70 87 112
67 84 108
66 83 108
68 85 111
72 89 115
70 87 112
69 84 108
70 87 112
71 87 111
68 84 109
68 85 110
66 83 109
70 87 113
70 86 111
70 87 112
64 80 104
68 84 109
69 87 113
67 84 108
67 84 110
63 79 102
67 84 110
69 86 110
68 84 109
71 89 115
70 88 114
68 85 110
69 86 111
67 84 110
67 83 106
71 89 115
65 82 108
67 84 109
68 85 110
70 87 113
69 86 111
67 85 111
69 86 111
69 86 112
65 81 105
68 85 111
68 85 109
68 85 109
69 86 113
65 82 106
70 86 111
67 83 107
68 84 108
68 85 109
68 84 109
71 88 114
66 83 108
66 82 106
66 82 106
62 78 102
68 84 109
67 82 105
67 84 110
63 79 103
67 83 107
67 83 108
65 81 105
66 82 106
69 86 111
65 80 104
64 80 103
68 85 111
65 81 106
65 80 103
62 78 101
64 80 102
66 82 105
65 82 107
62 78 102
66 82 107
63 80 104
63 78 100
61 78 102
66 82 106
61 76 99
63 77 99
63 79 102
65 82 106
65 81 104
64 79 102
65 80 103
65 81 104
61 76 99
68 84 108
61 76 98
64 80 104
64 79 103
61 76 98
63 79 103
60 74 95
65 80 104
65 80 103
59 74 97
61 76 98
63 80 104
58 72 93
58 72 93
60 74 95
62 77 100
60 75 97
56 70 91
57 71 91
59 73 94
59 73 94
63 79 103
59 74 96
58 72 93
57 70 90
56 70 91
58 71 90
60 74 96
54 67 85
55 67 86
52 64 82
53 66 85
57 70 89
60 74 95
51 63 81
52 65 85
50 61 78
57 70 91
55 66 84
43 52 66
36 44 54
40 49 61
40 48 60
31 38 49
37 45 57
35 42 53
38 46 58
35 43 54
41 49 61
40 48 61
40 49 62
34 41 52
36 44 57
43 52 66
36 44 55
40 48 61
36 43 55
41 51 65
40 49 62
41 50 63
38 46 58
39 47 59
41 51 64
44 53 68
38 46 58
33 40 51
39 48 62
37 45 57
40 48 62
37 45 57
48 58 73
38 46 58
38 46 59
42 51 64
42 51 65
39 47 59
40 48 61
43 51 64
38 46 57
37 45 56
37 45 57
33 39 49
40 49 62
34 41 52
40 48 61
34 42 53
39 47 60
40 49 63
38 46 58
37 44 55
37 44 55
39 48 60
39 48 61
37 44 56
39 48 60
33 41 53
41 51 64
40 48 61
42 52 66
38 47 60
44 53 67
41 49 62
37 46 59
30 36 47
36 44 55
40 48 60
34 41 52
40 49 62
34 41 52
38 46 58
41 50 65
40 48 61
37 45 57
33 40 50
34 42 53
40 49 61
38 46 57
41 49 62
36 44 55
38 45 56
42 51 64
33 40 49
36 43 55
32 39 49
38 46 59
51 63 81
54 66 84
54 67 86
53 64 82
52 64 82
62 76 97
57 71 92
55 68 88
50 63 81
51 62 80
53 66 86
70 84 106
60 74 96
55 68 87
59 73 94
57 71 92
60 74 95
66 82 106
61 75 96
58 72 93
58 72 93
60 74 96
57 72 93
61 76 98
61 76 98
61 76 98
59 74 97
64 80 103
63 79 103
62 77 100
61 76 99
60 75 98
66 81 105
59 73 95
68 83 107
65 80 103
64 80 103
62 76 98
69 86 111
61 77 100
70 87 111
64 80 104
65 80 103
61 76 98
60 75 97
62 78 101
65 80 104
61 77 100
64 80 104
66 82 106
58 72 94
66 81 104
66 82 105
65 80 104
65 81 106
65 82 107
68 84 108
70 87 112
64 81 107
67 82 106
61 76 99
65 80 103
64 80 104
64 80 103
71 88 114
64 80 104
66 82 107
67 83 106
63 79 102
68 83 106
65 81 106
65 81 105
66 82 106
65 81 106
67 83 107
67 84 108
69 85 110
64 81 105
63 78 101
68 85 110
70 87 113
68 84 110
65 80 103
70 88 114
65 81 105
71 87 111
65 81 105
66 82 106
68 84 108
66 82 107
69 86 111
64 79 102
66 83 107
68 85 110
68 84 108
68 86 112
68 86 112
67 83 107
64 81 105
71 89 115
69 86 111
66 82 106
67 82 106
65 82 106
70 86 110
69 87 112
70 87 113
66 82 106
68 86 112
70 87 113
71 87 113
68 85 110
69 86 111
65 81 105
72 89 114
68 85 110
70 87 113
69 85 109
71 88 114
67 82 106
69 86 110
69 86 112
71 88 114
67 83 107
68 86 112
70 86 111
66 82 107
69 87 113
66 82 107
71 87 113
68 85 111
69 86 111
69 87 113
71 88 114
69 85 109
73 89 113
68 84 108
69 87 114
70 87 112
70 87 112
71 88 113
67 83 108
70 87 112
71 88 114
68 85 111
73 90 115
65 81 106
65 82 107
68 85 111
69 87 113
67 84 109
67 84 109
70 88 115
74 91 118
70 87 112
70 86 110
69 85 110
71 87 112
67 84 109
67 83 108
70 87 112
71 88 115
68 85 110
64 81 105
68 85 110
72 89 114
68 84 107
70 86 111
67 84 109
68 85 109
70 86 111
69 87 114
65 81 105
71 87 112
70 86 111
69 87 113
69 87 113
67 84 110
66 82 105
70 87 112
70 88 114
65 82 106
67 84 109
69 87 113
70 88 114
67 83 107
67 84 110
70 86 111
68 84 109
70 87 112
69 87 113
65 82 106
66 83 107
67 84 110
67 83 108
70 88 114
67 83 107
65 81 105
66 83 107
72 90 116
68 86 112
67 83 108
65 81 105
68 85 111
72 89 114
65 81 106
68 84 108
65 80 103
68 84 108
73 90 116
69 86 111
63 79 103
68 86 111
67 84 110
68 85 109
66 83 109
69 86 111
65 81 104
68 85 110
69 86 112
67 83 107
69 86 110
68 85 110
65 82 108
69 86 110
64 80 105
69 86 112
66 82 106
66 82 106
65 80 104
69 85 109
70 87 112
66 81 103
65 81 106
67 84 109
67 84 110
69 85 110
68 85 110
68 86 112
66 81 105
61 77 101
67 85 111
67 83 106
68 85 110
67 83 108
65 81 106
63 78 101
63 78 100
65 80 103
67 82 106
64 79 103
63 79 102
65 80 103
67 83 107
61 76 99
70 86 110
64 80 104
65 82 107
62 78 103
65 81 104
64 80 104
66 81 103
65 81 106
67 82 105
64 79 102
63 78 101
64 79 102
65 82 106
64 79 103
65 80 103
64 80 103
68 83 106
61 76 98
62 78 101
64 79 101
57 71 92
60 74 95
63 78 101
69 85 109
64 79 101
63 78 102
68 84 109
62 77 99
61 76 99
62 76 97
64 80 104
62 77 99
61 76 97
56 71 92
59 73 94
62 76 97
62 76 98
62 75 95
56 69 89
60 75 98
56 69 88
56 69 89
60 73 92
53 66 85
58 73 95
56 70 91
57 70 90
56 69 88
54 66 84
57 71 91
53 66 86
52 65 83
56 68 87
56 69 88
49 61 78
51 63 80
54 66 84
59 73 93
51 63 81
50 61 78
42 51 66
37 44 56
39 47 59
38 46 58
40 49 63
35 43 54
38 46 58
34 42 54
37 45 57
36 44 55
35 42 53
38 45 57
41 49 62
38 46 58
36 45 57
38 46 58
40 48 61
36 43 55
37 44 55
38 47 60
33 41 53
43 51 64
34 42 53
37 45 58
38 46 59
38 46 58
39 47 60
41 50 63
37 45 57
36 44 56
33 40 51
37 45 57
43 52 66
36 44 55
37 46 59
44 53 66
46 56 71
39 48 61
38 47 59
43 51 64
37 45 57
39 47 60
42 51 64
36 43 54
35 42 54
33 41 51
37 46 58
43 52 66
39 48 61
43 52 66
36 44 56
40 48 61
38 46 59
42 50 63
37 45 57
36 44 55
34 42 53
34 42 53
37 45 56
37 45 57
35 43 54
40 48 61
33 41 52
35 43 55
40 49 61
41 50 63
36 44 55
40 49 62
35 42 53
36 44 56
35 42 54
39 47 61
40 49 62
41 50 63
38 46 57
33 41 52
41 50 63
40 49 61
34 41 51
37 45 57
39 48 60
37 45 57
35 43 54
47 58 73
51 63 81
52 64 81
58 71 91
58 70 89
56 68 87
48 59 75
50 61 78
53 65 83
60 73 93
55 67 86
57 70 90
57 70 91
55 67 86
58 72 93
56 69 89
57 71 92
58 72 93
55 69 89
59 73 95
60 74 97
60 74 95
60 74 94
64 79 101
62 76 98
56 70 90
56 70 90
59 73 94
56 70 91
62 77 100
63 77 99
60 74 95
66 81 104
62 77 99
66 82 107
64 80 103
66 81 104
65 81 105
61 77 101
63 79 102
64 79 102
61 75 97
65 80 102
67 84 109
64 79 101
64 80 104
66 82 106
62 77 99
64 79 103
62 77 100
62 78 101
67 84 108
66 83 109
63 79 102
63 78 102
63 79 103
65 81 105
60 74 96
61 76 98
65 81 104
62 77 99
62 76 98
69 86 112
63 79 102
62 77 100
70 87 112
65 80 104
59 74 96
66 83 108
70 86 109
65 81 106
68 85 109
66 81 104
67 83 108
69 86 111
65 81 106
70 87 112
63 79 103
65 80 102
69 85 110
64 80 103
66 83 108
64 80 103
62 78 101
63 79 103
67 83 108
67 82 105
70 86 111
70 87 113
68 85 111
69 85 109
68 85 110
66 81 105
68 85 111
66 81 103
63 80 105
66 82 106
69 86 111
63 78 101
64 81 107
67 84 109
68 84 110
67 84 110
71 89 114
69 86 111
68 84 107
68 84 108
69 86 111
69 86 113
66 82 105
69 86 110
65 81 104
64 80 105
64 80 104
66 81 103
70 87 112
66 81 104
71 88 114
66 82 107
69 86 110
66 83 107
64 80 104
67 82 106
69 86 112
70 87 112
69 85 109
71 88 113
73 91 117
65 81 106
63 80 104
64 81 106
68 85 111
67 84 109
68 85 110
72 89 114
70 87 113
69 86 112
65 81 104
71 87 112
69 86 111
70 87 113
66 82 106
71 88 113
66 82 106
69 86 110
71 89 116
67 84 108
66 83 107
66 82 107
71 89 115
69 86 111
72 89 115
69 86 112
69 85 110
66 83 108
68 85 110
69 85 110
69 86 111
66 83 108
71 88 114
71 88 115
68 85 110
70 87 113
71 88 114
69 85 110
68 85 111
68 85 110
66 81 104
68 84 109
68 84 108
69 87 112
68 85 111
66 81 105
73 90 116
70 86 111
69 86 112
73 90 116
70 86 111
69 87 114
70 86 111
69 86 110
71 88 113
72 90 116
67 84 109
69 86 112
68 84 109
69 85 110
68 84 109
67 82 106
68 85 111
68 84 109
72 89 115
69 86 112
67 83 107
72 89 115
71 87 111
70 87 113
68 84 109
68 85 110
71 88 115
72 89 114
67 83 107
71 88 113
66 82 107
68 85 111
62 77 100
67 84 108
71 88 113
65 81 104
66 82 106
67 84 108
70 86 110
67 84 110
69 86 111
69 86 112
68 85 109
68 83 107
66 82 105
68 84 107
65 81 104
66 82 106
67 83 107
68 84 109
67 84 108
68 84 108
68 84 108
74 92 118
68 83 106
65 82 106
67 84 108
69 85 111
68 85 109
67 83 107
68 86 112
68 86 112
68 85 110
68 84 108
65 81 106
64 79 102
68 85 110
67 84 110
65 81 105
68 84 108
67 84 110
63 79 103
66 83 107
68 84 109
64 79 103
69 86 112
66 82 106
63 78 100
67 83 106
66 82 106
68 86 112
66 83 107
65 80 103
67 83 108
68 84 108
63 79 103
61 77 100
64 81 105
67 83 108
59 74 96
62 78 101
61 76 98
64 79 103
67 84 109
63 79 103
65 81 105
59 74 96
59 74 97
60 75 97
63 79 102
62 77 99
66 81 105
64 80 103
63 79 101
60 74 96
65 81 104
62 76 97
62 77 100
65 80 103
68 83 106
62 76 98
63 77 99
64 79 103
54 67 87
60 75 97
64 80 104
66 81 105
58 71 92
60 74 95
60 75 97
60 74 94
60 75 96
67 82 105
61 75 96
59 73 94
55 68 88
59 73 93
52 64 82
62 76 96
53 66 86
56 69 88
59 71 90
64 79 102
55 68 87
59 72 91
57 70 89
51 63 80
57 70 88
60 74 95
50 61 77
58 72 92
50 61 77
53 65 82
57 69 88
55 67 85
43 52 66
40 48 61
38 46 58
36 44 55
34 41 52
36 44 56
36 44 55
39 47 59
37 45 56
41 50 62
36 43 55
32 39 50
37 45 57
31 38 48
37 44 55
35 42 53
34 41 52
33 41 53
37 44 56
39 48 60
37 45 57
42 50 63
38 47 59
44 53 67
43 52 65
33 41 52
42 52 66
40 49 61
39 47 60
40 49 61
38 46 57
37 44 56
40 48 61
36 43 54
37 45 57
39 47 60
36 45 57
39 47 60
39 47 59
36 43 55
39 48 61
41 50 63
42 51 63
42 50 63
39 47 60
38 46 58
39 47 59
39 47 59
34 42 53
38 46 58
34 41 52
42 50 63
39 48 61
40 48 60
34 41 53
39 47 59
35 43 55
39 47 59
41 50 62
35 42 53
39 47 59
39 47 60
39 47 59
34 41 51
41 50 63
38 46 58
35 43 54
39 48 60
37 45 57
45 54 68
44 53 66
35 42 53
39 47 59
38 46 58
33 40 50
38 46 57
34 41 52
42 50 64
35 43 54
34 41 52
37 45 57
46 56 71
50 62 79
48 59 76
54 66 84
54 66 84
53 64 81
53 66 84
54 65 82
56 68 86
52 64 82
56 69 88
59 73 94
57 70 89
54 67 86
53 66 85
55 68 86
60 75 96
59 72 92
57 70 90
56 70 90
60 74 95
57 70 90
63 78 100
61 77 99
57 71 91
60 73 94
59 73 93
60 75 98
61 76 98
57 70 90
61 75 95
56 70 90
64 79 101
63 79 102
60 75 97
67 83 106
59 72 93
65 81 104
60 74 96
68 84 108
64 78 101
69 85 110
61 75 96
65 80 103
60 74 96
64 80 104
61 75 98
63 78 100
65 80 104
62 78 100
63 78 102
70 85 109
68 84 109
62 77 99
67 84 108
66 82 107
66 82 107
66 83 108
64 80 104
62 77 100
62 77 101
62 77 100
60 74 97
65 80 103
67 84 109
64 80 104
60 74 95
67 83 108
65 80 104
66 83 108
68 83 107
64 81 105
70 87 112
61 77 100
64 79 101
65 81 104
67 82 106
67 84 108
66 82 107
65 81 105
65 82 106
68 85 110
66 83 108
63 79 103
67 84 110
66 83 107
66 83 109
65 81 105
69 87 114
70 87 113
64 80 105
64 80 104
69 85 109
68 84 108
65 81 106
68 84 109
64 81 106
66 82 107
66 82 106
66 82 107
64 80 104
66 82 107
65 80 104
62 78 101
69 86 110
68 86 112
64 79 103
69 86 111
66 83 109
69 86 111
70 86 109
69 86 112
67 83 108
72 89 114
66 82 107
68 85 110
69 87 113
63 78 102
70 87 113
70 86 110
67 84 108
68 85 110
67 84 108
69 85 110
65 82 106
68 85 111
68 83 107
66 81 105
69 86 111
65 81 104
66 82 106
71 88 114
69 87 113
67 83 107
68 85 110
69 86 111
73 90 116
70 87 113
69 86 110
67 84 108
69 85 110
68 84 109
64 80 104
67 84 110
67 83 108
68 85 111
69 86 111
69 85 110
72 88 113
66 83 108
67 83 107
69 86 111
67 83 108
65 82 106
71 88 114
68 85 110
71 88 114
70 88 115
72 88 113
70 86 111
73 91 117
68 85 110
71 88 115
66 83 107
68 84 108
74 92 119
71 88 114
70 87 113
68 84 109
69 86 111
67 84 108
70 86 110
71 89 116
66 83 107
72 89 115
69 85 110
66 82 106
73 90 117
70 87 112
70 87 112
67 83 107
67 83 108
70 88 114
66 82 105
65 81 105
67 84 108
70 87 112
68 85 111
70 86 110
68 84 108
72 89 115
68 85 111
69 86 113
71 88 114
65 82 106
68 84 109
70 86 110
67 85 111
61 78 102
66 82 106
72 89 113
66 82 106
65 81 105
74 91 117
66 81 105
70 86 112
70 87 113
68 85 111
73 89 114
68 85 109
66 82 105
66 82 107
66 83 108
67 83 107
73 90 115
68 85 110
66 83 109
68 85 111
65 81 104
68 85 110
68 86 112
69 85 109
66 82 106
69 86 110
66 83 108
69 87 113
68 85 111
66 82 107
66 82 106
62 78 101
68 85 111
65 81 105
69 86 111
66 82 105
65 81 104
66 82 105
71 88 114
67 83 108
68 85 110
65 80 104
68 85 110
69 84 108
66 82 106
68 84 108
63 78 101
66 82 106
67 83 106
62 77 100
61 75 96
66 82 106
66 82 105
64 80 104
61 77 100
66 81 105
69 86 112
65 82 106
69 85 110
64 80 104
58 73 95
65 81 105
63 78 101
64 79 102
60 76 100
66 82 106
63 79 104
64 80 104
61 76 99
61 76 98
68 83 107
61 76 98
62 77 101
64 80 103
63 79 102
66 83 108
58 72 93
63 78 101
64 80 104
64 80 105
61 76 98
62 76 98
62 79 103
62 76 98
60 75 97
58 72 94
58 73 94
57 70 90
64 78 100
55 70 92
59 73 94
56 69 89
54 67 87
55 68 88
58 71 91
57 71 91
62 75 96
60 74 96
60 73 94
54 67 87
59 72 92
64 79 101
61 75 96
60 74 95
62 75 95
60 74 96
58 70 89
59 73 94
54 68 88
55 68 86
51 64 83
58 71 92
54 67 86
51 62 79
58 71 89
56 68 86
55 67 87
50 61 78
53 65 83
51 63 80
50 61 78
54 66 84
48 58 74
37 45 58
36 43 54
36 44 55
40 49 62
37 45 57
33 41 52
37 45 57
37 45 56
33 40 50
44 53 68
32 39 50
35 43 54
39 47 59
36 44 56
39 48 61
37 45 56
36 43 55
40 49 62
43 51 64
35 42 53
43 52 66
42 51 64
36 43 54
46 55 69
36 44 56
33 40 51
43 52 65
40 48 61
40 49 61
37 45 56
45 54 68
32 39 50
34 42 53
36 44 56
35 43 55
33 40 51
35 43 54
42 50 63
37 45 57
40 49 62
34 41 52
33 40 51
38 46 59
41 50 63
42 50 63
33 40 51
34 41 52
41 50 63
42 50 63
39 47 60
44 54 68
40 49 62
36 44 56
37 45 56
41 50 64
37 45 57
41 50 64
37 45 56
39 48 60
32 39 49
43 52 64
35 43 53
34 42 54
35 43 54
35 43 54
37 44 56
32 39 49
38 46 57
36 43 54
36 44 55
40 48 60
34 41 52
36 43 53
41 49 62
31 37 47
33 39 49
29 35 45
37 45 56
46 56 70
52 64 82
52 64 81
47 57 72
53 65 83
54 66 85
50 62 79
53 64 82
52 64 82
52 64 82
53 65 82
53 66 86
54 66 86
54 67 85
54 66 84
61 75 97
58 71 92
57 71 91
58 72 92
60 75 98
58 72 92
56 69 89
57 71 92
56 69 89
64 78 100
62 76 98
62 77 99
64 80 105
59 73 93
61 76 98
57 72 94
61 76 98
58 72 92
57 70 91
64 79 101
62 77 99
60 74 95
66 82 106
58 71 92
60 74 95
63 77 99
60 75 98
65 80 103
63 78 101
66 81 105
63 78 100
65 81 104
64 80 103
64 79 102
65 82 106
62 77 100
66 82 105
62 77 99
67 82 105
59 74 96
67 83 106
69 85 110
66 82 106
65 82 108
67 83 107
62 77 100
64 80 104
64 80 104
65 82 106
68 85 111
67 83 106
66 81 105
64 80 103
68 85 109
66 83 107
64 79 102
64 80 104
66 83 108
62 77 100
62 78 102
63 78 101
66 82 107
66 82 106
68 85 109
66 83 108
62 78 101
67 84 108
66 82 105
63 79 104
61 76 99
64 80 104
68 85 111
64 80 105
66 82 107
65 82 107
68 85 110
67 84 109
66 82 107
65 82 106
71 87 111
68 85 109
65 82 108
63 79 103
65 81 104
68 84 108
66 82 105
66 81 104
69 85 109
66 83 108
69 87 113
68 84 108
70 87 113
69 86 112
70 87 112
67 84 109
68 85 110
69 86 111
67 84 110
68 85 109
71 88 113
67 84 110
68 85 110
68 85 110
72 90 117
65 81 105
67 83 107
67 84 110
69 86 111
70 87 113
69 86 112
65 81 105
71 88 114
69 85 109
65 80 103
74 92 119
67 83 107
64 80 104
68 85 109
68 84 108
70 87 111
70 87 111
70 87 113
66 84 109
70 87 111
68 84 109
68 85 111
68 85 110
74 93 121
68 84 108
70 87 112
65 82 107
69 85 110
68 84 110
69 86 113
70 87 112
71 88 113
68 84 110
69 86 113
66 82 106
69 86 112
66 82 105
72 88 113
70 86 111
68 86 112
68 84 108
71 88 113
68 85 110
71 87 112
66 82 106
67 83 108
72 89 114
67 83 108
67 84 110
71 88 113
68 84 108
70 87 112
69 85 109
71 89 115
71 88 113
71 87 111
66 81 104
70 88 115
68 86 111
70 87 112
71 87 111
70 87 113
66 82 107
71 89 115
68 84 109
70 88 114
67 83 108
67 84 108
69 85 110
65 81 105
71 88 114
71 87 113
72 88 113
66 82 106
68 85 111
67 84 109
67 83 107
67 83 108
70 86 111
68 85 110
66 83 109
69 85 110
69 86 112
72 89 115
66 81 104
70 87 112
69 86 111
66 82 107
68 85 111
67 85 111
66 81 104
61 77 101
66 82 107
71 88 112
66 83 107
69 86 112
66 82 107
71 87 113
69 85 110
70 86 111
69 87 114
69 85 109
69 84 108
67 84 109
67 83 108
66 83 108
67 84 110
66 82 106
66 82 106
65 80 104
66 82 107
65 80 102
66 83 109
68 83 107
64 79 103
64 80 104
68 85 110
68 85 110
62 78 102
69 84 107
71 87 113
64 80 104
66 81 105
66 82 106
66 81 104
64 80 103
68 85 110
61 76 99
67 83 107
67 84 109
62 78 100
67 83 107
62 77 100
67 83 107
61 76 99
63 79 102
64 80 103
64 80 104
64 80 103
62 78 102
62 78 101
61 77 99
62 77 99
67 83 106
62 76 98
65 81 105
62 77 99
61 76 98
66 82 107
63 78 102
63 79 103
62 77 100
63 78 101
65 81 104
61 77 100
62 77 98
63 78 101
60 75 97
61 76 99
66 81 103
63 79 102
63 78 100
60 74 96
59 73 94
62 76 98
62 76 98
64 79 102
63 78 100
60 74 96
66 83 108
61 75 96
57 70 91
60 75 97
59 72 93
60 75 98
61 76 99
58 73 94
59 74 95
57 70 89
60 74 94
57 70 91
59 73 93
56 68 88
52 64 82
52 65 83
55 67 86
57 70 89
60 73 94
55 67 85
60 74 96
55 67 83
55 67 85
54 65 82
55 67 85
51 62 80
50 62 79
59 72 91
50 62 80
53 64 82
62 75 94
46 56 71
42 51 64
54 66 84
54 65 83
45 54 68
35 43 55
35 42 53
34 42 53
36 43 55
34 41 52
39 47 58
39 47 59
39 47 59
39 47 58
39 46 58
35 43 54
35 42 53
37 45 56
41 50 63
33 41 52
34 42 53
37 45 57
33 41 52
38 47 59
32 39 50
38 46 58
39 47 59
40 49 62
35 42 54
39 48 61
38 46 59
38 46 58
39 47 60
33 40 51
40 48 60
33 41 53
40 48 61
37 45 57
35 43 54
37 45 56
34 41 52
35 42 53
38 46 57
42 51 64
35 42 53
40 49 62
41 50 64
37 45 57
41 49 62
38 46 58
38 46 58
40 48 61
38 46 58
41 50 63
33 40 51
34 42 53
39 47 60
41 50 62
38 46 58
38 47 59
40 49 61
37 46 58
35 43 54
33 40 52
35 43 54
37 45 57
40 48 61
35 42 53
37 45 57
37 45 57
38 46 59
35 43 55
36 44 55
41 50 62
36 43 54
36 44 56
40 49 61
37 45 57
37 45 57
41 50 63
48 59 74
49 60 76
50 61 78
55 66 83
50 61 77
52 64 81
50 60 75
59 71 89
56 68 87
56 69 88
51 62 79
53 66 85
53 65 82
54 66 84
54 67 85
56 68 87
62 75 96
56 68 87
57 70 88
65 81 104
54 68 88
58 71 91
58 71 91
60 75 96
62 77 99
56 68 87
60 74 94
61 75 97
58 73 94
58 73 94
55 68 88
64 79 101
56 69 89
55 70 91
61 76 98
56 69 90
60 75 96
59 74 96
67 82 106
62 76 98
63 78 101
60 74 95
61 76 98
59 73 94
62 76 97
58 71 92
59 74 96
64 79 102
60 74 95
68 84 107
64 79 102
61 76 99
63 79 103
68 84 108
61 75 97
63 79 102
57 71 93
62 78 101
62 77 100
64 79 102
63 79 102
63 79 102
60 74 95
66 82 106
66 83 109
62 76 99
63 79 103
67 83 107
62 77 101
64 79 102
67 84 109
60 74 96
66 83 107
68 84 109
68 84 107
67 84 110
68 84 108
65 81 106
68 84 108
70 86 110
67 83 107
67 82 106
64 81 105
67 83 107
66 82 106
68 84 108
67 82 106
66 83 107
69 85 109
68 84 108
69 86 111
68 85 110
68 85 111
68 84 109
68 84 108
69 86 111
71 87 112
68 86 112
64 79 102
63 79 102
64 80 104
65 81 106
67 83 107
70 87 112
70 87 112
65 81 106
70 86 112
68 85 110
67 85 111
68 85 111
64 80 104
66 82 105
69 85 110
69 85 110
71 88 114
65 82 108
69 86 111
68 85 110
68 84 108
68 84 109
69 86 111
67 82 106
69 85 110
66 82 105
69 85 110
70 86 110
69 85 110
67 84 109
70 87 114
67 84 109
71 87 112
73 91 118
67 83 108
64 81 106
70 87 113
69 87 112
69 86 112
67 83 108
67 83 108
65 80 104
69 86 111
69 86 111
68 85 112
66 83 107
65 81 105
67 82 106
65 83 109
68 84 109
64 80 104
72 89 114
70 87 113
66 82 106
64 80 104
67 84 108
67 84 110
69 85 110
69 87 112
70 87 112
67 83 108
69 87 113
63 80 104
64 80 104
67 83 108
71 89 115
71 87 112
69 87 112
69 86 111
69 85 110
69 85 110
66 83 107
71 88 113
69 86 112
69 86 111
67 85 111
69 86 112
68 84 108
72 88 113
69 86 111
70 86 111
67 84 108
66 82 107
71 88 114
71 89 114
69 85 109
70 87 113
66 83 108
70 86 111
68 85 110
66 82 107
65 81 105
67 84 109
71 88 115
73 90 116
67 83 107
66 83 108
63 78 101
67 83 108
66 83 108
68 85 111
68 84 108
69 86 111
69 86 112
68 84 108
62 77 100
65 81 105
66 82 106
67 84 110
67 84 108
71 88 113
71 88 114
68 86 112
69 86 111
71 88 113
69 87 114
64 80 104
69 85 109
68 84 109
67 83 108
69 87 113
66 81 104
68 84 109
66 83 108
64 79 103
66 81 105
68 84 108
67 84 109
67 83 107
69 87 113
68 85 110
68 84 109
69 85 110
63 79 103
63 79 103
65 81 105
68 85 110
64 80 104
68 85 110
67 84 108
68 84 110
68 85 109
67 82 105
71 88 113
67 84 109
62 78 101
65 80 104
66 82 107
67 83 106
69 85 110
67 83 108
65 81 104
62 77 100
61 75 98
64 79 103
63 79 102
67 82 105
65 81 105
64 80 103
66 82 106
66 82 106
63 79 102
64 79 102
65 81 104
63 77 100
68 84 109
66 82 106
64 79 102
62 78 101
63 77 99
62 76 98
61 77 100
60 74 97
65 82 106
65 80 102
70 87 112
64 80 103
66 82 105
59 74 97
65 81 104
59 74 96
61 76 98
62 76 97
66 81 104
61 77 100
65 80 103
62 77 99
62 77 100
61 75 97
59 73 93
59 74 96
60 76 100
58 72 92
51 64 83
59 73 94
55 68 88
59 73 94
56 70 91
62 76 97
64 79 102
64 78 100
58 71 91
57 70 89
51 63 81
57 70 89
59 73 95
59 73 93
56 69 89
57 69 88
58 71 91
52 63 80
55 69 89
61 74 95
53 65 84
50 61 78
50 61 78
50 61 78
51 62 80
57 70 89
55 67 85
59 71 89
48 59 75
51 62 79
50 61 77
52 64 82
52 62 78
49 59 74
46 56 71
32 39 49
36 43 54
37 44 56
39 47 59
33 39 49
38 45 57
37 45 57
38 46 58
35 43 54
36 43 54
35 42 53
35 42 53
42 50 63
40 49 61
41 49 61
34 41 52
33 39 49
38 46 58
33 40 52
35 43 54
36 44 55
32 38 49
35 43 55
41 49 62
37 45 57
38 46 58
37 45 57
34 41 53
41 50 62
40 49 62
38 46 58
38 46 59
39 48 60
37 46 59
38 46 58
38 46 59
32 39 49
36 44 56
34 42 53
34 41 51
38 47 59
38 46 57
39 48 60
41 49 62
39 48 61
40 48 60
34 41 52
41 50 62
37 45 57
34 42 53
36 43 54
39 47 59
33 40 50
39 47 60
38 46 57
36 43 55
32 39 48
42 51 63
46 56 70
34 41 52
37 45 56
45 54 68
35 42 52
36 44 56
36 43 54
39 47 60
36 44 55
36 43 54
34 41 52
35 42 54
30 37 47
32 39 49
49 60 76
47 57 72
50 61 78
52 63 80
54 66 84
52 64 80
50 61 77
54 67 86
42 52 67
51 62 79
47 57 72
46 57 73
57 70 90
52 63 80
57 70 89
49 61 79
57 70 89
55 67 86
55 68 88
61 76 98
59 73 94
56 69 88
61 75 96
54 67 86
55 68 87
56 69 90
60 74 95
61 75 95
61 76 97
57 70 91
56 69 87
56 70 90
64 79 101
57 71 93
59 73 95
53 66 86
65 80 103
58 72 93
61 75 96
61 76 98
62 76 98
58 72 93
61 76 98
65 80 103
67 84 109
65 80 104
63 77 99
62 77 99
65 81 104
67 83 106
60 74 96
61 77 100
61 77 99
64 80 103
65 80 103
68 84 109
61 76 97
65 81 103
67 83 108
65 80 103
61 76 97
61 76 98
62 76 99
63 78 101
67 83 108
64 79 101
62 77 100
64 80 103
66 82 106
64 80 104
64 80 104
65 81 105
66 81 105
66 82 107
59 74 96
61 77 99
65 81 106
64 79 102
66 81 105
66 83 107
67 83 108
64 80 105
70 86 110
64 80 103
65 81 106
68 83 106
66 83 108
68 84 107
65 80 102
67 83 109
71 87 113
65 81 105
67 84 109
58 74 96
66 83 108
68 85 110
69 86 111
65 81 105
69 87 115
67 84 109
68 85 110
69 85 109
65 81 104
66 82 107
60 75 97
67 83 108
66 82 107
62 79 104
71 88 114
63 79 103
70 87 113
66 82 107
69 86 112
66 83 107
69 87 113
66 82 106
66 83 107
67 83 106
66 82 107
67 83 108
69 87 114
72 90 116
69 86 112
65 81 104
69 87 113
71 88 114
67 84 110
69 87 114
69 86 111
69 85 108
72 89 115
68 85 110
69 86 112
72 89 113
65 81 106
66 82 107
70 87 111
69 85 110
65 81 105
69 86 112
70 87 113
67 83 108
67 83 107
68 86 112
67 84 110
70 87 111
69 85 109
71 88 114
67 83 107
68 85 109
69 86 111
72 89 115
63 79 104
68 84 110
69 86 112
69 87 112
69 86 111
71 89 115
69 85 109
68 85 110
68 85 109
66 82 105
67 84 109
69 85 108
69 87 113
68 84 108
68 85 110
75 92 117
72 89 115
72 89 115
70 87 111
65 80 104
67 83 108
64 80 104
74 90 115
70 87 114
71 88 114
68 85 110
66 82 106
69 86 112
69 85 109
68 85 109
70 87 112
69 85 110
70 88 115
71 88 113
68 85 110
68 85 110
69 86 112
67 85 111
66 83 109
66 82 106
69 85 109
69 85 111
69 86 112
65 82 106
71 88 114
69 85 108
63 79 104
66 82 107
67 83 108
70 88 113
65 81 104
69 86 111
66 82 106
70 88 114
67 83 106
67 84 108
70 88 114
68 85 109
66 83 108
62 78 101
68 84 108
66 83 108
70 86 112
66 82 106
70 87 112
68 85 109
66 83 108
67 83 107
67 85 111
65 80 103
68 84 109
66 83 107
66 83 107
63 79 104
66 82 107
66 82 105
64 80 105
66 83 109
67 83 107
68 85 110
68 84 109
67 83 107
64 80 103
67 83 108
69 85 109
66 82 106
67 84 110
63 79 103
67 83 106
69 86 111
68 85 110
66 82 107
67 84 109
63 78 99
65 80 102
66 82 106
72 89 116
67 83 107
63 79 102
66 82 106
62 77 100
68 85 109
62 77 99
65 81 105
66 82 108
67 83 108
63 78 102
69 85 109
65 81 105
66 81 104
62 77 100
64 80 104
58 73 95
65 81 105
64 78 100
62 77 100
64 79 101
62 78 102
64 79 101
64 78 101
61 77 100
66 83 108
64 79 101
63 78 101
63 79 102
64 79 102
64 79 102
62 76 96
68 84 108
61 75 96
57 69 88
60 75 97
61 75 97
60 74 96
64 81 105
57 72 93
62 77 100
58 72 93
64 80 103
59 74 97
62 78 101
63 77 99
58 72 94
60 75 96
63 77 98
62 76 98
62 76 97
54 66 84
57 70 90
56 68 87
60 74 94
60 74 94
58 72 93
50 62 80
60 74 94
56 68 87
62 77 99
48 60 77
56 69 88
49 60 77
52 64 81
54 67 85
52 65 84
51 63 81
55 68 87
50 61 79
56 68 88
54 67 85
47 58 73
45 54 69
48 58 74
50 61 77
45 55 69
54 65 81
45 55 69
45 55 70
42 51 64
45 54 68
32 40 50
29 36 46
34 41 51
35 43 54
35 43 54
31 38 48
34 41 51
36 43 54
44 52 65
39 47 58
36 44 55
31 38 48
35 43 54
36 44 54
35 43 54
34 41 52
34 42 54
39 47 59
40 49 61
35 43 54
35 42 53
33 40 50
38 46 58
32 39 49
30 36 46
41 50 62
41 49 62
42 51 63
34 41 51
38 46 59
41 49 61
36 43 54
33 40 51
41 50 64
36 43 55
41 50 64
35 42 53
42 51 64
37 45 57
35 42 53
41 49 61
37 45 57
37 44 55
36 44 55
39 47 60
36 44 55
33 40 50
35 42 53
36 43 53
34 42 53
45 54 67
36 43 54
38 46 57
41 49 62
33 41 51
37 45 57
38 47 59
34 41 52
41 49 62
39 47 59
41 50 63
37 45 57
41 49 61
38 46 57
40 48 60
37 44 55
33 40 50
31 38 48
38 45 55
46 56 71
49 59 74
49 59 75
46 56 71
50 60 76
50 60 75
53 65 83
49 60 77
52 64 81
57 69 88
49 60 76
51 63 81
54 66 84
54 66 85
55 67 86
51 64 82
56 69 89
51 62 80
56 69 87
60 73 94
55 68 87
56 70 90
56 69 88
61 76 98
48 60 78
57 69 88
61 74 94
58 72 92
61 75 96
60 74 95
59 73 93
62 78 100
59 72 92
60 75 97
60 74 95
64 79 101
59 74 96
60 75 98
59 73 94
68 84 108
62 77 99
64 80 103
61 76 98
63 77 98
60 75 98
59 74 96
66 82 105
61 75 98
62 78 100
64 79 102
60 75 96
62 77 99
61 75 97
63 78 100
60 74 96
65 80 104
62 78 101
65 81 105
62 77 101
63 77 99
61 76 99
66 82 105
65 82 106
63 80 104
61 76 98
66 82 106
69 85 109
66 82 107
66 81 105
62 77 101
65 82 106
63 79 103
66 83 107
66 81 104
67 83 108
64 80 103
66 82 106
69 86 112
66 83 107
65 81 104
68 83 106
65 80 102
65 81 105
65 80 104
62 77 101
69 85 108
65 81 105
69 87 113
69 85 111
67 84 110
61 76 99
66 83 109
64 79 102
65 80 104
70 86 110
64 80 105
69 86 112
66 83 108
64 80 104
66 82 106
68 84 108
70 87 112
70 87 112
65 81 105
63 79 104
66 82 106
66 82 106
66 81 105
65 81 106
67 84 109
69 86 111
67 84 109
68 84 109
69 86 111
63 78 102
65 81 105
70 88 115
67 83 108
68 84 109
71 88 112
69 87 112
69 86 111
68 85 112
67 84 108
65 81 104
66 82 106
72 88 113
69 85 110
69 85 110
69 86 113
68 85 111
66 84 110
67 83 108
69 85 110
69 85 110
68 84 108
71 88 114
70 87 112
70 86 110
70 86 111
67 85 111
67 84 109
69 85 110
71 87 111
67 84 110
67 84 111
69 86 112
71 88 113
67 83 108
68 86 112
63 78 100
72 89 114
72 89 115
69 86 112
72 89 114
70 87 114
65 81 105
68 85 110
70 87 114
65 81 106
68 84 107
67 84 109
65 82 107
72 89 114
72 89 115
68 84 109
71 88 114
69 86 111
68 85 110
66 84 111
72 90 117
72 89 114
71 88 114
65 82 107
68 85 111
67 83 108
67 83 107
70 86 111
72 89 114
66 83 108
69 86 111
67 84 109
68 83 107
70 86 110
71 87 113
67 83 108
67 83 107
69 86 112
69 87 113
67 83 108
71 87 112
64 80 105
69 85 111
67 83 108
74 90 115
68 84 108
68 85 111
70 88 114
69 86 110
70 88 114
72 89 115
68 85 110
67 83 107
71 88 114
69 86 111
65 81 106
67 83 107
67 84 109
62 78 101
70 87 112
60 77 102
70 87 112
64 80 103
69 86 112
69 86 112
65 82 109
69 86 111
67 83 107
66 82 106
69 85 110
71 88 114
64 80 104
66 83 107
66 83 108
66 82 107
66 83 108
63 79 101
66 82 106
67 83 108
68 84 109
70 87 113
69 86 111
58 73 95
69 85 110
65 81 105
68 85 110
71 87 112
67 84 109
64 79 102
62 78 101
64 80 103
66 83 108
66 82 105
68 85 109
68 85 111
71 87 112
69 86 111
69 85 109
63 78 101
65 81 104
69 86 113
65 81 104
67 83 107
66 81 104
65 82 107
63 78 100
66 81 104
68 84 109
62 79 103
64 79 103
65 80 104
63 79 104
59 74 96
66 82 105
62 78 100
63 78 102
61 77 100
65 82 107
63 78 101
65 80 103
63 79 102
58 73 94
63 79 102
63 78 100
64 79 102
61 75 96
60 74 96
58 73 95
63 77 99
66 82 106
60 75 96
62 76 98
62 76 99
63 78 102
57 71 91
56 70 90
61 76 99
59 74 95
58 73 94
60 75 97
61 74 94
57 71 92
55 67 86
58 72 92
60 75 97
61 75 97
55 68 88
59 73 94
55 67 86
57 71 92
56 69 88
56 70 91
55 68 88
58 73 94
61 75 96
54 67 85
57 71 92
59 72 91
57 69 88
55 69 88
45 56 72
51 63 81
52 63 81
56 69 88
54 66 84
45 55 70
58 71 90
52 63 81
55 67 86
54 66 84
53 64 80
54 65 82
48 60 77
47 57 72
52 64 81
54 65 83
49 60 76
45 54 68
51 61 77
40 48 61
38 46 57
40 49 62
35 42 53
35 42 53
30 37 47
37 45 56
31 37 47
32 39 49
33 40 50
40 48 60
30 36 46
40 49 63
38 46 57
35 42 54
36 44 57
39 47 59
35 42 53
29 35 44
39 47 59
35 42 54
35 42 53
36 43 54
39 48 61
41 50 63
35 42 53
34 42 53
37 45 56
34 42 53
40 48 60
36 43 55
38 46 57
36 43 54
34 41 52
37 45 57
35 43 55
43 51 64
40 48 60
41 49 61
40 48 61
35 43 54
39 47 60
32 38 49
34 41 52
30 37 47
34 41 51
37 45 58
34 41 52
41 49 62
35 42 53
31 37 47
37 45 58
40 48 60
37 45 56
39 47 59
34 41 52
34 42 52
35 42 53
34 41 52
32 39 48
37 45 56
30 37 47
32 38 49
35 42 52
34 42 52
34 41 51
33 40 51
35 42 53
37 44 56
44 53 66
45 54 67
48 58 74
44 52 66
41 50 63
49 60 76
51 62 78
44 54 68
56 68 87
55 66 83
51 62 78
50 61 78
49 60 77
52 64 81
48 59 76
57 70 89
56 68 87
55 68 87
57 70 91
54 67 86
56 68 86
54 67 85
52 64 82
54 67 85
55 68 87
58 72 91
55 66 84
59 72 92
57 70 88
55 66 84
54 67 85
58 72 94
61 75 96
59 72 92
62 76 98
58 71 91
57 70 90
60 74 95
62 77 100
58 71 91
61 76 97
57 71 91
58 72 91
59 74 95
58 73 95
62 78 100
62 77 99
62 77 99
63 79 103
68 83 107
61 76 99
59 73 94
56 70 92
64 80 105
68 86 111
60 75 98
59 74 95
60 74 96
60 74 95
64 79 102
63 77 99
68 85 110
64 79 102
64 79 102
66 82 107
65 81 105
63 79 101
66 82 106
64 79 100
66 81 104
63 79 103
65 81 105
66 82 106
64 79 102
67 84 109
65 81 105
68 84 108
65 81 105
66 82 106
69 85 109
67 83 108
64 80 104
63 79 103
64 79 102
63 79 103
67 83 108
62 78 100
67 84 109
63 78 100
68 84 109
66 82 107
68 85 110
65 80 104
62 77 99
66 82 105
66 83 108
64 80 103
64 81 106
65 81 104
65 81 105
69 87 113
68 85 110
67 83 108
67 84 109
73 90 116
64 79 101
64 79 103
63 78 101
64 78 100
65 81 105
65 81 105
70 86 112
70 87 111
62 78 101
68 84 108
64 80 104
67 84 109
67 84 110
67 83 108
65 82 107
69 86 112
66 82 106
63 78 102
67 84 108
69 86 112
67 84 108
67 83 107
67 83 106
67 85 110
67 83 108
71 88 113
63 79 103
68 85 111
65 81 106
67 83 108
67 84 108
70 87 113
67 84 109
69 86 112
68 85 110
70 86 111
68 85 110
71 89 115
68 85 111
64 79 103
70 86 111
70 87 112
68 84 109
68 84 109
72 89 115
68 85 111
68 83 107
70 87 112
70 86 112
69 86 111
70 87 113
66 82 107
68 84 109
70 88 114
70 88 116
70 86 111
66 82 106
69 85 110
65 82 106
67 83 107
68 84 108
72 90 116
71 88 113
70 86 111
67 84 109
67 84 109
68 84 108
69 85 110
73 90 115
67 84 108
71 87 111
69 87 113
71 88 114
69 86 111
70 87 113
68 86 111
66 82 106
68 85 110
67 83 108
67 85 110
70 88 114
71 87 113
67 83 108
72 88 113
67 84 109
71 87 112
71 87 112
69 86 111
68 85 111
69 86 110
65 82 107
68 84 109
63 79 102
67 83 108
69 86 111
66 83 107
70 88 115
66 82 106
68 84 108
68 85 111
65 81 106
63 79 103
66 82 107
68 83 107
66 83 107
68 85 110
64 80 102
66 81 105
69 85 110
68 84 109
65 81 104
69 86 111
70 87 112
64 81 106
65 83 108
65 82 107
70 86 110
64 80 104
66 81 104
69 86 111
67 84 110
67 83 107
66 83 108
70 87 112
70 87 112
66 82 106
64 79 103
66 82 106
65 81 105
63 79 102
69 86 111
69 86 112
71 89 115
64 80 104
67 84 109
71 87 112
66 82 107
68 83 107
66 82 107
64 80 104
66 82 106
67 84 109
68 84 107
64 80 104
69 86 110
67 83 107
63 78 101
64 79 101
61 77 101
65 81 105
71 88 112
67 83 107
66 81 104
67 83 107
66 82 105
60 75 97
67 83 108
65 81 105
63 79 102
63 80 104
63 77 100
60 74 96
61 76 98
66 81 105
59 74 97
58 73 96
65 81 104
65 80 103
57 72 95
67 83 107
60 75 97
64 79 101
65 80 103
64 80 104
64 79 102
63 79 103
60 74 96
61 76 98
60 75 97
61 76 98
60 74 96
61 76 99
65 79 100
64 80 104
55 68 88
53 66 84
58 73 95
58 71 92
59 72 93
65 79 101
58 72 94
54 67 86
58 72 93
63 78 102
57 70 90
56 69 89
55 69 89
57 70 89
58 72 92
58 70 90
56 69 88
54 66 85
58 71 92
53 65 84
52 64 81
59 73 93
50 61 79
54 65 82
57 69 88
53 65 82
53 65 84
57 71 90
56 69 88
53 65 83
49 60 77
48 60 77
51 62 79
51 62 78
50 61 78
47 58 74
45 55 70
49 59 75
45 54 68
47 56 71
44 53 67
42 51 65
44 53 66
42 51 64
44 53 66
38 46 58
42 50 62
40 48 60
39 46 58
35 42 52
40 48 60
32 39 49
30 37 47
36 43 53
37 45 56
42 50 63
33 39 49
33 40 51
39 47 59
28 34 42
38 46 58
37 45 56
38 47 59
35 43 54
38 46 58
33 40 51
30 37 46
34 41 52
37 44 55
37 45 56
33 40 51
33 40 50
33 40 50
45 54 67
32 39 49
35 41 52
34 41 53
37 45 57
37 46 58
36 44 55
35 43 54
34 41 52
35 42 54
36 43 54
37 45 57
38 46 58
38 47 59
36 44 55
35 42 52
37 45 56
32 39 49
37 45 57
37 45 57
34 41 53
30 37 46
36 43 53
33 40 51
31 37 47
35 42 54
36 44 55
35 42 54
36 43 55
38 46 57
36 44 55
32 38 48
29 34 43
36 44 55
31 38 47
35 42 53
40 47 59
45 53 66
50 60 75
40 48 60
43 52 65
45 55 69
43 52 65
45 55 70
41 49 62
46 55 70
50 61 76
55 67 85
49 61 77
47 58 73
46 57 73
49 61 78
48 59 75
53 64 82
51 62 79
48 59 75
56 69 88
54 66 85
49 60 76
47 57 73
53 66 84
61 73 92
57 71 92
56 69 90
54 66 84
53 65 83
58 71 91
62 76 97
50 62 79
52 64 82
57 71 92
54 66 84
60 74 97
63 78 100
59 74 96
58 71 91
55 68 87
64 79 102
58 73 94
56 69 88
58 73 96
59 73 93
58 73 95
61 75 97
62 76 98
63 78 101
61 76 97
61 77 99
65 81 104
60 75 97
61 76 97
57 72 93
58 72 93
62 77 100
62 76 98
64 81 105
62 76 99
63 79 102
63 79 102
63 79 103
64 79 102
59 73 95
60 75 97
60 75 97
61 76 99
65 82 107
57 71 92
64 79 102
63 79 102
60 75 97
64 79 102
64 80 104
62 78 101
68 84 109
67 84 108
66 83 107
66 83 108
59 74 96
66 83 107
61 76 98
66 83 108
69 84 107
67 82 105
67 84 109
63 78 101
66 83 108
69 84 108
65 81 105
65 81 105
67 83 107
62 77 101
68 84 109
66 81 105
63 79 103
68 84 108
67 82 105
65 82 106
66 83 108
67 83 107
64 80 104
67 84 109
67 84 109
65 81 105
65 82 107
68 85 110
65 81 105
67 84 110
70 88 114
67 84 109
65 81 106
68 85 112
66 83 107
71 88 113
72 89 115
70 87 112
68 85 110
65 81 106
65 81 106
67 83 107
68 84 109
67 84 109
67 83 108
65 82 108
66 83 108
66 82 107
69 86 111
69 86 112
66 82 107
65 80 104
65 82 106
70 87 113
67 83 107
67 84 109
70 86 110
67 84 109
65 82 107
69 86 112
69 86 111
71 87 111
66 82 107
71 87 110
71 87 112
68 85 110
67 84 108
68 85 111
73 90 115
68 84 109
66 82 106
65 82 107
69 86 112
69 85 110
70 87 113
70 87 113
70 86 110
71 87 112
71 88 113
64 80 104
69 85 110
70 87 111
68 84 109
70 88 114
67 84 109
67 84 109
67 84 108
71 89 115
69 86 111
64 80 103
68 86 112
65 82 106
64 80 103
72 89 115
70 88 114
69 86 112
72 89 115
69 87 113
65 81 105
69 86 113
67 83 108
71 88 114
68 84 109
70 87 113
68 85 110
67 84 108
72 89 114
69 87 114
68 84 109
74 91 117
70 87 114
67 83 108
68 84 109
67 84 109
72 88 113
65 82 106
72 89 114
69 86 111
72 89 114
70 86 110
68 85 110
67 83 108
65 82 107
67 83 106
67 83 108
71 89 115
68 85 110
67 84 110
68 84 108
68 85 109
67 84 109
67 83 108
71 87 111
67 84 109
66 82 107
66 82 106
66 84 109
67 84 108
67 83 107
64 81 105
69 86 110
65 80 103
69 85 110
68 85 110
67 84 109
66 81 105
67 83 108
71 87 112
65 81 105
68 84 109
65 82 106
66 83 108
65 80 103
67 84 109
69 86 111
64 80 104
62 77 100
65 83 109
68 84 109
69 86 112
63 78 101
66 82 105
64 79 101
68 84 108
67 83 108
64 80 104
66 82 107
65 81 105
68 84 108
68 83 107
64 80 103
62 77 101
65 80 103
67 83 108
63 78 101
64 81 105
66 81 103
67 83 108
66 83 108
68 84 109
64 79 103
62 77 99
68 83 106
63 78 100
65 81 104
64 80 103
60 75 97
57 70 90
58 72 93
62 77 98
67 82 105
60 75 97
64 80 104
60 75 97
65 81 105
61 75 98
63 78 100
66 81 104
62 77 100
61 76 99
67 83 106
63 78 100
58 72 93
61 76 98
60 74 97
59 72 93
63 79 102
60 74 96
62 76 97
61 75 97
61 77 100
62 77 99
56 69 88
63 78 100
56 69 89
59 73 93
66 80 102
56 70 90
66 81 103
59 72 92
52 64 83
58 72 92
62 76 98
55 68 88
53 65 83
58 73 95
57 69 88
55 68 88
51 62 80
54 67 85
58 70 89
58 71 90
54 66 85
56 69 89
58 70 90
58 71 91
47 58 74
56 69 89
51 62 78
50 61 78
49 60 76
53 64 81
56 68 85
48 57 72
46 56 71
48 58 73
56 68 86
51 62 78
50 61 77
53 64 81
42 51 65
46 56 71
47 57 71
42 51 64
45 53 67
40 48 60
44 53 66
36 43 54
37 44 55
32 39 49
34 40 51
34 41 51
34 42 53
35 42 53
36 43 54
34 41 51
39 47 59
38 46 57
33 39 50
33 40 51
37 44 56
40 48 60
34 40 50
34 41 52
39 47 59
39 47 59
34 41 52
35 43 54
36 44 56
35 43 54
35 42 52
33 39 50
37 44 55
29 35 45
37 44 56
33 40 51
35 42 53
41 49 61
31 38 48
39 47 58
38 46 59
39 46 58
33 40 50
36 44 55
40 49 61
33 40 50
39 47 59
40 48 59
39 47 60
31 37 47
41 50 63
38 46 58
38 46 58
34 41 51
35 43 54
34 42 53
34 41 52
35 43 54
36 43 54
39 46 58
43 52 65
30 36 45
33 40 51
33 39 50
32 39 49
33 39 49
27 33 41
31 38 48
41 49 60
39 47 58
37 44 55
43 52 65
48 57 72
46 55 70
47 56 71
39 48 61
48 58 74
39 48 60
48 58 73
48 58 74
47 58 74
50 60 76
55 67 86
55 67 85
52 63 80
52 63 80
52 64 82
56 68 87
51 64 83
52 63 80
51 62 80
50 62 80
52 64 81
54 66 84
55 68 86
55 68 87
59 73 93
57 70 89
49 60 76
55 68 88
58 71 91
54 67 86
54 66 85
56 68 87
61 75 97
60 74 93
56 69 89
64 78 100
59 74 95
60 74 94
63 77 99
59 73 95
61 75 97
58 73 95
61 75 97
61 75 97
60 75 97
61 76 98
60 74 96
58 72 93
64 78 100
64 79 101
65 80 103
58 73 94
65 80 102
58 72 94
65 80 102
60 74 95
64 79 101
61 76 98
62 77 99
65 81 105
60 74 95
64 80 105
60 74 95
64 79 101
62 77 100
64 79 103
63 78 101
63 78 100
62 77 101
62 77 100
66 83 107
62 77 100
66 82 105
61 77 101
67 82 105
65 81 106
65 81 105
68 84 108
67 83 108
66 83 107
67 83 107
66 81 104
66 81 103
67 84 110
65 81 105
68 84 109
68 85 110
61 77 101
67 83 107
63 78 101
66 82 107
64 79 103
65 81 106
65 81 106
66 82 107
67 83 107
64 80 105
65 81 105
65 81 105
61 77 100
62 77 100
66 83 109
68 84 109
64 80 103
65 81 105
70 87 113
70 86 111
64 81 106
66 81 105
66 81 104
63 80 104
64 80 103
68 84 107
64 79 102
65 82 108
68 83 107
65 81 105
68 86 112
64 80 104
63 78 101
66 82 107
69 86 111
65 82 107
68 85 110
69 86 112
66 83 109
67 83 108
70 87 113
67 85 110
66 83 109
68 85 110
67 84 110
68 84 109
68 84 108
67 83 106
65 81 104
62 78 102
65 82 107
68 84 109
65 81 106
66 81 105
71 89 115
71 89 117
68 85 110
68 84 109
67 85 110
69 86 111
71 88 114
64 79 102
71 89 116
73 90 115
72 90 117
63 80 104
70 88 115
68 85 110
69 85 109
68 84 109
70 87 113
68 85 110
67 82 106
64 80 104
67 83 106
71 88 113
66 83 107
69 86 112
69 86 111
70 86 111
71 89 115
70 87 112
66 82 106
70 87 113
68 84 107
68 85 110
70 87 113
68 85 110
68 84 110
68 86 113
70 87 112
68 85 111
66 81 104
66 82 107
69 86 112
68 85 110
68 84 109
68 85 110
66 83 108
71 88 114
68 84 109
68 84 108
69 86 113
70 86 111
67 83 107
70 88 114
69 85 110
69 86 111
69 86 112
70 88 114
72 89 115
68 85 110
69 85 109
66 83 107
72 90 115
65 80 104
71 89 115
66 82 107
72 88 113
70 86 110
67 84 109
67 85 112
67 83 109
68 85 109
68 85 110
66 83 107
66 82 107
67 83 108
67 85 111
67 84 108
63 78 100
66 83 108
64 79 102
69 86 110
68 84 109
69 86 111
69 85 109
65 81 106
72 88 113
63 79 103
67 82 104
64 81 105
65 81 105
68 84 108
65 81 105
65 80 103
69 85 110
67 83 106
70 87 113
69 85 109
67 84 108
65 83 108
65 82 107
62 77 101
69 86 112
66 82 106
66 82 107
63 78 101
66 81 104
62 78 102
66 82 106
65 80 104
64 80 104
67 84 109
65 81 105
63 79 102
66 83 107
64 80 104
64 79 102
63 79 103
66 82 106
65 81 104
61 76 99
66 82 105
69 84 107
65 81 104
64 79 102
64 80 103
65 81 106
60 75 96
69 85 108
67 83 107
65 81 104
61 75 97
61 76 98
66 83 107
66 82 105
60 75 97
63 79 103
60 74 97
66 81 104
62 77 100
59 72 93
64 80 103
62 77 100
62 78 101
60 73 93
65 81 104
56 69 88
54 68 89
61 76 98
59 73 95
57 70 90
56 69 88
63 78 99
60 75 96
60 73 94
57 71 92
56 70 90
65 80 102
58 72 92
58 72 91
56 70 90
56 69 88
56 70 91
55 68 87
54 67 87
56 68 87
57 70 90
56 69 88
52 64 83
55 68 87
56 70 90
53 66 85
51 62 80
55 66 84
47 59 75
55 68 87
52 64 82
51 62 77
49 60 76
49 60 76
55 67 85
50 61 77
54 65 83
49 59 74
47 58 73
51 62 78
44 53 67
51 63 80
50 59 74
45 55 69
46 56 70
43 51 65
48 58 74
41 50 63
36 43 53
42 50 62
40 47 59
45 53 66
41 49 61
34 41 51
35 42 53
36 44 55
36 43 54
32 39 49
39 46 58
33 40 50
35 42 53
32 39 49
36 44 55
37 44 55
36 43 54
34 41 52
38 46 58
38 46 58
31 37 48
41 49 61
35 43 54
34 41 51
35 42 54
42 50 63
35 42 53
34 41 52
37 44 55
38 46 58
33 40 50
36 43 54
33 40 51
40 48 60
33 40 50
32 39 50
37 44 56
35 41 51
32 39 49
37 45 57
37 45 56
38 46 57
37 44 55
37 45 56
36 43 54
37 45 57
28 33 42
36 43 54
32 39 48
30 36 46
38 46 58
32 39 50
36 43 54
35 42 53
36 43 54
32 39 48
32 39 48
29 35 43
36 44 55
30 35 44
41 50 62
43 51 64
45 54 68
44 53 67
41 49 62
45 53 66
39 47 59
41 49 60
47 56 70
56 67 84
38 46 59
46 55 70
49 59 75
42 51 65
42 51 64
47 57 73
46 56 72
49 60 78
48 58 73
54 65 82
50 60 77
56 68 87
51 62 78
56 69 88
47 58 74
57 69 88
57 69 88
56 68 86
57 71 91
53 65 83
61 75 96
57 70 89
57 70 90
56 68 87
62 76 97
58 71 91
50 61 79
55 67 87
52 64 82
55 68 88
54 67 86
59 73 94
58 73 94
59 74 95
59 73 93
58 72 93
59 74 95
58 72 93
62 76 98
62 77 99
59 73 93
59 72 93
59 73 93
58 72 93
63 77 99
60 74 95
63 78 101
65 80 102
58 72 93
63 78 100
57 72 93
64 80 104
66 82 107
64 79 103
65 80 103
65 81 104
61 75 95
65 81 104
61 76 98
61 76 98
63 77 99
61 77 101
62 77 99
66 83 107
61 75 96
62 77 99
61 76 99
61 77 99
63 78 102
65 81 105
61 76 99
64 80 104
64 80 104
62 78 102
65 80 104
63 78 102
64 80 104
67 82 105
68 83 107
64 80 103
66 83 107
69 86 111
65 82 107
62 77 101
63 79 102
66 82 106
66 82 106
65 81 105
66 82 105
68 84 108
67 83 108
68 86 113
67 83 107
68 84 107
69 86 111
69 85 110
68 84 109
66 81 105
66 82 106
66 82 106
71 88 114
65 83 109
68 83 107
68 84 109
68 85 110
64 79 101
65 81 104
66 81 104
67 83 107
66 83 109
63 79 103
64 80 103
69 86 112
66 83 107
64 80 104
66 83 108
67 83 108
69 86 113
69 85 109
65 81 105
65 80 104
68 85 110
62 78 102
67 84 108
66 83 108
67 84 108
64 80 103
68 85 111
67 82 106
66 83 108
68 85 109
69 87 113
69 87 112
69 87 113
69 86 112
69 85 110
73 91 117
66 82 106
69 86 112
67 84 110
66 83 108
67 84 110
73 90 115
66 83 109
68 84 109
69 86 112
70 87 112
68 84 109
68 84 108
69 85 110
70 88 114
68 85 111
69 86 113
71 89 116
70 88 114
70 88 114
69 86 111
67 83 107
72 89 115
71 88 113
69 85 110
69 86 112
65 81 103
69 86 111
65 82 106
70 86 110
72 89 115
66 83 108
70 87 112
68 85 110
65 81 106
69 86 110
68 85 111
67 84 109
72 89 115
67 84 109
67 84 110
69 85 110
70 86 111
67 83 107
69 86 111
66 82 106
69 87 112
70 87 111
69 86 111
70 87 113
65 81 105
65 81 104
68 85 111
72 90 116
69 86 111
69 87 113
65 81 105
69 85 109
64 80 103
66 82 107
66 84 110
71 88 113
67 83 107
67 83 107
68 84 109
66 82 106
62 77 100
68 86 112
66 82 106
69 85 110
71 88 113
66 82 107
64 80 105
64 79 102
65 82 107
68 84 109
64 80 104
67 84 110
66 83 107
65 81 105
66 82 106
67 83 108
69 85 110
69 86 111
69 85 110
68 85 110
65 81 105
62 78 102
67 83 107
67 83 106
65 82 106
69 86 112
70 87 113
68 84 109
64 80 104
68 84 108
63 78 100
68 85 110
67 84 110
67 83 108
66 82 107
64 80 104
63 79 103
68 85 111
68 85 112
63 78 101
63 78 101
71 86 109
66 83 108
64 81 106
66 82 106
67 84 108
64 79 102
70 86 110
63 78 100
62 78 101
70 86 110
58 72 93
64 80 104
61 77 100
62 77 99
63 79 102
63 80 105
60 76 99
63 78 101
65 80 103
63 78 100
61 76 98
64 80 103
61 75 97
62 77 100
68 85 110
66 81 105
63 78 100
60 74 96
61 75 97
62 77 100
60 74 96
60 76 98
59 73 95
63 78 101
63 77 99
65 80 104
60 75 96
58 73 94
57 71 92
64 80 103
58 72 93
62 77 100
64 78 100
61 76 97
63 78 100
61 76 98
56 70 90
60 75 97
63 78 101
57 70 91
54 67 86
57 70 90
58 72 93
57 71 92
55 68 86
55 68 87
57 70 90
62 76 96
55 68 86
53 66 85
50 62 80
54 67 86
59 72 91
57 70 90
54 66 85
56 68 86
54 66 84
55 67 86
51 63 80
49 60 76
53 65 82
49 60 77
50 61 78
53 65 83
48 58 73
49 60 76
47 57 72
53 64 81
50 61 77
48 58 72
51 61 77
45 54 68
47 56 71
44 53 66
46 55 70
44 54 67
49 59 74
46 56 70
40 49 61
45 53 67
41 50 63
42 50 62
33 39 49
40 48 59
42 50 62
31 38 47
31 38 47
40 47 59
34 41 51
29 35 43
34 41 51
32 39 49
33 40 51
34 41 52
36 43 54
29 36 45
35 43 53
36 43 54
31 37 47
32 39 49
31 37 47
35 42 53
31 37 47
36 42 52
33 40 50
38 46 59
28 34 42
32 39 49
34 41 52
33 40 51
37 44 55
34 41 52
35 42 53
34 41 51
40 48 60
32 39 49
40 48 61
34 42 53
27 33 42
40 48 60
38 46 58
35 42 53
36 43 54
32 39 49
37 45 57
34 40 51
33 40 51
34 41 51
33 40 50
30 36 45
36 43 53
35 42 52
33 40 50
32 38 48
28 34 43
34 40 50
43 51 64
39 46 57
38 45 56
38 46 58
45 54 67
43 52 66
41 49 62
45 55 69
42 51 63
50 60 74
42 51 65
44 53 67
51 62 78
48 58 72
39 48 60
49 60 76
47 57 71
55 66 82
47 57 71
43 53 67
51 62 78
53 65 82
59 73 93
52 64 81
55 67 85
58 70 88
52 64 83
49 59 75
57 70 91
50 61 78
54 67 86
46 56 72
57 70 89
58 71 90
53 65 84
53 65 84
55 67 86
58 72 92
58 71 91
57 71 92
60 74 96
62 76 96
52 65 84
55 68 86
58 73 95
61 75 96
61 77 100
58 72 92
59 73 93
53 66 86
57 70 91
54 66 84
61 75 96
60 75 97
65 80 104
59 73 94
58 72 93
62 76 97
59 73 94
62 77 99
61 75 96
62 77 99
60 74 94
67 83 107
61 76 99
61 75 95
63 78 100
60 74 95
63 79 103
66 82 105
60 76 99
60 74 95
57 71 92
62 77 99
63 77 97
66 82 106
62 76 98
65 81 105
62 78 101
58 72 94
65 82 106
67 82 106
63 78 100
67 83 107
63 78 102
67 82 106
65 82 106
67 83 107
67 83 108
65 80 103
64 80 104
64 79 103
65 81 105
68 85 110
66 81 103
68 85 111
64 79 103
63 79 103
68 85 110
63 79 102
66 82 106
65 81 105
70 85 109
62 79 103
65 81 106
66 82 106
62 77 100
69 86 110
65 82 108
67 84 109
66 82 107
69 86 112
61 76 100
66 83 107
70 86 112
66 82 106
64 79 101
62 76 99
66 82 107
65 81 105
65 81 106
67 85 110
67 83 107
66 83 107
69 85 108
71 87 112
61 75 98
71 88 114
67 84 109
68 86 112
64 80 103
68 86 113
69 86 111
69 86 110
63 79 103
67 83 106
67 83 106
68 85 111
67 84 109
65 81 104
67 83 108
73 90 117
68 86 111
66 82 107
67 84 108
70 87 112
66 83 107
68 85 110
69 86 112
66 83 108
70 87 113
72 88 113
67 83 107
67 83 107
67 83 107
65 81 104
68 85 111
68 85 110
70 87 112
67 82 106
66 83 108
67 83 108
71 89 115
67 83 108
68 84 108
67 83 108
72 89 115
70 87 113
71 88 114
66 82 105
67 84 110
64 81 105
74 91 118
65 81 106
67 83 108
70 87 113
68 85 110
65 81 105
66 83 107
69 86 112
68 84 108
67 83 106
68 85 110
63 79 104
68 85 110
68 84 107
68 85 109
71 88 113
68 84 109
68 83 107
70 88 114
67 83 108
67 84 108
67 83 108
68 85 111
68 84 108
69 86 111
70 87 113
67 83 107
67 82 106
67 84 109
64 80 103
70 86 111
68 84 108
70 87 112
66 83 108
69 86 111
67 84 109
64 80 103
65 81 107
68 85 110
67 83 106
69 86 111
64 80 104
68 84 108
66 81 105
68 85 109
64 79 103
68 84 108
65 81 105
69 86 111
67 84 109
68 84 108
66 83 108
66 82 107
67 83 108
68 86 112
68 84 108
65 81 105
68 84 107
68 84 108
67 84 108
65 80 104
65 80 103
62 78 101
67 83 106
70 87 111
68 84 109
62 77 100
70 87 112
64 79 102
64 80 103
64 80 103
67 84 110
66 81 105
66 83 108
64 81 106
66 83 109
65 81 105
69 86 111
62 78 101
66 82 106
65 80 104
63 79 102
65 81 104
64 81 105
63 78 101
62 79 103
63 79 102
64 79 102
66 81 104
60 75 97
67 83 107
60 76 99
68 83 106
63 79 102
61 77 100
59 73 95
60 74 96
62 77 100
62 77 100
63 78 101
61 77 100
66 81 104
67 83 106
60 74 95
63 80 104
60 74 95
66 82 105
56 70 89
64 78 100
61 76 99
61 76 99
60 75 96
64 79 102
58 72 94
60 75 96
65 80 103
57 71 92
67 83 106
58 72 93
63 79 102
59 74 96
63 78 100
57 70 89
57 70 90
57 71 92
58 73 95
60 74 96
57 72 94
62 76 97
65 80 104
57 71 92
62 76 97
58 71 92
60 74 96
57 69 89
63 78 101
49 61 80
55 68 86
59 72 92
56 69 88
58 71 91
60 73 94
52 65 84
57 70 91
56 69 89
57 70 89
52 64 82
54 65 82
55 68 86
48 59 76
51 62 79
52 64 81
53 65 84
43 53 68
54 66 84
49 59 74
47 58 73
46 56 71
51 63 79
43 53 68
49 60 76
54 65 82
44 53 67
49 59 74
50 61 77
42 51 64
39 47 58
45 54 67
41 49 62
42 50 62
38 46 58
41 49 61
42 50 63
41 49 62
38 45 57
42 50 62
35 43 54
34 41 51
32 38 47
27 32 39
33 39 49
30 36 45
33 40 50
35 42 52
32 39 48
37 45 55
35 42 52
35 42 53
30 35 44
40 48 59
32 38 48
39 46 57
34 42 53
33 39 49
31 37 46
35 42 53
37 44 55
35 43 54
41 49 62
35 42 52
33 40 50
32 39 49
33 39 49
31 37 47
30 36 45
40 48 59
29 35 44
37 44 55
32 39 49
32 38 47
27 33 42
37 45 58
39 48 60
38 45 57
26 31 39
34 41 51
33 40 49
34 41 52
30 37 46
32 38 48
34 40 50
31 38 48
33 39 48
32 38 47
35 41 51
32 38 48
38 45 56
32 39 48
34 41 51
40 48 60
38 45 56
39 46 57
39 47 59
43 52 65
47 57 71
45 54 68
44 53 66
46 55 69
48 58 74
56 68 85
46 56 70
46 56 72
46 55 70
50 61 77
49 60 76
44 53 67
47 58 73
57 69 88
54 65 83
50 61 78
57 69 88
50 61 77
54 66 83
55 66 84
50 62 80
52 64 81
53 65 83
53 65 84
58 71 90
52 64 82
61 75 95
59 72 92
58 71 91
57 70 89
61 76 97
64 78 100
62 76 98
56 69 89
55 68 87
55 67 85
60 75 96
50 62 80
56 70 91
63 77 99
61 76 98
58 72 92
61 75 96
57 70 90
61 76 99
62 77 99
58 71 92
64 79 102
63 78 99
61 76 98
61 76 97
59 73 94
60 75 98
64 79 102
61 76 98
64 79 102
61 76 98
60 74 96
61 76 98
59 73 95
61 76 98
65 79 101
64 80 105
62 78 100
66 81 104
66 81 105
66 81 104
60 76 98
65 80 102
64 79 102
61 75 97
63 78 101
62 77 100
60 75 97
64 80 104
67 82 106
59 73 95
63 80 106
68 84 108
62 77 99
66 81 105
68 83 107
67 83 107
60 75 98
61 76 99
64 81 105
66 82 106
63 80 106
65 80 104
64 79 102
66 82 106
70 87 113
67 84 109
64 81 105
68 84 109
66 82 107
65 81 104
64 80 103
64 80 103
64 81 107
72 88 113
64 79 103
65 81 105
59 73 95
64 80 104
68 85 110
64 79 102
65 81 104
70 88 114
67 84 108
70 87 112
68 84 109
67 84 109
68 83 105
68 86 111
70 86 112
62 78 100
70 87 112
66 82 107
66 83 108
65 81 106
64 79 102
71 87 112
67 84 109
67 84 109
70 87 112
67 83 106
65 81 105
68 85 111
71 89 115
64 81 105
70 87 112
67 84 110
70 88 114
67 83 107
62 78 103
72 89 116
71 87 112
68 84 108
67 84 109
68 85 110
64 80 104
67 83 107
66 83 108
69 86 110
66 83 109
68 85 111
69 87 114
66 83 108
67 84 108
66 82 107
66 82 106
68 85 110
72 89 115
68 85 111
65 81 105
65 82 106
69 85 110
66 82 105
65 81 104
67 83 107
68 84 108
71 88 114
71 88 114
66 83 107
66 82 107
69 86 112
68 85 111
66 82 107
66 81 105
71 88 113
68 85 110
71 88 114
68 84 108
66 83 107
65 81 106
69 87 113
67 83 107
65 81 105
71 88 114
69 86 112
64 81 106
65 81 106
68 84 108
67 83 108
72 90 115
71 88 113
70 87 112
69 84 108
70 86 111
71 89 116
64 80 103
70 86 111
67 83 108
67 83 108
68 86 113
63 79 101
67 84 110
69 86 110
69 86 112
67 83 107
69 86 111
69 85 109
69 86 113
64 79 103
73 90 115
70 87 113
68 85 112
63 78 102
66 83 108
66 82 107
65 81 104
67 84 110
64 80 104
64 80 103
67 84 109
69 85 109
67 83 107
66 82 106
67 85 111
68 84 109
66 82 107
69 85 109
68 85 110
67 84 108
65 81 105
66 82 105
65 82 108
67 83 109
66 82 107
71 88 114
70 86 111
65 81 105
69 86 112
67 83 107
72 88 113
66 83 107
66 81 105
66 83 108
64 81 105
60 76 99
65 81 105
64 80 103
68 85 110
61 75 97
65 80 103
65 81 104
65 81 105
64 79 102
63 78 100
63 79 101
63 80 105
66 82 107
63 79 102
66 82 106
63 79 105
62 78 102
57 72 94
60 76 100
64 80 104
62 77 100
62 77 100
67 83 107
60 76 99
64 80 104
63 78 100
64 79 102
66 81 104
61 76 98
61 76 99
64 80 104
64 79 101
62 76 98
62 77 98
59 74 96
58 72 94
61 75 97
58 72 92
61 75 95
62 77 100
64 78 100
60 74 96
59 73 95
61 77 100
60 74 96
62 76 98
55 69 89
59 74 97
58 73 94
60 74 96
57 70 90
61 75 97
62 77 99
57 70 90
55 69 89
63 79 102
56 68 87
55 67 86
57 71 92
59 74 95
56 69 88
51 63 81
55 67 86
56 69 89
53 66 86
55 69 89
54 66 85
61 75 96
54 66 85
52 65 84
57 71 91
52 63 80
52 64 81
50 61 79
52 63 80
51 63 80
51 62 79
54 67 87
53 65 83
50 61 77
55 66 84
47 57 73
47 57 71
48 58 73
47 58 74
47 57 72
42 51 64
43 52 66
49 59 74
40 47 59
49 59 75
43 52 66
42 51 64
39 48 60
39 46 58
45 54 67
41 49 62
34 40 49
39 47 59
35 43 54
33 39 48
40 48 59
36 43 54
34 40 50
37 44 54
33 40 49
35 42 51
34 40 49
30 35 44
27 32 40
29 35 44
32 38 48
30 36 45
29 35 43
39 47 60
32 38 48
29 36 45
34 41 52
30 36 45
32 39 48
33 40 50
30 36 46
35 42 53
29 36 45
28 35 44
37 44 55
32 39 49
30 36 46
29 35 44
31 38 47
36 43 53
33 39 50
29 34 42
37 45 57
36 43 54
30 36 45
35 42 53
32 39 49
32 38 47
34 41 51
36 43 54
31 37 46
28 34 43
28 34 43
31 37 47
34 41 51
32 38 47
34 40 49
35 42 52
32 38 46
36 43 53
40 48 60
36 43 53
34 40 49
40 48 60
35 41 52
43 52 65
41 49 61
39 47 58
44 53 67
45 53 66
43 52 65
46 55 69
38 46 58
36 44 56
46 56 70
49 60 77
44 53 67
51 62 78
51 62 79
49 60 75
49 60 75
50 61 77
47 57 74
55 66 83
52 63 79
49 60 76
50 61 79
49 60 77
45 55 70
51 61 78
56 68 86
45 56 71
61 75 96
52 64 82
47 59 76
47 59 77
54 65 83
58 71 90
51 64 82
57 70 89
58 72 93
52 64 82
62 76 97
55 68 87
53 66 85
60 76 98
58 72 93
54 68 88
59 73 93
61 75 96
59 73 93
51 64 83
61 75 95
53 66 85
57 71 91
66 81 105
63 77 98
53 66 85
61 74 95
59 73 94
63 78 101
63 78 101
65 80 103
60 75 98
57 72 94
62 77 99
64 80 104
59 75 98
62 77 101
64 80 105
65 80 104
62 76 99
60 75 97
61 76 98
59 73 95
61 75 96
57 70 91
64 80 103
65 80 104
66 81 105
62 78 101
65 81 106
65 79 102
64 80 104
62 77 100
63 79 102
65 81 105
67 84 109
65 80 103
63 79 103
62 77 98
64 79 103
64 80 104
64 79 101
65 81 105
69 87 113
64 80 102
61 76 97
66 82 107
63 80 106
63 79 104
59 74 97
62 77 100
67 84 108
66 81 105
66 82 106
66 82 106
63 79 103
67 82 106
65 81 104
67 84 109
65 81 105
63 79 102
66 83 107
65 81 105
66 83 108
65 81 105
66 81 104
66 82 106
65 81 106
64 80 104
62 78 100
63 78 101
64 79 103
68 85 110
66 82 106
65 81 104
64 80 103
68 84 108
65 81 104
65 80 102
68 85 111
70 86 111
68 86 111
68 84 109
69 84 108
65 82 108
68 84 109
64 80 103
66 83 108
71 89 116
66 82 107
70 87 112
65 81 106
68 85 110
65 80 104
68 84 110
69 85 109
68 85 110
65 81 106
67 83 108
65 82 106
69 86 112
70 87 113
68 85 111
70 87 113
66 83 107
64 80 104
69 86 110
67 85 110
68 86 112
68 84 109
68 83 106
67 84 109
64 80 104
69 85 110
65 81 106
69 87 113
68 86 113
69 87 112
65 81 105
67 83 108
63 79 103
73 90 115
68 84 108
65 81 105
69 86 111
70 86 111
66 83 107
68 84 109
72 89 115
70 87 113
68 84 107
71 89 115
68 84 109
64 81 105
68 84 108
70 87 114
69 86 112
70 86 111
68 86 112
68 85 110
63 79 103
68 85 110
68 85 110
69 86 113
67 84 108
71 88 114
66 84 110
64 81 106
68 85 111
63 79 104
67 83 108
71 89 116
69 85 109
68 83 106
67 83 107
70 87 113
69 85 110
67 83 108
69 86 111
66 82 106
68 86 112
67 83 108
68 85 111
66 83 109
68 84 110
65 80 104
67 83 107
68 83 107
72 88 113
66 83 109
64 80 105
70 87 113
63 78 101
67 83 107
69 87 113
64 80 104
65 81 105
64 80 105
67 83 106
71 88 115
66 82 106
65 81 105
67 82 105
68 85 110
66 82 104
64 80 104
61 77 100
70 86 111
68 84 109
68 84 108
65 81 105
68 85 109
66 81 103
66 82 107
70 86 111
65 81 104
65 80 103
64 80 105
61 76 99
63 77 99
67 83 107
64 80 104
66 82 106
62 77 100
62 78 101
64 79 102
63 79 103
67 83 107
67 83 108
59 73 94
61 75 96
62 77 99
64 80 103
66 81 104
63 78 101
59 74 95
61 77 101
63 79 104
64 79 102
59 73 95
64 80 103
65 80 103
63 78 100
62 76 97
59 74 96
63 78 101
60 75 97
64 78 100
57 72 93
59 74 97
59 73 94
64 79 101
62 76 97
63 78 101
66 82 106
64 80 104
58 73 94
63 77 100
61 76 98
61 75 96
61 76 98
63 78 100
60 74 97
63 77 99
58 71 90
58 72 93
59 72 93
56 70 90
54 67 87
57 70 90
56 70 90
55 68 87
57 70 90
56 69 88
57 71 91
60 74 95
57 70 89
58 72 92
52 65 83
54 66 85
57 69 88
51 62 79
59 72 92
54 67 86
55 67 84
51 62 80
54 67 86
55 67 86
53 64 81
55 68 88
49 61 78
52 64 81
50 60 76
52 63 79
51 61 77
51 63 80
53 65 84
48 58 74
52 62 77
49 60 77
51 62 78
45 55 69
44 54 68
43 52 65
46 55 70
47 57 72
43 52 65
51 61 77
46 55 69
47 57 72
50 60 76
45 54 67
49 59 74
40 48 61
43 51 64
37 44 54
37 45 56
39 46 57
41 49 62
39 46 57
43 51 64
35 42 52
40 47 58
34 40 50
31 37 46
37 44 54
34 39 48
33 39 47
35 41 52
28 34 42
29 35 43
30 35 44
28 33 42
31 37 46
34 41 52
35 41 51
36 43 54
30 36 45
28 33 41
33 39 49
26 31 39
30 37 46
29 35 44
30 37 46
42 49 61
31 38 47
30 36 46
35 42 52
36 43 54
30 36 45
27 32 41
27 33 41
30 36 46
36 43 54
33 39 49
27 32 40
32 39 49
28 34 42
31 37 46
32 38 47
30 35 43
30 35 44
30 35 44
32 37 46
33 40 49
35 42 52
36 42 52
41 49 60
38 45 56
38 45 56
43 51 63
41 49 61
36 43 54
44 53 66
40 48 61
42 50 63
41 50 62
47 57 71
39 47 59
41 49 61
39 46 58
41 50 63
48 58 73
49 58 73
46 56 71
49 59 75
48 58 74
47 57 72
48 58 73
48 58 74
55 66 82
46 57 74
46 55 70
53 65 82
49 60 76
50 60 76
53 65 84
53 65 82
53 66 85
56 68 87
49 59 76
47 57 73
56 68 87
51 63 80
58 70 89
55 67 86
50 61 78
56 68 87
56 69 88
59 73 92
57 69 87
54 67 87
54 66 85
56 68 86
54 67 87
55 68 88
57 70 91
57 71 91
55 68 87
58 72 93
61 75 95
60 74 96
61 75 95
60 75 97
53 66 85
59 74 96
63 78 100
61 76 98
58 71 92
60 74 96
61 76 98
62 77 98
64 79 102
59 73 94
61 75 98
62 77 100
60 74 96
58 72 94
65 81 104
61 77 100
56 70 91
60 74 94
61 74 95
63 79 103
69 85 109
57 71 92
65 81 105
62 77 99
62 78 101
61 76 99
55 69 91
64 78 100
64 79 103
68 84 108
68 85 110
60 75 96
61 77 101
67 83 107
65 81 105
68 84 109
60 75 97
65 81 106
66 81 105
73 90 115
62 78 102
65 80 103
65 80 102
62 78 103
60 75 98
67 84 111
60 76 99
61 77 100
64 80 103
66 83 108
65 82 107
65 81 105
66 84 109
67 84 110
65 81 103
68 84 108
65 81 104
67 83 108
63 78 102
67 83 108
64 80 104
61 76 97
63 80 104
65 81 104
63 79 102
68 85 109
65 82 106
67 83 108
65 81 104
66 83 107
69 84 108
67 83 107
69 86 110
71 87 112
66 83 107
67 84 109
66 83 109
68 85 110
67 83 106
67 83 107
68 85 110
70 88 113
69 86 111
65 82 107
68 84 108
66 83 108
69 86 111
67 84 109
66 82 106
69 85 110
69 85 108
66 82 106
66 82 107
66 83 107
68 84 109
67 84 109
66 83 108
72 89 115
70 87 112
70 87 112
67 83 107
65 82 106
68 85 111
66 82 107
68 85 112
68 84 108
69 85 109
68 85 110
64 80 103
67 83 107
67 84 109
66 83 108
65 80 103
69 86 110
67 84 109
67 84 109
69 85 109
69 86 111
67 84 109
68 84 109
69 86 112
67 85 111
68 85 109
72 88 114
69 86 111
65 82 108
70 87 111
71 88 113
67 84 108
67 83 108
67 84 109
65 82 107
65 81 105
67 84 109
70 88 114
68 83 107
68 84 108
69 86 113
68 85 112
67 84 109
73 90 115
67 82 106
69 85 109
66 83 108
71 87 111
71 89 114
66 82 106
65 81 105
70 88 114
66 81 105
68 84 109
71 87 112
69 85 110
69 86 112
70 86 111
66 83 107
67 84 110
64 80 104
67 83 107
68 86 111
69 85 109
69 87 113
64 79 102
72 90 116
68 85 109
66 82 106
64 80 105
69 86 112
65 82 107
65 81 106
65 82 106
66 82 106
68 85 110
63 79 103
63 79 103
68 84 108
65 81 105
66 83 107
65 82 107
65 80 103
62 78 100
65 81 105
65 82 106
66 81 104
64 81 105
63 78 100
63 77 99
69 86 111
64 79 103
67 84 109
64 81 105
61 76 100
66 82 106
65 82 107
68 84 109
60 75 97
68 84 109
64 81 106
66 82 105
62 78 101
62 78 102
66 83 107
66 82 106
64 80 104
63 79 102
64 80 106
67 84 109
66 82 107
67 83 107
65 81 104
63 78 102
68 84 109
64 79 103
61 77 101
63 78 101
60 76 99
66 83 107
60 74 96
64 79 102
60 75 97
65 81 105
63 79 102
63 78 101
67 83 107
65 81 104
59 74 95
62 77 100
64 79 101
63 78 100
64 78 100
61 75 97
57 71 91
61 75 96
62 77 98
57 72 94
63 78 100
56 69 89
62 78 100
62 76 98
62 77 100
56 69 88
58 72 93
54 67 87
62 77 100
60 74 96
59 72 93
57 71 91
59 73 94
56 70 90
55 68 87
50 61 78
55 67 87
56 69 89
54 66 84
56 68 87
58 71 91
52 64 81
53 66 85
54 67 86
61 74 95
55 68 87
53 65 84
48 59 75
55 68 86
56 68 87
54 67 86
50 62 79
51 62 79
44 54 70
48 59 75
52 63 81
54 66 84
47 57 72
48 58 74
49 60 77
47 57 72
46 56 72
43 52 66
51 61 77
49 59 74
51 62 79
48 58 74
47 57 72
43 52 66
45 54 69
44 54 67
42 51 65
48 57 71
48 58 73
37 44 56
41 49 62
39 46 58
41 49 61
38 46 57
34 41 51
40 48 60
32 38 48
40 48 60
32 38 47
31 37 46
36 43 53
34 40 50
37 44 55
33 40 49
28 33 41
31 37 45
33 39 49
30 36 44
27 32 39
31 37 45
30 36 45
24 28 35
28 34 42
25 29 36
31 37 46
32 38 47
29 34 43
32 39 49
30 35 44
31 38 48
32 38 47
30 36 46
31 37 47
31 37 46
31 37 46
26 31 39
32 39 49
32 39 48
28 34 43
30 36 45
26 31 39
27 32 39
36 42 52
37 43 53
29 34 42
33 39 48
32 37 46
32 37 46
29 34 42
33 38 47
28 33 41
35 42 52
34 41 51
33 39 48
41 49 61
43 51 63
36 44 55
39 46 57
31 38 47
40 49 62
45 54 67
42 50 63
40 48 60
41 50 63
40 48 61
52 63 80
51 62 78
46 56 70
37 45 56
42 50 63
47 57 71
43 52 67
51 61 77
49 59 74
51 61 76
47 57 72
48 58 74
49 60 76
49 60 76
45 55 71
51 62 79
52 63 81
57 69 87
54 66 84
50 62 79
53 65 84
52 64 81
49 60 77
59 71 91
49 60 77
51 64 82
50 61 77
62 76 97
58 71 90
55 69 89
49 61 79
57 70 90
57 69 87
60 73 94
58 70 90
59 72 92
58 73 95
56 69 88
58 73 94
59 72 93
57 71 92
57 71 93
56 70 90
61 75 95
62 77 98
60 75 96
53 65 84
57 70 90
56 68 88
56 70 90
64 80 103
63 79 101
58 71 92
57 70 91
62 77 99
60 75 98
58 72 93
54 68 89
62 77 100
61 75 97
60 75 98
59 74 95
59 73 94
63 78 100
61 75 97
64 79 102
65 81 105
61 76 99
59 74 96
62 77 101
67 83 106
64 79 103
65 80 103
64 80 105
66 82 106
64 80 103
67 83 107
66 81 104
64 80 103
64 80 104
67 82 106
64 79 102
63 78 100
64 79 103
56 70 92
64 79 102
63 78 100
65 81 105
66 81 104
62 77 101
64 80 103
65 82 106
68 84 108
62 78 101
64 80 104
66 84 110
69 86 110
64 80 104
70 87 112
65 81 105
66 82 106
63 78 101
67 84 109
67 83 107
67 82 105
65 80 103
64 80 105
64 79 101
67 84 109
69 86 112
69 86 111
66 81 105
68 84 109
66 83 108
66 82 106
66 82 107
66 82 106
67 83 107
65 80 104
67 83 108
71 88 113
71 87 112
70 87 113
68 83 107
67 85 112
66 82 107
68 85 111
66 83 108
66 82 107
71 89 115
65 81 105
65 81 104
68 85 111
68 84 108
65 81 104
68 85 111
70 87 112
67 84 108
66 82 108
67 82 105
65 82 106
69 85 108
68 84 107
65 81 104
67 84 109
71 88 114
67 83 107
69 86 112
71 87 112
65 82 106
69 85 110
67 83 107
65 81 106
71 87 111
66 82 105
64 80 105
70 87 113
68 85 110
66 83 108
67 83 107
67 83 107
69 86 112
68 84 108
66 82 107
63 79 104
69 86 112
68 85 110
70 88 114
70 86 110
68 84 110
66 83 107
68 85 111
67 84 110
69 85 109
70 86 111
67 83 107
70 86 111
65 82 107
63 79 104
67 82 106
69 86 111
68 85 111
67 83 108
66 83 108
71 88 114
66 81 104
67 84 109
71 87 113
68 84 109
68 84 109
67 83 107
66 82 107
65 80 104
65 81 105
68 85 110
67 83 106
66 83 108
64 79 103
67 82 105
69 86 112
65 82 108
68 84 109
68 85 109
68 85 110
68 85 111
69 86 112
62 78 101
66 83 108
65 81 105
66 82 106
63 79 101
68 85 110
62 78 103
66 82 106
61 76 99
66 82 106
64 81 105
69 86 110
65 81 105
64 80 104
66 82 105
65 81 105
64 80 104
66 82 106
68 85 110
60 75 99
67 83 108
64 81 105
67 83 107
68 84 109
64 80 103
68 84 109
63 78 101
68 85 110
65 81 104
64 80 104
60 75 96
65 80 103
67 84 110
62 77 99
64 80 104
67 83 107
66 81 104
61 75 96
64 79 102
65 82 106
63 78 101
63 79 103
62 76 98
65 81 104
62 78 100
66 83 108
62 77 98
65 80 102
66 81 104
65 80 102
65 80 103
65 80 103
65 81 104
67 83 106
59 75 97
70 88 113
66 82 106
66 81 104
64 79 101
63 77 99
65 81 104
61 75 97
64 78 100
61 76 98
66 81 104
59 73 94
63 78 101
62 77 98
60 74 95
58 73 94
58 73 94
60 74 95
62 77 99
58 71 91
57 72 94
58 72 94
65 80 103
60 74 94
65 80 102
58 72 92
60 75 98
56 70 92
53 66 86
58 71 90
59 73 93
60 73 93
59 72 92
58 72 92
56 68 86
54 68 88
60 74 95
55 67 84
58 72 92
56 69 89
58 71 92
56 68 86
63 78 100
57 71 91
57 71 91
54 66 85
52 63 79
49 60 76
57 70 90
60 74 94
52 64 81
51 62 79
53 65 82
56 68 87
50 61 78
48 58 74
48 58 74
52 64 82
54 66 84
47 57 72
46 56 72
51 62 79
52 63 80
51 61 77
56 69 87
48 58 73
52 63 80
49 60 76
40 49 63
38 46 58
46 55 69
46 55 69
45 54 69
46 55 70
44 54 68
44 52 65
49 59 73
40 48 60
44 52 65
41 49 60
37 44 54
35 42 52
43 51 64
37 44 55
45 54 66
37 44 54
39 46 57
31 37 45
31 37 45
30 36 44
27 32 39
35 41 51
26 30 37
32 37 45
31 37 44
31 37 45
29 34 42
33 39 48
28 33 41
21 25 30
28 33 40
31 36 44
27 32 39
23 27 34
30 35 43
25 29 36
28 33 41
24 29 35
27 32 40
36 42 52
34 40 50
31 36 45
31 36 44
29 34 41
30 36 44
28 33 40
32 37 46
30 35 43
32 38 47
31 36 44
33 40 49
32 38 47
31 37 45
36 42 51
30 36 44
32 38 46
33 39 48
33 39 48
34 40 49
33 39 48
39 47 59
42 49 61
42 51 64
36 43 53
41 49 61
38 46 57
43 51 64
32 39 50
41 49 61
39 47 60
37 44 55
49 59 75
40 48 61
44 54 68
46 56 71
42 51 65
44 53 67
50 60 77
48 59 75
45 55 70
42 52 65
44 53 67
48 57 71
51 62 79
49 60 75
51 62 80
52 63 81
49 59 75
53 64 81
58 71 92
57 70 90
52 64 81
58 72 92
50 61 77
49 61 78
52 65 83
61 74 93
56 68 88
53 65 84
54 67 86
60 74 95
58 72 92
55 68 87
57 70 90
65 79 100
53 65 83
56 68 87
57 70 90
57 70 90
54 67 86
58 72 92
63 79 101
58 72 93
55 68 87
60 74 93
59 74 95
60 74 96
55 69 89
61 74 94
60 74 94
57 71 91
62 76 97
53 67 87
60 76 98
61 76 98
60 75 97
61 76 99
62 77 99
60 74 96
63 77 100
59 73 94
60 73 92
65 81 105
58 72 93
67 82 105
64 79 102
64 80 103
60 75 97
63 79 102
68 84 107
61 76 97
60 75 97
63 77 99
64 80 103
68 85 109
60 75 97
64 79 102
61 75 96
65 81 104
62 77 100
64 79 102
65 81 105
62 78 101
66 82 106
69 86 112
63 79 103
66 83 107
64 79 103
65 81 105
64 81 105
64 81 105
66 82 106
67 83 108
68 84 109
66 83 108
68 84 109
63 79 103
64 78 101
61 76 99
67 83 108
66 81 105
68 85 109
67 83 108
65 81 106
65 81 104
67 83 108
66 82 106
69 86 112
66 81 104
65 81 105
68 85 110
68 84 110
64 80 104
68 85 110
66 83 108
64 80 105
69 85 110
66 82 105
68 85 110
70 87 112
66 82 106
65 81 105
66 81 104
69 85 109
66 81 105
70 87 113
66 82 106
66 83 107
64 79 101
67 85 110
68 84 109
67 82 106
66 82 107
64 80 104
68 85 109
70 87 113
68 85 109
69 87 113
69 86 112
68 85 109
66 83 108
67 84 110
67 83 108
67 83 109
66 83 107
66 83 107
67 83 107
65 82 106
65 82 107
66 83 109
66 83 108
71 88 113
69 86 111
70 86 110
68 85 112
65 80 103
65 81 106
71 88 114
69 86 111
66 83 108
67 84 109
68 83 107
63 78 101
71 88 113
70 87 111
65 82 108
68 83 107
70 85 109
69 86 110
70 86 110
71 88 114
65 82 107
67 84 110
66 83 109
70 86 111
69 85 109
67 83 107
67 84 109
67 84 108
69 86 113
67 84 109
63 80 105
64 81 105
66 82 107
64 80 105
66 83 107
68 84 109
69 85 108
69 85 109
69 85 110
69 85 109
68 85 110
70 88 114
67 84 109
71 89 115
66 83 108
66 84 110
65 82 107
68 85 110
65 81 105
68 84 108
68 85 110
68 84 108
67 83 107
66 83 108
67 83 108
64 79 103
66 83 107
68 85 110
66 82 106
67 83 107
65 80 103
63 79 103
70 86 112
68 85 110
68 84 108
69 86 111
66 82 106
68 84 109
72 88 113
65 81 104
63 79 102
64 80 105
64 80 104
67 83 107
65 80 103
64 79 102
63 79 102
68 84 109
64 80 103
65 82 107
66 82 107
65 80 103
62 77 100
64 81 105
64 79 102
64 79 102
64 80 103
64 80 103
64 79 102
60 76 100
66 81 104
66 82 106
60 74 96
63 79 102
62 77 100
63 77 99
62 78 102
61 76 99
67 82 106
64 79 103
66 82 106
57 71 92
60 74 96
63 80 104
64 81 106
64 79 103
59 74 95
59 73 95
64 80 104
68 85 110
60 75 97
68 84 108
66 82 107
63 77 98
63 79 102
64 79 103
58 72 93
61 76 97
61 77 100
59 75 97
64 80 103
60 75 97
61 76 97
62 77 99
55 67 86
61 74 95
58 74 96
67 83 106
61 74 94
65 80 104
63 79 103
60 75 97
56 70 91
58 71 92
60 74 95
56 70 89
65 81 104
56 69 89
59 73 94
62 77 98
61 75 95
56 69 89
59 73 93
64 79 101
57 70 90
51 63 81
60 73 94
58 71 90
59 73 94
54 66 85
57 71 92
56 68 87
57 69 89
54 67 87
53 66 85
59 73 93
56 68 87
52 64 82
55 67 86
54 66 84
50 61 78
52 64 81
46 57 74
54 65 82
46 56 71
48 58 75
53 64 81
54 66 83
46 57 72
49 60 75
51 62 79
47 57 73
43 52 66
46 56 71
48 59 74
46 55 69
51 62 77
42 51 64
50 60 76
42 50 63
38 46 57
41 49 62
42 50 63
45 54 66
44 53 67
39 47 58
44 53 65
46 56 70
44 52 65
33 40 49
40 48 59
40 48 60
37 44 54
36 43 54
37 44 55
36 43 53
37 44 55
35 43 53
37 44 54
29 34 42
38 45 55
36 43 52
27 32 39
30 35 43
33 39 47
35 41 50
30 35 43
26 31 37
27 32 39
25 30 37
24 28 34
28 33 40
28 33 41
27 32 39
29 35 43
32 37 46
29 35 43
30 36 43
28 33 40
27 32 38
28 32 39
25 30 37
27 31 39
31 37 45
31 37 45
27 31 38
28 33 40
29 35 43
30 36 44
36 43 52
34 40 49
38 45 55
31 37 46
36 43 54
40 48 59
36 44 54
35 41 51
37 45 56
43 51 63
36 43 54
37 45 56
37 45 57
37 44 55
33 39 49
46 55 69
43 52 65
44 53 66
49 59 74
38 46 57
42 50 62
44 53 66
46 55 69
43 52 65
49 59 75
49 60 75
52 63 79
42 52 66
45 55 70
43 53 68
52 63 80
46 56 70
48 59 74
52 63 79
51 62 79
50 61 76
49 59 74
50 62 79
50 61 78
50 62 78
51 62 80
54 66 84
54 66 84
54 66 86
58 71 90
52 63 81
53 65 84
53 66 86
57 70 90
54 67 86
55 68 88
54 65 83
51 62 79
56 69 89
60 74 95
54 67 86
57 71 92
55 69 89
60 74 94
54 66 85
58 72 93
61 75 95
59 74 95
59 73 93
57 70 91
61 75 98
57 71 93
56 69 89
52 64 83
53 66 85
61 75 95
57 71 92
60 75 96
61 75 97
59 73 93
66 81 105
55 69 90
59 73 93
60 75 97
63 79 102
59 75 97
62 78 101
61 76 98
59 73 94
59 73 94
57 71 92
64 80 103
66 81 104
68 84 109
63 79 102
58 73 94
70 86 110
63 78 100
60 75 97
67 83 108
66 82 105
64 79 103
62 78 100
66 80 102
59 74 96
65 79 101
64 79 103
62 77 99
66 82 106
63 80 104
65 81 105
63 80 105
63 78 100
61 76 98
63 78 101
62 78 102
66 81 104
59 74 97
64 80 105
66 82 106
66 82 105
66 82 107
63 79 103
66 83 108
66 81 105
69 85 109
63 78 100
67 83 107
68 84 108
66 81 104
63 79 103
65 81 105
59 75 97
70 87 112
70 86 110
67 83 107
65 80 103
67 82 106
63 79 103
67 83 107
67 84 109
66 83 107
71 88 113
68 84 109
70 88 114
61 77 101
65 80 104
66 81 104
67 83 107
68 84 107
64 81 106
70 86 110
67 84 109
67 83 107
66 83 108
67 84 109
70 86 111
68 85 109
63 79 103
65 81 106
65 81 105
68 85 110
66 82 107
68 85 110
68 84 108
64 80 104
69 87 114
64 80 105
68 84 109
68 84 109
68 85 110
69 86 112
69 85 110
68 84 109
65 81 106
69 85 110
68 85 110
67 84 108
67 84 109
67 84 109
70 86 111
68 84 107
71 88 113
70 87 112
69 85 110
69 86 111
67 83 108
66 82 107
69 86 110
67 83 107
69 87 113
71 88 114
67 83 107
70 86 111
65 81 104
66 82 106
67 84 108
70 86 110
69 86 111
66 83 108
70 88 114
68 85 111
64 80 104
69 86 111
69 86 111
66 82 105
68 84 108
69 86 112
67 83 108
68 86 112
63 79 104
72 89 115
71 88 113
65 82 107
68 84 109
66 83 108
66 82 106
69 86 112
71 88 112
66 82 106
69 86 112
74 91 117
69 86 111
67 84 109
66 82 106
67 84 109
67 83 107
62 78 101
67 83 107
63 79 103
67 82 105
65 81 104
65 81 106
69 86 111
69 85 110
63 78 101
70 87 112
64 80 104
64 80 103
66 83 108
61 76 98
64 80 103
64 80 104
65 80 103
66 83 109
65 81 105
69 85 111
62 77 100
66 83 108
62 78 101
66 82 105
68 84 108
72 89 115
65 81 104
60 76 98
68 85 111
65 81 104
64 79 101
62 78 103
67 83 107
66 82 106
64 80 102
64 79 102
66 82 106
67 83 107
65 80 102
63 79 103
62 77 99
64 79 102
65 81 104
64 79 103
65 81 105
59 74 96
65 80 104
66 82 106
65 81 105
65 81 105
61 77 100
62 78 101
62 78 101
67 82 104
61 75 97
64 80 103
63 78 100
62 77 100
63 79 102
59 74 97
59 74 95
60 75 98
65 81 104
60 74 95
67 83 107
60 75 97
64 80 103
61 76 98
64 79 103
65 80 103
60 75 97
59 72 93
62 77 99
58 72 93
62 77 99
55 68 87
60 76 99
57 71 93
62 77 99
56 69 89
61 75 97
54 68 88
58 72 93
55 69 89
60 75 98
62 76 97
57 70 89
59 72 92
59 73 93
63 77 99
54 67 87
53 66 85
54 67 87
58 71 91
56 70 90
62 78 101
61 75 95
59 73 95
62 75 96
55 67 86
54 66 83
49 61 79
54 67 86
57 70 89
54 67 86
53 65 84
51 62 80
55 67 85
54 67 86
54 66 84
60 74 93
53 66 84
48 58 73
45 55 70
52 64 81
51 63 80
54 66 83
54 65 83
48 58 74
53 63 79
51 62 79
46 55 70
45 54 68
47 56 71
47 58 74
44 53 67
43 52 65
49 59 74
46 56 71
45 54 69
47 57 71
45 53 66
38 45 55
46 56 70
48 58 72
43 52 64
33 40 49
41 49 62
43 51 63
41 49 61
34 40 50
41 49 61
36 43 54
34 40 50
37 44 55
36 43 53
28 33 41
38 45 55
37 44 54
32 38 47
30 35 44
29 35 43
30 36 44
33 39 48
29 34 42
35 42 52
33 39 48
31 36 44
26 31 38
27 32 39
32 38 46
25 30 36
31 37 45
26 30 37
37 43 52
33 39 47
27 32 39
27 32 39
37 43 52
31 37 45
33 39 48
33 39 48
30 35 43
26 31 38
30 36 44
32 38 47
34 40 50
33 40 49
35 42 52
40 47 57
32 38 47
39 47 58
38 45 55
37 45 56
45 54 66
39 46 58
35 42 52
38 46 57
43 51 64
42 51 63
42 50 63
47 56 70
39 47 58
48 58 72
43 51 64
40 48 59
40 48 60
43 52 65
41 49 62
44 53 66
41 50 63
46 56 70
47 57 71
46 55 70
46 55 70
49 60 76
54 65 82
47 56 71
47 57 73
45 55 70
51 62 78
49 59 75
51 62 79
57 69 88
48 58 73
55 66 84
50 61 78
53 65 83
48 59 76
57 69 89
55 68 86
54 67 85
49 60 77
57 70 90
57 70 91
57 70 90
56 69 88
53 66 85
55 67 86
58 71 92
57 70 90
53 65 82
60 74 94
55 68 87
58 71 91
56 71 93
57 71 91
58 71 91
54 68 87
60 75 96
55 69 89
58 73 94
60 74 95
58 72 92
62 77 98
59 73 93
61 75 95
59 73 96
58 71 92
58 73 94
54 68 89
62 76 98
61 76 97
59 74 95
62 76 96
63 79 102
56 70 90
64 79 101
60 74 96
61 76 99
61 76 99
64 80 103
66 82 106
59 73 95
66 82 105
60 74 95
65 80 103
64 80 104
61 76 98
64 80 103
62 77 99
59 74 96
65 80 103
60 75 97
64 79 102
58 73 95
64 79 102
64 80 105
63 80 104
69 85 109
61 76 99
60 75 97
65 81 105
64 79 101
63 78 101
63 79 103
69 85 110
65 81 106
64 80 104
65 82 107
66 81 103
64 80 104
65 81 106
65 81 106
63 78 102
67 83 107
64 80 102
69 86 111
63 79 104
68 84 107
64 79 100
62 77 101
66 81 104
67 85 110
64 80 104
66 83 108
64 79 102
66 83 107
67 83 108
72 89 114
65 80 103
68 84 108
70 86 110
66 83 108
65 82 107
66 82 107
66 83 108
68 85 110
63 79 103
66 81 104
62 78 102
68 85 110
60 76 100
70 87 113
64 79 102
64 81 105
67 83 107
70 87 112
71 87 111
65 82 106
62 77 100
65 81 104
67 83 107
72 89 115
64 80 103
69 85 109
68 84 109
70 86 111
69 86 112
67 84 110
69 85 111
68 84 108
70 86 110
67 83 108
68 84 107
68 84 108
64 81 106
69 86 111
67 84 109
65 82 107
67 84 110
68 85 111
66 81 104
68 84 108
67 83 107
69 87 113
66 82 106
69 86 113
64 80 105
70 87 113
68 86 112
69 85 110
70 87 114
70 87 112
70 87 112
70 88 114
68 84 108
66 83 108
67 83 108
69 86 111
72 89 114
68 84 108
69 86 111
66 83 108
69 86 112
71 89 115
65 82 107
64 79 101
66 83 107
66 83 108
66 83 109
66 82 106
66 82 106
67 84 109
65 82 106
66 82 107
66 82 106
71 89 115
64 81 106
65 81 104
68 84 110
65 80 103
66 81 105
67 83 108
68 85 110
65 82 107
68 84 108
65 82 108
63 79 102
67 84 109
65 82 106
65 81 105
65 81 105
66 82 106
65 81 106
67 83 107
68 83 106
66 83 108
66 83 109
64 79 103
67 84 109
68 85 110
68 86 111
67 84 109
65 81 105
68 85 111
66 82 105
64 80 103
63 78 101
67 83 108
65 81 105
67 84 109
65 81 104
62 78 102
65 81 104
67 83 107
66 82 107
65 81 106
67 84 110
65 81 105
66 82 106
66 82 107
63 78 102
68 85 110
70 85 108
65 82 106
65 81 105
63 80 104
67 82 105
61 77 100
66 82 106
67 83 107
66 81 104
63 79 102
63 79 102
63 78 102
61 77 100
62 77 100
59 73 95
64 79 102
65 81 104
58 73 94
61 75 96
60 74 96
62 77 99
66 81 105
63 77 98
60 75 96
61 75 96
64 79 102
62 78 101
66 81 105
70 86 109
58 73 95
62 77 99
63 78 101
58 72 93
59 74 98
67 83 108
60 75 97
64 78 99
62 76 98
62 77 99
62 76 97
62 78 102
58 71 91
63 77 99
61 76 97
62 77 100
62 76 97
62 77 100
55 69 90
56 69 89
58 71 92
62 77 100
65 80 104
60 74 96
59 73 94
59 74 95
57 70 90
59 74 96
53 65 84
53 66 85
51 63 81
51 64 82
53 65 83
54 67 87
52 65 84
56 70 89
59 73 93
56 68 87
49 61 78
47 58 74
57 70 91
58 71 90
58 72 91
57 70 88
59 72 91
53 65 83
57 71 91
50 62 79
58 71 91
49 60 76
54 66 84
54 66 83
54 66 84
55 67 84
53 65 82
47 57 71
48 59 76
48 58 73
46 56 70
48 58 74
52 64 80
49 60 76
50 61 76
45 55 68
46 55 70
45 54 68
42 51 65
53 64 81
47 56 70
44 53 67
39 47 60
41 50 63
43 52 66
40 48 61
42 51 63
45 54 68
43 52 65
37 44 55
36 43 54
40 47 59
39 47 58
34 41 51
38 46 57
38 46 57
30 36 45
38 45 56
32 38 47
40 47 59
31 37 46
35 41 51
38 45 56
31 36 45
29 34 42
28 33 40
37 44 54
35 41 50
27 32 40
24 28 35
29 35 42
28 33 40
34 40 49
35 41 50
31 36 44
35 41 50
27 32 40
33 39 48
31 37 46
29 35 43
38 45 55
36 43 53
38 45 55
32 38 47
34 41 51
34 40 49
29 35 43
34 41 51
36 42 52
43 51 63
40 47 59
37 44 54
40 47 59
37 44 55
35 43 54
38 45 57
37 44 55
41 49 61
41 49 61
40 47 59
47 56 70
40 48 60
42 50 63
46 56 70
41 50 63
44 53 67
43 52 65
45 53 66
44 53 67
40 48 61
51 62 78
44 53 67
56 68 86
47 56 70
42 52 66
46 55 70
48 58 73
57 70 89
52 64 81
44 54 68
44 54 68
50 62 79
56 68 87
51 62 78
48 58 75
46 56 72
54 66 85
48 59 76
55 67 86
56 69 89
57 70 90
56 69 89
52 64 82
51 63 80
57 70 89
61 75 96
52 64 82
53 65 83
50 63 81
59 72 91
57 71 91
54 66 84
53 66 85
64 78 100
52 64 82
54 66 85
58 72 93
61 76 99
54 66 84
62 76 96
56 68 87
60 74 94
57 70 90
57 71 91
61 75 97
59 73 94
57 71 93
60 74 95
56 69 88
62 77 99
63 77 99
58 72 92
62 77 99
58 72 94
58 73 95
61 76 98
57 71 91
59 73 95
59 73 95
58 72 94
65 80 102
64 79 103
65 80 102
64 80 105
58 72 94
66 83 107
62 77 100
66 82 105
65 81 105
63 78 100
63 77 99
65 81 106
59 75 98
61 76 98
63 78 101
65 81 105
66 81 104
64 80 104
61 75 98
59 74 95
67 83 108
66 82 107
62 77 101
61 76 99
67 83 106
62 77 100
63 78 101
57 71 92
64 80 104
58 73 96
65 81 104
67 84 109
63 80 105
65 81 105
60 74 97
69 87 113
65 81 106
63 79 104
64 81 105
67 84 109
65 82 106
67 82 106
63 79 103
67 84 109
71 87 110
69 85 110
69 86 112
64 80 104
67 83 107
62 77 100
66 82 105
64 80 105
69 84 107
65 81 105
68 84 108
64 79 102
66 82 106
67 84 108
68 85 110
63 78 101
63 79 103
63 78 101
65 81 105
65 80 104
70 86 110
67 84 110
65 82 107
69 85 109
66 82 105
69 86 111
68 84 108
64 80 105
65 81 104
70 87 112
65 80 103
68 83 107
60 76 100
66 82 107
69 86 112
68 84 109
65 82 106
69 86 112
69 86 112
67 83 108
64 81 105
69 85 110
63 79 102
65 80 103
67 84 108
69 85 110
66 82 106
65 81 104
68 84 109
66 83 109
68 85 110
67 83 108
67 84 109
65 82 107
66 82 105
69 86 111
66 83 108
67 83 107
71 89 115
63 79 102
69 86 111
71 88 114
73 90 116
69 86 112
67 84 109
69 85 109
70 86 110
69 86 112
71 89 116
67 84 109
72 89 114
71 88 115
66 83 108
69 85 109
67 83 109
70 86 111
63 79 103
64 80 104
64 80 104
69 87 112
68 85 110
68 86 112
68 84 107
67 85 112
69 86 112
70 87 113
66 82 107
72 89 115
64 80 103
68 85 110
65 81 106
67 83 107
66 82 105
67 83 108
68 85 110
71 88 114
65 81 106
64 79 103
69 86 110
64 80 103
72 89 115
68 84 109
65 81 105
64 81 105
65 81 105
61 75 97
64 80 104
66 82 107
69 85 108
66 82 107
62 77 99
69 87 113
67 82 106
63 78 100
63 79 103
62 77 101
65 81 105
64 80 103
67 83 107
68 85 111
64 79 102
68 85 110
69 86 112
67 83 107
63 79 102
63 79 103
66 82 106
69 86 111
62 79 103
64 80 103
64 78 100
65 80 104
68 84 108
67 84 109
68 85 110
63 80 104
64 80 104
65 82 106
65 81 104
56 70 91
65 80 102
61 76 99
62 77 99
67 83 106
63 78 101
62 76 98
63 78 101
62 77 100
60 75 97
62 77 100
62 76 97
60 75 97
60 75 96
63 78 100
60 75 97
65 79 102
66 81 105
67 84 109
63 78 100
61 76 98
68 85 109
61 76 98
60 75 97
66 81 103
62 77 99
54 68 88
63 78 102
62 76 99
59 73 93
57 70 90
61 76 97
58 72 93
60 74 96
59 73 93
63 77 98
62 76 98
59 73 94
61 76 98
64 79 102
60 74 95
56 69 89
55 68 89
57 72 93
53 66 85
62 75 95
61 76 97
60 73 93
59 73 94
56 70 89
59 73 94
58 71 91
63 77 98
57 70 91
56 68 87
59 72 92
50 62 79
51 63 80
50 61 79
52 64 82
52 63 81
56 69 88
56 68 87
59 72 92
50 61 78
53 65 83
50 61 77
54 66 84
49 60 77
53 65 83
52 63 80
50 61 78
57 69 87
47 58 75
48 58 73
50 61 77
49 59 75
48 59 74
43 52 66
41 50 63
50 61 77
47 58 74
47 57 72
52 63 79
47 56 69
41 49 62
49 58 73
43 52 66
42 51 65
43 52 65
43 53 67
41 50 62
45 54 68
42 51 63
29 34 43
37 45 57
33 39 50
39 47 59
36 43 53
34 41 51
38 44 55
38 46 57
40 48 59
38 46 57
35 42 52
35 41 51
37 43 53
39 46 57
39 46 57
31 37 46
38 45 56
33 39 49
31 37 46
29 35 43
33 39 49
31 37 45
37 44 54
30 35 44
30 36 44
28 34 42
32 38 47
33 40 49
32 38 46
31 37 46
32 38 47
33 39 48
26 31 38
32 38 47
34 40 50
30 36 45
40 48 60
28 33 41
37 44 54
34 41 50
40 47 59
44 52 65
41 48 59
41 49 62
35 42 53
42 51 63
35 41 51
39 46 57
41 49 61
47 55 68
45 55 69
46 54 67
42 50 62
45 54 68
48 58 72
38 46 58
36 43 55
43 53 67
47 57 71
43 52 66
50 60 76
42 51 65
42 50 63
48 57 71
47 57 71
49 59 74
54 66 83
49 59 75
50 61 78
47 57 72
48 58 72
55 66 83
48 58 74
55 68 86
52 63 80
46 56 71
50 61 77
50 62 79
52 63 80
53 66 85
51 62 80
54 66 84
54 65 82
53 66 84
51 63 81
60 74 94
51 62 78
58 71 90
55 66 84
53 65 83
58 71 91
58 72 92
55 68 88
55 68 87
56 69 89
54 67 85
62 75 96
55 68 88
59 73 94
57 71 93
59 73 95
54 66 85
62 77 99
57 72 93
56 69 88
55 68 87
60 75 96
56 69 90
58 72 92
55 68 87
60 75 96
54 67 86
62 77 100
60 73 94
65 82 107
62 76 99
53 67 88
53 66 85
62 76 98
63 79 103
62 77 99
59 72 92
60 75 98
59 73 95
61 76 99
62 77 100
62 76 99
65 81 104
59 73 94
64 80 104
60 75 97
70 85 108
61 78 103
65 80 103
61 75 97
64 79 102
65 81 105
63 79 102
68 84 108
61 77 101
62 77 100
64 80 104
63 78 101
58 72 93
60 75 99
67 84 109
62 77 100
63 79 103
65 82 107
67 84 108
65 81 105
62 79 103
59 73 94
63 79 102
66 82 107
69 85 109
67 84 109
58 71 92
66 81 104
64 81 106
67 83 108
65 82 106
65 79 101
66 82 107
66 81 103
64 80 103
67 83 109
65 82 106
69 86 111
68 84 108
67 83 107
68 84 109
64 81 105
66 82 106
69 85 109
63 79 102
69 85 109
68 85 110
70 87 112
65 83 109
67 84 109
63 79 103
65 81 106
67 83 108
66 81 105
67 83 107
67 83 108
67 83 107
69 85 110
69 85 109
67 83 107
63 80 104
66 83 107
68 84 108
68 83 107
67 83 107
68 85 110
71 87 111
66 82 105
69 84 108
64 80 104
68 84 108
71 88 114
67 82 106
68 84 108
67 84 109
68 84 109
68 86 112
67 83 107
64 80 103
65 81 104
68 85 110
68 84 108
67 85 111
70 86 111
70 88 114
68 85 109
68 84 108
66 82 106
68 84 110
67 83 107
68 85 110
71 89 115
68 85 111
69 86 111
68 85 109
68 84 108
66 83 109
69 85 110
70 87 112
68 84 109
65 82 106
66 83 107
63 79 102
67 85 110
66 83 107
67 83 107
68 85 111
70 87 112
68 85 110
70 87 112
68 84 108
65 82 108
72 90 117
69 85 110
68 84 109
70 86 111
65 81 105
70 86 109
66 83 108
64 81 105
66 81 105
67 84 108
67 84 110
68 84 109
63 79 103
65 82 108
67 84 110
63 79 104
67 83 107
63 79 103
66 82 106
69 85 109
67 83 106
67 83 108
64 79 102
66 82 107
67 83 107
70 87 112
65 80 104
68 85 110
65 82 107
69 85 110
69 86 111
68 85 109
66 82 106
64 80 103
64 79 102
70 87 112
68 84 108
65 80 103
64 80 103
68 85 111
65 80 103
63 79 102
66 82 107
65 81 103
65 80 103
65 80 103
66 82 106
65 81 105
66 82 106
67 83 107
62 78 100
65 80 103
67 83 107
63 78 100
62 78 101
67 84 108
64 80 104
64 80 104
63 79 102
66 82 106
65 81 105
63 79 103
67 83 107
61 77 101
61 76 100
62 77 99
61 75 96
62 77 99
67 84 109
58 73 94
64 79 101
60 75 96
61 75 97
61 76 100
69 85 110
63 77 99
66 82 106
66 82 105
61 76 98
62 77 99
61 76 99
65 80 104
63 78 99
61 76 99
63 78 101
62 77 100
69 86 110
65 80 103
57 71 91
55 69 88
63 78 99
61 76 98
63 79 102
63 78 99
58 72 93
56 69 90
62 76 97
58 72 93
61 75 96
60 74 97
61 75 96
60 74 95
61 76 99
53 64 82
63 77 100
55 68 88
55 68 88
60 74 95
60 74 96
61 75 97
55 67 86
60 75 97
54 67 85
54 67 88
57 70 89
59 73 93
51 63 80
59 73 92
52 65 83
53 65 83
53 66 85
63 78 99
54 66 86
52 65 83
49 61 79
55 68 86
59 72 92
49 60 77
55 67 85
53 64 81
48 59 76
59 72 92
49 60 77
51 63 80
54 66 83
54 65 83
50 62 79
46 56 71
55 68 87
51 62 78
44 54 68
44 54 68
45 54 68
46 56 72
47 57 72
47 57 72
42 51 65
43 52 65
44 53 66
41 50 63
45 55 69
51 61 77
44 53 67
40 48 60
36 43 53
44 54 67
39 47 60
42 50 63
39 46 57
42 50 62
44 52 65
36 44 55
35 41 51
47 56 70
42 50 62
42 50 63
35 41 51
37 44 55
41 48 60
36 42 52
27 32 39
36 43 53
40 47 58
30 35 44
39 46 57
34 40 49
36 43 54
29 35 43
29 35 43
36 43 53
38 46 57
32 38 47
35 42 51
29 34 42
27 32 39
39 46 57
39 46 57
35 42 52
29 35 43
37 44 54
34 41 50
36 42 53
36 42 52
30 36 44
38 45 56
36 43 54
35 42 52
37 44 55
40 47 59
33 39 49
35 41 52
38 46 58
37 44 55
39 46 57
38 45 56
47 56 69
40 48 60
37 45 57
36 44 55
35 43 54
44 53 66
36 43 55
48 58 74
43 52 66
46 55 69
46 56 69
41 50 63
41 50 63
44 53 67
40 49 62
46 55 69
52 62 78
41 50 64
48 59 74
48 58 73
49 59 75
46 56 71
52 64 81
47 57 72
52 64 80
48 58 73
51 62 78
50 61 77
48 58 73
52 63 80
51 62 79
51 63 80
54 66 84
56 68 86
56 68 87
55 67 85
51 63 80
52 64 82
50 61 78
53 65 84
52 64 82
56 68 88
55 68 88
49 60 78
58 70 89
63 77 98
51 63 80
56 70 90
57 69 88
58 71 92
58 72 93
54 67 86
63 78 100
59 73 94
60 74 96
60 74 95
59 73 94
57 70 90
58 72 92
58 71 91
60 74 95
60 75 98
57 71 91
54 67 87
55 69 90
63 78 100
61 75 97
55 68 87
62 77 100
52 65 83
55 69 90
62 77 99
65 81 104
58 72 95
65 81 104
61 76 99
60 75 97
60 75 98
60 74 96
56 70 90
69 85 109
62 76 97
58 71 92
67 83 106
64 79 101
58 72 92
62 77 99
61 76 98
64 79 101
61 76 99
61 76 98
61 77 100
64 79 101
59 74 97
64 80 104
63 77 99
64 80 103
66 82 105
64 80 104
61 77 100
64 79 101
65 82 108
60 74 95
62 78 102
65 81 104
60 75 97
67 83 108
65 81 104
63 79 102
65 82 106
64 79 103
66 82 106
63 78 102
64 80 104
72 88 112
66 81 103
66 81 105
63 78 99
65 81 105
65 80 103
65 79 101
64 79 103
66 82 107
67 83 107
68 83 107
69 86 111
71 89 116
66 81 105
65 82 107
67 83 107
67 84 108
68 84 107
67 84 109
68 84 110
65 81 104
69 86 111
65 81 106
66 82 105
68 84 110
65 82 107
66 82 107
67 84 109
63 79 102
63 79 103
63 79 103
68 85 110
68 85 110
66 82 106
65 80 102
65 81 105
69 86 111
66 83 109
63 79 102
72 89 114
68 85 109
66 83 109
67 84 110
71 88 114
67 84 110
67 83 109
71 88 114
65 80 103
70 87 113
66 82 106
64 79 102
65 82 107
65 81 105
62 78 101
68 84 108
64 79 102
66 82 107
70 86 111
72 89 114
69 87 114
69 85 109
66 82 105
70 87 112
67 83 107
71 88 113
65 80 102
67 82 106
70 87 113
65 82 108
70 88 114
71 88 112
69 87 112
69 87 113
70 87 112
65 81 106
68 85 110
70 87 113
67 83 107
66 83 107
68 84 108
66 83 107
66 82 107
73 90 116
68 84 108
71 88 115
63 79 104
63 80 104
63 78 100
69 85 109
66 83 107
63 79 104
67 83 107
66 82 107
64 81 105
66 83 107
71 88 113
65 80 104
70 86 111
64 80 105
69 86 110
69 85 109
66 82 105
63 79 102
69 87 113
66 82 107
69 86 111
69 85 109
65 82 106
66 81 103
68 85 112
67 84 110
69 85 110
67 84 109
63 79 102
66 82 107
64 80 103
66 82 105
69 86 111
64 79 102
67 83 107
68 84 109
67 84 108
65 81 105
63 80 104
60 74 96
64 79 103
68 84 108
65 80 104
60 74 95
63 79 102
66 82 105
60 75 97
67 84 109
62 77 100
57 71 92
63 78 102
67 83 107
67 83 107
66 82 105
63 80 104
65 81 105
62 78 101
60 75 97
64 80 103
61 76 99
69 86 110
66 83 107
69 85 111
56 70 90
61 75 97
62 77 100
63 77 98
61 75 97
66 83 107
67 83 107
57 72 93
61 76 99
64 80 104
60 75 98
66 82 105
65 80 104
62 77 100
58 73 94
61 76 98
65 80 103
62 77 100
62 77 99
60 75 97
63 78 101
59 74 96
64 79 103
62 77 101
57 70 89
61 75 97
60 74 96
67 83 106
60 74 95
55 68 88
61 76 98
55 67 86
62 77 100
59 72 93
63 77 98
54 66 84
59 73 93
58 71 92
57 70 90
53 66 86
58 71 91
59 72 93
50 63 81
54 67 86
56 69 88
56 69 88
52 65 83
57 69 88
54 67 86
58 71 91
57 71 91
51 63 80
60 73 93
55 67 86
62 77 98
51 64 82
50 62 79
50 62 78
53 65 84
52 63 81
48 58 74
60 74 94
53 64 81
50 63 81
58 70 89
57 70 90
51 62 79
54 65 82
48 58 75
45 55 71
52 63 79
45 55 69
47 58 74
48 58 73
49 59 75
51 62 79
52 63 81
48 58 73
40 49 62
44 54 68
45 54 67
44 53 67
46 56 71
49 59 73
46 56 70
46 55 69
48 57 72
41 49 60
51 61 76
46 55 68
41 49 62
46 55 69
47 56 69
46 55 69
41 49 62
34 41 50
39 47 59
45 53 66
43 51 65
37 44 56
35 41 51
38 46 57
37 44 55
36 43 52
35 41 52
31 37 46
37 44 54
31 37 46
34 40 50
36 43 54
42 50 62
34 40 50
39 47 58
36 43 53
35 42 51
31 37 46
34 40 50
37 44 54
36 43 53
30 36 45
35 41 51
33 39 49
29 34 43
40 47 59
33 39 48
37 45 55
42 51 63
34 40 50
35 41 51
40 47 59
36 43 54
35 42 52
42 49 61
39 47 59
40 47 59
42 50 63
42 50 61
39 47 59
42 50 63
42 50 62
42 51 65
35 42 52
44 52 65
43 51 64
37 45 57
41 49 61
47 56 70
51 61 76
43 51 65
42 51 64
46 56 70
44 54 68
41 50 62
45 54 69
46 56 70
48 58 74
49 59 75
44 55 70
52 63 81
55 67 85
39 49 62
51 61 77
48 58 74
54 66 84
55 67 85
51 62 78
50 61 79
53 65 84
54 65 83
54 65 81
48 59 75
54 67 85
51 63 82
51 62 78
56 68 87
51 63 81
54 66 85
57 70 90
53 64 82
59 73 93
60 73 93
59 73 93
57 70 89
52 65 84
55 67 86
53 66 84
63 78 101
56 69 88
56 69 90
57 71 91
61 75 96
55 69 89
58 71 92
55 68 86
60 74 95
61 76 98
58 72 92
58 72 93
58 71 91
59 73 93
61 76 98
61 76 98
56 70 91
54 66 86
56 69 88
57 72 93
58 72 93
57 71 92
57 71 91
62 77 99
65 81 105
62 77 101
61 74 95
59 73 94
60 75 97
60 75 96
64 79 101
61 76 98
60 75 96
65 80 102
62 77 100
61 75 97
65 79 102
65 80 103
63 79 102
61 76 99
64 80 103
64 80 103
64 79 103
62 75 96
61 76 99
58 73 96
61 76 98
64 79 102
67 82 106
62 79 103
61 76 99
64 81 106
65 81 105
64 79 102
67 83 108
66 81 105
63 79 103
61 77 100
66 81 103
59 73 95
63 79 103
60 75 97
64 80 104
65 81 104
68 85 110
62 78 101
68 84 108
67 82 106
62 78 103
64 80 103
64 80 102
61 77 99
67 83 108
67 83 108
70 87 112
62 78 101
61 75 98
66 83 108
65 80 104
63 78 100
66 82 107
63 80 105
63 78 100
67 84 110
64 80 103
67 83 107
68 84 107
66 81 104
64 80 103
65 81 105
65 81 105
70 87 113
65 81 106
67 83 107
70 87 112
69 86 111
67 82 106
67 84 109
64 80 103
71 87 112
68 85 111
65 82 107
69 85 110
68 85 111
66 83 107
69 86 111
66 82 106
68 85 110
73 90 115
63 79 103
70 87 113
65 81 106
71 87 113
67 82 104
68 84 109
64 81 106
65 82 107
67 83 107
66 82 107
68 85 110
64 80 104
65 81 104
68 85 110
62 77 100
68 85 111
67 84 108
72 89 115
70 87 113
66 83 109
69 87 113
66 82 106
64 79 103
69 86 111
69 86 111
70 87 112
66 83 107
63 80 104
70 86 110
70 87 113
70 88 113
70 87 113
66 82 107
67 83 108
71 87 112
71 88 114
66 81 103
67 83 108
66 83 109
59 74 96
67 82 106
66 83 108
69 85 111
66 82 107
64 80 104
61 77 100
66 83 107
68 84 108
66 83 108
71 87 112
62 78 100
65 80 104
68 85 111
63 79 102
64 79 102
68 84 108
68 84 109
68 85 111
68 84 108
66 81 104
66 83 108
67 83 107
67 83 106
69 86 111
69 85 110
66 82 106
62 76 98
64 80 104
64 80 104
65 81 106
64 80 105
67 84 109
65 81 105
65 80 103
67 83 106
68 84 108
65 81 104
65 80 103
64 78 101
64 81 105
64 80 105
68 85 110
66 82 106
63 78 100
63 78 101
65 80 104
70 86 111
62 77 99
65 80 104
62 78 101
66 83 108
65 81 106
66 82 107
65 80 104
65 80 103
63 79 103
62 77 99
64 80 103
65 80 103
69 85 109
65 81 105
64 80 103
66 81 105
67 83 106
56 70 91
67 83 108
65 80 103
64 79 103
64 79 102
61 75 96
66 81 104
64 80 103
63 79 102
64 79 103
59 73 94
64 79 102
64 78 99
62 76 98
62 76 99
59 74 95
63 78 101
65 79 101
60 75 97
59 74 96
63 79 103
65 80 103
60 73 93
68 83 104
62 77 99
59 73 94
65 79 101
64 79 102
58 73 95
60 75 97
60 73 94
61 75 97
55 67 86
58 71 92
59 73 94
62 78 101
62 76 98
60 74 95
57 70 90
60 74 95
59 73 93
60 75 97
54 66 85
59 73 93
59 73 94
54 66 84
56 69 88
54 67 87
56 69 88
58 72 92
48 59 76
59 72 91
57 70 89
57 70 90
52 63 80
55 68 88
57 70 90
52 64 83
59 72 91
49 61 78
48 59 75
49 61 79
48 60 77
49 60 78
53 65 84
51 62 80
56 68 86
47 58 73
55 67 86
47 57 71
54 66 84
54 65 82
48 59 75
47 57 72
44 54 68
46 56 71
48 58 73
43 52 66
45 54 69
49 59 73
51 62 78
47 58 73
46 55 69
41 51 64
46 56 71
44 54 68
40 48 60
38 46 58
48 58 72
40 48 60
45 54 67
36 44 54
46 55 68
42 50 63
45 54 67
41 49 60
38 46 58
45 53 66
38 45 57
39 46 57
33 40 50
42 50 62
31 37 47
38 46 57
28 33 41
48 57 70
38 45 56
37 43 54
39 46 57
39 46 58
37 44 55
40 47 58
43 51 63
37 45 55
30 36 45
34 40 50
42 51 63
36 42 52
34 40 50
43 51 63
39 46 57
41 48 60
38 45 57
40 48 60
39 47 58
34 41 51
43 51 63
34 40 50
35 42 52
33 40 50
41 49 61
39 46 58
37 44 55
32 39 49
42 51 63
33 40 50
36 43 54
39 46 57
36 43 54
41 49 61
46 55 68
48 58 73
50 60 75
46 54 68
40 48 60
43 51 64
41 49 61
43 52 66
42 50 63
42 51 65
43 52 66
48 58 72
49 59 75
48 58 73
47 57 72
45 55 69
48 57 72
48 58 74
47 57 71
50 61 76
49 60 76
50 61 77
47 58 74
53 64 81
47 58 74
50 61 77
46 56 71
51 62 79
51 63 81
55 67 85
46 56 72
54 67 86
58 71 91
54 66 84
56 68 87
55 68 87
54 66 84
54 66 83
53 65 82
55 69 89
60 73 93
60 73 93
54 67 86
56 69 89
50 62 79
52 64 83
52 64 83
58 72 93
59 72 91
62 78 101
56 69 87
55 69 89
60 74 95
60 74 95
59 74 96
62 76 98
62 76 96
63 77 98
59 74 95
64 79 101
61 76 98
62 76 97
52 65 85
60 74 97
58 72 94
60 75 97
58 73 95
56 69 89
58 72 93
58 73 95
61 76 98
58 72 93
65 79 102
64 79 101
57 71 92
63 78 99
63 78 101
62 76 97
60 75 97
63 78 101
62 77 99
65 81 104
66 82 105
63 78 101
60 75 98
65 81 104
64 79 103
63 79 103
60 74 96
61 75 98
61 75 98
62 77 99
63 78 102
60 75 96
64 80 104
65 79 101
66 83 107
60 76 99
61 76 99
66 83 108
64 79 102
67 83 106
67 83 107
62 76 97
62 78 102
66 82 106
65 81 104
63 80 104
65 81 105
69 86 111
65 81 104
67 83 106
67 83 106
66 81 105
67 83 107
60 74 96
70 87 112
68 85 110
67 83 108
64 80 103
65 80 103
61 76 99
65 81 106
65 82 106
68 85 110
65 81 104
68 84 107
66 82 106
68 85 110
69 86 112
64 80 103
68 85 109
68 85 111
66 82 106
65 81 104
66 82 106
63 78 101
67 83 107
67 83 106
68 85 111
64 80 104
64 80 104
69 86 111
65 79 102
65 81 106
70 86 110
67 84 108
62 77 99
69 85 109
64 79 102
67 84 110
66 81 104
68 84 109
66 81 104
69 85 109
68 83 106
66 83 107
67 84 109
67 84 110
65 82 107
65 81 105
68 86 112
68 85 111
67 84 109
65 81 106
65 81 106
66 83 109
69 86 111
67 83 106
67 83 108
72 89 115
67 84 108
67 84 109
65 81 104
66 82 106
69 86 111
69 86 111
66 82 106
69 86 112
73 90 116
68 85 109
67 83 107
65 82 107
67 83 107
64 81 106
69 85 110
69 85 109
66 83 108
67 84 109
70 86 111
68 84 108
67 83 107
68 84 107
62 78 102
66 83 108
69 86 112
64 79 102
68 84 108
67 83 108
64 80 103
69 86 112
66 82 107
68 86 112
65 81 105
67 83 106
66 81 105
70 87 112
68 85 110
68 84 108
67 83 107
65 81 105
68 84 108
69 85 109
64 79 101
67 83 108
67 82 104
64 81 106
64 80 105
70 87 112
67 83 108
68 84 108
64 80 105
69 85 111
68 86 112
64 80 105
66 82 106
71 88 114
65 80 102
67 83 108
67 82 105
69 86 112
58 73 95
64 79 102
64 80 104
65 81 106
72 89 114
66 82 105
66 82 107
65 81 104
64 80 104
60 75 98
64 81 107
65 81 105
64 79 102
66 83 107
59 74 97
66 81 104
64 79 102
66 82 105
65 81 105
57 72 93
65 80 104
63 79 101
61 76 99
60 75 97
63 78 101
64 80 104
64 79 102
63 77 98
58 72 94
65 80 103
62 77 98
66 83 108
62 78 103
63 79 103
60 76 99
58 73 95
63 78 100
66 82 106
60 75 97
60 75 97
59 73 95
61 75 96
56 70 92
62 77 98
61 77 100
63 77 99
58 73 94
59 73 95
60 75 98
64 80 103
60 74 94
62 77 99
57 71 93
56 70 92
61 75 97
60 73 94
61 75 96
61 76 98
51 63 82
57 70 90
57 71 92
56 70 90
57 70 89
56 69 89
58 71 90
59 73 95
58 72 93
57 71 91
52 65 83
57 71 90
61 75 96
57 70 89
57 70 90
61 74 95
53 65 83
60 74 95
56 69 88
57 71 91
58 72 92
55 68 88
53 66 84
53 65 84
53 66 84
49 61 78
61 74 95
55 68 88
55 68 88
52 63 81
50 60 76
55 66 84
51 62 78
52 63 79
59 72 91
49 60 77
49 59 74
46 56 70
49 60 76
47 58 74
52 62 79
53 64 81
48 59 74
48 58 74
55 67 85
50 60 76
44 53 68
51 62 79
52 64 81
47 57 73
45 55 69
48 57 72
44 54 69
50 60 76
53 63 79
53 64 81
46 56 71
47 56 70
41 50 63
44 54 67
49 59 74
41 50 62
40 48 60
40 48 60
44 53 66
50 60 74
38 46 59
42 50 62
40 48 60
38 45 56
36 43 54
39 47 58
44 52 65
41 49 62
44 53 67
35 41 51
39 47 59
38 45 57
37 44 55
41 49 60
39 46 57
44 53 66
44 52 65
37 44 54
40 48 60
34 41 51
36 43 54
40 48 60
37 44 55
38 45 56
45 53 66
42 50 62
35 42 52
37 44 54
31 37 45
38 45 57
40 48 61
39 46 57
46 54 67
36 43 54
40 47 59
46 55 68
35 41 51
43 52 65
40 49 61
42 51 63
40 48 59
39 47 59
44 53 66
46 54 67
46 55 70
41 50 63
38 45 56
45 54 69
41 50 63
42 51 64
44 54 68
46 55 70
46 56 70
46 55 70
51 62 78
45 54 68
48 57 71
44 54 68
55 66 83
49 60 77
43 52 66
44 54 68
41 50 64
49 59 76
48 58 74
51 61 76
49 59 75
48 59 75
50 61 77
50 61 78
46 56 72
56 68 87
55 67 84
54 66 83
51 63 81
58 70 88
47 59 76
56 69 88
53 65 83
51 63 81
57 70 89
62 75 95
57 70 90
53 64 82
50 62 78
54 66 84
54 67 87
60 74 96
56 69 88
53 66 85
54 66 84
57 71 91
57 71 92
57 70 90
61 76 97
54 67 86
59 72 91
56 70 91
54 67 86
58 70 90
56 69 88
60 74 94
57 71 92
57 71 92
59 73 93
61 75 97
63 78 101
59 72 92
59 73 94
58 72 92
57 71 92
60 74 95
65 79 101
61 77 100
59 73 95
54 67 86
57 72 93
61 76 99
56 70 91
61 76 97
60 75 98
59 74 97
61 76 99
57 71 91
60 75 97
62 76 97
66 80 103
55 68 88
60 74 95
61 76 100
60 75 98
57 71 91
66 81 103
59 74 95
63 78 100
60 75 97
67 82 105
66 81 104
65 81 105
62 77 99
63 78 102
60 74 96
66 82 105
61 76 98
62 78 101
66 81 105
61 75 95
65 81 105
67 83 108
64 80 105
65 81 104
62 77 100
66 81 105
65 81 104
62 78 102
63 79 103
63 79 102
62 77 98
66 82 106
68 85 111
63 77 99
60 75 96
66 82 106
62 77 100
67 83 106
63 79 103
64 81 105
66 82 105
65 81 105
64 80 105
65 80 104
65 80 103
68 84 107
65 81 106
60 75 97
64 80 105
67 83 107
64 81 105
66 82 107
64 80 104
69 86 112
70 87 113
67 83 108
67 84 108
67 83 107
64 80 105
67 83 107
68 85 111
67 83 106
67 83 108
64 81 105
72 89 114
66 82 106
68 84 107
69 86 112
66 83 107
69 86 112
67 83 108
65 81 105
66 82 105
64 80 104
67 83 107
65 81 105
66 82 107
66 83 107
66 82 106
67 84 109
66 82 105
69 86 111
63 79 103
71 87 110
65 82 107
69 86 110
70 87 112
66 83 109
68 85 111
67 84 108
66 83 108
70 85 108
66 83 108
66 83 108
70 87 111
68 84 108
71 89 115
68 85 111
67 84 110
66 82 106
67 83 108
68 84 108
67 84 108
74 91 117
71 88 113
66 82 107
69 86 112
67 84 110
67 84 109
66 82 106
63 78 101
64 80 103
65 81 106
69 86 112
68 84 107
63 79 102
68 84 109
73 90 117
66 81 105
69 87 113
65 81 104
62 78 102
71 87 112
66 81 104
63 77 99
67 83 107
67 83 107
67 84 109
68 85 110
67 84 109
65 80 103
66 83 107
65 82 107
69 86 111
68 84 109
63 78 102
65 82 107
64 80 103
68 85 110
66 82 107
65 80 104
65 82 107
62 78 101
63 79 101
63 78 100
63 79 104
65 82 106
70 87 112
63 79 102
67 83 107
63 80 105
65 81 105
65 81 105
66 82 106
62 77 101
65 82 106
66 82 107
64 79 103
67 83 107
64 80 103
66 82 106
62 77 100
61 77 100
60 75 98
62 78 102
66 83 108
65 81 104
64 80 103
67 83 107
62 78 101
62 78 101
63 79 103
61 76 98
68 83 107
66 81 104
62 77 99
64 79 102
63 79 103
64 79 101
60 74 97
62 77 99
63 79 103
61 76 98
59 73 94
59 74 95
63 79 101
62 77 99
58 73 95
63 79 102
60 75 98
63 79 101
57 71 92
61 75 97
65 80 103
64 79 101
60 76 98
61 76 97
58 73 94
59 73 94
63 77 99
62 77 99
55 68 87
57 70 89
62 78 102
58 72 92
61 75 97
64 78 100
55 68 88
58 72 93
59 74 95
57 71 92
65 81 104
61 75 96
55 68 88
56 69 90
58 72 93
60 74 96
57 71 91
56 69 89
55 67 86
59 72 92
61 74 95
59 72 93
54 66 85
59 72 91
58 70 89
57 70 89
55 67 85
53 66 84
53 65 83
55 68 87
62 76 97
57 70 90
52 64 81
45 56 72
50 62 79
52 64 82
52 64 83
52 64 83
57 69 88
45 56 72
57 70 89
57 70 88
46 57 73
51 62 78
53 65 82
53 66 85
51 62 79
47 56 71
48 58 74
49 60 75
47 57 73
53 65 83
50 61 78
48 59 74
46 56 71
49 59 74
51 62 79
46 57 72
47 57 72
48 58 73
41 49 62
47 56 71
43 52 66
51 62 77
44 54 68
46 57 73
35 42 53
47 57 71
42 51 65
38 46 58
45 54 67
41 49 61
48 58 73
38 46 58
44 53 66
39 47 58
39 47 58
47 57 72
36 43 54
42 51 64
40 48 61
39 46 58
40 47 58
45 54 68
37 44 54
40 48 61
42 50 62
37 45 56
36 43 53
42 51 63
44 53 65
39 46 57
42 50 62
39 47 58
43 52 65
37 44 54
34 41 51
39 46 57
43 51 64
37 45 56
41 49 62
41 48 60
43 51 64
46 54 67
43 51 64
39 47 58
43 51 63
40 48 59
42 50 63
40 47 59
45 54 68
44 53 67
44 52 65
40 49 61
41 49 61
44 53 67
40 49 62
40 47 59
44 54 67
44 53 67
47 56 69
38 46 57
40 49 61
48 59 74
39 47 58
49 59 74
41 49 62
47 56 71
47 57 72
50 60 76
46 55 70
50 61 78
50 60 77
43 52 65
48 58 73
44 55 70
46 56 71
45 54 68
45 56 72
49 59 75
44 53 67
56 69 89
53 65 81
50 62 79
52 63 80
49 60 77
52 63 79
54 67 85
49 60 77
53 64 81
51 62 79
49 60 77
53 66 84
51 62 77
49 60 77
55 67 86
58 71 92
57 70 89
58 72 93
57 70 90
57 70 89
54 67 87
59 73 93
58 71 91
60 74 96
54 65 83
55 68 87
54 68 88
60 74 95
58 72 93
61 74 95
55 68 88
56 68 86
56 70 90
61 75 96
59 74 96
61 76 98
61 76 97
62 78 100
59 73 94
63 78 99
61 75 96
56 68 87
58 70 90
59 73 94
61 76 98
62 77 101
62 78 101
61 75 97
66 81 103
61 76 100
64 78 100
61 75 96
64 79 102
58 71 92
62 76 98
59 72 92
59 74 95
61 75 97
65 79 101
57 71 91
60 74 95
63 79 103
61 75 96
61 76 98
63 77 99
64 79 102
61 76 97
63 79 103
62 77 100
65 81 105
61 76 98
63 78 102
62 76 99
61 76 99
61 77 100
64 79 102
66 81 103
64 80 104
60 74 96
58 72 94
62 77 99
64 79 101
63 78 101
65 81 104
63 80 105
64 79 102
66 82 106
60 74 97
62 78 101
64 79 101
65 81 105
65 81 104
64 80 103
65 80 104
67 83 108
63 79 102
65 81 105
61 75 97
63 79 102
64 80 105
68 84 108
65 80 103
66 81 105
67 83 106
61 77 100
68 84 109
65 81 105
64 79 101
67 84 108
71 87 112
64 80 105
65 82 107
63 79 101
65 80 104
72 88 113
67 84 108
67 83 106
70 88 113
68 85 111
66 81 105
66 82 106
64 79 102
63 79 102
72 88 112
68 83 105
66 82 106
66 83 109
67 84 109
69 86 112
69 86 111
70 86 111
68 84 107
67 83 107
69 86 111
65 81 106
69 85 109
65 81 106
69 86 113
66 83 107
72 89 115
65 82 107
63 79 102
68 84 109
69 86 112
65 81 106
67 83 107
65 81 105
66 83 108
65 81 105
67 84 110
69 85 109
66 82 105
71 87 112
70 86 111
69 86 112
72 89 115
66 83 108
67 84 110
68 85 109
67 83 107
68 85 110
64 80 104
70 87 112
66 82 104
67 84 109
66 81 104
70 87 112
67 84 109
67 84 109
67 83 108
65 80 103
64 81 105
70 87 112
66 82 106
66 82 106
67 83 108
65 81 105
68 85 110
65 81 104
65 82 107
66 83 108
65 81 104
61 77 100
69 85 110
68 84 109
65 81 105
66 82 107
68 85 110
64 79 102
66 82 106
67 83 107
65 81 105
64 79 103
67 84 110
65 81 105
66 82 106
67 83 107
60 75 98
63 78 101
69 87 113
69 86 112
63 78 101
64 80 104
64 80 104
68 84 109
67 84 109
64 80 103
67 84 109
64 79 102
63 77 99
68 84 109
67 83 107
61 76 98
63 79 102
63 78 101
65 80 104
63 78 101
66 82 105
64 79 103
62 78 102
65 81 104
63 78 100
65 80 102
67 83 107
65 82 106
63 78 101
60 76 98
64 80 104
60 75 98
61 77 99
64 80 104
58 71 92
59 73 96
64 79 102
59 75 99
58 73 95
63 79 104
62 77 98
62 77 99
63 78 100
59 74 97
61 75 96
57 70 91
59 73 94
62 78 101
58 72 93
63 78 101
62 77 100
59 73 94
64 79 101
62 78 101
59 73 95
60 74 94
61 76 98
59 74 96
58 72 94
60 74 96
67 82 106
62 76 97
66 83 107
58 72 93
59 73 94
60 75 96
58 73 94
61 76 98
61 76 99
62 76 98
60 75 97
63 78 99
61 75 96
61 75 96
63 76 97
54 68 88
53 66 84
56 68 87
55 67 86
60 73 93
56 69 88
58 73 94
54 67 87
52 65 84
55 69 89
54 66 84
56 69 88
61 75 95
57 70 90
56 69 88
53 66 85
55 68 86
54 66 84
50 62 79
57 70 90
55 69 89
56 68 87
50 62 79
47 57 73
56 69 87
51 63 80
53 66 84
55 68 87
45 55 70
54 66 85
52 63 80
51 62 78
50 60 76
48 58 74
49 60 76
44 54 68
51 62 79
51 62 78
45 54 69
55 66 84
46 57 73
53 64 81
48 59 75
39 48 62
54 66 84
47 56 70
50 61 77
44 53 66
42 51 65
49 60 76
46 55 69
45 55 70
49 59 73
49 59 74
48 58 73
43 52 66
43 51 64
39 47 59
43 52 65
42 50 63
45 55 68
41 49 61
45 54 68
37 45 56
53 64 80
41 49 61
46 55 69
39 47 60
41 49 62
42 51 64
36 44 54
36 43 54
45 54 67
36 43 54
44 53 67
40 49 61
38 46 57
46 55 69
39 47 59
41 49 62
42 50 63
47 56 70
42 50 62
45 54 68
38 46 57
38 45 56
37 44 55
33 40 50
44 52 65
42 50 62
41 50 63
47 56 69
41 49 62
45 54 67
48 57 70
41 49 61
42 51 64
41 49 62
38 45 57
43 51 65
38 46 57
46 55 69
41 50 62
42 51 64
49 59 74
48 58 73
43 52 66
36 44 55
52 62 78
40 48 60
39 47 59
47 58 73
50 60 77
48 59 75
42 51 64
48 58 74
54 65 83
41 50 64
47 57 72
51 62 79
54 66 83
48 58 73
48 59 76
52 64 82
50 61 77
50 61 77
45 55 69
52 64 82
53 64 81
56 68 86
51 63 79
47 57 73
55 68 88
55 68 87
55 68 86
51 62 78
53 66 85
54 67 86
53 65 83
48 59 76
48 59 76
55 68 87
54 66 84
50 61 78
55 68 86
56 69 89
53 65 83
54 67 87
54 66 85
58 71 91
57 71 91
57 70 90
54 67 86
52 64 82
53 65 82
56 68 87
65 79 100
63 78 99
58 71 91
57 70 89
56 69 89
58 72 92
55 68 87
60 74 94
57 69 88
61 76 97
59 74 96
56 69 89
63 78 100
59 73 95
58 72 92
56 70 91
57 71 90
56 69 88
64 80 103
65 81 104
61 75 97
60 74 96
61 76 99
63 78 101
61 76 98
64 79 102
64 79 102
60 75 98
65 80 103
59 73 93
63 78 102
64 79 102
58 73 95
61 76 99
57 71 92
69 85 110
63 79 103
57 72 93
63 78 100
62 76 98
62 78 102
64 79 102
60 74 97
58 73 95
59 74 96
65 81 105
61 76 99
62 77 100
63 78 100
64 79 101
63 77 98
64 80 104
68 84 108
64 81 105
66 82 105
64 80 103
65 81 105
65 82 108
62 78 101
64 79 102
65 82 107
65 81 105
63 77 99
60 75 97
64 80 103
61 75 96
66 81 105
63 77 99
65 81 104
67 84 108
62 77 100
67 83 108
63 79 103
63 79 102
65 81 104
68 84 108
64 80 103
65 82 107
65 80 104
69 86 110
63 79 102
70 87 113
65 81 105
66 82 107
64 81 106
67 83 107
67 83 108
65 81 105
66 82 105
68 84 109
66 83 107
65 81 105
69 86 112
68 84 109
61 77 102
63 78 101
64 81 106
63 78 100
67 84 108
67 82 105
64 80 103
68 85 110
66 82 106
67 83 107
65 81 105
66 84 109
64 80 103
71 88 115
65 80 103
68 85 111
66 83 108
71 89 115
67 83 107
63 78 102
63 79 102
69 86 111
68 84 108
67 83 107
58 73 95
68 85 111
65 81 105
66 82 107
67 84 109
64 80 105
63 79 103
69 86 112
69 85 110
71 87 111
67 83 109
67 84 110
67 84 108
64 80 104
66 82 105
68 85 111
69 86 112
68 86 112
65 81 106
64 80 104
65 81 104
67 84 108
68 84 108
63 79 102
65 82 106
63 78 100
63 79 103
65 81 106
67 84 108
70 87 113
66 83 108
65 82 106
63 78 102
67 84 109
72 90 116
65 82 106
66 82 107
67 84 108
66 82 106
64 79 102
64 80 104
70 87 112
66 83 109
60 76 100
64 81 105
68 85 110
66 82 107
66 83 108
67 83 107
70 87 112
65 81 106
62 76 98
64 80 103
67 83 108
66 82 105
67 83 107
65 81 105
62 77 99
66 82 107
67 83 107
64 80 104
70 87 112
67 84 108
68 85 110
67 85 110
67 84 109
66 82 106
64 79 103
62 76 97
63 79 102
65 80 103
63 79 102
66 82 105
63 79 102
64 81 106
65 81 106
68 84 108
63 78 101
64 80 104
62 76 98
64 80 103
64 79 102
60 75 98
66 82 106
59 74 97
66 82 106
58 73 95
65 81 106
67 84 110
66 82 106
64 79 103
63 78 101
65 81 104
65 81 104
63 79 102
61 75 97
63 78 100
59 73 94
64 80 103
60 75 97
60 74 95
60 74 96
59 73 95
61 75 97
59 74 95
63 77 99
67 84 108
56 70 91
63 79 102
61 75 97
62 77 99
63 78 100
60 73 94
60 75 98
54 67 86
62 77 99
59 74 96
54 67 86
60 74 94
58 71 92
61 75 98
59 73 94
56 70 90
56 69 90
57 71 92
65 80 103
60 75 96
52 64 81
58 72 93
53 65 84
58 71 92
63 78 100
61 76 98
55 69 88
57 71 93
59 72 93
57 70 91
57 70 90
57 69 89
54 66 84
52 64 82
54 67 87
53 65 84
55 67 85
57 71 92
52 64 82
57 70 89
53 65 83
59 73 93
53 65 84
53 65 83
51 63 81
47 58 74
54 66 85
52 64 81
45 55 69
44 54 68
52 62 79
52 63 80
52 63 80
50 60 76
43 53 67
44 54 69
53 65 82
47 57 72
49 59 75
45 54 68
48 58 73
46 56 70
50 60 76
49 60 76
47 57 72
50 60 76
51 62 78
45 54 68
45 55 69
47 57 72
48 58 73
43 52 65
47 57 71
45 54 68
51 61 77
47 57 71
41 50 62
46 56 70
48 57 71
48 58 72
42 50 63
43 52 65
42 51 63
43 53 68
38 46 57
39 48 60
45 54 67
37 44 55
44 52 65
34 41 52
48 57 72
39 47 59
41 48 60
43 52 64
37 44 55
43 51 63
45 55 68
41 49 61
40 49 61
39 47 59
47 56 69
39 46 58
39 46 57
40 47 59
43 51 63
43 52 65
44 52 65
40 47 59
40 48 60
44 52 65
42 51 65
47 57 71
43 51 64
41 49 61
42 51 65
39 47 59
43 51 64
40 48 60
40 48 60
42 51 64
45 53 67
46 55 68
47 57 72
47 57 73
42 51 64
39 47 59
46 56 70
50 60 74
44 54 68
52 63 80
46 55 70
42 51 64
45 55 69
49 59 73
48 58 74
46 56 71
45 55 69
45 55 71
53 64 80
48 58 74
53 65 82
47 58 74
53 65 82
52 63 80
52 63 81
54 66 83
51 63 80
47 57 72
51 62 79
47 57 73
48 59 75
48 60 76
50 61 78
53 65 83
53 65 82
51 63 80
52 63 80
55 68 86
51 62 80
51 62 79
53 65 83
54 66 85
52 65 84
50 62 81
55 68 87
55 68 88
61 75 95
54 67 85
56 68 88
54 66 85
57 70 90
55 68 86
55 68 88
58 71 91
62 76 97
58 70 87
58 72 92
55 67 86
60 73 94
57 70 90
60 74 96
55 68 87
58 72 94
54 67 86
58 72 93
57 72 93
53 66 86
62 76 97
58 71 91
58 72 93
60 74 94
59 74 95
58 72 92
58 72 94
65 81 104
58 72 93
61 76 98
61 75 96
60 74 94
51 64 83
64 80 104
57 71 91
60 75 96
63 78 101
61 75 97
66 81 105
60 76 99
62 78 103
59 74 96
61 76 99
61 75 97
60 75 98
56 71 92
64 80 105
60 75 98
63 78 100
66 82 107
63 78 102
59 73 96
61 76 98
67 85 111
61 77 100
59 74 96
61 76 98
63 78 100
63 78 101
61 76 99
63 79 103
65 82 107
64 80 104
67 82 106
65 80 102
67 85 111
64 80 105
63 79 103
66 83 107
67 83 108
59 73 96
67 83 108
67 84 109
65 82 106
64 79 102
69 87 114
64 80 104
66 82 106
66 82 107
66 82 107
67 83 106
68 83 107
60 75 96
62 78 102
66 82 107
66 83 108
67 82 106
66 81 105
63 78 100
66 81 104
65 81 105
61 77 101
65 81 104
64 80 103
65 81 105
63 78 101
65 81 105
66 82 107
65 81 104
71 89 117
67 83 107
71 87 111
66 83 107
63 79 103
67 83 108
67 82 104
70 87 113
69 86 111
66 82 106
62 78 102
64 80 103
67 83 107
67 83 108
65 81 106
68 85 111
61 76 98
67 83 108
70 87 112
64 81 105
69 85 110
67 82 106
66 82 107
68 84 107
68 86 113
64 80 105
65 81 105
70 87 114
65 81 105
65 82 107
68 85 111
70 86 109
67 84 108
70 87 113
69 85 109
63 79 102
71 88 113
66 82 107
69 86 112
66 81 103
64 80 103
65 82 107
66 84 110
64 80 105
65 80 104
65 81 106
64 80 105
66 83 108
63 77 99
65 81 104
63 79 102
67 82 106
61 76 98
69 87 113
69 85 110
66 83 108
65 81 104
68 85 110
65 82 107
67 82 106
66 82 106
66 82 106
66 81 105
68 85 110
66 83 108
68 85 109
67 84 108
63 79 102
65 80 102
67 82 106
66 82 106
65 81 105
63 78 101
69 85 110
69 85 110
63 78 101
65 82 107
65 81 104
67 83 108
65 80 103
65 82 108
66 83 107
67 83 106
65 81 104
60 74 96
66 81 104
66 82 105
65 80 102
60 75 98
61 77 99
65 81 105
65 81 104
67 83 107
67 83 107
69 86 112
67 83 107
65 81 105
61 76 98
62 76 99
65 80 103
63 78 100
63 79 102
67 83 108
59 74 97
58 72 92
65 81 105
69 86 111
62 77 100
67 83 106
62 78 100
62 77 100
64 79 103
68 85 110
63 78 100
61 76 98
58 73 94
66 82 105
63 79 103
61 77 100
64 79 102
59 73 95
65 81 105
64 80 103
58 72 94
63 79 103
63 79 103
62 77 100
61 74 95
57 70 91
64 79 101
62 77 100
63 78 101
65 80 102
62 76 97
59 72 93
59 73 95
56 70 91
59 73 95
59 72 92
59 73 94
60 73 94
54 67 87
53 66 85
57 71 92
58 73 95
62 76 97
63 78 99
57 71 91
58 71 91
61 76 98
58 72 92
61 75 96
60 75 96
61 75 95
62 76 98
59 73 94
59 74 95
52 65 85
62 76 96
55 69 90
52 64 82
60 74 95
54 67 86
60 74 96
50 62 80
56 70 90
57 70 90
59 73 94
49 61 79
56 69 88
52 63 81
57 70 89
54 66 84
48 59 76
56 69 87
52 63 80
57 69 89
53 65 83
55 68 86
48 58 73
56 69 88
49 60 76
45 55 70
51 62 80
55 67 86
55 67 85
48 59 76
51 62 79
52 64 81
45 54 68
49 59 75
54 67 85
51 62 78
50 61 78
51 62 78
50 60 76
52 63 80
49 59 75
53 64 81
49 59 75
52 62 79
44 53 67
49 60 76
48 58 73
45 54 68
45 55 71
46 56 71
44 52 65
46 56 70
49 58 73
47 57 73
47 57 71
42 51 63
43 52 65
50 59 74
47 57 71
40 48 60
43 51 65
48 57 71
42 51 63
39 47 58
46 54 68
42 51 64
40 49 61
32 39 49
41 49 61
40 48 60
40 48 60
43 52 66
42 51 64
44 53 67
43 51 64
44 52 66
41 49 60
42 50 63
40 48 61
47 57 72
42 51 64
35 42 53
38 46 57
39 46 57
41 49 62
42 51 63
39 47 59
35 43 54
47 57 71
43 51 64
38 46 58
40 48 60
41 49 62
42 51 65
39 47 59
44 53 67
47 57 71
42 51 64
46 56 70
45 54 67
42 51 64
38 47 59
44 54 68
48 58 74
43 53 66
45 54 67
44 53 66
49 58 73
43 53 67
52 63 80
47 58 73
44 53 67
45 55 70
51 62 78
54 65 82
51 62 79
51 62 78
51 62 78
46 56 71
46 56 71
48 59 75
48 59 74
47 58 74
52 63 80
54 66 85
56 68 86
48 59 76
52 64 81
46 57 72
61 74 94
55 67 85
48 58 75
48 58 75
51 62 79
52 65 84
54 66 85
54 66 85
55 67 86
54 65 81
53 65 83
49 60 77
55 68 86
52 65 84
60 74 96
53 65 84
60 73 93
62 75 95
56 68 87
57 70 89
54 67 86
55 69 89
65 80 101
54 66 85
59 72 93
57 70 90
55 68 87
60 74 96
61 76 97
56 69 88
56 69 88
55 68 88
58 72 92
59 72 91
56 70 90
58 72 94
60 74 96
55 69 90
56 69 88
63 79 102
61 75 96
58 72 93
59 73 94
60 75 97
63 77 98
62 77 99
57 71 92
62 77 99
60 74 95
62 77 99
63 78 100
60 74 95
65 81 104
66 81 103
63 79 103
65 80 104
60 75 97
61 76 99
66 82 105
63 78 101
60 75 98
61 76 99
65 81 105
66 81 103
64 80 103
62 78 101
60 75 98
62 78 100
63 78 100
63 78 100
65 80 103
62 78 101
61 77 100
59 74 96
63 78 101
65 81 104
62 77 99
65 80 103
67 83 106
67 83 106
63 78 100
63 79 102
61 76 98
65 81 105
62 77 100
63 77 100
67 83 107
65 81 104
63 78 100
61 77 100
68 83 107
64 80 103
63 78 101
65 81 104
63 78 101
67 83 106
65 80 103
66 81 104
64 80 104
67 82 106
65 81 105
63 78 101
67 83 107
66 82 106
66 82 106
69 86 112
61 76 98
66 82 106
64 80 104
60 76 99
69 85 110
68 85 109
69 85 111
68 84 108
66 83 108
65 81 104
65 81 104
67 82 106
68 85 111
70 87 112
71 88 113
66 82 106
67 83 106
69 85 110
64 80 104
70 87 112
62 78 101
65 80 103
63 79 102
67 84 111
65 81 105
69 86 111
69 86 111
65 81 106
64 80 104
65 81 104
65 80 103
61 76 97
66 83 108
67 84 110
67 83 107
70 87 113
68 85 110
68 85 111
68 85 110
66 81 105
66 83 109
66 83 109
65 80 104
67 84 109
70 86 112
68 83 107
68 85 109
68 85 109
66 81 105
68 85 110
68 85 111
66 82 107
64 80 105
66 83 107
65 81 105
68 84 108
65 82 107
69 85 109
71 89 115
69 85 109
62 78 100
67 83 107
62 77 100
66 82 106
71 89 115
69 86 110
65 81 105
68 84 109
67 83 106
64 80 105
66 82 105
64 80 104
67 84 108
62 78 101
65 82 107
67 83 107
65 80 102
63 79 102
65 81 105
70 87 112
64 80 104
65 81 105
67 84 109
63 79 103
67 85 111
64 81 105
68 85 110
65 81 105
61 76 98
62 77 99
65 81 104
68 84 108
63 78 101
65 80 102
66 82 108
62 78 101
64 80 105
66 82 106
63 78 102
62 78 102
62 76 99
62 77 99
62 78 101
64 78 100
66 82 105
62 78 101
66 81 103
65 81 106
62 77 100
60 74 94
65 81 105
63 78 101
59 73 95
61 75 97
62 76 98
62 77 98
63 79 103
66 82 106
65 81 105
65 81 105
57 71 92
62 77 101
60 75 96
63 80 104
57 72 93
62 78 100
57 70 90
62 77 98
62 78 101
62 77 100
62 77 98
65 80 102
57 70 91
61 77 101
58 72 94
62 77 100
57 71 92
62 77 99
57 72 94
68 84 106
61 75 97
63 78 101
60 75 97
60 75 96
57 71 91
61 75 97
59 72 91
56 69 89
58 72 94
58 71 91
59 74 97
58 72 94
57 70 90
65 80 103
60 73 94
61 75 95
57 70 90
63 78 100
59 72 93
56 69 89
61 76 99
53 65 84
58 72 92
55 67 86
54 65 83
59 73 94
61 75 98
58 72 92
55 69 90
62 76 97
60 75 96
53 66 84
64 78 100
57 69 88
56 68 87
54 66 84
57 71 91
56 68 87
56 70 89
48 59 76
60 73 94
54 66 84
53 65 83
58 72 93
53 66 86
61 74 93
58 71 89
51 63 81
48 59 76
54 66 84
55 68 87
50 63 81
54 65 82
54 65 82
55 67 84
55 67 85
44 54 68
51 62 79
47 57 73
48 58 74
50 60 76
48 59 75
48 59 74
42 51 64
47 57 72
46 55 70
46 56 72
46 56 71
43 52 65
44 54 69
42 51 65
49 59 75
45 55 70
48 57 72
44 54 69
41 49 62
47 58 74
46 56 71
47 56 71
39 48 60
35 42 53
50 60 75
43 52 66
44 53 67
44 53 66
46 56 70
44 53 67
34 41 51
45 54 68
39 47 59
48 57 72
43 52 65
44 54 68
42 51 64
44 53 67
46 55 68
41 50 62
42 50 63
40 47 59
39 47 58
46 55 68
41 49 62
42 51 64
43 52 65
37 44 55
43 52 65
41 49 61
40 49 61
48 58 73
45 55 69
44 53 66
47 57 72
44 53 67
43 51 64
45 55 69
46 56 70
42 50 63
42 50 63
41 49 61
46 55 69
46 55 69
42 52 65
46 55 69
42 50 63
41 50 62
41 50 64
42 51 65
47 57 72
49 60 77
45 55 70
49 60 76
50 61 78
47 57 71
51 62 77
50 60 76
48 58 73
49 59 75
50 61 77
46 55 69
55 68 87
39 48 60
49 59 74
49 59 75
49 59 75
50 61 77
50 62 80
58 71 89
47 57 73
46 56 71
50 61 78
48 59 76
47 58 74
50 60 76
49 60 76
48 59 75
53 65 83
53 64 82
52 64 81
58 70 88
53 65 82
51 62 79
49 60 76
54 67 85
58 72 93
49 61 77
56 68 87
52 63 80
50 61 78
54 66 83
58 71 90
56 69 88
57 71 92
52 64 83
56 70 90
56 69 89
52 64 82
55 68 87
52 64 83
59 73 93
58 71 91
60 73 93
57 70 90
57 71 91
59 72 92
54 67 86
63 78 100
61 76 98
57 70 90
61 75 96
62 77 99
64 78 100
59 74 96
58 72 93
65 80 102
54 67 85
58 72 93
58 73 95
62 77 100
58 72 93
59 74 96
58 72 94
58 72 94
60 75 99
62 78 101
61 76 98
56 69 90
58 73 95
63 77 98
58 72 94
63 78 102
61 75 96
62 77 100
65 80 103
58 72 94
62 76 98
67 84 110
61 76 97
66 82 108
60 74 96
62 77 99
65 81 105
59 73 95
64 79 101
66 83 107
64 80 104
58 73 95
63 79 102
64 80 103
60 75 98
62 76 97
59 74 96
64 79 102
67 83 107
62 76 97
64 79 102
64 80 103
66 82 107
64 79 102
64 80 103
57 71 91
64 80 104
67 83 106
69 85 109
67 83 109
64 80 103
64 80 103
61 76 98
68 84 108
65 81 105
65 80 104
64 79 101
61 77 100
65 81 104
60 76 100
68 85 110
65 81 104
66 81 104
68 83 107
69 86 111
64 80 104
67 84 109
64 79 103
67 83 108
63 78 101
64 80 104
66 81 104
65 81 106
66 82 105
64 80 104
67 84 109
67 83 108
66 82 106
67 83 108
62 77 99
66 82 105
63 79 103
66 83 108
67 83 107
69 85 110
68 84 109
68 84 108
70 86 111
66 82 106
67 83 108
65 80 103
68 84 109
66 83 109
67 84 110
66 83 107
68 84 108
69 86 111
67 83 108
70 87 114
66 83 108
64 81 107
70 87 112
69 86 111
64 79 103
63 79 102
69 86 111
69 86 110
68 84 107
71 88 113
70 86 111
67 83 107
70 87 112
66 83 109
65 81 105
67 83 107
69 85 109
67 83 106
66 82 107
65 81 105
68 84 108
68 84 108
68 85 110
67 85 112
66 83 109
69 86 112
68 84 109
68 85 110
67 83 107
67 84 109
65 81 106
65 81 105
66 82 106
68 84 109
66 83 107
64 79 102
60 75 98
66 83 107
65 81 105
69 86 111
67 84 109
65 81 106
68 84 107
69 87 112
68 84 108
64 79 102
66 82 107
67 84 109
65 81 104
71 88 114
67 84 109
65 81 104
66 82 106
64 80 103
66 81 104
68 85 111
68 83 106
64 78 100
65 81 105
66 82 105
63 78 101
62 78 101
64 79 102
62 77 100
67 84 109
65 80 104
62 77 100
62 76 98
67 84 109
64 78 100
64 79 103
68 84 108
65 81 104
58 73 96
60 74 95
61 75 97
61 76 98
62 78 101
65 80 103
66 81 105
62 78 101
67 83 107
59 74 97
62 78 101
65 81 104
59 74 95
64 79 102
65 82 107
61 76 98
60 75 97
57 72 94
63 78 101
66 82 106
67 83 107
61 76 98
61 75 96
64 79 101
62 78 101
62 77 99
63 78 101
59 74 97
65 81 105
64 78 99
61 76 100
61 76 99
62 77 99
58 72 92
61 76 97
64 79 102
61 76 98
59 73 93
57 70 91
61 75 96
59 72 92
61 75 97
59 73 94
55 69 88
60 75 96
61 75 96
58 72 92
60 74 95
60 74 95
60 74 94
56 70 89
58 71 92
53 65 84
57 70 90
61 74 94
56 69 89
60 73 94
61 75 96
54 67 85
56 69 88
57 70 89
57 70 90
58 72 92
57 70 89
61 75 95
58 70 89
54 67 87
56 69 89
55 67 86
48 59 76
51 63 81
55 68 87
56 68 86
49 60 77
59 72 92
52 63 80
58 71 90
53 65 82
57 70 89
53 64 82
51 62 79
49 60 77
54 66 83
45 56 71
53 64 81
55 67 85
55 68 87
49 60 77
50 61 78
52 65 83
49 59 75
53 64 81
54 66 84
51 62 79
48 59 75
55 67 85
53 65 82
47 56 71
49 61 79
53 65 82
49 59 75
48 58 73
46 55 69
48 57 72
50 60 76
50 60 75
52 63 79
52 63 79
45 54 68
46 56 72
43 52 66
43 52 66
47 56 71
47 56 71
39 47 59
47 56 71
42 50 63
44 52 65
41 49 61
48 58 73
52 62 79
39 47 61
47 57 71
41 50 63
37 44 54
43 52 65
45 54 67
50 60 76
35 42 53
40 48 60
41 49 62
49 59 75
46 55 69
46 55 69
41 49 62
39 47 59
39 47 59
43 52 65
47 56 70
52 62 79
45 54 68
42 50 63
39 47 59
41 49 62
39 47 58
47 56 70
41 50 63
47 57 71
47 57 71
40 49 62
48 58 73
43 51 65
44 53 67
45 55 70
46 56 71
45 54 67
47 57 71
51 62 78
37 44 55
46 56 72
49 59 74
44 53 67
50 61 77
46 56 71
42 50 63
49 59 74
51 62 77
46 56 70
52 62 78
47 58 74
42 51 64
52 63 80
52 63 80
50 61 77
48 59 74
52 62 78
48 59 74
49 61 77
53 64 81
50 61 77
49 59 75
53 65 84
45 55 70
56 68 86
50 61 77
52 64 82
57 69 88
47 58 73
49 62 80
50 62 80
60 72 91
57 70 88
51 64 83
55 68 87
56 68 87
55 68 87
48 59 76
52 64 81
53 66 85
50 61 78
54 66 85
58 71 91
59 73 93
56 69 89
58 72 92
53 66 85
61 75 97
58 70 89
51 63 81
56 68 87
60 73 93
59 71 91
55 68 87
60 75 98
55 68 86
58 72 93
54 66 85
60 73 94
55 69 89
61 75 97
59 73 94
57 71 92
60 74 95
61 76 98
58 71 90
59 72 92
59 74 96
62 76 97
61 76 97
52 65 84
64 78 100
58 72 92
60 74 96
58 72 92
66 82 105
59 72 93
55 68 89
58 72 93
62 77 99
59 73 95
55 69 89
62 77 99
56 69 89
61 78 102
60 74 95
62 77 100
62 78 102
60 75 99
64 78 101
60 74 95
64 78 100
62 76 97
64 79 102
60 75 96
68 84 109
67 84 108
59 74 97
62 77 100
63 79 103
66 81 105
60 75 98
64 80 103
68 85 110
65 81 105
63 78 99
57 71 92
63 79 102
63 78 102
62 76 98
66 82 105
63 80 104
64 80 103
66 81 105
68 84 108
60 75 97
64 79 102
61 76 99
67 82 105
67 82 106
67 81 104
62 78 101
62 77 99
66 81 104
65 80 103
61 76 98
59 75 98
64 79 103
66 82 106
64 80 104
64 80 103
62 77 99
71 88 113
65 81 104
67 84 108
62 77 100
64 80 104
68 85 110
65 81 105
66 83 108
63 78 100
66 83 108
69 86 113
63 78 100
66 83 108
64 80 105
68 85 110
64 79 102
63 79 103
67 83 107
60 75 97
66 83 107
64 80 103
67 84 110
65 81 104
66 80 103
66 82 106
68 84 108
66 82 107
64 80 104
65 82 108
65 81 105
66 82 105
70 86 112
70 86 112
64 80 104
69 86 111
68 85 111
64 80 104
68 84 109
66 82 106
64 80 105
67 84 109
70 87 113
66 82 105
67 83 107
67 83 108
66 83 108
67 84 108
65 81 104
72 88 113
65 81 106
70 87 112
65 82 107
68 86 112
68 86 113
65 81 105
68 86 112
62 77 101
63 78 100
64 80 104
68 84 109
65 80 104
69 85 109
65 80 102
61 77 100
71 89 115
66 83 107
64 80 104
65 81 105
68 84 109
63 79 102
64 80 103
68 84 110
65 82 106
70 86 112
64 80 105
67 83 108
68 85 110
66 82 105
64 81 106
68 84 108
64 80 104
67 82 106
65 81 105
62 77 100
67 84 109
67 83 108
69 85 109
66 83 107
69 87 113
66 82 106
66 82 106
69 86 110
67 84 109
70 87 112
67 83 108
68 85 110
67 83 107
66 82 106
66 82 106
67 84 109
62 76 97
66 82 106
58 72 94
60 75 98
63 78 100
62 77 99
69 87 113
65 81 106
59 74 97
64 79 103
62 77 100
65 80 104
65 80 104
62 77 99
64 79 102
60 76 99
62 78 103
58 72 93
68 85 111
63 79 103
59 74 96
61 75 97
67 82 106
61 76 98
65 81 105
59 74 95
61 76 99
61 76 98
69 85 108
65 81 104
61 77 100
63 78 99
60 75 97
61 76 98
63 78 100
63 79 102
64 80 104
62 77 99
65 81 104
62 76 97
65 80 102
61 75 96
64 79 101
57 71 91
59 73 94
61 76 98
63 78 100
60 75 96
63 79 102
57 70 90
57 70 90
61 76 98
66 81 103
56 70 91
61 76 98
59 73 95
61 74 95
58 72 93
65 79 100
63 77 99
60 74 95
58 72 93
57 71 91
59 74 95
59 73 94
56 69 89
55 69 89
54 66 85
54 66 84
55 67 87
59 73 93
59 73 92
59 72 92
52 65 83
60 73 92
59 73 93
62 76 97
52 64 81
53 66 86
53 65 83
55 68 87
59 72 91
56 68 86
56 68 88
54 66 85
56 69 88
53 65 82
52 64 82
60 73 92
55 67 86
53 65 83
58 72 91
48 58 74
57 69 88
46 57 73
50 61 77
50 61 78
47 57 72
52 63 79
49 60 75
51 62 79
50 61 77
54 66 82
51 62 78
53 64 82
48 58 73
48 58 74
48 59 74
47 57 72
47 57 72
48 58 73
51 61 77
46 56 71
39 48 61
47 56 71
47 57 72
53 65 82
50 61 78
43 53 66
42 50 63
45 54 68
52 64 80
48 59 74
46 55 69
44 54 68
44 54 67
38 47 59
45 55 70
50 60 75
48 57 71
45 54 68
42 51 64
43 52 66
41 50 63
46 56 70
41 50 63
42 52 66
44 53 67
49 58 73
45 55 69
44 53 66
41 49 62
40 49 61
47 57 72
47 56 70
44 53 67
39 47 60
42 51 63
50 60 76
45 54 67
44 53 66
42 51 65
40 48 61
40 49 62
48 58 72
47 56 71
49 58 73
51 62 78
43 52 65
42 50 62
46 56 71
48 58 73
45 55 69
47 57 72
55 66 82
40 49 63
48 59 74
48 59 74
46 56 71
44 54 69
40 49 62
54 66 84
52 63 79
47 57 71
49 60 75
46 56 72
50 60 75
50 61 77
51 61 76
53 65 81
60 73 92
51 62 78
48 58 73
46 56 71
45 54 69
47 58 74
52 64 82
52 63 80
49 61 78
49 60 75
45 55 70
52 64 81
47 57 73
46 56 71
51 63 80
50 62 79
55 67 86
52 63 80
56 69 89
47 58 75
52 64 81
62 76 96
57 69 88
48 59 75
53 64 81
49 60 77
54 66 85
59 72 92
55 67 86
54 66 84
51 62 79
50 63 81
61 74 95
53 65 83
55 67 86
59 73 94
61 75 96
53 66 84
58 71 91
55 67 85
57 70 90
53 67 86
56 69 89
59 73 93
57 69 89
56 69 88
59 72 92
64 78 99
58 71 91
57 70 90
56 69 88
62 77 98
61 75 96
60 75 99
58 73 95
63 77 99
56 69 89
56 70 91
60 74 95
62 77 100
60 75 97
65 81 105
57 70 91
59 74 95
64 79 102
62 77 100
56 71 92
59 73 95
66 81 105
61 74 94
63 79 102
61 76 98
62 77 99
60 74 96
65 81 103
63 77 98
60 74 96
57 71 92
64 79 102
64 80 104
65 81 104
57 71 92
59 73 94
63 79 102
65 81 104
61 75 97
65 81 105
64 79 101
62 76 98
62 78 101
66 82 105
62 78 101
62 77 100
69 85 110
67 83 106
60 74 96
60 75 98
68 83 107
63 80 105
63 79 102
64 80 102
61 76 98
67 83 108
64 79 102
63 78 101
66 83 109
65 81 105
66 81 104
63 79 104
60 75 98
60 75 98
64 80 104
67 82 106
59 74 96
63 78 101
65 81 104
62 76 98
66 81 105
71 88 113
67 84 110
64 80 103
67 83 107
66 83 107
70 87 112
67 84 109
64 80 104
63 78 102
64 80 103
65 80 104
66 82 106
64 80 104
65 81 105
69 86 111
68 84 108
66 81 105
63 79 103
66 82 105
65 80 104
65 81 105
62 78 100
63 78 101
65 81 105
70 86 110
66 82 106
68 84 109
67 83 107
68 83 105
69 86 111
65 81 105
70 87 112
68 83 106
67 83 107
68 84 109
68 84 109
70 87 112
64 79 103
66 82 106
66 82 106
65 81 105
68 84 108
65 81 104
67 82 106
67 84 108
64 80 104
66 83 108
70 87 112
64 81 105
62 79 103
67 82 105
69 86 110
68 84 108
65 82 106
65 82 107
68 84 108
65 81 106
66 83 108
66 82 107
64 80 104
64 81 106
67 83 109
69 85 110
61 77 101
66 82 107
63 79 103
66 83 109
69 86 110
63 80 104
66 81 104
68 85 110
64 79 103
68 86 111
70 86 111
65 81 105
65 81 105
60 75 97
68 85 110
69 86 112
64 80 104
66 80 102
61 77 101
62 78 102
62 78 101
66 82 107
70 87 112
68 85 110
66 81 105
63 80 104
63 78 101
66 83 108
62 77 100
64 80 103
63 79 102
66 83 107
65 81 105
65 80 103
59 73 94
61 76 97
66 82 107
60 75 97
64 79 101
70 86 111
64 79 102
67 83 107
58 73 95
64 79 103
63 77 99
67 83 107
63 79 102
61 76 100
61 76 99
67 84 109
67 82 105
63 78 100
62 77 99
69 86 111
61 76 99
62 78 101
62 78 102
60 75 97
66 81 105
63 78 100
66 82 106
62 77 100
60 75 96
66 81 104
62 77 99
60 73 94
60 75 96
64 79 102
64 79 102
62 77 98
60 75 97
60 76 98
65 81 104
63 78 100
59 74 96
60 74 96
59 72 93
61 76 97
57 71 92
59 74 96
61 76 98
67 83 108
62 78 101
64 79 101
59 72 92
61 75 96
59 74 96
58 71 91
56 70 91
57 72 94
59 73 93
58 72 92
62 77 99
63 77 99
63 77 99
60 74 95
58 72 93
53 66 86
57 71 92
59 73 93
60 74 93
60 74 96
60 75 97
59 73 93
58 71 91
58 71 91
57 70 91
54 66 84
57 70 90
57 70 90
55 68 87
58 71 91
58 72 93
57 71 91
54 67 85
58 71 91
57 70 89
56 68 87
58 72 93
56 69 87
47 58 74
53 66 84
50 62 79
56 68 86
60 73 94
55 67 86
55 68 87
49 61 78
52 64 82
58 70 88
51 62 80
52 63 81
49 60 76
55 68 86
48 59 75
57 69 88
46 56 71
54 65 83
54 66 84
50 61 79
48 59 75
50 61 78
54 66 84
50 61 78
45 55 70
53 64 81
51 61 78
52 63 81
46 56 72
55 68 86
48 59 75
46 56 71
45 55 70
50 61 77
44 54 69
47 57 72
48 57 72
43 51 65
43 53 68
52 64 80
46 55 70
43 52 66
49 59 75
49 59 74
49 59 74
48 58 73
49 60 76
48 59 74
43 52 66
47 56 71
47 57 72
42 50 63
47 57 72
40 49 62
49 59 73
42 51 64
44 53 66
38 47 59
40 50 63
47 57 71
40 48 61
46 56 70
46 55 69
43 52 65
40 49 62
42 51 63
39 47 60
44 53 66
49 59 74
43 52 66
49 59 73
37 46 58
46 55 70
42 52 65
47 58 73
38 46 57
46 55 70
45 54 68
39 47 60
50 60 76
42 50 63
43 52 65
46 56 70
47 56 70
45 54 67
47 56 70
44 54 68
47 57 73
47 57 72
43 53 67
41 50 63
46 56 71
46 55 70
50 61 78
45 55 69
52 63 80
49 60 75
53 64 81
54 65 83
51 62 78
46 57 72
45 56 72
53 63 80
53 64 81
44 54 69
51 63 79
53 65 83
50 61 78
55 67 85
48 59 75
48 58 73
59 72 91
53 64 82
52 63 80
53 66 84
52 64 81
48 59 75
53 64 81
55 68 88
52 64 82
51 63 80
58 71 91
55 67 86
50 62 79
51 63 81
54 68 88
57 70 90
58 71 91
55 68 87
54 67 85
53 66 85
54 67 86
57 70 90
53 65 82
50 62 79
58 71 90
58 71 91
51 63 82
57 71 91
58 73 94
52 64 82
57 71 91
54 68 88
53 66 86
54 68 88
56 69 89
58 72 93
58 72 94
59 73 94
62 76 98
55 69 89
55 68 88
53 66 86
54 68 88
60 74 95
59 74 95
57 71 91
63 79 101
59 73 95
59 74 97
60 75 96
62 76 99
56 70 91
62 77 99
60 74 95
64 79 102
59 73 94
59 73 94
59 73 95
60 75 98
61 76 98
61 76 98
66 82 105
62 76 98
60 74 96
61 75 96
59 73 94
63 79 103
67 83 106
65 80 104
65 80 103
62 76 98
61 76 98
55 69 89
65 80 102
56 70 90
61 76 99
63 79 103
64 80 104
65 80 104
66 82 106
63 78 100
58 71 91
66 82 106
66 82 105
64 80 104
62 78 101
63 78 101
60 75 96
64 79 102
67 84 108
59 75 99
65 80 102
62 77 99
65 80 103
65 81 105
59 73 95
61 76 99
64 80 104
62 76 98
65 80 103
66 81 105
70 86 110
65 81 105
67 83 106
64 80 104
64 80 103
65 82 106
64 80 103
68 84 110
66 82 106
62 78 101
69 86 112
67 84 108
64 80 105
64 79 102
63 79 102
69 87 113
65 81 104
62 78 101
66 81 104
63 79 103
65 82 107
69 85 110
67 83 107
63 78 101
66 82 107
68 84 108
69 86 112
67 84 110
67 84 110
63 78 100
68 84 110
66 82 105
66 81 104
62 78 102
67 83 108
67 83 106
67 83 107
66 81 105
69 86 111
67 84 108
68 86 111
65 81 106
67 83 107
69 86 111
68 84 108
69 85 111
65 80 104
64 80 103
62 78 100
66 82 105
67 83 106
66 82 105
65 82 106
68 85 109
69 86 110
63 79 103
68 84 109
67 83 107
64 80 103
66 81 104
65 82 106
63 79 102
65 81 105
69 86 112
66 82 107
69 86 111
62 78 102
63 77 100
67 83 108
64 80 104
68 84 107
65 82 107
66 81 103
66 82 106
69 85 110
67 83 108
63 79 103
69 87 113
66 83 109
68 84 108
68 84 109
61 77 100
64 79 102
64 81 106
63 78 101
66 82 106
63 78 102
63 78 100
63 78 101
67 83 108
67 84 108
63 78 101
67 83 109
66 83 107
65 81 105
63 79 102
64 80 104
66 83 107
68 84 108
64 80 104
64 80 104
66 81 104
64 80 104
65 80 103
66 81 104
60 75 96
63 78 101
65 81 105
62 78 101
65 81 106
65 80 104
62 76 97
64 78 100
66 82 107
65 81 105
63 78 102
64 80 104
67 84 109
66 81 103
62 77 100
62 77 99
63 79 103
63 78 102
59 74 96
59 73 94
66 83 107
63 78 102
62 77 100
66 81 104
67 82 105
63 78 101
61 76 98
65 80 103
58 72 92
58 73 95
64 79 102
64 79 101
57 71 92
62 77 100
61 76 98
60 73 93
60 75 96
64 78 101
60 73 94
63 78 100
57 71 90
61 76 99
60 75 98
64 79 102
57 71 92
63 78 101
63 78 101
60 74 95
62 76 98
64 79 101
57 70 89
60 73 94
59 73 94
59 73 94
55 67 87
60 74 95
58 72 94
59 73 94
59 72 91
59 72 91
59 74 96
61 75 97
61 75 95
60 75 96
60 74 96
58 72 92
58 71 91
55 68 88
58 72 92
56 68 88
54 66 85
63 78 100
58 71 90
63 77 99
54 67 87
60 74 95
54 67 87
51 62 78
59 72 92
58 71 91
54 66 85
56 70 92
55 67 84
54 65 83
58 70 88
55 67 86
54 65 83
53 65 83
52 64 82
48 59 75
53 66 84
53 66 84
50 62 80
55 67 86
51 63 81
56 68 86
47 58 74
56 68 87
54 67 86
53 64 81
46 57 73
54 66 85
56 69 88
46 57 73
49 59 75
59 72 91
44 54 69
53 65 83
48 58 73
51 63 79
46 56 71
50 60 76
48 58 73
47 58 73
44 53 68
48 58 74
52 63 79
49 59 75
45 55 70
50 61 77
49 59 74
48 58 73
50 61 78
50 61 77
39 47 60
49 60 76
41 50 63
46 56 71
41 50 63
45 54 68
45 54 68
48 58 74
44 55 70
40 48 61
43 52 65
44 54 69
47 58 73
49 59 74
51 61 77
49 59 74
42 51 65
51 61 77
45 55 69
46 56 70
45 54 67
50 60 76
42 51 65
49 58 73
39 46 58
46 55 70
53 63 78
46 56 70
46 56 71
43 52 66
43 52 65
47 56 70
49 59 74
48 58 73
46 56 70
44 53 66
46 56 70
45 55 69
49 59 74
47 58 73
49 60 76
42 51 65
44 53 68
40 48 60
43 52 66
49 59 74
45 55 70
45 54 68
48 59 75
45 56 72
50 60 77
44 53 67
53 64 80
47 58 74
47 57 72
50 61 78
45 55 70
51 62 78
49 59 74
50 61 77
48 58 74
48 59 75
51 62 79
54 66 84
54 65 82
45 56 71
50 61 78
50 62 78
48 58 74
54 65 82
49 60 76
54 66 83
57 70 88
50 61 78
50 61 78
53 66 85
53 66 84
50 62 79
46 56 72
57 70 90
50 62 80
53 65 84
51 62 78
59 73 92
55 69 89
58 71 90
55 67 85
62 75 94
58 71 90
57 70 89
63 78 100
56 70 89
60 75 97
58 72 93
53 65 83
53 66 85
55 68 87
60 74 95
58 73 94
55 69 90
61 75 96
55 68 87
55 68 87
59 73 93
61 75 97
53 65 83
58 72 93
62 77 99
55 69 89
57 71 91
61 75 96
61 75 97
60 75 97
60 74 96
59 73 94
61 75 97
61 75 97
60 74 96
60 75 96
60 74 96
66 82 105
63 78 100
58 73 94
62 77 100
63 78 100
62 77 98
58 72 93
58 72 92
60 75 96
61 76 98
60 75 97
63 77 99
62 76 97
65 80 103
62 77 99
63 78 101
63 78 102
64 80 104
66 82 107
61 76 99
66 82 105
66 82 106
63 78 102
63 77 98
63 79 102
64 80 104
61 76 98
60 74 95
60 75 97
62 78 101
59 74 95
61 77 101
66 82 106
63 78 101
63 78 102
61 76 100
67 82 105
61 75 98
63 78 101
66 83 107
66 82 107
66 82 105
66 82 106
66 82 106
63 78 101
68 84 109
62 77 99
62 77 98
63 79 103
64 80 103
65 80 104
67 83 107
59 74 97
62 77 101
66 82 105
62 77 100
61 75 97
64 80 104
68 85 110
62 78 100
64 79 102
67 83 107
67 84 108
64 79 103
63 78 100
66 82 105
63 78 102
66 81 105
65 81 106
66 82 106
68 84 109
69 86 112
63 79 104
60 76 99
67 83 108
66 83 108
66 83 108
70 87 112
65 81 106
64 80 103
65 81 105
64 80 103
63 79 102
69 86 111
62 78 101
68 84 108
70 86 111
65 80 103
64 80 104
65 82 107
66 82 106
66 82 107
67 84 109
66 82 107
68 85 110
68 85 110
71 88 113
67 83 108
65 81 104
70 86 111
65 81 105
66 83 108
68 85 110
64 81 105
67 84 109
68 84 108
68 84 110
63 79 103
66 82 105
66 82 107
66 83 107
65 81 106
64 80 104
70 87 112
63 78 102
68 86 111
63 78 101
70 87 113
62 77 100
67 83 107
64 81 105
65 81 105
62 78 102
68 84 107
66 82 106
67 84 109
64 79 103
67 82 105
66 81 104
64 80 103
62 77 100
64 80 104
63 79 103
64 81 107
67 83 106
65 81 105
70 86 111
64 80 103
64 80 104
69 86 112
63 79 103
65 81 106
70 87 112
65 81 103
66 81 105
65 81 104
67 83 108
69 85 110
63 79 104
65 80 103
65 81 105
65 82 106
66 82 106
65 80 102
63 78 101
65 82 107
64 80 103
62 78 101
62 78 102
62 77 99
67 82 105
63 79 102
62 78 101
65 80 104
61 76 99
64 80 105
63 78 101
61 75 96
61 77 99
61 76 99
61 76 97
65 81 105
63 78 101
64 79 102
59 74 96
61 76 97
60 74 95
61 75 97
61 76 98
65 80 104
58 72 92
60 75 97
63 79 102
59 73 93
65 80 104
65 80 103
65 80 103
66 81 104
67 83 106
63 78 100
61 76 97
59 74 96
59 73 94
60 74 95
59 74 95
62 77 99
56 69 89
67 82 104
62 77 100
60 75 97
63 78 100
63 79 104
63 77 99
54 68 87
63 77 99
64 79 101
61 76 99
61 74 94
61 76 99
58 72 93
57 70 90
59 73 95
60 74 95
52 65 83
67 82 106
59 72 92
58 71 91
59 73 93
57 71 90
61 76 97
60 75 97
61 76 99
57 70 90
61 75 97
66 80 103
59 73 94
57 70 89
61 75 96
54 67 86
56 70 90
61 75 97
51 63 81
60 74 94
56 69 89
51 63 81
57 70 89
51 62 79
54 66 84
55 67 85
57 70 90
55 67 86
48 59 76
56 69 88
56 70 89
52 65 83
58 71 91
55 67 86
52 64 83
50 62 79
55 67 85
50 61 78
59 72 92
53 65 83
50 62 80
47 57 73
49 60 76
53 65 82
57 69 88
50 60 77
46 57 73
55 66 84
50 61 78
54 65 82
46 57 72
50 62 79
57 69 88
55 67 85
51 62 79
49 60 77
46 56 71
53 64 81
52 63 80
51 62 79
50 61 77
52 63 79
50 62 79
50 61 77
47 57 74
49 59 75
46 56 71
41 50 64
47 58 73
47 57 72
45 54 68
51 62 78
43 52 66
38 46 58
48 59 74
38 46 59
45 55 69
46 57 72
48 58 73
41 49 63
46 56 70
48 58 73
45 54 68
43 52 67
45 55 70
52 62 78
44 53 67
40 49 61
46 56 70
50 60 75
42 51 65
43 52 66
46 55 69
46 56 70
46 55 70
46 57 72
47 56 71
49 60 76
47 57 72
53 64 80
52 63 79
47 56 71
45 54 67
44 53 66
44 54 69
40 49 62
41 49 62
50 60 76
46 56 70
47 57 71
43 53 67
43 51 64
43 52 67
49 59 73
49 59 75
48 58 72
49 59 75
47 57 71
51 62 77
51 61 78
55 67 85
42 51 65
51 62 78
49 59 75
49 60 76
53 64 82
49 59 75
48 59 75
55 67 85
46 57 74
52 64 83
49 60 75
53 64 82
44 54 68
58 71 91
59 71 89
57 70 91
50 61 79
50 62 78
48 59 75
52 64 82
55 67 86
55 67 85
57 70 90
56 69 89
57 71 90
54 66 85
59 72 92
54 67 85
55 68 88
58 73 95
54 66 84
52 64 82
55 68 87
58 72 93
58 71 90
58 71 91
53 65 84
58 71 91
57 70 89
55 68 87
59 74 96
57 70 90
61 76 97
56 70 90
56 70 91
62 77 99
61 76 97
54 67 86
59 72 93
57 70 90
53 65 83
59 73 93
58 71 92
60 75 97
54 68 88
57 69 88
60 74 95
64 79 101
56 69 89
62 78 102
60 75 96
61 75 95
65 79 102
59 74 96
60 74 94
56 70 90
56 68 87
61 75 97
62 77 99
65 80 103
59 73 94
58 72 94
62 77 99
58 72 93
67 83 108
59 73 95
62 76 98
61 76 97
61 75 96
64 79 102
62 76 97
61 77 100
62 76 97
60 74 95
60 74 94
59 74 96
61 76 97
60 76 99
61 75 97
63 79 103
65 81 104
61 77 102
65 81 106
60 75 96
64 79 101
61 76 99
62 77 99
64 79 103
65 80 103
61 77 100
62 77 100
66 83 108
61 77 100
66 83 107
62 77 99
66 82 107
64 80 103
61 77 100
64 80 104
61 77 99
64 80 104
59 73 94
62 76 98
65 82 106
64 80 102
65 81 105
68 83 107
63 79 103
63 79 102
65 80 103
67 83 107
67 82 106
63 79 102
71 87 111
61 76 99
65 81 104
70 87 112
69 87 113
62 78 102
66 82 106
63 78 100
59 75 98
69 85 109
65 81 105
63 79 103
66 83 107
66 82 104
61 76 98
67 82 105
68 84 109
62 78 101
70 87 111
66 82 107
68 84 108
67 83 108
68 85 109
68 85 110
69 86 111
68 84 109
63 80 105
68 85 111
69 86 111
67 83 107
67 83 108
65 81 104
67 83 108
67 83 107
66 83 107
68 85 111
67 84 110
68 84 109
67 84 109
66 82 106
67 84 108
67 83 107
67 84 109
69 85 109
69 85 109
65 81 104
67 82 106
68 85 110
65 81 104
66 83 108
67 84 110
65 81 105
60 75 97
66 82 105
67 83 108
65 81 105
67 83 108
65 81 105
67 84 109
68 85 111
67 85 111
64 80 105
64 80 104
67 83 108
63 79 102
69 85 110
65 80 103
66 82 106
69 85 110
66 83 107
62 78 101
66 82 105
61 76 99
66 83 109
63 78 101
69 86 111
67 84 109
67 83 106
66 81 105
68 83 107
66 83 108
67 84 109
64 80 103
65 81 105
69 85 110
64 80 103
66 82 106
63 80 104
68 85 111
65 80 104
63 79 103
61 77 100
63 79 104
62 78 101
64 79 102
66 81 104
60 75 98
64 80 103
66 83 108
64 79 101
65 82 106
64 80 103
68 83 105
63 78 101
63 77 100
63 78 101
63 79 104
62 77 99
65 81 105
59 73 95
63 79 102
58 72 93
62 75 95
64 79 101
68 84 108
59 74 96
61 77 100
66 83 107
67 82 105
62 78 102
62 76 97
61 76 99
69 86 111
64 80 103
61 76 98
59 73 93
69 85 108
60 75 98
64 79 102
63 78 100
63 78 101
63 78 101
57 72 93
60 75 97
64 80 104
58 71 92
60 75 97
57 70 90
63 78 101
63 78 100
60 75 96
55 69 91
66 82 106
56 69 89
60 74 94
60 74 95
59 74 95
61 75 96
59 73 93
54 67 86
54 68 89
58 72 93
55 68 88
60 75 97
57 71 92
58 72 92
54 66 85
58 71 92
61 76 99
57 70 90
51 64 82
56 69 88
59 73 94
54 66 85
60 74 94
57 71 91
58 72 93
56 70 90
58 72 93
59 72 93
57 71 93
58 71 91
58 72 92
54 66 85
59 73 95
57 69 88
53 66 86
60 75 96
60 73 94
58 71 91
52 64 82
58 72 93
53 66 84
53 65 83
58 71 90
56 69 88
53 65 83
58 72 93
52 64 82
54 67 86
52 64 82
50 61 77
56 69 88
51 62 78
53 65 84
53 65 83
50 60 77
53 65 84
57 69 86
52 64 82
53 64 82
55 67 85
54 65 83
51 63 80
49 60 77
48 58 74
49 60 76
54 66 85
48 58 74
49 60 76
44 54 68
48 58 73
52 63 80
49 60 76
50 60 76
46 55 70
47 57 71
54 65 81
43 53 67
54 66 84
51 62 79
46 56 70
46 55 69
45 54 69
46 56 72
51 61 78
47 56 71
53 64 80
49 59 75
51 62 78
51 62 78
48 59 74
48 58 72
49 59 75
44 54 68
42 50 63
41 50 63
43 52 66
47 57 72
49 59 74
50 60 76
49 59 75
46 55 69
46 56 70
50 61 76
49 59 74
47 57 72
46 55 70
50 60 76
49 59 74
47 57 73
47 57 71
49 60 77
41 50 63
50 60 76
40 48 61
44 53 67
46 56 72
44 54 69
44 53 66
44 54 68
49 59 75
46 56 71
45 54 68
50 60 76
50 61 77
44 54 68
52 63 80
52 63 79
50 61 77
49 60 76
40 49 63
49 59 75
47 57 72
49 60 76
53 64 81
47 57 73
51 62 79
51 62 79
50 61 78
52 63 80
48 59 74
48 58 73
50 60 76
56 68 86
55 67 86
49 60 76
51 63 79
49 60 77
58 71 90
48 58 72
58 71 91
54 65 82
51 62 79
49 60 76
54 67 85
52 65 83
56 68 86
50 62 79
57 69 87
50 62 80
54 65 82
53 64 81
52 63 81
56 68 86
56 70 90
62 76 97
58 71 91
54 67 86
51 63 81
51 64 82
55 67 85
56 68 87
53 66 84
50 61 78
57 70 89
55 68 87
53 65 82
55 68 88
55 68 87
65 79 101
55 67 87
55 69 89
61 75 97
58 71 91
57 70 90
60 73 93
58 72 92
57 70 90
60 73 93
55 68 86
61 74 94
61 76 98
59 73 96
64 79 102
56 70 91
57 70 91
58 73 95
55 67 86
62 78 102
61 75 97
57 71 92
56 71 92
61 75 97
64 79 102
63 78 100
62 77 99
59 73 94
58 72 94
63 78 101
62 77 99
58 73 95
60 74 96
61 76 98
62 78 101
58 71 91
57 71 92
63 78 102
61 76 99
65 80 104
65 80 102
64 78 100
55 70 91
57 70 90
63 78 100
62 77 99
61 77 99
59 73 95
63 80 105
64 79 101
59 74 97
61 76 98
61 77 100
60 73 94
64 79 102
65 80 103
64 80 104
65 81 105
67 84 109
66 82 106
61 76 98
63 79 101
61 76 98
67 83 107
66 82 106
68 83 106
67 83 107
65 81 106
60 75 97
63 78 101
66 83 107
67 84 109
64 80 105
67 83 106
59 74 96
66 82 105
66 83 108
68 84 107
66 81 105
66 82 105
64 81 105
67 83 107
67 83 108
64 79 101
68 85 111
65 80 104
69 85 110
67 83 107
67 83 108
67 83 108
67 84 109
66 83 109
63 78 101
67 84 109
65 80 103
63 79 103
67 83 106
67 83 107
63 78 101
64 79 102
67 83 108
69 85 109
69 86 111
61 77 100
72 90 116
69 85 110
64 80 102
68 85 109
70 87 113
59 74 97
62 79 103
64 79 103
68 84 108
67 84 110
65 82 106
65 80 104
67 83 107
63 80 104
61 76 100
69 84 107
66 82 107
65 81 105
69 86 111
65 82 106
67 82 106
66 81 105
68 85 110
68 86 112
71 87 112
66 82 107
65 81 105
60 76 99
64 80 104
65 80 102
62 77 100
66 83 108
67 83 108
64 79 103
65 82 106
64 81 106
68 83 106
69 86 110
70 87 112
68 85 110
68 85 110
62 78 101
67 83 108
68 85 110
66 83 108
68 84 110
64 81 105
72 88 112
68 84 109
63 80 105
67 84 109
65 81 105
67 84 109
67 84 109
66 83 108
63 78 102
67 83 107
66 82 105
63 78 102
61 76 98
65 80 104
64 79 102
65 80 104
64 78 101
67 83 107
66 82 105
62 77 99
63 78 99
62 78 102
66 81 104
66 82 105
65 81 106
66 82 107
66 83 107
68 84 107
63 78 100
60 76 99
64 79 102
63 79 102
67 83 107
64 80 103
64 80 104
61 75 97
62 78 101
62 78 101
62 76 97
60 75 96
63 78 101
63 78 100
67 84 109
63 79 102
60 75 97
65 80 103
66 81 103
65 81 105
63 78 100
63 79 102
63 78 101
65 80 103
61 75 96
66 82 105
62 77 98
61 76 98
66 83 109
60 74 95
63 78 101
67 83 108
61 75 96
58 73 96
63 78 100
64 78 101
59 74 96
59 74 95
63 78 100
60 74 96
62 77 100
56 69 89
59 73 93
60 75 97
57 71 91
60 74 95
59 73 94
56 70 90
59 73 94
62 76 98
59 72 93
61 76 98
59 74 96
62 76 99
62 77 99
58 71 91
63 78 100
58 71 92
57 71 91
57 71 92
57 70 91
57 71 92
53 65 84
55 69 89
53 66 85
54 67 86
56 70 90
63 77 99
57 70 90
54 67 86
55 68 88
60 74 95
56 69 88
53 65 83
58 72 92
58 71 91
52 64 81
56 69 89
61 75 96
58 71 91
55 70 91
57 70 90
56 68 87
49 61 79
59 72 93
55 67 86
59 73 93
53 65 83
52 63 81
56 69 88
52 64 82
48 60 78
54 67 86
52 65 83
57 70 90
58 70 88
56 69 88
51 62 79
53 66 85
52 64 82
54 66 84
50 62 79
55 68 87
58 71 91
43 53 67
51 63 80
51 63 81
48 59 76
52 64 81
48 59 75
47 57 72
50 61 77
56 69 87
49 60 76
55 67 85
46 56 72
52 63 79
47 57 72
49 60 76
41 50 63
53 65 82
51 63 81
44 54 69
47 57 72
57 69 87
48 59 74
45 54 68
47 57 72
51 62 78
46 56 71
47 57 72
53 65 82
52 63 80
48 58 74
51 62 78
42 51 64
47 56 71
48 58 73
45 54 69
51 61 77
44 52 65
44 53 67
46 56 70
46 56 70
39 47 59
48 57 72
41 50 63
44 52 66
53 64 81
46 56 70
43 51 64
50 61 76
41 50 63
48 58 72
48 58 73
49 59 74
45 54 69
45 54 68
48 58 73
39 46 58
51 62 79
47 56 70
48 57 72
46 56 70
40 48 61
49 59 74
48 58 73
46 56 70
51 62 78
46 56 71
51 63 79
50 61 78
46 56 72
47 58 74
49 59 75
47 58 73
53 64 80
48 59 76
47 58 73
50 61 77
56 67 85
51 62 79
48 59 74
50 60 75
48 58 73
52 63 80
48 59 74
53 65 83
52 64 81
48 58 73
51 62 77
57 70 89
45 55 70
50 61 78
53 65 82
55 67 84
57 70 89
54 66 84
60 73 92
51 63 80
60 73 92
48 60 77
53 66 85
54 66 85
59 73 93
50 62 79
55 68 87
54 67 85
56 69 88
48 59 75
51 63 81
54 66 84
54 67 86
55 68 88
61 76 99
63 77 99
57 69 88
61 75 95
59 73 94
57 70 90
55 68 86
55 68 86
50 62 80
55 67 85
61 75 96
57 71 90
60 75 97
55 67 86
55 67 85
61 75 96
61 75 96
56 69 88
54 67 86
58 72 92
61 75 97
60 74 94
57 70 89
59 73 93
59 73 93
64 79 102
60 74 95
58 72 93
60 75 97
61 76 99
61 75 97
61 76 98
59 72 92
60 75 98
65 81 104
63 77 98
61 75 96
57 70 89
61 75 97
62 77 100
60 74 96
63 78 100
61 76 97
61 75 96
64 80 104
65 80 104
60 75 96
64 80 104
65 80 104
64 79 103
62 77 100
63 78 101
61 76 100
61 76 99
62 78 101
60 74 96
62 77 99
68 84 108
60 75 98
66 81 105
59 74 96
65 82 106
62 76 98
62 78 101
65 82 106
65 82 106
61 77 101
65 80 104
64 79 102
63 78 100
64 80 104
65 79 102
65 82 106
64 80 104
61 76 97
58 73 94
64 79 102
62 77 100
59 73 95
65 81 105
63 78 101
64 79 102
66 81 104
65 81 104
60 76 99
63 79 102
63 78 102
65 81 106
66 82 106
65 81 105
64 80 103
67 82 106
68 85 109
63 79 102
67 83 108
61 77 100
64 80 104
62 77 100
66 83 107
61 77 100
63 79 103
64 79 103
65 81 105
63 80 105
64 79 101
67 83 106
64 80 103
67 83 108
66 82 104
61 77 100
68 84 107
67 84 109
61 76 98
67 84 108
71 89 115
68 84 108
67 83 107
68 84 109
62 77 101
67 84 109
63 79 103
67 83 107
67 82 105
67 83 108
70 87 114
68 84 108
61 77 100
65 81 105
65 81 105
68 84 109
62 78 100
67 84 108
63 80 104
66 82 107
66 83 108
65 81 105
67 84 110
67 85 110
63 78 101
67 83 107
68 85 110
66 82 107
64 81 106
68 85 112
69 85 109
69 86 112
66 83 107
64 80 104
63 79 103
68 85 111
64 80 104
69 85 110
64 80 103
64 80 103
69 84 108
70 87 113
66 82 106
63 78 100
68 86 112
69 85 110
64 81 105
63 77 99
63 78 100
65 81 105
63 78 101
64 79 102
58 73 96
65 81 105
65 82 107
68 84 109
67 83 107
59 73 94
61 76 99
63 78 102
64 79 101
66 84 110
60 75 99
59 73 95
67 83 107
61 77 100
65 81 105
68 84 108
65 79 102
62 78 101
66 81 105
67 84 108
66 82 106
62 77 99
67 83 108
64 80 104
65 80 104
62 77 100
62 78 101
61 76 99
65 80 103
68 85 110
65 81 103
62 76 98
61 76 99
69 85 110
58 73 96
64 79 103
61 76 99
61 76 99
63 79 103
64 80 103
61 76 99
63 78 101
62 76 98
63 78 101
65 79 101
63 79 102
59 73 94
62 77 99
59 73 94
57 71 92
63 78 100
59 74 96
62 77 100
63 78 102
63 78 101
60 75 96
62 77 100
60 74 96
62 76 97
66 81 103
59 73 94
57 70 90
62 77 99
61 76 98
63 78 100
54 67 86
56 70 92
60 74 94
57 71 92
64 80 102
59 73 93
62 76 97
60 74 95
58 72 94
55 68 87
58 72 92
54 67 86
63 77 98
59 73 94
62 76 97
60 73 93
57 70 91
62 77 100
52 65 84
58 71 92
60 73 92
58 72 92
59 73 94
58 73 94
62 76 98
60 73 93
54 67 85
60 73 92
54 67 87
56 69 90
57 71 91
55 68 87
57 70 89
56 69 87
50 61 79
57 69 89
61 75 95
52 65 83
56 69 88
55 67 85
51 63 81
55 68 87
54 66 84
52 63 81
50 60 76
55 67 85
57 69 89
58 72 92
54 66 85
53 65 83
51 62 79
57 70 88
54 66 84
55 68 86
51 63 80
51 62 79
52 65 83
55 66 84
54 65 82
60 72 91
53 65 83
51 63 80
47 57 73
52 64 83
52 63 81
46 56 72
54 65 83
53 64 82
51 61 77
56 68 87
54 66 83
49 60 77
48 59 75
46 56 72
56 67 85
55 68 86
54 66 84
52 63 79
48 58 73
50 60 75
44 54 69
47 57 72
48 58 74
51 61 76
41 50 64
51 62 78
57 68 86
48 57 72
47 56 70
49 59 76
41 49 61
47 56 71
48 58 73
47 57 72
49 60 77
50 60 76
45 55 70
43 53 67
50 61 77
45 55 69
49 59 75
50 61 76
42 51 65
45 54 68
52 62 79
48 58 73
35 43 54
52 62 77
44 53 67
46 56 71
48 58 74
43 52 66
50 61 78
50 61 77
47 57 73
48 59 74
50 60 76
50 61 78
44 54 69
45 55 70
50 61 77
55 66 83
52 62 78
53 64 80
55 67 85
42 51 65
53 64 81
49 60 75
50 61 77
43 53 68
51 63 80
54 65 83
49 60 77
48 59 75
41 50 63
54 66 85
45 55 71
47 58 73
51 62 79
49 60 76
49 59 75
55 66 83
54 66 85
54 67 86
45 54 69
51 62 79
52 64 82
49 59 75
51 63 81
54 66 83
56 68 87
52 63 80
55 67 86
47 58 74
51 62 78
61 75 96
50 61 78
54 66 85
58 71 91
55 68 86
54 66 84
53 65 84
55 66 84
55 68 87
48 60 78
60 73 93
54 66 84
56 69 88
51 63 81
55 67 86
59 72 92
57 70 91
52 64 81
54 67 86
57 70 90
56 68 86
57 70 88
57 70 89
59 73 94
58 71 91
59 72 92
58 71 92
60 74 95
56 69 88
62 76 97
59 72 92
60 73 93
65 80 103
60 74 95
63 78 100
60 75 97
66 82 105
63 77 99
62 76 96
59 73 94
61 76 97
63 77 99
63 77 97
59 74 95
55 69 89
57 70 90
56 69 89
58 72 92
62 78 101
60 74 96
61 75 97
55 68 88
60 76 99
59 73 94
57 71 92
63 78 101
59 74 96
66 81 104
58 74 97
62 78 102
62 76 97
62 77 98
60 74 96
64 79 101
64 80 103
60 74 96
62 77 99
66 83 108
63 78 101
58 73 95
59 73 95
66 82 107
58 72 92
66 81 104
62 77 100
67 83 106
63 78 102
63 78 100
64 79 102
61 76 98
64 79 101
70 87 113
62 77 100
62 76 98
65 81 105
61 76 98
60 75 96
61 76 98
66 82 105
67 82 106
65 81 105
61 76 98
63 79 102
65 81 104
64 79 103
66 82 106
62 77 99
63 78 101
67 84 108
65 81 106
65 81 105
68 84 108
68 84 108
66 81 103
67 83 108
63 79 103
67 83 108
69 85 110
65 81 104
62 77 100
68 83 106
69 86 112
71 88 113
64 79 103
67 83 108
68 84 108
65 80 104
72 88 113
66 83 107
68 85 111
64 80 103
67 83 108
67 83 107
68 85 109
60 75 97
66 83 107
65 81 105
64 79 102
66 83 108
66 84 110
66 81 105
70 86 110
63 78 101
68 85 110
67 83 107
67 83 108
68 85 110
69 85 110
65 81 106
69 85 111
69 86 111
66 82 106
66 83 109
65 81 104
68 85 111
65 81 105
68 84 108
69 87 112
68 84 108
69 85 109
65 80 104
63 79 103
58 74 96
62 78 100
69 85 109
63 79 103
65 80 104
65 81 104
68 84 108
69 86 111
69 85 110
66 83 107
67 83 107
64 80 105
64 79 103
66 81 104
66 82 106
68 84 109
64 80 103
64 79 101
63 79 102
67 83 108
66 82 104
63 80 104
65 81 104
66 83 108
65 82 106
66 82 106
66 83 108
64 80 104
68 85 110
62 77 100
65 81 105
63 79 102
65 82 106
65 81 106
63 78 101
65 81 105
61 77 100
63 79 103
67 83 108
67 83 108
69 86 112
65 81 105
61 77 100
68 84 108
66 83 108
66 81 105
66 82 106
62 77 98
70 85 109
62 77 100
65 81 106
67 83 107
63 79 102
66 82 106
65 81 105
65 80 103
64 79 103
65 82 106
65 81 104
60 75 97
61 76 98
58 72 93
56 70 92
63 78 101
63 78 101
62 77 101
62 77 99
64 79 103
62 77 100
61 75 97
64 80 102
59 74 96
55 69 90
65 81 105
60 74 97
61 75 98
63 78 102
62 76 97
59 74 96
60 75 97
61 75 97
61 77 100
65 80 103
55 69 91
63 78 100
60 74 95
61 75 95
58 72 93
61 76 99
59 73 94
61 76 98
54 67 86
63 78 101
61 75 97
57 70 90
55 67 86
60 75 96
61 75 95
60 75 96
61 75 96
59 73 94
63 77 99
62 76 98
59 73 93
62 76 98
60 75 97
58 72 91
57 70 90
59 72 93
58 71 91
59 73 94
57 71 91
60 74 96
62 76 97
52 65 83
57 70 90
60 73 93
55 69 88
56 70 90
55 69 89
52 64 81
50 61 78
60 73 93
53 66 85
56 68 87
58 71 90
57 70 88
68 83 106
56 68 87
56 69 89
49 61 78
49 60 78
57 71 90
51 64 82
52 64 82
55 68 87
59 73 93
60 73 93
55 67 86
51 64 83
57 70 90
52 64 82
52 64 82
54 66 85
54 67 86
55 67 86
52 64 82
55 68 87
49 61 78
54 65 83
50 62 79
54 66 84
50 61 77
50 61 78
50 60 76
48 59 76
50 61 77
46 56 72
53 64 81
54 66 85
49 60 76
53 65 83
50 61 78
53 64 81
58 71 91
52 64 80
46 56 71
51 63 80
51 62 78
53 65 82
41 50 64
51 61 78
51 61 77
51 63 80
54 66 83
45 55 69
51 62 79
51 62 79
50 61 78
47 57 72
53 64 81
45 55 70
47 57 72
46 56 71
40 49 62
52 63 80
46 56 71
49 59 74
54 65 82
50 62 79
50 61 77
49 60 76
49 60 76
44 54 68
49 60 76
47 57 71
41 50 64
47 57 73
51 62 77
53 65 82
50 61 78
47 57 71
50 60 77
37 45 58
49 60 76
45 55 70
48 58 73
41 50 63
49 60 76
47 58 73
48 58 73
49 60 75
52 63 80
50 60 76
50 60 76
47 58 73
39 47 60
50 61 78
51 62 79
45 55 69
48 58 74
47 58 74
51 62 79
50 61 78
54 66 84
53 65 83
56 69 88
51 61 77
42 52 66
51 62 80
57 71 91
51 62 79
53 65 82
49 59 75
54 66 84
49 60 77
46 57 72
50 62 79
51 62 79
53 64 82
50 61 78
59 71 91
53 64 82
52 64 82
50 61 77
51 62 79
54 67 86
50 62 80
54 65 82
55 67 86
57 70 89
57 69 89
58 71 92
52 64 81
56 69 88
59 72 91
56 68 87
60 75 97
59 73 93
55 68 88
52 64 83
61 75 95
57 70 89
58 71 91
60 74 95
52 64 82
58 72 92
59 72 92
57 71 93
54 67 85
60 74 95
60 74 96
62 76 97
59 73 95
54 67 86
62 77 100
58 72 92
58 71 91
56 70 91
58 73 95
52 65 84
56 69 89
57 70 90
52 65 85
61 76 98
56 69 88
54 68 90
63 78 101
59 73 94
58 72 93
64 79 102
59 74 96
61 77 100
60 75 97
59 72 93
56 70 91
56 69 88
62 77 99
59 73 94
60 73 94
63 78 100
64 80 103
60 75 98
59 73 94
59 73 94
63 78 101
54 68 88
61 76 98
58 73 94
57 70 91
60 74 96
64 79 103
62 77 100
63 78 99
57 70 91
64 80 103
63 77 99
63 78 99
61 75 96
65 80 103
61 76 98
57 71 92
63 79 104
65 80 103
63 79 104
64 80 104
64 79 102
67 84 109
63 78 100
69 85 110
64 79 102
65 81 104
69 85 109
61 77 100
66 82 106
59 74 96
65 81 104
65 80 104
63 77 98
61 77 100
60 76 99
63 79 103
63 78 102
61 75 97
66 80 102
66 82 104
62 78 102
68 85 110
66 82 107
67 84 108
62 78 102
66 81 104
66 82 105
64 80 103
67 83 106
66 81 105
64 80 103
67 84 108
64 80 105
65 80 102
67 83 108
65 81 104
65 81 105
65 82 107
63 78 101
65 82 107
67 84 109
66 83 108
61 76 99
64 80 103
65 81 106
62 78 101
63 79 104
63 78 101
69 86 112
70 87 112
68 83 107
66 82 107
68 85 110
70 86 110
67 83 107
65 81 105
72 89 115
68 85 111
64 79 101
67 83 107
71 88 114
70 88 113
62 78 101
66 82 106
67 83 108
67 83 106
64 81 106
70 87 113
68 84 109
65 81 105
66 82 105
65 81 106
69 85 110
70 87 114
65 81 105
67 83 107
67 83 107
69 85 110
64 79 102
68 85 110
65 80 103
63 79 102
65 81 105
64 81 106
66 82 106
64 80 105
67 84 108
60 75 98
67 83 107
65 82 107
66 82 105
68 84 109
68 85 110
67 83 107
62 77 101
67 83 107
62 77 100
66 83 108
64 81 106
71 87 112
66 81 104
58 73 94
68 84 109
62 78 102
64 79 102
63 78 102
68 84 109
68 85 111
61 76 99
63 79 103
68 85 110
66 82 107
60 75 98
64 80 103
68 84 108
66 82 106
66 81 103
68 85 109
64 79 102
61 76 99
63 79 103
64 81 105
64 79 102
65 80 103
68 84 107
66 81 104
64 80 104
64 79 103
62 78 101
68 84 108
66 82 106
61 75 97
67 82 105
62 77 100
65 81 104
63 79 102
64 80 104
67 83 107
63 78 100
61 77 100
58 72 95
62 77 99
63 79 102
65 81 104
63 77 99
63 78 101
63 77 99
63 80 105
64 80 104
62 77 99
62 78 102
64 79 102
57 72 94
62 77 100
63 78 101
58 73 95
67 83 108
63 78 101
65 80 103
58 71 90
61 75 97
59 75 97
59 73 94
60 75 97
57 71 92
59 73 95
57 72 93
59 73 95
62 77 100
54 67 88
62 76 97
58 72 93
55 68 87
58 72 93
54 67 86
58 71 91
57 71 91
57 70 90
58 72 93
61 77 100
56 70 90
63 78 99
61 76 99
60 74 95
55 68 87
62 75 96
55 68 87
63 77 98
56 70 91
58 71 91
53 67 87
57 70 90
61 75 96
59 72 93
51 63 81
55 68 87
58 72 92
56 69 88
57 71 91
54 68 88
57 71 90
51 64 82
61 74 94
59 73 94
56 69 88
53 66 85
53 65 83
59 73 94
54 66 85
54 67 86
56 69 89
51 64 83
57 70 90
52 65 83
57 70 89
53 65 83
51 64 82
58 70 88
55 68 86
57 70 89
44 54 69
57 70 89
50 61 78
49 60 76
60 73 92
52 65 83
50 62 79
51 63 80
48 59 74
55 66 84
52 64 81
50 61 78
48 59 75
47 57 74
51 62 79
50 62 79
50 61 78
54 66 84
52 64 81
54 66 84
55 68 86
51 63 80
51 62 79
51 62 80
51 63 80
49 60 76
53 65 82
51 63 80
46 56 71
45 55 70
49 60 76
44 54 68
44 54 70
51 62 79
46 56 71
46 56 71
49 59 74
49 59 75
53 64 82
50 61 77
51 61 78
45 54 67
47 58 74
47 57 72
51 63 81
48 59 74
50 60 76
46 56 70
46 55 70
45 55 70
49 60 75
50 61 77
43 52 66
46 57 73
47 57 72
49 58 73
49 60 76
53 64 81
49 59 75
52 62 78
53 64 80
50 60 75
51 62 79
49 59 74
48 58 73
48 58 72
50 61 77
57 68 86
55 68 87
51 63 80
54 66 84
47 58 74
48 59 75
52 63 79
53 64 82
50 60 76
41 50 62
52 63 80
49 59 75
54 66 84
51 63 81
55 67 85
54 65 81
48 59 75
48 58 74
54 66 84
48 60 78
50 61 77
50 61 78
50 63 81
50 60 76
61 75 96
58 70 89
53 65 84
50 61 78
53 65 83
51 62 80
50 61 77
50 61 78
55 68 87
51 64 82
51 63 81
54 66 85
54 66 85
54 66 84
54 65 83
56 69 88
54 67 86
59 74 95
58 71 90
60 74 96
51 63 81
51 63 81
57 71 91
53 65 82
58 71 90
56 69 88
53 65 82
59 72 93
54 67 87
62 78 102
54 66 85
57 70 90
48 59 76
55 67 86
59 73 93
61 75 97
56 68 87
54 67 87
59 73 94
60 74 95
60 74 95
56 69 90
57 70 90
55 68 88
59 72 92
56 69 90
55 69 90
55 69 89
59 73 95
61 76 99
57 71 91
58 72 93
58 73 94
54 67 86
57 71 91
59 73 94
58 72 93
59 72 93
58 73 95
60 75 96
62 76 99
62 77 98
61 74 95
58 73 94
64 78 100
59 73 93
60 75 97
61 76 99
65 81 104
62 77 101
60 75 97
59 75 98
65 80 102
61 75 97
64 80 103
57 70 91
65 82 106
64 81 105
63 78 101
58 73 96
64 80 103
62 77 100
61 76 98
62 78 102
61 76 97
62 77 99
60 74 95
63 78 100
58 71 91
67 83 106
57 71 93
64 79 103
64 79 102
64 80 103
69 85 111
68 84 108
65 79 102
66 80 102
65 81 106
63 77 99
67 83 107
64 79 102
62 77 100
59 75 98
66 80 103
63 79 101
63 78 100
65 82 107
67 83 108
60 75 97
63 79 102
65 80 103
58 74 97
65 81 106
62 77 99
66 82 107
63 79 102
59 73 95
64 79 103
65 81 106
67 83 107
67 83 107
67 84 110
67 84 108
67 84 109
68 83 107
63 79 102
63 79 102
64 80 103
65 82 107
68 84 108
62 78 101
62 76 98
62 77 99
60 74 96
66 82 106
68 84 108
66 82 106
66 82 106
63 78 101
64 79 101
69 86 111
67 84 109
67 84 109
65 81 105
70 85 109
72 90 116
68 85 109
65 81 107
68 84 108
67 83 108
65 82 108
67 84 108
63 79 103
65 79 101
66 82 106
62 78 102
63 78 100
67 84 109
71 89 115
68 85 109
65 81 104
65 81 105
63 79 103
64 81 105
64 79 102
65 81 104
68 84 108
67 84 109
64 80 104
72 88 114
62 77 101
66 82 106
64 80 104
67 83 108
66 82 106
65 81 104
67 83 106
68 85 110
66 82 106
65 81 104
62 79 103
70 87 112
62 77 100
68 84 107
67 84 109
62 79 103
65 81 104
67 83 107
64 79 102
62 78 101
70 87 113
66 83 107
66 81 104
66 82 106
66 82 106
63 79 104
62 77 100
67 82 106
65 81 105
62 77 100
62 78 101
61 76 98
67 84 108
64 80 104
64 80 104
62 77 100
64 79 103
65 81 105
61 76 98
64 80 105
63 79 104
63 77 99
66 81 105
65 81 106
60 74 95
68 84 108
66 82 106
67 83 107
63 78 100
61 77 100
65 81 106
68 85 110
59 74 95
64 79 102
67 83 106
62 79 104
66 82 105
65 81 104
63 78 101
58 72 93
60 74 96
62 77 99
57 71 92
61 77 101
63 78 101
63 78 101
60 74 96
61 75 98
60 75 97
62 77 100
64 79 103
62 77 99
60 75 96
62 76 98
59 74 97
61 75 96
64 79 100
59 74 96
63 77 100
63 78 101
57 72 93
55 69 90
66 82 106
61 76 97
66 82 106
64 79 101
57 71 92
59 73 94
59 72 93
63 78 100
56 69 88
59 73 94
62 77 98
58 71 91
57 71 91
58 72 92
57 71 92
60 74 96
58 72 91
63 77 99
57 71 91
59 73 94
57 70 90
57 70 89
60 74 95
60 74 96
52 64 83
63 78 99
58 72 93
58 71 91
61 75 95
58 71 92
60 74 95
57 71 93
59 71 90
57 71 91
56 69 89
60 74 95
57 69 88
56 68 87
51 64 84
57 70 89
58 72 93
54 66 85
52 64 82
58 72 92
52 64 81
51 63 82
54 66 85
56 68 87
56 68 87
50 62 78
57 70 89
58 71 90
52 64 82
55 68 86
55 67 86
57 70 89
51 61 78
52 64 83
54 66 85
53 65 84
53 64 82
50 62 79
52 63 80
57 69 88
55 68 88
53 65 83
53 64 81
51 62 78
50 61 77
44 55 70
52 62 78
50 61 77
51 63 80
55 68 87
47 57 74
51 62 79
53 64 82
47 57 72
52 63 79
55 66 83
53 65 82
50 61 77
50 61 76
47 57 73
48 59 75
52 63 81
54 66 83
50 61 78
48 59 76
52 63 79
53 64 81
57 70 88
47 57 72
44 54 69
44 53 67
48 59 75
54 66 84
44 54 69
49 59 75
45 55 70
48 58 72
45 54 67
42 51 65
53 65 82
49 60 77
48 58 73
54 66 83
54 66 84
47 56 71
47 57 73
48 59 74
44 54 68
45 54 68
49 60 77
47 58 73
52 62 78
57 69 87
44 53 67
48 59 74
45 55 69
48 58 73
55 68 86
52 63 80
47 58 75
49 60 75
49 59 75
41 51 64
50 61 77
51 62 78
48 58 73
49 60 76
48 58 74
47 58 73
53 64 82
51 62 79
54 66 83
54 66 84
55 66 84
54 65 82
48 60 77
48 59 75
52 63 81
57 70 89
50 61 78
54 66 84
56 69 88
49 60 76
48 58 74
51 62 79
51 62 79
57 69 87
56 68 85
53 66 85
49 61 78
50 62 79
55 67 85
47 57 73
55 67 86
53 65 84
51 63 80
46 55 70
55 67 85
56 69 89
55 67 86
56 68 87
53 65 83
52 65 83
52 63 81
57 69 89
56 69 89
55 67 86
56 69 88
55 68 88
52 64 83
56 70 89
56 69 90
57 71 92
56 69 90
58 70 89
59 73 94
51 63 81
54 66 85
63 77 98
58 71 91
54 67 87
52 65 84
65 80 103
57 71 91
51 62 80
60 75 97
59 73 94
55 68 87
66 81 104
59 72 92
60 74 95
57 70 91
57 71 92
62 76 98
60 74 96
59 73 94
61 75 97
55 68 87
58 72 93
63 78 101
59 74 95
60 74 96
62 76 98
64 79 101
61 75 96
64 79 101
55 68 88
58 72 93
61 76 97
62 77 99
64 79 100
62 76 98
60 75 97
62 76 99
57 71 91
62 78 101
60 74 96
60 75 97
61 77 101
64 79 103
60 75 97
58 73 95
59 72 93
64 79 102
61 76 98
60 75 97
65 80 104
56 69 90
63 79 102
63 78 100
60 75 97
65 81 105
61 76 97
66 81 104
63 78 102
62 77 100
68 84 107
61 77 101
61 76 99
62 76 98
64 81 105
63 78 101
63 78 100
64 80 103
57 71 93
61 77 99
60 76 100
63 78 100
63 79 102
64 79 102
65 81 105
68 84 107
62 77 100
61 76 99
66 82 107
61 77 100
63 79 103
59 74 97
62 78 101
63 78 101
67 83 107
68 85 109
62 78 102
67 83 108
68 84 107
69 86 111
69 86 111
65 81 106
66 81 105
63 79 103
60 76 100
65 81 105
63 78 101
66 83 108
66 83 109
61 75 97
66 82 104
65 81 106
65 82 107
67 83 107
64 79 102
65 82 107
67 83 106
62 77 100
69 85 109
64 79 102
69 86 111
66 83 108
63 79 103
64 79 101
65 81 104
64 80 103
68 84 108
66 82 106
67 84 109
65 82 107
68 84 108
65 81 105
68 85 110
72 89 113
64 81 105
65 81 105
65 82 106
69 86 111
62 78 101
67 84 109
67 85 111
69 86 111
62 78 102
68 84 108
65 81 105
65 81 106
66 82 106
68 85 110
64 80 104
62 77 100
63 79 102
63 79 103
65 81 106
69 86 110
67 83 108
65 80 102
69 85 110
62 78 102
65 81 105
68 84 108
66 81 105
66 82 107
66 81 105
64 80 102
64 80 104
65 81 105
64 80 103
70 86 110
66 82 107
65 81 105
65 80 104
63 78 100
66 82 105
62 78 101
64 80 104
61 76 98
65 80 104
62 77 100
65 80 102
64 80 105
64 79 102
66 82 106
63 79 102
63 78 101
62 78 101
61 76 99
63 77 100
62 76 98
66 83 107
66 81 105
66 81 103
61 76 98
61 77 100
63 78 102
64 79 101
59 73 95
62 76 98
64 79 102
62 77 100
63 78 100
57 71 93
57 72 93
67 83 106
63 78 100
61 77 100
65 80 104
61 76 97
54 67 87
67 82 104
67 84 108
61 75 97
60 74 95
56 70 91
64 79 102
62 77 99
60 75 97
64 79 101
67 83 107
63 78 100
66 82 106
64 79 102
64 79 101
62 77 99
64 80 104
59 73 95
61 76 98
56 70 91
59 74 96
60 75 97
59 74 96
59 74 95
60 73 94
66 82 106
63 79 102
59 74 95
61 76 97
57 72 94
63 78 101
55 69 89
55 67 86
60 74 94
58 71 90
60 73 94
58 73 96
64 78 100
56 69 89
58 72 93
59 73 93
62 76 98
54 68 88
56 69 89
56 70 90
55 69 90
54 68 87
56 70 91
62 76 97
54 67 86
59 73 94
62 76 97
58 71 91
58 72 92
55 68 88
59 73 94
58 72 93
60 74 95
57 71 92
55 68 87
54 67 86
49 61 78
55 67 85
59 73 93
55 68 86
50 61 78
57 69 88
53 65 85
52 64 81
58 72 93
53 65 83
59 72 91
56 69 89
57 70 89
50 61 78
51 62 79
60 73 93
50 61 78
54 67 86
52 64 82
49 61 78
54 66 85
62 76 96
58 72 92
56 68 87
52 63 80
56 69 88
53 64 81
55 68 86
52 63 80
51 63 80
48 59 75
55 68 87
47 57 73
48 59 76
53 64 81
49 60 76
44 54 69
52 63 81
51 63 80
58 70 89
52 63 80
50 62 79
52 64 82
51 63 80
47 58 74
49 59 75
47 57 73
48 59 74
51 62 78
55 67 84
54 65 82
45 55 71
47 57 74
54 65 82
49 60 77
53 64 80
52 64 82
52 64 81
52 64 80
49 59 73
51 63 80
56 68 85
53 64 81
51 61 77
53 66 84
48 58 73
54 65 82
52 63 78
47 57 72
46 56 72
48 58 74
51 62 79
47 56 71
44 53 68
46 56 71
51 61 77
54 65 83
49 60 77
53 65 83
54 66 84
49 60 77
46 56 70
50 61 77
52 63 81
54 66 83
47 58 73
48 58 74
53 65 83
46 56 71
47 57 72
52 64 81
46 56 70
49 60 76
48 58 73
52 64 81
51 62 79
49 60 77
48 59 75
54 66 83
48 59 76
45 55 71
50 61 78
50 62 80
52 64 81
54 65 83
50 61 78
56 68 86
59 71 90
52 64 82
48 59 74
55 67 85
51 62 79
53 65 83
50 61 78
53 65 82
57 70 89
55 68 86
52 63 81
58 71 90
52 64 82
51 63 81
56 69 89
54 66 84
54 65 83
56 69 88
51 63 80
54 65 83
59 73 93
56 69 89
52 64 81
58 71 91
50 62 79
57 71 90
53 66 85
56 68 86
54 67 86
56 68 87
60 74 95
59 73 93
55 69 88
57 71 91
59 73 94
53 65 83
58 71 91
56 69 89
57 70 89
54 67 87
58 72 92
59 73 93
59 72 93
60 74 95
57 71 92
61 75 96
52 65 85
61 76 97
61 74 95
62 76 99
65 81 105
50 63 81
57 70 89
62 76 97
61 76 98
57 71 91
62 75 95
59 73 95
61 75 97
57 71 90
59 73 94
55 68 88
61 75 96
54 68 88
65 81 106
56 70 89
64 80 104
60 75 96
61 75 96
61 76 98
62 77 99
61 76 98
56 70 90
58 72 92
58 72 94
63 79 102
64 80 104
62 77 100
67 82 105
63 77 99
66 82 104
67 83 107
63 78 100
66 82 104
60 75 98
59 74 95
60 74 94
62 76 98
66 82 106
59 73 94
66 81 105
67 82 106
62 77 101
59 74 96
61 76 99
65 81 105
65 82 107
61 76 98
63 78 100
63 78 100
67 83 106
60 75 97
65 81 104
68 84 109
60 74 96
62 77 101
63 79 102
66 83 108
62 78 103
66 83 107
68 84 108
60 75 96
66 82 106
61 76 99
66 81 103
63 79 102
66 82 106
62 77 100
69 83 106
64 78 99
64 80 104
64 79 102
67 83 107
60 76 99
63 79 103
69 85 110
64 79 102
68 86 112
61 76 98
69 85 109
62 78 101
60 75 97
65 81 104
68 84 108
64 80 103
67 82 106
66 82 105
67 84 109
62 78 101
65 81 105
64 81 105
69 87 113
67 84 109
68 85 109
66 82 107
66 82 106
66 82 107
66 82 107
66 82 106
69 86 113
66 82 106
65 81 105
67 84 109
67 82 105
68 85 110
68 85 111
68 84 109
65 80 104
67 83 108
68 84 108
67 83 108
67 84 109
68 84 109
64 79 101
66 83 107
68 84 108
68 84 107
65 82 107
66 81 105
64 80 104
66 83 107
66 82 107
69 86 111
65 81 105
68 83 107
66 82 106
62 78 101
64 79 103
61 76 99
69 85 108
68 86 112
60 76 100
67 83 107
68 86 113
67 82 105
70 86 111
64 79 101
66 82 107
69 84 107
66 82 106
62 77 101
62 78 101
70 87 111
69 85 109
66 82 105
62 76 99
67 84 109
67 82 105
64 80 103
60 75 97
64 79 102
61 76 98
67 84 109
63 78 102
65 82 107
63 79 102
62 78 101
64 80 104
70 87 112
64 79 102
64 79 102
68 84 107
63 78 101
67 82 106
69 86 112
65 81 105
58 72 94
59 74 96
65 80 104
65 80 103
66 81 104
62 76 97
62 79 103
61 76 100
60 74 94
68 85 109
63 78 100
58 72 93
64 79 102
63 78 100
63 79 101
60 75 97
67 83 108
66 82 106
65 81 104
65 81 105
63 79 102
65 81 105
63 78 101
62 77 99
63 78 100
63 78 101
63 78 100
55 68 89
56 69 89
63 78 100
59 73 95
65 80 103
62 77 99
59 73 95
63 79 102
57 70 89
62 76 98
61 75 97
66 81 103
60 74 94
57 71 92
61 76 99
57 71 93
63 78 101
56 69 89
61 76 97
56 68 88
56 69 89
65 82 106
61 75 96
60 73 94
66 80 102
60 74 96
63 77 97
59 73 94
56 70 90
59 73 95
62 76 98
57 69 88
60 73 94
58 72 93
58 71 91
60 74 95
59 73 93
51 64 83
59 73 94
57 70 89
53 65 84
59 73 93
59 72 92
61 75 97
61 76 98
52 65 84
48 60 78
53 66 84
58 71 90
59 72 92
54 65 83
56 69 87
51 63 80
62 75 95
54 67 85
53 66 85
52 63 80
57 70 88
57 71 91
56 68 86
55 67 86
57 70 90
57 70 89
51 63 80
51 62 78
56 68 86
54 66 84
59 72 92
53 64 81
54 66 84
54 68 88
53 65 83
58 72 93
54 66 85
53 65 83
56 69 89
53 65 82
62 76 97
54 66 84
53 65 84
48 59 74
50 61 78
45 55 70
49 60 76
48 60 76
58 70 89
49 60 77
47 58 75
51 62 79
51 62 78
50 61 78
47 58 74
52 64 82
50 60 76
49 59 74
49 60 77
51 63 80
50 61 78
55 67 85
49 60 76
49 60 77
48 59 75
48 59 76
44 54 68
50 61 77
47 56 71
49 60 77
51 62 79
55 68 86
46 56 71
51 62 80
49 60 76
50 61 78
49 58 73
49 60 75
44 53 68
52 64 82
45 55 70
51 62 78
49 60 76
49 60 77
47 57 71
50 61 78
52 64 81
49 60 75
49 60 76
50 61 79
51 62 78
45 56 71
50 61 77
50 62 79
51 62 78
52 63 79
55 67 84
46 56 71
51 62 79
50 62 79
51 63 81
52 63 80
51 62 79
47 58 76
51 63 80
54 67 85
54 66 84
52 63 79
46 56 71
44 55 71
50 60 77
52 64 81
46 57 73
51 62 79
51 62 80
48 59 76
51 63 80
48 58 74
54 66 83
46 57 74
54 66 84
55 68 87
57 70 89
58 71 90
52 65 83
58 70 89
54 66 85
53 66 84
55 67 86
54 66 85
52 65 83
54 67 87
57 71 91
55 67 86
50 62 80
55 68 86
56 69 88
52 63 81
59 72 93
57 70 89
56 69 89
60 74 94
59 72 91
58 71 91
58 70 90
55 68 88
61 76 98
60 73 93
58 73 94
56 69 88
56 69 89
53 66 85
57 69 88
56 69 89
55 69 89
57 71 92
60 75 97
56 69 88
53 66 85
58 72 94
56 69 89
56 69 89
55 69 89
51 64 82
56 69 89
58 72 93
62 77 100
64 79 101
60 75 96
60 73 94
58 71 90
61 75 97
61 75 97
59 73 94
62 76 97
58 72 93
65 81 104
61 76 98
58 71 92
56 70 89
60 74 96
63 77 99
61 76 99
55 69 88
57 70 90
61 75 96
60 75 96
60 75 97
63 79 102
64 80 103
57 71 92
62 78 101
59 74 96
64 78 100
64 79 102
62 77 100
57 72 94
62 77 100
66 81 104
60 74 96
59 73 95
60 74 96
64 79 102
61 76 98
64 79 101
60 76 99
62 77 101
64 79 103
64 79 103
60 75 97
63 79 103
58 73 94
69 85 109
58 73 95
65 81 104
57 71 92
60 74 96
63 79 102
61 75 95
65 80 104
63 79 102
66 82 106
64 80 103
61 76 98
61 75 96
63 78 101
64 80 103
65 80 104
61 77 100
60 74 96
64 80 104
65 82 107
66 82 105
64 80 103
66 82 105
63 79 103
60 74 96
59 73 94
64 79 101
67 83 106
63 79 103
63 79 102
69 86 110
65 81 105
63 78 101
66 83 108
65 80 103
67 83 107
64 80 103
66 81 105
64 79 101
61 76 98
62 79 103
67 83 106
65 80 102
66 82 105
65 80 102
65 80 102
67 83 109
62 78 101
63 79 102
66 83 107
68 84 107
69 85 111
65 81 105
61 77 100
68 84 109
67 84 110
66 82 107
68 86 112
67 83 106
63 79 102
63 79 103
70 87 111
63 79 102
64 80 105
69 85 108
64 79 102
65 81 105
70 87 112
67 83 108
71 87 112
66 83 107
65 80 103
67 84 109
67 84 109
70 87 112
66 83 107
66 82 107
65 81 104
65 80 103
65 82 107
66 81 103
63 79 102
70 87 112
67 83 108
67 83 107
63 79 103
66 81 105
69 86 111
68 84 109
64 80 105
64 79 103
61 77 100
62 76 98
66 82 106
65 81 106
62 77 99
60 74 96
63 79 103
62 78 101
69 85 110
69 86 112
65 81 105
66 82 106
59 73 95
68 84 108
65 80 102
68 84 107
62 78 102
60 76 100
62 77 101
67 83 106
66 82 105
61 76 98
65 79 101
63 79 103
62 77 100
64 80 103
64 80 103
65 80 104
62 78 102
63 79 102
65 80 103
66 83 108
66 82 106
64 80 103
64 80 105
63 77 100
58 72 94
59 74 95
62 77 100
60 75 97
67 84 109
63 77 99
63 78 100
65 81 105
63 79 101
64 80 102
60 74 96
60 76 98
59 75 98
58 74 96
56 70 91
59 74 96
63 77 99
64 79 102
60 75 96
62 77 100
62 76 99
62 77 99
63 79 102
62 76 98
58 72 92
59 73 94
59 74 97
65 81 105
55 69 89
64 79 102
60 75 97
68 84 107
65 80 104
60 74 96
62 77 99
59 73 94
55 69 89
59 74 95
60 74 96
63 77 100
52 65 84
64 79 101
65 80 102
60 74 95
57 70 91
57 70 91
56 70 90
59 73 95
62 77 99
57 70 90
64 80 103
58 72 92
62 76 99
54 66 86
55 67 86
59 73 95
54 67 86
62 76 98
57 70 89
58 72 92
58 71 90
56 69 88
56 69 89
55 68 88
59 71 90
64 79 102
60 74 95
48 59 75
57 70 91
58 71 91
62 77 99
59 72 93
58 71 91
52 65 85
60 75 96
58 72 93
58 71 91
60 74 95
56 70 90
60 73 94
57 69 88
50 62 80
55 67 86
53 65 83
54 66 85
51 63 82
53 65 84
50 62 80
56 69 88
55 68 87
59 72 90
59 73 93
52 64 82
49 60 76
46 57 74
55 68 86
52 63 81
55 67 87
56 69 88
53 64 80
54 66 84
57 69 87
57 70 89
51 62 79
50 61 78
50 61 77
46 57 72
48 60 77
55 67 85
53 65 82
43 53 68
47 58 75
52 64 82
53 64 81
47 57 73
51 63 81
51 63 81
55 67 84
55 67 85
44 55 70
57 69 86
46 57 73
47 58 74
56 68 86
55 67 85
54 65 81
48 59 75
44 54 68
47 56 71
45 55 70
45 55 70
50 61 78
48 59 75
48 59 75
49 60 76
50 61 78
51 62 79
50 61 77
48 59 75
49 60 75
46 56 71
54 65 81
54 65 82
44 54 69
43 53 66
48 58 73
49 60 76
49 59 75
49 60 76
52 64 81
42 52 66
53 64 81
47 57 73
55 67 85
53 65 82
47 57 72
51 63 80
46 57 72
54 66 83
45 55 69
48 58 74
49 60 77
48 60 76
53 64 81
44 54 68
53 66 84
56 68 86
51 62 78
49 60 76
51 62 79
52 64 81
53 64 82
48 58 74
51 62 79
52 63 80
54 67 85
56 68 87
54 66 84
51 62 79
55 68 87
56 69 89
53 64 82
52 64 82
53 65 84
54 66 85
55 67 87
55 67 85
51 62 80
55 68 88
53 65 84
54 66 85
52 65 84
49 61 79
47 59 76
58 71 91
54 67 85
51 62 79
59 72 92
52 63 81
56 69 89
58 72 92
54 67 86
56 69 89
56 69 88
55 67 85
60 74 94
60 73 94
57 70 91
53 65 84
53 66 85
53 65 84
54 67 86
63 77 98
59 72 91
55 69 90
60 74 96
57 71 91
59 74 95
54 67 87
58 72 92
55 67 87
56 69 88
56 69 88
55 68 87
56 68 87
56 69 89
53 66 85
56 69 89
56 69 89
60 75 97
56 69 90
57 71 93
59 74 95
60 74 96
61 76 99
62 78 101
59 73 94
59 74 95
60 74 96
59 74 96
61 74 95
56 69 90
56 70 91
56 71 92
59 73 93
61 75 96
61 76 99
59 74 96
58 72 93
62 76 98
65 80 103
61 75 97
63 78 101
61 75 96
62 77 99
60 75 97
61 76 98
55 69 89
61 76 99
61 76 98
67 82 105
64 80 103
62 77 99
64 79 101
58 72 93
62 76 96
63 79 102
59 75 97
64 80 103
63 78 101
59 73 94
64 80 104
61 76 99
66 82 106
64 79 103
62 77 100
64 78 100
63 78 102
66 82 107
61 76 99
63 78 100
65 81 105
68 85 110
65 81 106
64 79 102
66 82 105
64 79 102
65 80 103
62 78 101
62 77 99
64 79 102
67 83 107
65 80 102
65 81 104
63 78 100
62 77 100
62 78 101
63 78 101
66 82 105
62 78 102
68 84 109
64 80 105
62 77 99
65 80 103
63 79 103
61 76 98
64 79 102
68 84 107
60 75 97
64 80 104
67 83 108
63 79 104
68 84 109
69 85 111
67 83 108
59 74 96
66 82 106
67 84 108
67 83 106
63 78 100
65 82 106
65 80 103
66 82 107
60 75 98
68 85 111
66 82 105
65 81 105
71 88 114
62 77 100
64 80 105
65 80 104
66 82 107
69 85 110
63 79 101
65 81 104
66 82 106
70 87 111
63 78 101
67 83 107
65 81 105
64 79 101
67 84 111
63 78 101
69 86 110
67 83 107
66 83 107
69 86 111
67 84 110
62 78 101
66 81 105
65 80 103
66 82 105
67 83 108
64 79 102
66 82 107
62 79 103
67 84 109
61 75 98
65 80 104
61 77 100
60 75 98
65 80 104
65 81 106
63 79 103
66 82 105
65 81 105
68 85 111
61 76 99
65 82 106
63 78 101
69 85 110
61 75 97
65 82 107
65 80 104
62 78 101
60 76 99
65 81 105
61 76 98
67 83 106
64 80 104
65 81 103
62 77 101
63 79 101
64 80 104
66 82 107
68 84 109
60 75 98
67 83 106
62 77 100
64 81 105
67 83 106
65 81 105
60 75 98
67 83 106
67 83 107
65 81 105
60 74 95
68 84 110
65 81 105
66 82 105
65 80 103
62 77 99
65 81 105
64 80 104
62 78 101
58 73 96
61 76 99
62 77 99
59 74 95
63 77 100
65 79 101
61 76 98
61 76 98
63 78 100
62 77 100
65 80 102
60 74 96
64 79 102
60 75 96
57 71 91
66 81 104
62 77 99
58 73 95
62 77 99
62 78 101
66 81 103
63 78 100
59 73 93
63 77 99
62 75 96
60 75 98
55 68 88
59 72 92
64 80 103
63 79 102
57 71 92
56 69 89
56 70 91
59 73 95
62 76 98
58 72 92
61 76 97
55 69 90
57 71 92
60 74 94
58 72 92
61 75 97
57 70 90
59 72 92
59 73 94
62 76 97
62 76 97
58 71 90
53 66 86
58 71 91
57 71 93
65 79 101
59 72 92
53 66 86
58 72 94
57 69 89
58 71 91
54 66 85
60 74 96
50 61 78
58 72 92
59 73 93
55 67 86
56 69 90
55 67 86
54 67 85
58 70 89
59 72 93
50 62 80
59 73 94
56 69 89
55 68 87
54 66 84
55 69 89
59 73 94
57 71 91
56 69 88
56 70 90
55 67 86
52 65 84
52 64 81
56 69 88
48 60 79
56 68 87
55 68 87
57 71 92
54 67 85
55 68 87
56 68 87
44 54 69
53 65 83
54 66 84
55 68 87
58 71 91
52 64 82
52 64 81
51 63 81
50 61 78
47 58 75
53 64 81
53 64 81
51 62 79
56 67 85
49 60 76
53 65 82
47 58 73
57 69 88
54 66 84
52 64 82
52 63 79
51 62 79
48 59 75
45 56 73
47 57 73
53 65 84
53 65 83
50 61 78
43 52 65
52 64 82
50 60 76
49 59 73
46 56 71
59 71 90
50 60 76
49 60 77
55 67 85
56 67 85
48 59 77
48 59 76
49 59 73
47 58 74
45 54 69
53 65 83
48 59 75
45 56 71
46 56 71
52 63 81
51 63 81
52 63 80
47 58 73
51 61 77
50 60 76
49 59 75
54 65 83
53 65 83
45 54 69
52 63 79
51 63 80
49 60 76
48 59 75
51 62 78
49 60 76
54 66 85
47 58 74
49 59 74
52 63 79
54 66 84
49 60 76
43 51 64
49 61 77
47 58 73
54 65 83
55 67 86
50 62 78
55 66 84
51 64 82
53 66 84
49 60 77
55 67 84
58 71 90
47 58 74
51 62 79
48 59 75
52 64 81
60 73 92
48 59 75
53 66 84
57 70 91
51 62 78
50 61 79
48 59 77
56 68 87
57 70 90
48 59 76
53 65 83
55 69 90
55 67 85
52 63 80
50 61 78
62 74 93
57 69 88
54 67 85
56 69 88
47 58 75
53 65 83
54 66 84
54 66 85
58 71 91
56 69 89
57 69 88
57 70 89
54 67 86
55 66 84
55 67 85
58 71 91
59 72 92
59 73 94
55 68 87
58 73 95
51 64 83
57 70 90
55 69 88
59 73 93
56 69 89
58 71 92
59 72 93
59 72 91
59 72 93
59 73 95
64 78 100
57 70 91
56 68 87
64 79 101
58 72 93
60 75 97
55 68 88
61 75 96
62 77 99
60 74 95
62 76 98
60 75 96
60 75 97
60 73 93
63 79 101
58 72 93
59 73 93
61 76 99
64 79 101
61 74 95
58 72 94
65 82 106
64 79 100
57 71 90
60 74 95
60 75 97
60 75 97
58 72 94
61 75 96
62 76 98
60 74 96
65 80 104
64 79 102
61 75 95
56 71 93
65 80 103
63 78 100
58 73 94
57 72 93
61 76 98
61 76 99
59 73 95
61 76 99
67 83 107
60 75 98
65 80 103
63 78 101
63 78 100
65 81 106
61 77 100
60 75 97
59 74 96
64 80 103
67 83 107
68 83 106
61 76 98
63 77 98
62 76 98
61 75 97
64 80 105
61 76 99
67 84 110
64 80 103
62 78 101
62 78 101
67 83 108
66 82 106
66 83 108
62 78 102
60 74 96
62 77 99
61 76 99
65 81 105
62 77 99
62 78 101
67 82 106
63 79 103
65 81 104
61 76 97
63 76 97
65 81 104
61 75 97
62 78 102
70 87 113
65 82 108
70 87 112
67 83 107
66 82 107
67 83 108
61 77 101
63 79 102
66 82 106
64 79 103
65 80 103
65 81 106
65 81 104
70 86 111
65 81 104
69 85 109
67 84 108
64 79 102
61 75 97
64 80 103
67 83 108
65 80 101
66 81 104
67 83 107
66 83 107
65 81 105
66 82 106
64 79 102
64 79 103
64 80 104
66 82 106
68 83 107
66 82 106
65 82 107
65 81 105
68 84 108
70 86 111
68 85 111
63 78 101
67 83 107
64 80 105
65 80 104
64 80 105
66 82 106
62 77 100
61 78 103
66 82 106
61 77 100
68 85 110
66 82 106
62 77 99
60 75 98
65 81 106
67 83 108
70 87 111
60 76 98
68 84 109
61 75 96
66 80 103
64 80 104
67 83 107
66 82 106
67 82 104
65 80 104
60 74 96
65 81 106
66 82 105
60 75 97
60 73 94
65 81 105
67 83 107
63 78 101
64 80 104
58 72 95
63 78 102
62 78 101
63 78 102
62 77 100
64 80 105
61 76 98
66 82 107
63 79 104
63 79 103
62 77 99
66 81 104
65 81 105
62 77 100
63 78 101
61 76 98
61 76 98
64 79 102
64 80 105
62 77 99
62 77 101
62 77 100
65 81 105
64 80 103
61 76 97
61 76 99
61 77 100
66 82 106
62 77 100
67 83 107
62 77 100
58 73 95
62 77 99
62 76 98
57 71 93
63 78 102
66 80 103
60 76 99
59 72 93
60 75 98
58 72 94
62 77 99
59 73 95
60 74 95
66 82 107
63 77 100
62 77 100
61 75 96
61 76 98
61 75 95
59 74 97
62 77 98
62 77 98
57 70 90
64 79 102
57 70 90
58 73 94
64 79 102
55 68 88
55 68 88
61 76 98
57 71 91
61 76 98
63 77 98
57 71 91
63 77 99
64 79 102
65 80 102
59 74 95
60 74 95
56 69 89
57 71 91
58 71 91
61 75 98
60 73 94
58 72 92
51 64 82
56 69 90
57 70 89
59 73 93
57 71 90
58 71 92
63 78 101
57 70 90
55 68 89
53 65 83
52 64 83
53 66 85
55 68 86
54 66 85
54 67 87
51 63 81
60 74 95
60 74 95
61 75 95
59 73 94
56 69 87
58 70 89
56 69 89
58 72 92
55 68 87
56 70 90
54 67 87
55 66 83
53 65 83
53 65 83
52 64 83
55 68 87
53 65 82
54 67 85
58 71 91
55 68 86
58 71 89
52 65 84
49 60 77
53 65 83
50 61 78
52 64 83
58 72 93
47 59 75
50 61 77
51 63 80
53 66 85
53 65 84
53 65 84
48 59 76
57 69 88
51 61 78
53 65 84
54 66 83
55 67 84
54 66 85
51 62 79
48 59 76
50 60 76
54 67 86
50 62 79
50 62 79
54 65 83
50 61 77
53 64 82
51 62 79
47 57 72
51 62 79
53 64 81
52 65 84
51 62 78
49 61 79
50 61 78
55 67 86
50 60 77
46 56 72
51 63 80
52 63 80
44 53 67
51 63 81
50 61 78
50 61 78
48 59 74
51 63 80
53 64 80
46 56 72
50 61 78
45 54 68
48 59 75
54 65 82
54 66 84
49 61 78
54 66 84
54 66 84
46 57 73
46 56 70
54 66 84
55 67 86
51 62 79
49 59 76
52 63 80
49 60 77
53 65 83
53 65 82
44 54 68
49 60 77
49 61 78
50 61 78
51 62 80
44 53 66
54 66 84
52 64 81
51 63 81
48 59 76
53 65 83
46 57 72
55 67 85
51 63 80
54 67 85
52 64 82
53 64 82
59 73 93
50 62 79
52 64 81
54 66 84
50 61 79
47 58 73
54 66 84
60 73 93
53 65 82
51 63 80
51 63 81
56 69 89
51 62 80
51 62 80
55 67 86
49 61 78
56 68 87
55 68 86
53 65 84
47 58 73
58 72 92
52 64 82
53 66 85
54 67 86
54 67 86
54 67 85
56 69 88
57 70 91
57 71 91
57 69 89
54 66 85
60 73 94
63 77 97
56 70 90
63 78 100
57 69 88
55 68 87
52 65 84
52 65 83
57 71 91
57 71 91
55 67 87
52 64 82
58 72 93
60 74 95
55 67 86
56 69 88
57 70 91
62 77 100
57 72 93
59 73 94
58 71 92
62 76 97
58 73 94
62 77 99
60 73 93
56 69 89
55 68 88
60 74 96
63 79 103
65 79 100
57 70 90
58 72 94
59 73 95
61 74 95
62 78 101
60 75 97
58 72 93
60 75 96
63 78 100
56 69 89
59 74 95
63 77 99
62 78 101
65 81 105
60 75 97
63 77 99
59 74 96
61 75 96
64 79 102
64 79 102
64 79 102
59 74 95
59 73 94
62 77 98
67 83 107
62 77 98
63 79 103
59 74 96
62 77 99
63 78 100
65 80 103
61 76 99
59 73 93
60 75 98
66 82 106
61 76 98
64 78 99
65 79 101
61 74 95
66 82 105
66 81 103
64 79 102
61 76 99
67 83 107
63 78 101
66 82 106
61 76 98
64 79 102
57 71 92
63 79 103
65 81 104
60 75 97
66 82 105
64 79 103
63 78 101
64 79 101
66 82 106
61 75 96
60 75 96
62 77 99
65 80 104
63 78 101
64 78 100
64 80 104
65 81 105
64 79 103
63 79 103
64 80 105
67 84 109
63 78 101
62 78 102
64 79 103
66 82 105
73 90 116
63 78 101
65 81 104
65 81 105
67 84 108
65 80 104
66 82 106
67 84 109
64 79 103
62 78 102
65 81 104
62 78 101
61 77 100
68 85 109
64 81 106
69 85 110
64 80 102
69 85 110
67 84 109
71 88 113
67 84 109
65 80 104
67 83 109
68 85 110
68 84 108
64 80 104
66 82 106
65 81 104
65 81 104
62 77 100
69 86 111
68 83 107
69 86 110
64 81 105
68 84 107
70 87 112
64 80 103
68 85 110
67 82 106
65 80 104
67 84 109
70 87 112
67 82 105
68 84 108
65 81 106
67 83 106
66 83 107
67 83 106
64 79 102
67 84 108
63 78 102
65 81 105
64 80 105
62 77 100
61 76 99
62 77 99
63 78 101
66 83 107
67 83 107
60 76 99
67 83 106
60 75 97
65 82 106
60 75 98
65 82 106
67 83 106
66 82 108
66 82 105
60 75 98
67 83 108
65 81 105
64 78 101
63 77 99
61 77 100
60 74 96
60 76 99
68 84 108
65 80 104
64 80 104
64 80 103
63 78 100
66 82 106
66 82 106
66 83 108
61 76 99
63 77 100
64 81 105
67 83 106
62 77 101
63 79 103
61 76 98
66 81 105
65 80 103
66 81 104
60 75 98
67 82 105
62 77 100
63 78 102
64 79 103
64 80 103
60 75 97
62 76 98
63 78 102
65 80 104
64 80 103
61 75 97
61 76 98
55 69 91
58 71 92
62 76 97
62 77 100
58 73 94
58 72 94
61 75 97
65 80 103
58 72 92
64 80 103
57 70 90
61 75 97
57 71 91
59 74 95
60 74 95
64 80 103
61 75 96
59 75 97
59 74 96
54 67 86
58 72 94
54 67 85
61 75 98
62 77 101
56 70 90
54 67 88
59 74 96
56 69 89
58 71 92
62 77 98
59 73 95
63 78 100
62 76 97
58 72 94
56 70 90
62 76 96
58 73 94
60 73 94
60 75 98
49 61 78
59 74 96
52 65 83
59 73 94
59 73 94
58 71 92
59 72 93
58 72 92
57 71 91
53 66 85
57 70 90
54 67 86
58 72 93
61 75 95
52 64 83
53 66 85
59 73 93
56 69 87
57 71 93
56 68 87
53 65 83
57 70 89
57 71 91
62 77 100
56 68 86
52 65 83
53 65 83
58 72 94
53 66 84
58 72 92
55 68 87
52 65 84
53 65 84
52 64 81
55 67 85
55 67 86
55 67 85
52 64 82
57 70 89
49 60 76
50 61 78
54 66 83
55 67 85
55 68 86
54 66 85
47 57 73
56 68 86
60 74 94
42 52 68
50 61 78
49 60 77
54 66 84
49 61 78
53 65 83
54 65 83
50 61 79
52 64 83
56 68 87
54 67 86
53 64 81
51 63 80
55 67 86
50 61 78
54 66 85
59 73 93
51 62 79
49 59 74
48 59 75
53 65 81
48 59 75
56 69 87
52 64 82
49 60 76
55 66 84
49 60 77
49 60 77
56 68 86
51 63 81
58 71 90
51 62 78
53 65 83
51 62 78
51 61 77
52 64 82
49 60 76
57 69 88
54 65 82
59 71 90
50 61 77
61 73 92
51 63 81
51 62 80
51 62 79
54 65 82
46 56 71
51 62 79
53 65 82
53 64 82
53 64 82
52 64 82
46 57 73
48 58 73
52 63 81
53 65 81
43 53 68
52 64 81
49 60 77
50 60 77
47 58 73
47 58 74
59 73 92
53 64 82
47 57 73
51 63 80
56 68 87
48 60 78
53 65 83
53 65 84
52 64 83
52 63 79
53 65 84
51 63 81
49 60 76
49 60 77
52 63 80
56 69 88
57 69 88
55 68 87
60 72 91
62 76 96
57 70 89
52 63 80
53 65 83
54 67 85
49 60 77
54 66 84
55 68 87
57 71 91
58 71 90
52 64 82
51 63 81
59 72 92
59 72 92
51 63 81
56 69 88
55 67 87
54 67 87
57 71 90
53 66 85
56 70 92
53 66 85
57 71 91
57 70 89
56 69 90
54 67 86
56 71 92
54 67 86
57 70 89
61 75 96
63 77 98
57 71 91
57 71 91
61 76 99
58 72 93
58 72 93
60 74 95
59 74 95
57 70 90
58 71 91
55 68 87
62 77 99
62 75 96
60 74 95
59 73 93
60 73 92
57 70 91
60 74 95
65 81 104
59 72 92
61 75 95
62 77 100
57 72 93
56 71 92
57 71 93
59 74 96
60 74 95
64 79 101
59 73 95
59 74 95
63 78 101
62 77 99
61 76 97
59 73 95
64 78 99
60 76 99
63 78 101
60 74 96
60 76 100
59 73 94
62 77 99
57 71 92
63 77 99
63 77 97
61 76 98
60 75 98
61 75 97
62 77 98
65 81 104
65 81 105
63 78 101
60 74 95
64 78 100
62 77 99
67 83 107
64 81 106
63 78 100
65 81 104
64 79 103
60 74 96
64 80 104
65 80 102
64 79 103
62 77 100
65 80 103
68 84 108
61 77 100
63 78 100
61 76 98
65 80 103
62 77 100
64 80 103
64 79 103
64 80 105
61 76 99
65 81 105
61 75 97
59 74 97
66 81 104
64 80 105
64 81 105
67 83 108
61 77 101
62 76 98
65 81 105
66 82 107
61 75 97
66 82 107
59 74 96
66 81 104
63 80 106
64 80 104
68 85 111
66 82 106
61 76 99
66 83 107
62 77 99
66 84 110
63 79 102
68 84 108
61 76 97
64 81 105
64 80 104
65 81 105
67 83 107
66 84 110
63 79 103
64 79 102
66 83 107
65 80 103
67 83 106
69 85 110
66 82 106
67 83 107
64 80 104
65 81 105
67 83 107
68 85 109
64 80 103
66 82 106
64 79 103
65 82 106
67 83 106
70 86 110
61 76 98
65 81 104
65 81 106
61 77 99
68 84 109
70 87 112
65 80 104
64 80 103
65 82 108
66 82 106
67 84 109
64 80 105
69 86 112
65 81 105
68 84 109
67 83 107
66 81 105
66 82 106
60 74 96
64 79 102
68 84 108
69 86 111
68 84 109
62 77 100
67 84 108
66 82 105
71 88 114
64 79 101
63 78 101
61 76 99
60 75 96
63 79 102
63 78 101
66 82 106
64 81 105
66 82 106
65 81 106
66 81 105
63 79 101
65 81 105
64 80 104
67 83 108
58 73 94
61 75 97
66 81 104
67 83 108
66 82 106
62 78 103
68 84 108
63 78 101
63 78 102
62 76 99
58 72 94
62 77 100
65 80 104
62 76 99
66 82 106
64 80 103
65 81 106
66 82 107
69 86 111
65 80 104
67 83 107
63 78 100
62 78 101
62 77 99
62 77 99
61 76 99
63 79 102
56 69 90
60 75 96
61 76 99
62 76 98
62 77 99
58 72 93
60 75 97
63 78 100
66 81 105
58 71 92
59 73 95
58 71 92
62 77 100
62 77 100
59 73 94
60 75 97
61 76 99
64 78 101
56 70 91
61 77 100
64 79 101
60 74 95
60 75 96
58 72 93
56 70 90
65 82 107
57 71 92
57 71 93
60 75 97
60 74 96
59 73 94
66 82 105
56 70 91
60 74 96
57 72 93
57 70 90
58 72 92
59 73 93
60 75 96
57 71 92
61 76 98
61 76 98
58 73 95
60 74 96
61 75 97
56 69 89
61 75 96
62 75 96
59 72 93
54 67 86
54 67 85
57 72 93
57 70 90
60 75 98
61 76 97
50 61 79
60 74 95
57 70 91
59 73 93
58 71 91
55 68 87
56 69 89
57 71 91
56 69 88
59 73 93
58 72 92
63 78 99
57 71 91
53 64 82
60 73 94
56 69 88
58 71 90
57 70 91
55 68 86
54 66 85
55 68 88
54 67 87
52 64 83
49 61 78
56 69 87
55 67 86
59 72 92
50 62 79
54 67 85
52 64 81
52 65 83
55 68 87
55 68 87
54 67 86
51 62 79
57 69 88
56 69 88
56 68 86
53 65 83
53 65 83
54 66 84
51 63 80
54 67 85
55 68 88
57 70 88
55 67 86
53 65 82
56 68 86
55 68 86
53 64 81
50 62 80
53 65 83
54 66 83
47 57 73
52 64 82
57 70 90
49 61 77
51 63 80
51 62 79
51 62 79
54 64 80
52 63 81
46 56 72
50 60 76
51 62 79
51 63 81
52 63 81
52 64 83
51 62 78
51 62 79
52 64 80
52 63 80
51 62 78
51 63 80
50 61 77
44 55 72
43 52 66
56 68 87
57 69 88
57 70 89
50 61 78
48 57 72
57 69 87
43 53 69
54 66 84
48 59 76
54 66 84
52 62 79
53 66 85
50 61 79
53 64 81
46 57 73
53 64 82
51 62 79
49 60 76
51 62 79
52 63 80
51 62 80
52 64 82
52 64 81
50 61 78
53 64 82
53 65 83
53 65 84
48 58 73
55 68 86
55 67 86
47 58 73
54 67 85
52 63 81
52 63 81
51 62 80
52 63 81
53 65 84
56 68 87
53 66 86
55 68 88
51 62 79
59 72 90
55 67 85
52 64 81
54 66 85
54 67 85
55 67 86
45 54 69
52 64 82
50 61 78
54 66 84
46 57 73
51 62 80
52 64 83
61 74 94
55 68 87
54 67 85
57 70 89
56 68 86
58 72 92
59 72 92
52 64 83
54 67 85
59 72 92
54 67 87
59 73 94
57 70 90
59 72 91
57 71 91
59 73 94
55 68 87
55 68 87
55 68 86
58 71 91
52 64 81
58 72 93
49 61 79
55 68 87
54 68 88
57 70 89
64 79 102
61 75 95
64 79 102
60 74 95
57 70 90
55 68 87
60 75 96
59 73 94
62 76 98
61 75 96
59 74 97
59 73 94
55 69 90
63 78 101
62 76 97
61 75 96
62 76 98
62 76 98
55 69 89
60 75 97
62 77 100
60 75 98
61 75 96
61 75 96
57 70 89
61 77 100
63 79 103
62 76 98
61 77 99
62 78 102
58 71 91
63 79 102
65 80 104
58 73 96
56 70 90
57 72 93
62 77 99
59 73 93
60 74 96
62 77 100
63 79 104
61 76 98
63 77 99
64 80 104
64 79 101
62 77 100
63 78 101
60 75 97
58 72 94
61 75 96
60 76 99
61 77 100
60 74 96
66 83 107
63 78 101
65 81 106
62 76 99
60 74 96
62 76 98
64 80 103
61 76 98
65 81 104
63 79 103
59 73 95
65 80 102
61 76 98
70 87 112
63 78 101
61 76 98
68 84 108
65 81 105
60 75 96
61 76 99
63 78 101
65 81 106
63 78 102
64 79 103
65 80 103
66 83 109
66 82 105
68 85 111
68 85 110
67 83 106
62 78 102
66 82 107
64 80 103
64 79 101
72 88 111
64 79 101
63 79 103
65 80 103
66 83 107
63 77 99
62 77 100
66 82 106
65 80 103
68 85 111
67 83 107
70 87 112
65 81 105
64 79 103
63 79 104
67 82 106
64 79 102
66 83 107
67 83 108
62 77 100
61 76 99
64 81 105
64 80 104
65 81 106
62 77 98
64 81 105
63 78 100
64 81 105
69 85 109
70 87 112
68 84 109
64 80 104
64 80 104
58 74 97
67 82 106
60 75 97
64 80 105
66 82 107
66 82 106
67 83 107
61 77 99
67 84 109
66 82 106
66 81 105
68 86 111
65 81 105
63 79 101
62 78 101
67 83 107
62 78 101
65 80 104
64 80 105
64 80 103
65 82 106
66 82 107
66 83 108
64 80 103
61 76 98
62 77 100
66 83 107
68 84 108
66 82 106
65 80 104
61 76 98
65 80 103
59 75 98
59 74 97
67 83 108
63 78 101
64 80 103
65 80 104
61 76 100
66 83 107
65 81 104
62 78 100
62 78 102
62 78 103
61 76 98
68 84 108
64 79 102
63 78 100
62 77 99
64 78 100
64 80 105
61 76 99
62 78 101
63 78 101
62 77 101
59 74 96
65 82 106
63 78 100
61 76 100
65 82 107
66 81 104
61 76 98
63 79 101
64 79 101
63 79 103
65 81 105
57 72 94
64 79 102
65 81 104
62 78 102
63 77 100
61 76 98
61 76 98
65 81 103
61 76 98
63 77 99
63 78 101
66 81 105
58 73 95
65 80 102
64 80 104
65 81 105
65 81 105
63 78 101
62 77 100
64 80 104
60 74 96
61 76 99
61 75 96
62 77 100
60 74 95
59 74 96
58 72 92
60 74 95
59 73 94
60 74 96
65 79 100
60 73 94
60 75 96
57 71 91
60 75 97
56 69 89
59 74 95
65 80 103
55 68 88
65 80 102
63 79 101
58 72 93
58 71 91
57 70 89
62 77 100
58 72 94
64 77 98
61 75 96
57 70 88
58 71 92
58 72 93
58 71 92
57 71 93
57 70 90
55 68 89
50 62 79
58 71 90
54 68 88
58 72 94
56 69 87
49 61 79
56 69 90
55 68 88
53 65 83
55 67 85
56 69 89
55 68 87
59 73 93
55 68 87
52 64 83
57 70 90
52 64 83
55 68 88
57 70 91
51 62 79
56 68 86
55 68 86
54 68 88
54 67 87
56 69 89
53 64 82
56 69 89
53 65 83
55 68 88
54 66 85
50 63 81
52 64 83
56 69 89
57 70 89
53 66 85
60 74 95
55 67 85
50 62 80
52 63 79
59 71 90
53 65 84
52 64 83
56 69 88
52 63 80
51 62 80
55 67 85
55 67 85
53 65 83
53 66 84
49 60 77
52 64 81
57 70 88
46 57 73
52 64 82
47 59 76
52 63 80
55 67 86
52 63 79
47 58 74
51 63 81
54 66 84
47 57 72
47 57 73
52 63 79
52 64 81
53 64 82
47 57 72
53 64 81
52 63 81
45 55 70
50 61 78
52 63 79
52 64 81
58 70 89
51 62 79
47 58 73
54 67 85
50 61 78
53 65 82
50 61 77
52 64 82
50 62 80
55 67 86
51 63 81
50 62 81
47 59 77
50 62 79
52 63 80
52 64 82
59 71 90
52 64 81
50 61 76
53 65 83
57 69 87
54 66 83
52 64 82
57 70 89
47 58 74
57 70 89
55 66 83
51 62 79
48 60 78
47 57 72
51 61 77
51 63 81
46 56 71
53 64 82
57 70 89
48 60 77
60 74 93
58 71 91
54 65 83
51 63 81
47 58 74
53 64 81
52 64 81
50 62 79
55 67 85
53 66 84
56 69 89
53 65 83
50 61 78
47 58 75
55 68 87
50 61 79
55 68 87
55 68 87
54 67 86
53 65 84
53 65 83
57 71 92
56 69 88
54 66 85
57 70 90
56 69 88
57 70 90
55 67 86
61 75 97
52 63 80
55 68 86
57 69 89
60 74 94
59 73 93
60 74 95
57 69 88
53 64 82
55 68 87
58 72 93
55 68 88
52 64 83
59 72 93
53 65 83
57 70 91
60 73 92
52 63 81
58 70 90
56 69 88
48 60 78
58 72 93
61 76 98
53 66 84
57 70 89
57 70 91
60 74 94
59 73 94
61 75 95
59 72 92
61 75 96
61 75 97
57 70 90
55 67 86
60 74 95
56 69 89
59 73 94
57 71 91
61 76 98
66 82 104
54 68 88
61 74 94
58 72 93
59 73 95
60 74 95
59 74 95
59 73 93
59 74 96
60 74 95
60 74 95
55 69 89
52 66 86
63 78 100
59 73 94
59 72 92
68 85 110
65 80 103
55 69 89
58 72 92
59 74 97
63 77 97
64 79 101
54 68 89
62 78 102
62 77 98
62 77 100
60 74 96
62 76 97
65 79 102
60 73 93
62 77 100
63 78 100
61 76 97
54 68 88
58 73 95
59 75 98
64 79 102
59 73 94
66 82 106
64 80 103
62 77 98
59 73 94
58 72 93
61 76 99
66 81 105
65 80 102
64 79 103
62 76 97
67 82 106
63 78 100
64 80 104
67 82 105
61 77 99
65 80 104
67 82 105
63 78 100
62 77 100
63 78 100
67 83 106
62 77 99
64 79 103
64 80 104
60 76 99
65 80 103
62 77 101
61 76 99
64 79 102
66 82 107
66 82 105
60 74 95
66 82 106
66 83 108
68 84 109
66 83 108
64 79 102
65 80 104
65 81 106
64 79 102
63 78 100
65 80 103
63 79 103
63 77 99
69 86 111
68 83 106
64 81 107
65 81 104
68 85 109
72 89 114
65 82 107
67 83 108
65 81 105
65 80 103
64 80 104
63 79 103
68 84 109
65 81 104
65 81 105
62 77 99
62 78 102
65 81 106
65 81 105
66 82 106
64 79 102
63 78 101
62 77 99
63 79 102
68 84 109
68 84 108
65 80 103
68 84 107
66 81 104
66 84 110
66 82 106
62 77 99
62 77 100
69 86 110
62 77 99
64 80 104
65 81 105
65 81 104
60 76 98
63 78 102
65 81 104
66 82 107
61 76 99
66 82 107
62 77 100
60 75 96
65 81 105
64 81 106
65 80 103
63 78 101
66 82 105
69 85 110
66 82 106
65 81 104
60 74 97
64 79 103
60 75 98
72 89 115
65 81 105
66 82 105
64 79 101
66 81 104
64 81 106
62 77 100
64 80 103
64 81 105
69 85 109
70 85 109
61 77 100
65 81 106
60 75 96
65 82 106
63 79 102
64 79 102
60 75 96
66 82 107
66 82 107
66 81 103
67 82 105
60 75 98
66 82 107
63 79 103
62 77 99
61 76 98
64 79 102
62 77 101
64 79 102
64 79 102
58 72 93
61 76 99
64 78 100
61 76 98
67 82 105
62 76 98
63 78 100
66 81 104
59 73 94
59 74 96
65 80 103
61 76 98
64 78 100
64 79 103
62 76 97
58 72 94
59 73 95
63 78 102
64 79 102
62 76 98
59 74 96
61 75 97
60 76 99
62 77 100
59 73 94
63 78 100
58 74 97
60 74 94
59 73 94
61 76 98
64 79 101
57 71 91
59 73 94
59 73 93
53 66 85
61 76 97
56 69 89
60 75 97
55 69 89
59 72 93
57 71 92
59 72 93
51 63 82
58 72 94
56 69 89
54 67 87
59 72 91
59 73 93
60 75 96
56 69 88
57 70 89
60 74 94
58 72 92
62 77 100
56 69 88
60 74 95
57 69 88
57 71 93
57 70 89
58 71 91
52 64 82
55 68 86
59 73 94
56 68 87
59 74 95
58 72 93
55 67 86
57 70 90
56 68 87
56 69 88
55 67 85
55 67 86
55 68 87
56 68 87
59 73 93
59 73 93
54 68 88
56 69 89
56 69 87
55 68 87
56 69 88
53 66 84
56 68 86
54 66 83
58 71 91
53 66 86
54 66 84
54 66 84
58 71 90
51 64 84
53 65 83
54 66 84
54 66 84
56 68 87
54 66 85
52 63 80
49 60 78
61 75 96
55 67 86
51 63 80
49 61 78
49 61 79
49 59 75
56 68 86
56 68 87
47 58 75
57 70 88
54 67 85
51 62 78
47 57 72
50 61 78
52 65 83
56 69 88
54 65 83
50 60 77
56 68 86
55 67 85
54 66 84
53 66 84
57 70 89
48 59 76
52 64 82
54 65 83
53 65 83
47 57 73
48 59 75
51 62 79
52 64 81
47 58 75
47 57 73
49 60 76
52 63 81
52 63 79
52 63 81
52 65 83
51 62 79
51 62 78
54 67 85
55 67 86
49 60 78
51 63 80
49 60 77
53 65 82
54 66 84
48 59 74
53 64 82
52 64 82
53 64 82
50 61 79
53 64 81
49 60 76
54 66 84
49 60 77
58 71 91
51 62 80
53 65 82
52 64 82
51 63 80
55 67 85
50 60 76
56 69 88
50 61 78
57 69 87
51 62 78
58 71 89
56 68 87
49 61 78
47 58 74
53 65 83
57 71 91
54 67 85
55 68 87
55 68 87
44 54 70
46 57 73
57 70 90
54 66 84
55 67 86
53 66 85
55 68 87
54 67 86
56 69 89
53 65 82
48 59 75
50 61 79
57 70 90
62 76 98
54 67 86
55 68 86
56 68 87
56 69 89
55 68 88
57 70 90
56 69 88
56 70 90
56 69 89
58 70 89
54 67 87
61 75 96
59 73 94
61 75 96
63 78 99
60 74 95
53 65 84
55 69 89
65 80 104
52 65 83
57 71 92
54 68 87
56 68 87
61 77 100
60 74 96
54 67 87
61 76 98
59 73 94
63 76 97
55 68 88
54 66 85
59 73 94
59 73 95
58 72 93
56 70 91
58 72 94
56 70 90
57 71 92
63 78 100
59 73 94
60 74 94
60 73 94
65 81 105
54 66 85
61 76 97
64 79 102
59 72 93
60 74 95
57 71 91
59 73 95
58 72 94
63 79 102
63 79 102
54 67 87
58 73 96
60 74 96
57 72 94
64 80 103
59 73 96
62 78 101
67 83 107
60 74 95
61 76 98
57 71 90
63 79 101
62 77 100
59 73 94
64 80 105
60 75 97
61 76 98
58 72 93
60 74 95
64 79 101
62 77 99
65 80 104
59 74 96
65 80 103
62 77 100
66 81 104
62 77 99
65 80 104
68 84 108
61 76 99
63 78 101
62 77 100
59 73 94
62 78 101
60 74 97
62 77 99
63 79 103
68 83 106
59 73 95
62 77 100
63 78 100
63 80 104
66 82 105
65 81 104
65 80 103
62 77 100
65 80 104
57 71 93
60 75 98
63 78 101
66 82 105
66 83 107
65 81 105
65 80 103
66 82 105
66 83 109
66 83 107
66 82 107
66 82 106
67 83 107
62 78 102
64 80 104
63 78 101
63 78 102
67 83 108
63 79 102
68 84 109
64 80 104
64 80 103
66 82 106
67 82 105
65 82 106
59 74 96
63 79 103
65 81 105
66 82 106
70 86 110
64 80 104
66 82 106
61 76 99
69 85 109
65 82 107
63 79 104
65 82 108
63 79 103
67 84 108
65 81 106
68 85 109
66 82 106
66 83 110
66 83 107
62 76 98
70 87 113
65 81 104
68 84 109
63 78 101
64 79 102
63 78 101
62 77 101
65 79 101
70 86 111
65 82 107
69 85 109
66 84 109
63 78 101
67 83 108
65 82 107
67 83 107
65 81 105
68 83 106
64 80 104
65 80 103
63 78 101
62 77 100
68 85 110
66 82 105
66 82 106
64 80 103
65 81 106
64 79 102
68 85 111
66 83 107
65 80 103
61 76 98
64 79 103
65 81 105
65 81 105
65 80 102
65 81 104
60 74 96
62 77 99
65 80 104
65 81 104
61 77 100
61 75 97
64 79 102
61 77 100
64 80 104
66 82 108
58 73 94
61 76 98
64 79 101
61 77 99
68 84 108
70 87 113
64 79 102
67 82 106
61 75 96
61 76 99
58 72 94
63 79 103
64 80 104
61 76 98
67 82 106
61 76 99
63 79 102
57 72 93
59 73 94
61 77 101
61 76 99
62 77 99
62 77 99
65 80 102
61 76 98
61 76 99
62 76 98
61 76 99
65 80 103
63 79 103
64 79 102
63 77 100
61 76 98
63 79 102
66 82 105
60 75 97
53 67 87
61 75 97
61 75 96
59 74 95
66 83 107
61 76 99
61 75 97
56 69 89
56 70 90
59 73 94
61 76 97
58 72 93
60 75 97
53 67 86
64 79 101
59 73 96
62 77 98
58 73 94
54 67 86
64 79 101
58 71 92
61 76 97
60 74 95
58 72 92
61 76 98
59 72 92
60 74 95
59 73 94
57 70 91
58 72 92
58 72 92
58 72 93
59 73 95
64 79 101
61 76 97
54 67 86
61 75 95
58 72 93
54 68 88
57 70 89
60 74 96
63 78 100
56 69 88
55 68 86
61 75 95
55 69 89
55 68 87
57 71 91
56 69 88
57 70 89
62 76 97
53 66 84
57 71 91
60 74 94
55 68 87
60 73 93
53 65 83
58 71 92
53 66 86
58 71 90
54 66 85
55 68 86
60 74 95
55 68 87
55 68 88
49 61 78
51 62 79
59 73 94
54 66 83
54 67 86
59 73 94
55 67 86
52 63 81
53 65 83
55 68 87
52 64 82
51 63 81
53 65 82
52 64 82
51 62 79
54 66 84
52 64 82
54 65 83
49 60 78
48 59 76
54 66 84
47 58 75
54 65 83
55 67 86
53 64 82
53 65 82
49 60 76
46 56 72
58 71 90
54 67 85
48 59 75
54 66 85
51 63 80
51 62 79
47 57 72
48 60 77
55 68 87
53 65 83
53 64 81
54 66 84
50 61 77
50 62 79
47 58 74
53 65 84
50 62 79
51 63 79
48 58 74
46 57 73
51 62 80
58 72 91
52 64 82
51 62 79
52 64 80
49 61 78
51 63 82
53 65 82
47 58 74
55 67 86
56 69 88
46 56 72
57 70 88
53 65 83
50 61 78
49 59 75
54 66 84
52 64 83
52 64 82
59 72 92
50 61 78
56 67 84
58 72 91
45 55 71
48 59 76
51 62 79
54 66 84
55 68 86
51 63 81
54 66 83
50 61 78
54 66 85
51 62 79
54 66 83
51 62 80
56 68 86
52 63 81
58 71 90
55 68 87
52 64 81
52 64 83
51 62 80
52 64 82
51 62 79
56 68 87
58 71 90
54 67 86
50 62 80
59 72 93
51 64 82
55 66 84
57 70 88
56 69 88
56 68 86
56 69 88
52 64 82
57 71 92
60 75 97
52 64 81
50 61 78
54 67 86
57 70 89
54 67 87
56 69 88
51 63 81
55 68 88
60 73 93
58 71 91
57 70 89
56 68 87
56 68 87
61 74 95
56 69 88
55 68 86
54 67 86
60 74 94
52 64 83
59 73 94
62 76 97
60 73 93
60 75 96
61 76 97
56 69 89
59 73 93
52 64 83
57 70 91
62 76 98
60 74 95
57 70 90
58 72 93
61 75 97
63 78 100
60 74 95
59 73 94
56 69 89
62 76 97
57 70 90
62 76 98
57 70 90
59 74 96
60 73 93
59 72 93
63 77 99
58 71 90
58 72 93
62 77 100
56 69 89
61 75 97
53 66 86
59 73 94
59 73 94
64 79 102
59 74 96
58 71 92
58 72 93
61 74 95
65 80 103
60 74 95
66 80 102
67 83 106
63 78 101
61 75 97
62 77 98
64 79 102
63 78 101
64 80 104
59 74 98
63 77 98
59 73 95
64 79 102
58 72 94
60 74 96
60 75 98
64 79 102
63 78 102
62 76 98
63 78 100
63 80 104
63 78 100
59 75 97
61 75 98
62 77 100
64 81 105
59 74 97
64 79 101
62 77 100
64 80 103
64 81 106
59 73 94
64 80 103
64 79 101
70 86 110
61 75 98
69 85 110
66 82 105
58 73 95
61 76 99
61 76 99
62 78 100
62 77 100
64 80 104
61 76 98
67 83 107
62 76 98
62 77 100
60 75 97
65 80 103
63 78 100
65 81 105
59 73 93
60 75 96
61 77 99
63 79 102
63 79 102
62 78 101
63 78 102
67 84 110
63 79 102
68 85 110
63 79 103
68 85 111
65 80 104
67 82 106
66 82 105
66 82 106
65 80 103
65 80 102
65 81 104
68 84 108
64 79 102
66 81 105
66 83 109
66 83 108
68 85 111
63 78 102
65 81 105
67 83 107
69 86 111
62 78 101
64 80 104
68 85 110
67 83 107
66 83 109
61 76 99
64 80 104
66 81 105
60 74 96
67 83 107
64 79 102
63 80 104
66 82 105
66 82 105
63 79 101
66 83 108
62 78 102
70 86 111
67 83 108
61 76 99
65 81 106
69 86 111
62 78 101
68 84 108
64 81 105
68 85 110
68 84 107
63 79 103
65 81 104
64 80 104
62 78 102
65 79 102
61 77 101
64 80 103
65 81 105
66 82 107
65 82 107
62 77 100
66 80 102
63 78 100
60 74 95
61 75 96
61 77 100
70 86 111
70 87 112
65 81 105
62 76 97
64 79 102
64 79 103
58 72 92
67 83 106
67 83 107
62 77 98
64 80 104
66 83 107
64 80 105
62 78 102
66 82 106
65 81 105
60 75 97
64 80 103
68 84 107
61 76 98
61 76 98
58 73 94
60 75 96
63 78 101
56 70 91
63 79 103
60 75 97
64 79 101
58 72 94
64 79 103
57 71 92
63 78 101
60 74 96
62 78 100
69 86 111
58 72 93
62 77 101
59 74 96
63 79 104
62 76 98
62 78 101
59 74 95
62 76 99
65 81 105
66 82 106
63 77 99
60 76 99
64 78 100
60 75 96
59 74 97
62 77 99
64 79 101
60 74 96
57 71 92
61 75 97
61 76 99
59 73 95
58 73 94
58 72 93
61 75 96
60 74 95
56 69 90
64 79 101
57 70 90
57 70 91
61 75 95
60 74 95
57 71 92
59 72 92
64 78 100
62 77 101
64 79 103
56 69 89
58 71 91
60 74 96
60 74 95
58 72 92
61 76 98
59 73 94
51 63 80
58 72 93
58 72 93
58 72 92
60 74 96
55 68 86
51 63 82
55 68 87
52 65 84
57 70 89
51 62 79
55 69 90
51 63 80
53 66 86
57 70 90
54 67 86
52 65 84
61 75 96
56 69 89
56 69 88
54 66 85
57 69 87
55 68 88
57 71 90
50 61 78
56 70 89
54 66 85
57 70 90
55 68 87
57 70 90
62 76 97
54 67 87
56 68 87
57 70 91
55 67 86
61 75 96
52 65 84
53 65 84
55 67 85
53 65 83
52 64 83
57 70 91
53 64 80
54 66 86
56 69 89
57 70 89
52 63 81
54 67 86
51 62 80
55 68 87
51 62 80
50 61 78
51 63 81
50 62 79
58 72 93
57 71 91
49 61 78
54 67 86
53 65 83
47 59 75
47 57 73
52 64 83
57 69 87
52 64 82
49 60 77
52 64 82
54 66 85
44 55 71
55 67 85
49 60 77
49 61 78
51 63 81
47 57 73
46 57 72
53 66 84
50 61 78
50 62 79
53 64 82
56 69 87
47 58 74
49 60 77
49 60 78
54 67 86
52 63 79
54 67 85
57 69 88
48 59 75
51 63 81
54 66 84
50 61 78
49 60 77
54 66 85
51 62 80
55 69 88
50 61 78
51 63 81
54 66 85
59 72 92
47 57 73
49 60 76
52 63 80
55 67 86
58 70 89
53 65 83
51 63 79
50 62 79
55 66 83
55 68 87
54 67 85
49 59 74
59 71 89
60 73 92
53 65 82
51 62 79
54 66 83
54 65 83
55 67 86
54 66 83
52 63 80
53 65 83
53 64 81
53 66 84
53 66 84
53 66 86
58 70 89
59 72 92
54 66 84
58 70 90
54 67 86
57 69 88
50 62 81
58 72 92
52 65 83
51 62 79
54 67 86
55 68 89
51 63 81
59 73 94
54 66 85
59 72 92
61 75 96
57 70 90
55 68 87
56 68 87
58 71 90
57 70 89
53 66 86
55 69 89
58 72 93
57 70 90
54 67 86
51 63 82
53 66 85
61 75 96
52 64 83
56 71 92
55 68 88
60 73 94
58 72 92
60 74 96
58 71 91
50 62 80
58 72 92
57 69 89
55 67 85
57 70 89
55 68 88
63 78 99
59 73 93
56 69 88
61 77 100
60 74 96
61 76 98
61 76 99
55 68 87
53 65 83
60 74 95
54 69 90
59 74 95
55 69 89
61 75 96
59 73 94
59 73 94
61 76 98
58 71 91
59 73 94
63 78 100
62 77 100
64 79 102
60 74 95
55 69 89
58 73 95
55 68 88
62 77 100
57 71 92
62 77 100
64 80 103
60 74 95
62 77 98
63 78 100
59 73 94
59 72 93
60 74 95
62 77 100
59 74 95
60 74 96
62 77 99
63 77 98
59 74 96
65 80 104
67 82 106
65 81 105
62 78 101
59 74 95
63 78 100
63 77 99
60 75 97
62 76 96
64 79 101
65 80 103
67 83 107
65 79 101
66 81 103
63 79 102
56 71 93
68 84 109
64 81 106
61 75 96
61 75 97
63 79 103
63 78 100
59 75 98
65 80 103
62 77 99
63 78 100
64 80 104
63 77 99
64 79 101
63 79 103
61 75 96
66 81 105
64 80 103
64 80 103
60 75 98
63 79 102
67 83 108
61 76 98
62 78 102
65 81 104
67 82 105
64 79 102
63 78 101
68 84 108
62 77 100
65 81 104
63 79 104
62 77 100
64 80 103
64 80 103
70 87 113
63 79 102
67 83 107
69 86 111
70 86 111
66 83 107
65 81 104
62 78 102
60 75 97
67 83 109
65 81 104
67 83 107
62 78 101
65 81 104
68 85 110
63 79 103
65 80 103
69 85 109
67 83 107
64 79 103
67 83 107
66 82 106
67 84 109
62 77 100
66 82 106
68 83 105
62 77 99
68 85 110
67 83 106
68 83 107
61 75 97
64 80 104
67 82 106
67 84 108
65 81 104
63 79 104
66 83 107
65 79 102
66 83 109
67 83 108
63 78 100
63 78 101
67 83 107
63 79 103
61 76 99
68 85 111
64 80 104
66 82 107
62 78 103
64 79 103
64 80 103
63 78 100
62 76 98
63 78 101
65 81 105
62 77 100
66 82 107
64 80 103
60 74 96
64 81 105
62 77 99
61 76 99
59 73 94
65 81 104
63 78 99
63 79 103
62 76 98
64 79 101
64 79 102
65 81 105
59 74 96
68 83 107
66 82 107
64 79 101
60 75 97
61 76 99
65 80 103
62 78 101
62 78 101
62 77 101
60 74 95
64 79 102
65 80 103
62 76 98
65 81 105
64 80 103
62 77 101
64 80 103
64 80 104
59 73 94
62 78 101
61 76 98
60 74 95
60 75 97
61 75 97
68 85 109
60 74 95
64 80 103
63 78 100
62 77 99
59 73 94
65 80 104
67 83 108
66 81 104
58 72 93
65 81 104
57 71 91
60 76 99
62 76 98
60 74 96
61 76 98
60 74 95
63 78 100
62 77 99
63 77 99
62 76 98
58 72 93
57 72 94
61 75 96
62 76 97
61 75 97
61 75 97
60 76 99
58 72 93
61 75 96
59 74 95
55 68 88
61 75 97
57 71 92
56 70 90
61 76 99
57 70 90
54 66 84
60 74 95
65 80 104
55 69 89
63 78 101
54 66 85
60 74 95
52 64 82
56 70 91
60 73 94
61 76 98
58 72 92
57 70 89
60 74 96
54 66 84
60 73 93
51 64 82
58 72 92
54 67 86
59 73 93
57 70 90
58 71 91
51 63 82
59 73 95
57 69 88
53 64 82
58 71 91
56 69 90
53 66 85
62 77 99
53 65 83
54 66 85
53 65 82
59 72 92
60 73 93
57 70 91
55 68 88
60 73 92
57 70 89
57 69 88
58 71 91
56 69 89
55 67 85
57 71 90
57 69 88
59 72 92
57 70 89
58 71 91
58 71 91
51 62 79
54 67 85
51 64 83
53 65 84
56 68 87
54 67 86
54 65 83
54 66 85
50 62 80
54 67 85
51 61 78
56 68 87
50 62 80
52 64 82
52 64 83
53 64 81
51 63 81
57 70 90
53 64 82
55 67 85
56 68 87
51 61 78
54 67 85
54 66 83
57 70 89
56 69 88
54 66 83
51 62 79
49 61 77
55 68 87
58 71 91
48 60 78
55 67 86
55 68 87
50 61 79
51 62 78
48 59 76
49 60 76
52 64 81
47 58 74
54 66 83
47 58 73
55 68 87
51 62 79
55 68 86
52 63 80
58 70 89
45 56 71
56 68 88
49 60 77
50 62 80
48 59 76
50 62 78
54 66 85
46 57 73
52 64 82
52 64 82
60 74 95
51 62 79
52 64 83
54 66 84
49 60 77
53 65 83
56 69 87
52 65 83
57 70 90
56 69 89
49 60 76
52 65 84
55 67 86
55 68 87
59 72 92
55 68 88
50 61 78
43 53 68
55 68 87
58 71 91
54 66 83
51 62 78
52 65 84
58 72 92
55 67 86
51 62 80
51 63 82
52 64 83
54 66 84
57 71 91
52 64 81
56 68 87
58 71 90
50 63 81
61 74 94
57 69 87
55 68 87
51 64 82
59 73 95
58 71 90
53 65 83
48 58 74
56 69 90
53 66 84
55 68 87
57 70 88
51 62 79
58 71 91
51 63 81
59 73 93
57 70 90
53 65 83
59 72 92
56 69 89
57 70 89
59 72 92
57 70 89
58 71 91
56 69 89
59 73 95
56 69 89
63 76 97
58 72 93
64 78 100
56 69 88
60 74 95
56 68 87
57 70 88
61 75 95
54 66 84
63 79 102
59 72 92
57 70 90
59 74 95
51 63 82
62 77 99
61 76 99
57 71 91
59 72 91
54 66 85
55 69 89
54 68 89
58 73 94
61 76 98
56 68 87
62 77 99
59 73 95
60 74 95
61 75 96
61 76 98
58 72 94
60 75 97
58 72 92
57 70 90
61 75 98
60 74 96
63 78 101
61 77 101
65 81 105
58 72 93
59 74 96
63 76 97
53 66 85
64 80 103
60 75 96
62 77 100
62 77 99
59 75 98
66 82 107
67 83 106
63 79 102
66 82 106
63 77 99
67 83 107
61 76 99
60 74 96
61 75 96
62 77 99
64 80 102
66 82 106
62 77 100
62 77 100
60 76 98
59 73 95
59 74 97
57 70 90
62 77 99
59 73 94
63 78 100
59 73 93
63 79 102
65 81 105
64 79 102
62 77 101
66 81 104
62 77 100
65 80 104
65 81 105
63 78 101
66 82 105
61 76 99
62 77 100
64 80 104
64 80 104
65 82 106
66 81 104
61 75 97
62 77 98
64 80 103
65 80 103
65 81 104
60 75 97
65 80 103
64 80 104
61 77 101
61 77 101
66 83 107
61 76 98
66 81 104
63 79 103
67 83 107
64 80 103
68 85 109
67 83 109
67 83 108
64 78 100
67 83 107
64 80 104
66 82 107
68 84 108
68 85 111
64 80 104
66 82 107
64 79 100
66 82 107
67 83 108
64 79 103
69 86 111
64 80 103
67 84 109
70 88 114
64 79 102
66 83 107
65 81 104
65 81 104
68 85 109
66 82 106
68 84 109
65 80 103
65 81 105
68 85 110
64 79 101
65 80 104
69 85 108
62 78 101
61 77 101
72 89 113
70 87 113
66 82 107
68 84 108
68 84 109
66 81 103
63 78 101
64 80 103
64 79 101
64 80 103
64 80 104
62 78 102
65 81 104
63 79 102
69 85 109
65 81 105
66 82 106
63 78 101
65 81 105
60 75 98
67 82 106
62 77 99
60 76 99
68 85 109
65 81 104
65 80 104
66 82 105
64 80 105
67 83 106
66 81 104
64 79 102
66 83 107
68 84 108
62 76 98
61 76 98
64 80 103
62 77 100
65 80 103
62 76 99
61 76 99
67 83 108
63 78 100
63 79 102
66 82 106
57 71 92
66 83 107
63 79 103
65 81 104
64 79 102
65 80 104
61 76 99
63 78 101
58 72 93
62 76 98
61 76 100
62 78 100
62 77 99
58 73 95
61 76 99
62 78 101
65 80 103
57 70 90
61 76 99
64 79 103
60 75 96
62 77 100
64 79 102
62 78 102
64 79 100
62 77 99
68 84 109
63 77 99
67 83 107
64 79 102
63 78 102
64 79 101
61 76 99
63 78 100
63 78 100
60 74 95
65 80 102
58 72 94
60 76 99
58 71 92
64 79 101
62 77 100
57 72 93
59 74 97
63 79 102
59 73 95
62 76 98
64 79 103
56 69 90
58 72 93
62 77 99
58 72 93
59 73 94
61 76 99
64 79 101
55 68 88
54 67 87
55 68 88
59 72 93
58 71 91
60 75 96
54 67 87
58 72 92
55 68 89
62 77 100
62 76 97
63 77 98
55 69 89
60 75 97
56 69 88
64 79 103
59 73 94
56 69 88
58 71 91
54 66 85
56 70 89
59 73 93
54 66 85
58 73 94
58 72 92
59 73 94
55 68 87
60 73 93
56 69 88
56 70 90
62 75 96
61 75 96
50 62 79
61 74 95
54 67 86
58 73 94
59 72 92
56 70 90
60 74 94
56 69 89
55 67 85
55 68 87
54 67 85
57 71 91
56 69 88
50 62 81
56 68 87
51 63 80
55 67 86
54 67 86
60 73 92
50 62 80
60 73 93
57 71 90
52 63 80
54 66 85
53 65 83
56 68 87
48 60 77
54 66 85
58 71 90
53 65 83
58 71 91
54 65 81
56 69 88
57 71 91
55 67 86
51 62 80
51 62 79
57 69 88
54 66 84
50 62 79
55 68 87
55 67 85
53 64 82
51 63 81
53 65 82
58 71 92
50 61 77
54 66 84
55 68 88
51 62 80
54 66 85
60 73 93
52 63 79
53 65 82
52 64 81
51 62 79
49 60 76
56 69 87
51 63 80
53 65 84
57 69 87
54 65 83
56 69 88
53 65 83
55 68 88
47 58 75
56 69 88
51 62 78
53 66 84
52 64 81
52 64 83
54 66 83
54 66 84
55 67 85
44 54 70
56 69 89
49 61 78
49 60 77
55 67 86
52 63 80
54 66 83
49 61 79
56 68 87
55 67 86
53 65 83
50 62 80
53 66 85
53 65 84
56 68 87
51 63 82
53 66 86
54 65 83
55 68 87
57 69 89
51 64 83
55 67 86
55 67 84
54 66 85
57 68 86
61 75 95
55 67 86
58 70 89
56 69 87
51 62 79
48 59 76
56 69 89
60 74 96
53 65 83
52 64 82
49 61 79
52 64 82
55 67 85
55 67 85
53 65 83
59 73 94
55 67 86
58 72 92
55 68 88
57 71 91
58 70 89
60 75 96
50 62 80
61 75 96
56 70 91
55 67 86
55 68 88
56 69 89
61 76 99
57 70 90
54 67 86
61 75 97
51 63 81
60 74 96
57 70 91
62 76 97
57 71 92
53 65 84
57 71 92
53 65 84
58 71 91
57 72 93
59 72 93
58 72 92
60 74 96
61 75 96
54 67 87
60 74 95
57 71 92
60 73 94
60 73 94
62 76 98
59 73 94
56 69 88
58 71 91
58 72 91
57 71 92
60 74 95
56 70 90
57 70 90
59 74 95
59 74 95
64 79 101
57 70 90
62 76 98
62 78 102
58 73 95
60 75 98
63 78 99
60 74 96
62 76 98
59 74 95
63 78 99
57 71 92
60 75 96
62 76 98
64 78 100
61 77 101
64 78 100
58 72 93
61 76 99
61 76 97
69 84 108
59 73 94
65 81 105
60 75 96
60 75 98
62 77 100
64 78 101
60 73 93
61 76 99
62 75 95
63 78 101
62 77 100
61 76 99
63 78 101
59 74 96
59 74 97
59 73 95
61 77 99
62 77 101
60 74 96
60 73 94
62 77 100
63 77 99
68 83 106
60 76 100
63 79 101
63 79 102
62 76 98
59 74 96
61 76 98
65 81 104
64 79 100
65 81 105
60 74 95
66 81 104
67 83 108
64 81 106
68 85 111
63 79 102
61 75 96
60 74 96
59 73 95
60 75 98
65 80 102
67 83 108
65 82 107
65 80 103
65 80 102
66 83 108
60 76 99
69 86 112
62 77 101
64 81 105
64 79 102
66 82 106
68 85 110
63 78 101
69 86 112
69 85 110
71 88 113
65 81 105
63 80 104
68 85 111
67 84 108
65 81 105
63 78 102
66 83 107
66 82 106
63 78 101
66 83 107
59 74 96
68 85 111
68 84 108
66 82 107
65 80 102
65 80 103
68 84 107
66 82 105
69 85 109
64 80 104
66 82 106
66 81 103
66 82 106
66 84 110
68 85 110
67 83 106
63 78 101
69 86 111
64 80 103
67 83 108
71 88 114
68 86 111
66 82 106
63 79 102
66 84 109
67 83 108
69 85 110
63 78 100
61 77 101
62 77 100
68 84 108
64 80 103
65 81 105
63 78 102
65 81 104
57 72 94
65 80 103
68 85 111
64 79 102
64 81 105
65 80 103
67 83 107
61 77 100
58 72 93
67 85 112
62 77 99
63 80 105
63 78 101
66 82 107
63 79 102
67 83 107
64 80 103
61 76 99
65 80 103
66 81 105
63 78 101
67 84 110
65 81 105
60 75 96
61 77 101
65 81 106
60 74 96
59 73 95
62 77 101
63 78 101
65 80 103
64 79 102
66 82 106
60 74 95
62 77 98
61 77 99
61 76 98
61 76 99
63 78 101
61 76 98
63 79 101
64 80 104
66 82 106
56 70 91
60 75 96
62 77 100
64 79 102
64 79 102
61 75 96
61 75 96
62 77 100
58 72 93
61 76 99
58 72 93
55 68 89
61 76 99
59 73 95
58 72 92
59 73 93
63 79 103
62 77 99
66 82 106
58 73 95
61 76 99
64 79 101
64 79 101
65 79 101
55 68 87
59 73 93
60 74 95
60 74 97
61 75 97
61 75 97
56 70 92
64 79 102
63 78 100
63 78 101
63 78 101
57 70 90
63 78 101
58 72 93
58 71 91
63 78 100
63 78 100
55 68 88
59 72 93
58 71 91
58 71 90
60 75 97
61 76 98
59 72 92
56 69 88
56 70 89
59 74 96
62 77 98
61 75 97
63 77 99
58 72 93
56 69 89
55 68 88
57 70 90
53 65 84
63 77 100
55 68 88
57 70 90
58 72 93
56 69 88
54 67 86
62 76 97
59 72 93
60 74 95
55 68 86
51 63 80
50 62 79
54 66 85
57 71 90
60 73 92
56 69 89
55 68 87
53 65 83
54 67 85
54 67 86
57 70 89
63 76 97
58 70 89
57 70 90
52 64 82
55 68 87
55 68 87
48 59 76
59 72 92
55 68 87
56 69 88
56 68 87
59 72 92
55 68 86
51 62 79
58 71 91
58 71 92
53 66 85
52 64 82
55 67 86
57 69 88
49 61 79
57 69 88
48 59 75
50 63 81
54 66 85
56 69 88
50 62 79
56 69 87
51 62 78
50 61 77
47 58 74
60 74 94
55 68 87
53 64 81
55 67 85
51 62 80
45 56 71
55 67 86
53 65 84
54 65 82
55 66 84
49 60 77
51 63 80
51 63 80
58 72 92
54 66 84
55 67 86
55 67 85
50 61 78
55 68 87
55 67 85
48 59 75
53 64 82
50 61 78
51 62 80
53 66 86
50 61 78
51 62 79
52 64 82
56 69 88
50 60 76
51 63 80
51 63 80
54 66 85
55 67 86
56 68 86
55 68 86
57 71 90
53 64 82
54 66 84
50 62 79
54 66 83
59 72 93
48 59 75
46 57 73
51 62 80
49 60 77
53 64 81
54 67 86
56 69 88
53 66 84
53 65 83
54 65 83
57 70 89
53 65 82
57 69 88
50 62 79
52 65 84
51 62 80
48 60 77
51 63 82
51 63 81
52 65 84
53 65 83
52 64 81
57 70 90
61 76 98
56 68 86
54 67 87
56 69 88
57 70 90
57 70 90
53 66 84
55 68 87
56 69 89
51 64 83
55 68 86
54 66 84
58 70 88
57 70 90
58 71 91
63 77 100
58 71 92
56 69 89
62 76 97
51 62 80
57 70 90
56 69 88
59 73 93
59 73 93
59 72 93
54 68 88
56 69 90
54 68 88
60 74 95
55 69 89
58 71 91
53 66 85
59 71 91
62 77 99
49 61 79
51 63 80
58 72 93
59 73 94
60 74 96
56 69 89
58 71 92
57 70 90
56 70 90
60 75 97
64 79 101
57 71 91
60 73 93
62 75 95
56 70 91
59 72 92
67 83 106
63 78 100
59 73 95
58 73 95
62 77 99
60 74 96
62 77 98
65 80 102
61 74 94
61 76 98
58 72 94
57 71 92
55 67 85
60 75 96
64 79 102
58 71 92
56 69 90
60 75 96
57 71 93
60 74 95
63 78 100
63 79 103
55 69 91
58 72 93
60 74 95
65 81 104
58 72 94
63 78 101
62 76 98
67 82 106
61 76 98
62 77 99
55 69 89
60 74 97
59 75 98
62 77 100
58 72 93
62 77 99
61 76 98
61 76 97
61 76 98
63 79 101
59 73 95
62 76 97
62 76 97
61 75 97
58 73 94
65 81 104
62 77 99
65 82 108
62 77 100
60 75 97
59 74 97
66 82 105
64 80 103
62 76 99
67 83 108
59 74 95
60 76 99
62 76 98
64 79 102
62 78 101
67 83 107
70 86 110
65 81 105
60 75 96
65 80 104
66 82 106
64 80 104
65 81 106
62 78 101
62 79 103
65 81 106
68 84 107
65 79 101
67 82 106
65 80 104
63 79 102
60 74 95
65 81 106
68 84 109
66 83 108
67 84 109
61 76 99
67 83 106
64 80 104
66 83 108
62 77 99
67 84 108
67 83 108
63 79 102
61 76 100
60 75 97
65 81 105
65 82 107
66 82 107
62 76 99
65 81 104
68 84 110
68 84 108
65 81 104
59 73 93
63 78 101
64 81 105
63 78 100
69 86 112
64 79 103
65 81 105
68 85 111
68 84 109
60 76 100
63 79 102
66 83 108
66 82 107
63 78 102
66 83 107
65 81 104
67 83 108
62 78 101
63 78 101
63 80 104
61 76 98
62 78 101
64 80 103
64 79 102
56 70 91
63 78 100
64 79 103
63 78 101
62 77 99
63 79 102
63 79 103
64 79 101
67 83 108
64 80 104
64 79 101
65 81 105
63 78 101
66 83 108
65 82 106
65 81 104
62 78 101
61 75 97
63 79 103
61 75 96
69 86 111
64 79 102
64 80 103
62 78 101
63 78 101
63 78 100
65 81 104
62 76 96
62 78 101
66 82 107
68 84 108
65 81 105
64 78 101
61 76 99
63 78 101
68 84 109
66 82 107
61 76 100
60 74 96
66 82 106
62 78 102
61 76 98
59 74 97
64 79 102
62 78 101
65 81 106
58 72 92
65 80 103
58 73 94
64 79 101
61 75 98
64 79 102
64 79 102
64 79 102
65 81 104
61 75 97
61 76 97
64 80 103
55 69 89
59 75 98
58 71 91
63 78 101
62 77 99
58 72 93
56 70 89
60 75 97
65 81 105
64 79 102
55 69 90
61 76 98
59 73 94
61 76 99
60 75 96
62 76 97
54 67 86
63 78 101
58 72 94
56 70 89
63 78 100
55 68 88
53 66 86
59 73 95
58 71 92
58 72 92
60 74 95
56 70 91
57 72 94
59 74 96
55 69 89
57 70 90
54 68 89
59 73 94
59 74 95
59 73 94
57 71 91
58 72 93
56 69 89
58 71 91
53 66 85
60 74 96
63 78 101
56 70 89
52 65 84
54 67 86
55 69 89
55 69 90
60 75 96
55 68 88
58 72 93
56 70 90
59 73 94
56 68 87
57 71 91
59 73 93
50 61 78
58 72 93
54 67 85
54 66 85
52 64 83
63 77 100
55 67 85
58 71 90
57 70 89
48 58 73
53 65 83
56 69 87
56 69 88
51 64 82
54 67 86
58 70 90
46 56 71
56 68 87
57 70 90
60 73 94
58 70 89
57 69 88
50 61 77
54 66 85
58 70 87
55 68 87
56 70 89
52 64 82
55 68 88
52 64 82
48 59 76
56 69 88
55 67 87
54 68 88
49 60 77
54 67 87
54 67 86
54 66 83
53 64 81
49 60 77
53 65 83
55 67 85
57 70 89
54 67 85
49 60 77
56 69 89
55 69 88
48 60 77
53 66 84
51 63 80
51 64 82
55 67 86
54 66 85
55 68 87
50 62 79
51 63 81
53 65 82
54 67 86
57 71 91
51 63 80
50 61 77
52 65 83
47 57 73
59 72 93
52 64 82
54 67 86
57 71 90
51 63 82
52 63 81
55 68 87
51 62 79
52 64 81
59 71 90
52 63 79
51 62 79
56 68 88
52 65 84
55 67 85
51 62 80
58 71 92
53 64 80
53 64 81
51 62 80
55 67 86
53 64 81
47 58 74
56 69 87
49 60 77
57 70 90
54 66 85
54 66 85
58 71 90
58 72 92
52 64 82
50 61 79
53 65 83
50 62 80
59 74 95
56 69 88
56 69 88
52 64 82
58 71 89
57 70 89
58 71 91
55 68 87
54 67 86
57 70 89
50 61 78
51 63 81
56 69 88
51 64 82
57 69 88
54 65 83
53 66 84
47 58 76
55 68 88
51 62 78
57 70 89
59 72 92
57 70 91
63 76 97
58 71 90
58 72 92
54 67 87
59 73 93
58 71 91
58 71 91
56 69 88
61 76 98
57 71 92
56 69 88
54 67 86
60 73 94
51 64 83
58 72 92
51 64 83
53 66 86
56 69 88
53 65 83
59 72 91
61 76 98
58 71 91
59 73 95
63 77 99
57 71 92
57 71 91
58 71 92
62 76 97
58 73 94
55 68 87
57 72 94
65 80 102
58 72 92
54 67 85
60 75 97
59 74 96
58 71 92
51 63 81
59 73 93
53 66 85
62 77 98
58 72 92
55 68 88
55 68 88
59 72 93
57 70 91
60 75 97
54 67 87
60 75 97
60 74 94
58 73 94
56 70 90
60 75 96
59 74 96
62 76 98
60 74 94
65 81 104
62 76 97
61 75 95
59 74 96
63 78 100
53 66 86
59 73 94
62 76 98
59 73 93
59 73 94
60 75 96
59 74 96
63 78 100
60 75 99
58 72 92
57 71 91
63 77 98
63 78 101
59 73 95
61 75 96
61 75 97
63 78 100
58 71 92
62 77 99
60 75 97
64 79 102
62 77 99
62 77 100
63 78 100
60 75 96
64 78 100
60 75 97
63 79 102
63 79 104
64 80 104
63 78 100
64 79 103
65 82 106
66 82 105
62 77 100
63 78 101
61 77 101
64 79 103
67 83 107
62 78 101
64 79 102
66 82 105
62 77 100
66 80 102
70 86 111
69 84 108
60 75 98
63 78 99
65 81 105
66 82 105
64 80 103
63 78 101
65 80 102
67 84 109
67 84 109
61 76 97
66 83 107
65 81 105
65 82 106
62 77 99
64 80 104
65 81 104
63 78 100
65 81 104
58 74 97
66 83 107
65 80 103
65 81 105
65 80 104
62 78 100
67 83 106
67 84 108
66 82 106
65 82 106
68 84 107
67 81 104
65 80 102
68 84 109
64 80 104
63 79 101
65 80 103
61 76 99
66 82 108
69 87 113
64 80 102
66 82 106
63 79 102
67 83 107
69 85 111
68 86 111
65 81 104
70 87 114
67 84 109
63 79 102
62 76 97
62 78 101
62 77 100
64 79 103
65 80 104
65 81 105
65 81 106
66 82 106
65 81 105
63 79 103
62 76 97
64 79 102
65 82 106
65 81 104
61 76 99
64 80 103
66 82 106
60 75 96
68 84 108
67 83 107
61 76 100
64 79 101
66 82 106
63 79 103
65 81 106
67 83 108
64 80 103
66 83 108
66 82 106
62 77 100
65 80 104
62 78 101
64 79 102
66 82 106
63 79 102
60 75 97
59 74 97
67 83 106
64 80 103
65 81 105
64 79 101
62 77 99
58 72 92
65 81 104
63 78 100
63 79 103
64 79 102
57 72 95
58 73 95
64 79 103
67 83 106
62 77 99
60 74 96
67 83 108
64 79 102
64 79 103
67 83 107
60 75 98
67 83 107
63 78 102
61 77 101
60 74 96
62 76 98
60 74 95
59 74 96
62 76 99
60 74 96
65 80 102
59 74 95
63 78 101
61 76 99
59 74 96
62 77 99
59 74 96
64 79 102
61 75 97
57 71 92
57 71 90
56 70 90
64 78 101
62 76 98
56 69 89
64 79 102
58 72 93
60 74 95
59 74 96
61 76 98
59 72 92
57 71 93
62 76 98
58 73 94
59 72 93
63 78 100
59 74 96
59 73 94
62 77 100
64 80 103
60 75 96
57 70 90
58 72 94
57 70 90
53 66 85
56 68 87
57 70 90
57 70 90
65 79 101
54 67 86
55 68 87
58 71 91
53 67 88
61 76 97
58 71 91
59 73 94
51 63 81
59 73 94
55 68 89
60 74 95
56 69 89
55 69 89
60 74 94
56 69 88
56 69 89
60 75 96
61 77 101
59 72 93
54 67 86
56 68 87
54 67 86
53 65 83
58 71 92
56 69 88
54 67 87
54 67 86
54 66 84
50 62 79
57 70 89
54 67 87
57 70 90
58 71 92
50 62 80
57 70 90
59 73 93
54 67 86
57 70 90
52 63 80
53 66 84
57 70 90
58 71 91
51 63 81
51 63 80
52 64 81
58 72 93
52 64 81
56 69 89
58 71 91
53 65 83
52 64 81
56 68 87
48 60 77
55 67 85
53 66 85
52 63 80
58 72 92
60 74 95
51 63 80
56 69 89
52 64 82
54 67 85
51 63 82
52 64 82
53 65 83
50 62 80
56 68 87
50 62 80
47 59 76
50 61 77
50 61 78
50 61 77
48 61 79
53 66 84
56 69 88
55 67 86
50 62 79
55 68 87
52 64 83
46 57 73
51 63 81
53 65 84
56 69 88
50 62 79
52 64 82
58 71 90
55 67 85
51 63 80
47 57 73
55 67 86
57 69 88
49 61 78
55 67 83
53 65 82
59 72 92
51 63 81
49 60 77
51 63 81
49 61 78
51 63 81
57 71 90
54 66 84
53 65 82
54 66 83
55 68 86
48 59 76
57 70 91
51 62 80
52 64 82
58 71 91
53 65 83
46 57 73
51 63 80
52 64 83
53 66 84
51 62 79
63 77 98
55 68 88
53 64 81
48 59 76
51 63 81
53 65 84
58 72 92
51 63 81
61 74 94
53 65 84
60 73 93
53 66 84
60 74 95
58 71 91
54 66 85
58 71 91
56 69 89
53 66 86
56 68 87
58 71 91
55 68 87
56 68 88
58 72 93
55 67 85
63 77 99
58 71 91
59 72 92
56 70 90
62 77 100
58 71 90
54 66 85
53 66 85
53 66 85
54 67 87
52 64 83
51 63 81
58 71 91
55 68 86
52 64 82
59 72 92
57 71 91
60 75 96
60 74 94
62 76 98
55 69 89
54 67 87
60 75 96
57 71 92
62 76 97
60 74 96
62 75 96
56 69 89
54 67 85
61 75 97
58 72 94
56 69 90
60 75 96
53 67 87
62 77 99
59 73 93
63 77 99
57 71 92
59 74 96
56 69 88
58 72 94
59 72 92
59 73 94
54 68 88
54 67 87
60 75 96
65 80 103
55 68 88
62 77 99
57 72 94
58 72 93
57 70 89
60 75 96
60 74 96
58 72 93
60 75 96
61 76 98
61 76 98
61 77 100
61 75 96
62 77 99
64 79 102
62 77 99
60 74 95
58 72 92
62 77 100
62 77 101
58 72 93
61 75 97
64 79 102
56 70 91
64 78 101
62 79 103
62 77 99
63 78 101
59 74 97
59 73 94
64 79 102
64 80 104
59 74 96
62 77 100
62 77 100
62 77 98
62 77 100
62 78 101
60 76 99
62 76 99
58 73 97
59 74 96
59 73 95
64 80 103
62 76 98
62 75 96
68 84 109
65 80 102
61 76 98
59 74 96
60 76 98
68 83 107
57 71 92
64 79 103
62 77 99
61 76 97
64 79 102
66 83 108
64 80 103
62 78 102
64 80 105
64 79 102
61 77 100
60 75 97
67 83 106
66 83 108
64 78 100
59 73 94
66 82 107
64 80 104
65 82 106
62 77 100
62 77 99
61 76 99
63 78 101
63 79 102
68 83 106
65 81 106
67 83 108
68 84 108
65 81 105
63 79 103
63 79 101
64 79 102
64 79 102
66 83 107
68 85 109
68 84 108
64 79 102
65 81 105
66 81 104
64 79 102
67 83 107
63 78 101
64 81 106
63 78 100
66 82 105
66 82 106
65 81 104
64 80 104
66 81 104
64 80 103
64 80 103
67 84 110
65 82 108
62 77 100
67 84 109
65 81 105
65 81 105
68 83 106
68 84 109
66 83 108
64 80 104
64 79 101
61 75 97
63 79 104
66 83 107
66 82 106
66 82 107
62 78 102
63 78 101
65 80 104
66 80 102
68 84 108
68 83 107
67 82 106
64 79 101
63 78 101
64 79 103
60 75 97
60 76 99
58 73 94
68 84 108
62 77 99
64 80 104
63 79 103
60 75 97
66 83 108
57 72 94
65 80 103
63 78 101
62 78 101
64 79 102
62 77 101
67 84 109
62 77 98
61 77 100
64 79 102
64 79 101
64 80 103
62 77 99
68 84 107
61 76 98
59 73 96
62 76 98
64 79 102
60 75 97
61 76 99
64 80 104
58 72 94
63 79 104
64 79 102
61 76 98
65 79 101
64 79 102
64 79 102
63 78 101
65 81 105
58 73 95
61 75 97
61 77 100
65 80 102
60 76 99
62 77 100
64 79 102
63 78 101
59 74 96
65 80 103
65 81 104
61 76 97
63 78 99
58 73 95
61 76 99
59 73 94
59 73 95
60 76 99
59 74 96
58 72 94
54 68 87
56 69 89
59 73 95
60 74 97
56 70 91
63 78 102
59 73 94
60 75 97
59 74 96
55 70 91
63 77 100
62 77 100
57 71 91
58 72 92
64 79 102
63 78 100
64 79 101
60 74 96
57 71 92
57 71 91
58 71 91
52 65 85
59 73 93
61 76 99
59 72 92
61 75 97
57 71 92
53 65 83
60 75 96
55 68 87
61 74 94
53 66 85
61 76 98
61 76 97
59 73 94
54 67 86
59 73 95
60 75 97
53 66 85
62 76 98
55 68 88
60 74 94
55 69 90
53 65 82
55 69 89
57 70 90
53 66 85
56 68 87
54 67 85
62 76 97
55 68 88
50 62 80
59 73 94
55 68 87
58 72 91
54 66 86
57 70 90
57 70 91
56 70 91
55 69 89
58 71 91
56 69 89
57 71 93
55 68 87
60 73 92
54 67 87
52 64 82
58 72 93
55 68 87
54 67 86
58 71 91
52 63 80
56 69 90
54 66 83
52 64 81
56 69 88
56 68 87
52 63 80
53 65 84
59 73 95
56 69 87
51 64 82
56 68 86
55 68 87
53 67 86
58 72 92
53 66 84
53 65 83
55 67 85
55 68 87
56 69 88
55 68 87
53 66 84
56 68 86
55 67 86
49 61 78
55 67 86
55 67 86
53 66 85
58 71 91
54 66 84
51 63 81
61 75 94
49 61 78
54 66 85
50 61 78
53 66 86
53 64 82
54 65 83
51 63 81
56 68 86
49 60 77
51 63 80
45 55 71
57 69 88
54 66 84
52 65 83
55 67 85
53 65 83
50 62 79
53 65 82
47 58 73
54 66 83
51 62 79
52 64 81
55 67 86
53 65 83
54 67 85
50 62 80
52 64 82
55 68 87
56 68 86
55 68 87
53 65 83
53 65 84
53 65 83
58 71 90
50 62 79
55 67 86
54 66 84
57 69 88
56 69 89
53 67 86
49 60 77
56 70 90
58 71 91
52 64 82
59 73 94
49 60 77
57 71 91
51 63 81
46 57 74
61 75 94
51 63 82
51 63 80
48 59 75
54 66 85
54 67 87
58 72 93
54 67 86
53 66 84
50 61 78
54 66 85
56 70 89
59 72 93
52 63 81
57 70 90
56 69 89
58 71 91
55 68 87
55 68 88
51 64 83
54 67 86
63 77 99
52 64 82
50 62 80
58 72 93
53 66 85
58 71 90
55 68 88
56 69 89
57 71 90
60 75 98
57 71 91
58 71 91
58 73 94
59 72 92
60 74 95
57 71 92
61 75 98
59 73 93
49 61 78
65 80 102
61 75 95
61 76 99
58 72 92
58 72 92
55 69 88
58 72 93
57 71 91
59 73 94
56 69 89
58 72 92
60 74 95
64 79 101
58 71 92
58 73 94
62 76 97
59 73 95
59 73 95
57 72 93
57 70 89
62 77 99
65 80 103
60 73 93
61 77 101
60 74 94
58 73 94
62 77 100
56 70 89
61 76 99
61 75 98
59 73 95
56 70 92
62 76 98
60 75 97
54 67 87
58 72 94
59 73 95
63 78 100
61 76 98
60 74 95
62 77 98
68 84 109
60 75 96
61 75 98
61 75 96
58 73 95
59 73 93
63 79 102
61 77 100
63 78 102
60 74 96
59 74 95
63 78 100
62 78 102
66 82 105
61 76 97
63 78 101
59 73 94
63 78 100
62 77 99
63 79 103
60 75 97
68 85 111
61 77 101
61 76 98
63 79 102
64 80 104
65 79 101
66 83 108
64 80 104
66 83 107
63 79 103
65 79 101
63 79 101
61 77 100
66 81 105
61 76 99
67 83 108
63 78 102
63 79 101
65 81 106
60 75 97
64 79 101
65 81 104
65 81 106
64 79 102
59 74 96
65 81 106
63 78 101
63 78 100
67 83 107
64 81 106
63 80 104
68 84 109
66 82 107
65 81 105
61 76 98
68 84 108
67 84 109
63 77 99
64 79 103
65 81 105
69 86 110
62 77 100
66 82 105
63 79 104
64 80 104
63 79 102
63 78 101
63 79 102
64 81 106
69 86 111
70 86 111
65 80 104
68 85 111
67 84 109
64 80 103
66 83 108
65 80 102
68 85 110
65 80 103
64 79 102
68 84 109
62 77 99
63 79 104
63 79 103
67 83 107
64 80 104
63 78 102
68 84 108
63 78 101
59 73 94
66 82 107
65 82 106
66 81 104
66 81 105
60 75 98
66 82 106
67 83 108
66 82 106
62 78 101
64 80 104
64 80 105
64 80 103
64 80 104
68 84 109
65 81 106
59 74 96
66 82 107
63 78 100
67 83 106
65 80 102
68 84 107
62 78 102
62 76 98
59 74 97
64 80 105
64 80 105
65 81 104
62 77 101
64 80 104
64 79 103
62 77 99
58 73 94
61 76 98
64 79 103
63 79 102
66 81 104
64 80 102
62 77 99
62 77 99
61 76 99
59 73 95
58 73 94
63 77 99
61 75 97
59 74 96
61 77 100
62 77 100
61 76 98
64 78 99
62 76 98
66 82 105
62 77 100
61 76 98
60 75 98
63 79 102
57 71 93
64 78 101
67 81 103
59 74 96
66 82 106
60 74 95
61 75 96
62 77 100
62 77 100
64 78 99
59 73 94
65 80 102
61 76 99
64 79 102
62 77 100
58 71 91
59 74 95
58 72 92
59 74 96
61 75 97
62 77 100
62 77 99
66 82 105
60 74 96
64 79 101
61 76 98
61 76 99
60 75 97
60 76 99
62 77 98
57 71 90
63 77 100
59 73 94
59 73 94
60 74 96
57 71 93
61 76 97
56 70 92
61 75 96
59 73 93
56 69 89
66 82 105
58 71 90
56 69 89
58 72 92
58 72 93
53 66 85
58 72 93
62 76 97
55 68 87
59 73 93
55 67 86
62 76 98
55 68 88
58 71 91
57 70 90
61 75 96
56 69 89
51 63 81
61 75 97
58 71 91
59 73 93
57 69 88
57 70 91
56 68 87
57 69 88
56 70 90
51 63 81
57 70 91
56 69 89
54 66 85
59 72 93
54 68 88
53 65 83
52 64 82
60 74 96
56 69 89
56 69 88
59 72 93
53 66 85
57 70 90
58 72 92
57 71 90
57 70 90
52 63 81
54 68 87
63 77 98
52 64 82
61 75 97
50 62 80
52 64 81
58 72 93
56 69 87
57 69 89
62 76 97
56 70 89
51 61 78
57 71 91
60 72 91
54 66 84
54 67 86
51 63 79
47 58 75
48 60 77
50 62 81
52 64 83
51 62 79
52 64 81
58 71 90
52 63 81
52 65 84
56 69 88
54 66 85
56 68 87
50 62 80
52 65 84
48 60 76
57 69 88
51 63 81
54 66 83
57 70 90
57 69 87
51 61 77
55 68 87
51 63 80
52 64 81
54 67 86
55 68 88
50 62 79
53 65 82
48 59 75
57 70 89
54 67 85
57 69 87
57 70 89
54 66 84
47 59 76
49 60 76
51 63 81
54 66 83
56 69 87
47 57 73
55 67 86
59 72 91
56 69 88
56 68 86
60 74 95
50 62 79
55 68 87
51 63 82
49 61 79
52 64 82
51 63 80
49 60 76
49 59 74
59 72 92
54 67 86
56 69 89
49 61 78
54 66 84
50 62 80
52 64 82
53 65 83
58 70 90
54 65 82
53 65 83
53 67 86
54 67 86
44 54 70
56 69 88
51 63 83
57 70 89
52 65 83
57 70 90
58 70 88
58 72 91
52 64 83
55 67 86
58 72 94
54 67 86
55 69 88
55 68 88
61 75 95
53 66 85
52 64 83
52 65 84
64 79 101
52 65 85
54 67 86
58 71 90
58 71 90
62 76 97
55 68 87
58 71 91
60 74 96
58 71 91
55 68 87
53 66 85
61 74 95
60 75 97
58 72 92
55 68 88
55 67 86
57 71 91
60 74 96
58 72 93
56 69 87
59 73 93
61 75 95
62 76 98
57 69 88
65 80 103
54 67 86
54 66 85
54 67 87
62 76 97
57 71 92
59 73 95
55 68 88
56 69 89
58 73 95
55 68 88
59 74 95
57 71 92
61 76 97
60 75 96
58 71 91
51 63 81
65 79 101
59 73 95
57 70 91
59 73 94
60 75 96
54 68 87
61 76 98
58 72 93
60 75 97
60 74 95
61 76 98
61 76 99
59 73 94
61 75 95
57 71 92
64 80 104
61 76 98
61 77 101
64 79 101
58 73 94
67 84 109
61 75 95
61 76 98
60 76 99
64 80 103
63 78 101
63 79 103
59 74 95
62 77 100
62 76 97
62 77 100
61 77 100
64 81 105
60 76 99
64 79 102
63 78 100
64 79 102
70 85 107
63 78 100
62 77 99
57 71 93
68 84 108
64 80 103
70 86 112
59 74 96
60 75 98
60 75 96
63 78 100
63 79 103
64 79 102
64 80 103
59 73 95
66 81 104
60 75 97
65 81 104
65 80 104
67 82 105
64 80 103
65 81 104
65 79 102
61 77 99
64 79 101
63 80 104
63 79 103
65 81 105
64 79 101
66 82 106
64 79 101
67 82 106
63 78 101
63 79 102
67 82 106
63 79 102
64 79 102
66 82 106
58 73 95
66 82 105
61 77 100
68 83 107
65 81 106
63 78 101
65 80 103
68 83 107
67 84 109
61 76 97
63 78 100
64 78 101
66 83 107
59 73 95
70 87 112
65 81 105
62 78 100
67 83 107
61 77 99
61 76 98
67 83 108
65 81 105
67 84 109
66 83 108
62 77 99
66 82 106
66 82 105
63 79 103
66 81 104
63 78 102
67 84 110
63 79 103
66 82 105
66 82 108
71 87 112
69 85 110
65 80 103
66 81 104
63 78 102
66 82 106
64 80 103
64 79 101
66 83 108
65 81 106
68 84 109
65 81 105
63 79 102
62 78 101
65 80 103
65 81 105
60 75 96
66 82 106
70 86 110
62 77 100
66 82 106
62 77 99
66 82 106
64 80 103
67 83 108
64 79 101
67 83 107
63 78 102
67 82 106
64 80 104
65 81 105
60 75 97
59 74 96
61 75 97
64 80 103
59 73 95
62 77 99
63 78 101
63 79 103
58 72 93
61 75 97
63 79 102
63 79 103
64 80 103
66 82 105
63 77 100
65 80 104
65 80 103
64 80 104
61 75 97
60 74 96
63 78 101
59 74 97
64 80 104
63 77 99
65 80 103
61 76 99
64 80 105
68 84 109
62 77 99
58 73 95
62 77 100
60 74 96
64 79 102
59 74 96
58 71 92
58 73 96
58 71 92
60 76 99
63 78 100
60 73 94
61 74 95
60 74 94
65 81 103
57 71 91
57 70 91
66 81 105
62 76 98
64 78 100
66 82 104
62 77 99
61 76 97
65 81 106
59 73 94
62 77 100
65 80 104
58 70 90
62 76 97
58 72 94
59 74 97
54 67 87
58 73 94
60 75 98
57 71 91
61 74 95
60 75 97
64 79 101
62 76 97
54 66 84
58 73 94
56 69 88
56 70 90
59 73 93
59 73 95
61 75 97
53 66 85
61 76 98
62 76 98
57 71 92
59 73 94
57 71 91
59 73 94
54 68 89
60 74 95
54 67 86
54 67 88
58 71 92
52 64 83
57 70 90
59 73 94
61 75 96
54 67 86
54 67 87
56 70 91
57 71 91
60 74 96
61 75 96
53 66 85
61 75 95
53 66 86
53 65 83
66 80 101
59 72 92
59 73 95
55 68 87
61 76 98
54 67 86
57 69 88
60 75 97
61 74 95
57 70 89
57 70 91
52 64 82
53 65 83
56 70 90
52 63 81
58 71 92
56 69 87
55 67 85
56 69 88
56 69 88
53 65 84
51 63 81
63 78 100
57 70 90
55 67 86
58 72 93
53 66 85
57 69 87
58 71 90
54 66 85
60 73 94
55 68 87
56 68 86
58 71 90
54 67 86
50 62 80
55 66 83
57 70 90
57 70 89
52 64 83
55 67 86
50 62 79
52 64 83
49 60 77
62 76 98
58 70 90
55 66 84
54 67 86
49 60 77
51 62 79
55 67 87
62 76 96
49 60 77
56 68 86
53 66 85
55 67 84
54 65 81
56 69 88
55 67 86
58 71 91
57 70 89
52 64 82
55 67 86
45 55 72
57 70 89
57 71 91
51 63 80
53 66 85
51 63 82
51 64 82
49 61 79
48 59 75
59 72 92
58 72 92
57 69 88
59 71 90
53 65 84
51 63 80
53 65 83
57 70 89
56 69 88
52 64 83
51 63 81
48 59 77
54 66 84
59 72 93
55 67 85
53 65 83
49 61 78
53 65 83
57 70 89
58 70 90
57 69 88
58 72 92
58 71 90
54 67 86
49 61 79
60 73 94
57 70 89
58 72 92
54 67 85
58 71 92
53 65 82
63 78 100
59 73 94
50 62 79
55 68 87
51 63 82
54 66 84
52 64 83
58 71 91
60 75 96
61 75 96
55 68 88
54 66 85
54 67 86
50 62 80
56 69 88
58 71 92
57 70 90
56 69 89
63 77 98
56 69 88
57 70 91
56 70 91
58 73 94
52 64 82
61 75 96
60 73 93
58 71 92
52 65 84
58 71 92
54 67 87
57 70 90
58 72 92
56 70 91
60 74 96
58 71 91
61 75 97
57 71 92
63 77 98
58 72 93
56 69 89
61 76 98
61 75 96
52 64 82
62 77 98
55 68 88
57 71 91
59 73 93
64 78 100
60 74 96
57 70 90
56 70 90
60 76 99
62 78 101
60 74 95
65 81 105
61 75 97
63 78 101
57 72 94
62 77 99
56 69 88
58 71 92
60 73 93
62 76 98
58 73 95
56 70 92
60 75 97
65 79 100
67 82 106
58 72 93
56 70 90
58 72 93
62 77 100
60 75 97
54 67 85
58 73 95
61 77 100
61 75 97
61 75 97
63 77 97
57 71 92
64 81 105
63 78 99
63 78 101
62 78 103
61 76 98
65 80 102
67 84 108
62 77 99
63 79 102
66 81 103
64 79 102
65 81 104
57 70 90
60 75 97
65 80 103
64 79 102
61 75 97
59 74 96
60 75 97
55 68 88
60 75 97
59 75 97
62 77 100
67 82 106
58 73 94
67 83 108
61 76 99
59 73 95
62 77 100
69 85 110
63 78 102
63 78 100
62 78 102
62 78 101
63 79 102
64 79 102
62 78 102
64 81 106
60 74 96
68 84 108
65 80 104
67 83 107
67 82 106
66 81 104
64 80 105
63 78 100
67 82 105
66 81 105
66 82 106
66 81 105
63 78 101
62 77 100
64 79 102
59 74 97
66 81 104
62 77 101
64 79 102
70 86 109
58 72 93
66 82 105
65 80 104
64 80 104
64 79 103
64 79 102
64 80 104
66 82 107
66 82 105
66 82 107
65 81 105
64 80 104
64 80 103
70 87 113
63 79 103
65 81 104
65 80 103
65 81 106
67 84 108
67 84 110
64 80 103
67 83 107
65 81 105
63 78 102
66 81 103
61 78 103
66 82 106
63 79 102
67 83 107
65 81 105
66 83 108
63 77 100
67 82 106
69 85 110
62 76 98
64 79 103
64 80 103
63 79 103
65 80 104
66 83 109
64 80 103
68 84 109
64 80 104
62 77 99
64 80 103
65 81 105
64 79 103
64 80 104
62 76 98
62 78 101
69 86 112
66 81 104
63 79 104
64 80 103
65 80 103
64 79 103
64 80 103
65 81 105
62 77 99
64 80 103
63 79 103
64 79 101
59 72 93
64 80 104
63 78 100
66 82 105
64 79 102
68 83 106
62 78 100
65 80 103
64 79 101
61 76 98
61 76 99
65 80 103
66 82 106
63 78 100
59 74 96
64 79 101
62 77 99
66 82 105
65 80 103
58 72 94
61 76 98
64 79 103
59 73 95
66 80 102
60 74 95
62 77 99
59 74 97
64 79 102
61 77 100
59 73 94
62 76 98
70 86 110
67 83 108
62 78 102
59 73 94
58 72 93
66 81 105
63 76 97
69 85 109
63 79 102
65 81 104
63 77 99
58 72 93
62 77 100
63 78 100
61 76 98
63 79 101
59 73 94
58 72 93
53 66 85
67 83 107
56 70 90
61 75 97
63 77 99
65 80 103
63 78 102
63 78 101
53 66 85
58 72 93
62 77 100
59 73 94
61 76 97
52 64 84
59 73 96
63 77 99
61 75 96
58 72 93
64 79 101
62 77 101
59 74 95
57 71 91
55 68 88
60 74 96
56 69 89
56 69 89
61 76 99
62 77 99
61 76 98
60 75 96
60 75 96
59 72 93
53 65 82
60 74 94
61 75 98
60 74 95
59 73 93
54 67 86
60 74 96
53 65 83
55 69 89
56 69 89
58 71 90
59 73 93
60 73 93
61 75 96
63 78 100
60 74 95
57 70 89
53 66 86
55 68 88
51 63 80
55 67 85
55 68 88
59 73 94
57 71 91
63 77 97
55 67 86
51 63 82
57 70 90
54 66 84
52 65 84
52 63 81
59 72 92
56 69 88
58 71 92
58 72 93
58 71 91
56 69 89
56 68 87
51 63 80
57 69 87
58 71 91
49 61 78
54 66 85
55 68 86
59 72 91
55 67 84
51 62 80
53 65 84
51 63 80
55 67 86
55 68 87
55 68 87
51 63 81
55 67 85
54 66 84
53 65 83
52 66 85
52 64 82
60 73 93
55 67 85
54 67 86
50 61 78
52 64 82
53 64 82
58 71 90
53 65 84
52 65 84
50 61 78
59 73 93
52 64 82
55 68 87
61 74 93
49 59 75
61 75 95
57 70 90
54 67 87
55 68 88
54 66 84
54 67 86
53 65 82
55 67 86
52 64 82
55 68 88
51 63 81
57 70 90
46 57 74
51 62 79
52 64 82
54 66 84
55 68 86
51 62 79
59 72 93
56 69 88
57 70 89
60 73 92
52 63 81
53 66 84
56 70 90
58 70 89
56 70 90
57 70 90
56 69 88
57 70 89
53 65 82
50 61 78
54 67 86
55 67 85
56 69 87
54 67 87
49 60 76
57 71 91
51 63 81
54 66 83
52 64 80
58 71 91
52 65 85
55 68 87
52 64 82
57 70 89
53 66 85
54 66 85
53 66 84
55 67 86
52 64 82
56 69 89
51 64 83
61 74 94
54 65 83
57 70 90
59 73 94
57 70 90
52 63 80
52 64 83
61 75 96
57 71 91
61 75 96
56 70 90
58 72 93
62 77 99
53 65 84
58 72 92
55 67 86
58 71 90
61 75 96
56 69 88
60 73 92
54 67 87
52 64 81
61 75 97
55 68 87
58 70 88
55 68 88
57 71 92
56 69 87
60 75 96
55 69 89
56 70 91
64 79 101
54 67 86
61 74 94
62 77 98
60 74 95
62 76 96
58 71 92
61 75 97
63 77 98
59 74 97
61 75 96
60 75 96
52 65 84
60 74 96
63 79 102
56 70 90
61 76 99
56 69 88
59 73 94
63 78 100
54 67 87
59 73 95
62 77 98
57 71 92
58 73 94
53 66 86
57 71 93
58 72 93
62 77 99
63 78 100
63 78 101
63 78 100
59 73 93
60 73 94
61 76 98
65 81 105
61 75 98
63 78 102
61 76 99
68 84 107
64 80 104
61 77 99
64 79 103
65 80 102
62 77 99
61 76 99
63 78 102
60 74 95
62 76 98
62 78 101
57 71 92
61 77 99
61 75 96
61 77 100
60 74 96
64 79 101
62 77 99
63 77 98
62 77 100
62 77 100
65 80 103
65 81 105
59 73 95
59 73 93
61 76 99
59 74 96
64 79 101
60 76 101
66 81 105
65 79 101
68 85 110
65 81 104
63 79 102
62 76 99
64 78 101
67 83 107
65 81 104
63 78 102
64 80 103
61 76 100
67 83 106
63 79 104
61 75 97
63 78 101
62 76 96
66 82 107
62 77 100
63 78 101
63 79 101
64 80 105
62 78 101
66 82 107
64 80 105
64 80 104
63 79 102
65 82 107
61 76 98
64 81 105
59 75 98
66 82 106
61 77 100
61 77 100
66 82 107
65 80 102
64 80 103
67 84 109
61 76 99
64 79 102
61 76 98
66 82 106
65 80 103
64 79 103
69 87 113
65 80 103
64 80 103
67 84 108
66 81 104
67 83 108
67 82 104
65 81 105
70 86 111
67 84 109
68 85 111
63 79 104
64 79 102
62 77 100
62 78 102
62 77 100
65 81 105
64 78 99
65 80 104
67 83 107
67 84 110
65 80 103
64 80 105
60 75 97
67 82 105
64 80 103
61 77 99
62 78 101
61 75 97
64 79 102
62 78 101
66 81 105
67 83 107
63 78 102
65 81 104
63 79 102
64 79 101
64 79 101
60 75 98
67 83 106
65 81 105
64 80 105
64 80 104
66 82 106
58 72 93
60 74 96
61 77 100
57 72 94
64 80 104
61 76 98
58 73 95
66 82 105
66 81 105
64 78 101
62 77 101
61 76 99
61 75 97
57 72 95
66 80 102
59 74 96
61 76 98
60 74 95
64 79 102
65 81 105
65 80 103
64 78 100
61 76 99
64 79 102
59 74 96
63 78 100
64 80 104
63 78 100
67 83 106
62 77 99
57 72 93
66 81 104
62 77 101
60 75 97
58 72 94
63 78 100
66 81 105
62 77 100
58 72 94
59 73 95
63 79 104
62 77 99
60 74 96
64 80 104
63 77 99
63 78 100
66 81 104
61 76 99
65 80 101
61 74 95
59 73 94
61 75 97
59 73 94
63 78 100
61 76 99
55 70 92
61 76 99
57 70 91
59 73 94
57 71 91
59 73 95
63 77 100
60 74 95
60 74 95
63 77 99
59 74 95
64 78 100
59 73 93
61 76 97
59 73 94
54 67 86
61 75 96
64 78 100
59 74 96
51 64 84
57 71 92
59 73 95
61 76 99
61 75 96
60 76 99
59 73 93
59 72 93
59 73 95
60 73 94
61 76 98
59 73 95
59 72 93
62 76 97
63 77 98
58 71 92
62 76 97
62 77 100
58 72 93
57 70 89
59 73 94
55 68 88
62 76 96
58 72 92
57 71 93
56 69 89
55 67 85
60 74 95
57 70 90
55 69 89
62 75 95
59 73 94
55 68 86
53 66 85
57 71 92
57 70 90
54 66 85
56 70 90
52 65 83
57 70 90
54 66 84
53 65 84
55 68 88
56 69 88
52 65 84
55 68 86
53 66 85
54 67 86
53 66 84
57 70 90
53 65 84
59 72 92
57 69 88
55 67 85
59 73 95
52 65 84
60 73 93
48 59 76
54 67 85
61 75 96
57 70 90
56 68 87
59 73 93
52 63 81
61 75 96
51 64 82
53 66 86
52 64 83
51 63 81
52 64 83
51 62 79
54 66 84
58 72 93
53 65 83
57 70 90
51 62 80
51 63 81
53 66 84
57 70 89
62 76 96
53 65 83
49 60 76
53 65 83
62 76 99
57 70 89
60 74 94
58 72 92
54 66 83
59 73 93
51 63 81
58 72 92
60 73 94
50 62 79
58 72 93
56 69 89
56 69 88
61 75 96
57 70 90
55 68 87
52 65 84
52 64 81
52 64 82
55 68 88
59 72 92
51 63 81
59 71 90
54 66 83
53 65 83
50 62 79
53 66 85
55 67 85
53 66 84
55 68 87
52 64 82
55 67 86
54 66 84
57 71 90
48 59 76
51 62 79
49 61 77
54 66 85
49 60 77
52 64 81
61 74 94
57 70 89
57 71 91
58 71 90
60 74 94
56 69 89
53 66 86
57 70 90
53 65 84
55 68 88
51 63 82
56 69 88
49 61 78
54 66 84
55 67 86
57 70 88
57 70 91
57 70 88
53 65 83
61 75 95
59 73 94
57 71 90
55 68 88
55 68 87
55 68 87
54 67 87
52 63 81
50 62 80
60 75 97
55 68 88
57 70 89
61 74 94
57 70 90
60 73 94
55 69 89
60 74 95
59 73 93
55 68 87
53 65 83
56 70 90
59 73 94
59 73 94
58 72 93
59 73 93
59 73 95
58 72 93
55 68 88
59 73 94
57 70 90
51 64 83
57 71 90
59 73 94
57 71 91
57 71 92
61 74 93
57 70 89
56 69 88
61 75 96
60 75 96
61 75 97
58 72 94
55 69 88
58 72 93
59 73 95
64 80 104
60 74 95
61 75 97
56 69 89
60 75 98
56 70 90
60 73 94
59 74 96
60 75 97
63 77 99
53 67 86
65 80 103
60 75 96
61 75 97
64 79 102
62 78 101
61 76 100
60 75 96
65 79 101
58 72 92
63 78 100
56 69 89
53 67 87
62 76 98
58 73 94
60 75 97
58 71 91
64 79 101
60 75 97
65 81 105
61 75 97
63 79 102
60 74 96
63 79 102
61 76 99
63 78 101
61 75 96
62 76 98
65 80 102
59 73 95
62 77 100
65 80 102
64 81 105
64 79 103
62 77 99
63 78 100
63 79 103
63 78 102
67 84 110
63 78 101
59 74 95
61 75 98
67 85 111
61 77 100
61 77 101
66 82 106
60 74 96
60 75 97
62 77 101
62 78 101
65 80 104
60 74 95
62 78 102
65 81 104
63 78 102
65 82 107
59 74 95
66 81 105
63 79 102
60 75 97
63 79 103
62 77 100
62 77 100
59 75 98
60 76 99
65 80 103
68 84 109
63 79 103
62 77 99
63 79 103
61 76 99
69 85 109
63 79 102
69 87 114
66 82 106
66 82 106
58 73 95
65 81 104
66 83 107
61 77 100
65 81 105
67 83 107
66 82 107
65 80 102
57 71 92
65 80 103
65 81 105
69 85 110
67 84 110
63 78 101
65 80 104
67 84 108
66 82 106
63 79 102
68 84 109
67 84 110
65 80 104
62 77 100
65 83 109
64 80 104
66 82 105
65 81 104
64 80 103
63 79 102
63 79 102
60 73 94
63 80 104
69 86 110
67 83 106
62 78 102
64 80 103
67 83 107
65 81 105
68 84 108
58 71 91
68 84 108
70 86 112
65 81 105
65 81 105
68 84 109
65 81 105
62 76 98
69 86 110
62 77 99
63 79 102
62 77 99
66 81 104
59 73 95
67 84 108
65 81 105
66 81 103
64 80 103
63 79 102
60 75 98
67 83 107
61 76 98
63 79 103
65 81 105
63 79 102
63 79 102
64 79 102
63 79 103
63 78 101
63 78 101
63 78 101
61 76 98
62 77 99
60 75 97
63 78 100
64 80 103
64 79 102
63 78 101
62 77 100
62 77 99
65 81 104
68 83 106
63 79 103
61 76 98
56 70 90
58 73 97
63 77 97
67 85 111
59 74 96
63 78 100
63 77 98
71 87 112
62 76 99
63 78 100
62 77 99
61 75 96
63 78 102
63 78 102
58 71 91
59 74 96
59 74 96
56 69 89
61 76 99
64 80 104
60 74 96
63 78 100
67 83 107
57 71 91
61 75 96
48 61 81
55 69 88
57 71 92
62 77 100
59 73 94
58 72 93
63 77 97
64 79 102
63 78 101
61 75 97
62 77 98
57 71 92
63 78 100
58 72 93
59 74 96
57 71 91
64 79 102
55 69 90
64 79 101
61 75 95
59 72 91
65 80 102
60 74 95
59 73 94
58 72 91
59 73 93
60 74 95
64 79 102
62 77 99
62 76 98
57 70 90
62 76 98
50 61 78
58 72 93
57 69 88
58 72 94
60 74 96
53 66 84
62 77 99
60 74 94
62 75 96
55 67 87
60 74 95
51 64 82
58 72 92
54 67 86
54 66 84
57 71 91
60 74 94
52 65 85
58 72 92
58 71 91
56 70 90
56 68 86
55 67 85
59 72 93
52 64 83
62 76 98
59 73 94
52 65 84
55 68 87
55 69 88
54 66 84
57 70 91
58 70 89
50 62 80
53 66 85
54 67 85
53 65 83
56 68 86
52 65 84
53 65 83
59 72 92
52 64 81
57 71 93
54 66 85
57 71 91
55 68 88
54 66 84
58 71 91
55 67 86
51 62 79
51 63 81
55 67 87
52 65 83
50 61 79
53 65 84
58 71 91
57 70 90
51 63 81
56 68 87
57 70 89
56 69 89
52 64 81
56 69 89
52 64 82
63 78 101
60 74 94
52 63 81
54 66 84
54 66 85
55 68 86
55 68 87
48 60 78
55 68 88
54 67 86
59 71 90
48 59 76
55 67 86
56 68 86
60 73 94
52 64 82
55 66 84
49 60 77
49 60 77
51 62 79
52 64 83
56 69 89
49 59 75
52 64 81
54 66 84
54 67 85
54 67 85
56 69 88
49 61 78
55 68 87
56 70 89
49 60 77
53 66 86
54 67 86
57 71 91
55 68 88
54 67 85
60 74 95
60 74 94
55 68 87
59 72 92
53 65 83
53 66 85
58 71 90
49 62 80
54 68 87
53 66 84
58 71 91
56 68 87
53 65 83
51 62 80
56 68 87
55 68 88
54 66 85
55 68 88
57 69 88
53 65 84
51 63 81
57 71 93
54 67 86
57 70 89
55 67 85
58 72 93
58 72 93
60 73 93
59 72 91
57 70 89
53 66 85
61 75 97
56 70 90
53 66 86
56 69 88
53 65 85
56 68 87
51 63 80
57 69 88
61 75 96
55 67 85
60 75 97
59 73 93
62 77 98
61 75 96
60 74 94
58 71 91
55 68 86
59 72 93
59 73 93
56 69 88
66 81 102
59 73 94
61 75 96
61 75 96
62 76 97
63 77 99
58 70 88
57 71 91
57 70 90
59 73 94
59 73 94
55 68 88
58 72 93
58 72 94
59 73 94
57 70 89
63 77 99
59 74 96
61 75 96
54 66 86
60 74 96
62 77 99
57 70 90
62 77 99
62 77 98
61 75 97
65 80 103
61 76 99
58 73 95
59 73 94
64 79 101
62 77 99
62 76 98
57 72 94
65 80 103
61 76 98
62 76 98
55 70 91
61 76 97
65 81 104
63 77 98
59 73 95
62 76 98
61 75 96
59 73 94
61 76 99
58 73 96
58 71 92
54 68 88
60 74 96
59 72 93
60 74 95
62 77 99
65 81 105
62 76 99
62 77 98
65 81 104
55 68 89
57 72 93
59 73 94
61 76 99
66 81 105
64 79 102
66 82 105
63 77 98
60 75 96
65 81 106
57 72 93
59 74 97
61 75 96
65 81 105
65 80 103
65 80 103
59 73 94
66 82 106
60 75 97
65 80 103
67 83 108
64 80 104
67 83 107
65 81 104
69 86 112
66 81 104
62 78 102
61 76 99
63 78 100
67 83 107
65 80 103
63 78 101
61 77 100
68 85 109
65 82 106
63 78 101
66 83 107
66 81 104
67 83 107
67 84 108
68 85 110
63 79 102
67 83 108
67 83 107
63 78 100
64 80 104
58 72 94
62 77 99
59 74 97
68 85 110
63 78 102
67 83 108
63 78 101
64 79 101
65 80 104
59 74 96
69 85 109
61 75 96
63 80 104
66 82 107
61 77 100
60 75 97
64 80 104
65 80 102
67 83 108
65 81 106
68 84 109
63 78 101
62 77 99
66 81 104
68 85 110
62 78 101
63 78 101
64 81 105
65 81 105
66 83 108
67 84 110
63 79 102
65 81 104
66 82 107
64 79 102
62 77 99
66 82 105
66 82 107
62 77 100
62 77 101
66 81 105
65 80 103
63 78 100
58 73 96
65 82 107
63 79 103
65 80 104
65 80 102
60 75 97
64 79 103
63 79 102
67 83 109
65 80 104
68 84 107
63 78 101
66 81 104
58 73 95
61 77 100
63 79 104
64 79 102
63 79 102
61 76 99
61 76 99
65 80 103
66 82 106
63 78 100
64 80 104
64 78 100
63 77 99
66 82 105
67 84 109
66 81 105
62 77 100
60 75 98
62 77 99
59 74 96
59 74 96
65 81 106
60 74 95
65 82 107
64 80 103
66 81 104
61 75 97
63 78 101
63 77 100
63 78 100
66 81 103
64 80 104
66 80 103
59 74 97
62 78 100
57 71 91
61 76 99
62 76 98
63 77 99
59 73 95
62 77 99
56 70 90
62 78 101
59 74 95
61 75 97
62 77 99
60 74 96
63 78 101
59 72 92
61 75 97
65 80 102
59 73 94
56 70 90
64 79 101
58 72 94
61 76 98
57 71 92
63 78 102
58 72 94
64 79 101
56 70 90
62 77 100
59 73 94
63 78 101
57 70 90
57 71 91
64 79 101
61 76 97
65 80 102
65 81 106
60 74 95
64 79 102
57 71 93
58 72 92
60 75 96
55 68 88
59 73 93
58 72 93
56 70 90
59 73 94
65 80 103
64 78 100
55 68 87
56 70 89
58 72 93
55 68 87
60 74 95
57 71 92
57 70 90
57 70 91
61 75 96
57 69 88
59 73 94
56 70 90
56 69 89
55 68 88
53 67 87
60 73 93
58 71 91
52 65 84
56 70 90
58 72 92
58 72 94
60 74 94
51 63 82
49 61 79
57 70 91
57 70 89
51 63 82
59 73 94
51 63 81
60 73 94
57 70 89
57 70 90
52 64 82
59 73 94
58 72 92
53 66 85
55 68 88
53 67 87
58 72 92
56 68 86
55 67 86
57 70 90
47 59 76
55 68 86
57 70 91
55 67 86
58 71 91
56 68 87
57 70 90
58 72 92
55 67 87
53 65 84
63 77 99
58 71 90
57 70 89
52 65 83
61 76 97
50 63 81
53 66 85
56 69 89
55 69 89
58 71 92
54 66 84
60 74 95
54 66 84
59 73 93
55 67 86
52 64 82
55 68 87
55 68 86
51 63 80
53 65 83
57 69 87
53 65 83
51 62 79
60 74 93
58 71 91
51 63 80
54 67 87
54 67 85
53 66 85
52 65 84
56 69 88
56 69 89
57 69 88
54 67 87
51 63 81
49 61 78
58 71 90
58 72 92
57 71 91
57 69 88
52 65 83
54 66 84
58 72 92
54 66 83
55 68 89
52 65 83
53 65 84
58 71 91
56 69 88
53 66 85
52 65 83
48 60 78
54 67 86
53 65 83
57 70 89
57 70 89
47 58 75
62 76 97
53 65 82
63 77 98
48 58 74
52 64 83
49 60 78
54 66 84
56 69 88
56 70 90
57 70 89
56 69 89
55 67 87
59 73 93
55 67 85
61 74 95
57 70 90
57 70 90
59 73 95
58 72 93
59 73 93
52 65 84
56 69 89
56 69 88
55 67 86
58 72 94
57 70 90
62 77 98
52 65 83
55 67 86
54 66 85
53 66 86
54 67 85
56 70 91
58 71 92
58 71 92
54 67 87
55 68 87
54 68 88
58 72 92
59 72 93
52 64 82
57 71 91
60 74 95
52 64 83
52 64 82
56 69 89
57 72 93
65 80 102
54 67 86
57 71 92
62 76 98
61 75 96
57 71 91
57 71 92
60 73 93
58 72 94
57 71 91
59 72 92
60 74 95
58 71 91
59 73 93
59 73 93
54 67 87
62 76 97
58 72 94
64 79 102
63 77 99
61 75 97
58 72 93
60 74 95
58 73 94
65 80 101
60 72 91
56 69 89
60 75 97
58 71 91
61 75 95
60 73 94
61 76 99
57 70 90
58 71 91
56 69 88
59 73 95
61 75 96
61 76 99
60 75 97
61 76 99
58 71 91
58 73 96
56 69 90
61 76 99
56 69 89
61 76 100
64 80 103
61 75 97
62 77 99
58 71 91
60 74 96
60 75 99
63 78 101
63 78 102
62 78 101
61 75 97
59 73 94
64 80 103
61 76 99
65 79 102
59 73 94
59 74 96
61 75 96
58 73 95
62 78 101
60 75 97
61 76 98
60 74 94
59 74 95
66 82 106
58 73 94
57 72 94
63 78 100
67 82 105
64 78 101
64 80 102
64 80 104
64 79 100
64 79 101
63 78 100
67 82 106
63 77 99
65 80 104
61 75 97
60 76 100
62 78 102
67 82 105
61 76 98
62 78 101
61 76 98
63 77 99
64 78 100
68 84 108
63 79 102
65 81 105
64 80 103
59 74 95
65 81 104
65 81 106
63 78 101
65 81 105
65 82 107
64 79 103
65 81 105
65 81 106
65 81 105
66 82 105
62 77 99
65 80 104
68 86 113
68 85 110
65 79 101
59 74 97
59 73 95
58 73 94
68 83 107
68 85 109
72 89 114
64 80 104
64 80 104
64 79 102
64 78 100
66 81 103
66 82 106
63 78 100
61 76 98
67 85 111
68 84 108
65 80 104
65 81 106
63 79 104
